<?xml version="1.0" encoding="UTF-8"?>
<map version="1.10" tiledversion="1.12.2" orientation="orthogonal" renderorder="right-down" width="50" height="50" tilewidth="16" tileheight="16" infinite="0" nextlayerid="3" nextobjectid="150">
 <editorsettings>
  <export target="Images/maps/mapa.json" format="json"/>
 </editorsettings>
 <tileset firstgid="1" name="Graminha" tilewidth="16" tileheight="16" tilecount="350" columns="25">
  <image source="Images/GRASS+.png" width="400" height="224"/>
 </tileset>
 <layer id="1" name="Camada de Blocos 1" width="50" height="50">
  <data encoding="csv">
59,59,59,59,59,59,59,59,59,59,59,59,59,59,59,59,59,59,59,59,59,59,59,59,59,59,59,59,59,59,59,59,59,2,2,59,59,59,59,59,59,59,59,59,59,59,59,59,59,59,
59,59,59,59,59,59,59,59,59,59,59,59,59,59,59,59,59,59,59,59,59,59,59,59,59,59,59,59,59,59,59,59,59,2,2,59,59,59,59,315,315,315,315,315,315,315,315,315,59,59,
59,59,59,59,59,59,59,59,59,59,59,59,59,59,59,59,59,59,59,59,59,59,59,59,59,59,59,59,59,59,59,59,59,2,2,59,59,59,315,315,315,315,315,315,315,315,315,315,59,59,
59,59,59,59,59,59,59,59,59,59,59,59,59,59,59,59,59,59,59,59,59,59,59,59,59,59,59,59,59,59,59,59,59,2,2,59,59,59,315,315,315,315,315,315,315,315,315,315,59,59,
59,59,59,59,59,59,59,59,59,59,59,59,59,59,59,59,59,59,59,59,59,59,59,59,59,59,59,59,59,59,59,59,59,2,2,59,59,59,315,315,315,315,315,315,315,315,315,315,59,59,
59,59,59,59,59,59,59,59,59,59,59,59,59,59,59,59,59,59,59,59,59,59,59,59,59,59,59,59,59,59,59,59,59,2,2,59,59,59,59,59,315,315,315,315,315,315,315,315,59,59,
59,59,59,59,59,59,59,59,59,59,59,59,59,59,59,59,59,59,59,59,59,59,59,59,59,59,59,59,59,59,59,59,2,2,2,59,59,59,59,59,59,315,315,315,315,315,315,315,59,59,
2,2,59,59,59,59,59,59,59,59,59,59,59,59,59,59,59,59,59,59,59,59,59,59,59,59,59,59,59,59,59,2,2,2,59,59,59,59,59,59,59,315,315,315,315,315,315,315,59,59,
2,2,2,2,2,2,2,59,59,59,59,59,59,59,59,59,59,59,59,59,59,59,59,59,59,59,59,59,59,59,2,2,2,59,59,59,59,59,59,59,59,315,315,315,315,315,315,315,59,59,
59,2,2,2,2,2,2,2,2,2,59,59,59,59,59,59,59,59,59,59,59,59,59,59,59,59,59,59,59,2,2,2,59,59,59,59,59,59,59,59,59,59,315,315,315,315,315,315,59,59,
59,59,59,59,59,2,2,2,2,2,2,2,59,59,59,59,59,59,59,59,59,59,59,59,59,59,59,59,2,2,2,2,59,59,59,59,59,59,59,59,59,59,315,315,315,315,315,315,59,59,
59,59,59,59,59,59,59,59,2,2,2,2,2,2,59,59,59,59,59,59,59,59,59,59,59,59,2,2,2,2,2,59,59,59,59,59,59,59,59,59,59,59,59,315,315,315,315,315,59,59,
59,59,59,59,59,59,59,59,59,59,2,2,2,2,2,2,2,2,2,2,2,2,2,2,2,2,2,2,2,59,59,59,59,59,59,59,59,59,59,59,59,59,59,59,315,315,315,59,59,59,
59,59,59,59,59,59,59,59,59,59,59,59,59,2,2,2,2,2,2,2,2,2,2,2,2,2,2,2,2,59,59,59,59,59,59,59,59,59,59,59,59,59,59,59,59,59,59,59,59,59,
59,59,59,59,59,59,59,59,59,59,59,59,59,59,59,59,59,59,59,59,59,59,2,2,59,59,59,59,59,59,59,59,59,59,59,59,59,59,59,59,59,59,59,59,59,59,59,59,59,59,
59,59,59,59,59,59,59,59,59,59,59,59,59,59,59,59,59,59,59,59,59,59,2,2,59,59,59,59,59,59,59,59,59,59,59,59,59,59,59,59,59,59,59,59,59,59,59,59,59,59,
59,59,59,59,59,59,59,59,59,59,59,59,59,59,59,59,59,59,59,59,59,59,2,2,59,59,59,59,59,59,59,59,59,59,59,59,59,59,59,59,59,59,59,59,59,59,59,59,59,59,
59,59,59,59,59,59,59,59,59,59,59,59,59,59,59,59,59,59,59,59,59,59,2,2,59,59,59,59,59,59,59,59,59,59,59,59,59,59,59,59,59,59,59,59,59,59,2,2,2,2,
59,59,59,59,59,59,59,59,59,59,59,59,59,59,59,59,59,59,59,59,59,59,2,2,59,59,59,59,59,59,59,59,59,59,59,59,59,59,59,59,59,59,2,2,2,2,2,2,2,2,
59,59,59,59,59,59,59,59,59,59,59,59,59,59,59,59,59,59,59,59,59,59,2,2,59,59,59,59,59,59,59,59,59,59,59,59,59,2,2,2,2,2,2,2,2,2,2,2,2,59,
59,59,59,59,59,59,59,59,59,59,59,59,59,59,59,59,59,59,59,59,59,59,2,2,59,59,59,59,59,59,59,59,59,2,2,2,2,2,2,2,2,2,2,2,2,2,59,59,59,59,
59,59,59,59,59,59,2,2,59,59,59,59,59,59,59,59,59,59,59,59,59,59,2,2,59,59,59,59,59,59,59,2,2,2,2,2,2,2,2,59,59,59,59,59,59,59,59,59,59,59,
59,59,59,59,59,2,2,2,2,59,59,59,59,59,59,59,59,59,59,59,59,2,2,2,2,2,2,59,59,59,2,2,2,2,2,59,59,59,59,59,59,59,59,59,59,59,59,59,59,59,
59,59,59,59,59,2,2,2,2,2,2,2,2,59,59,59,59,59,59,2,2,2,2,2,2,2,2,2,2,2,2,2,2,59,59,59,59,59,59,59,59,59,59,59,59,59,59,59,59,59,
59,59,59,59,59,2,2,2,59,59,2,2,2,2,2,59,59,59,2,2,2,2,2,2,2,2,2,2,2,2,2,59,59,59,59,59,59,59,59,59,59,59,59,59,59,59,59,59,59,59,
59,59,59,59,59,2,2,59,59,59,59,59,2,2,2,2,2,59,2,2,2,2,2,2,2,2,2,2,59,59,59,59,59,59,59,59,59,59,59,59,59,59,59,59,59,59,59,59,59,59,
59,59,59,59,2,2,2,59,59,59,59,59,59,59,2,2,2,2,2,2,2,2,2,2,2,2,2,2,59,59,59,59,59,59,59,59,59,59,59,59,59,59,59,59,59,59,59,59,59,59,
59,59,59,59,2,2,59,59,59,59,59,59,59,59,59,59,59,2,2,2,2,2,2,2,2,2,2,2,59,59,59,59,59,59,59,59,59,59,59,59,59,59,59,59,59,59,59,59,59,59,
59,59,59,59,2,2,59,59,59,59,59,59,59,59,59,59,59,2,2,2,2,2,2,2,2,2,2,2,59,59,59,59,59,59,59,59,59,59,59,59,59,59,59,59,59,59,59,59,59,59,
59,59,59,59,2,2,59,59,59,59,59,59,59,59,59,59,59,2,2,2,2,2,2,2,2,2,2,2,59,59,59,59,59,59,59,59,59,59,59,59,59,59,59,59,59,59,59,59,59,59,
59,59,59,59,2,2,59,59,59,59,59,59,59,59,59,59,59,2,2,2,2,2,2,2,2,2,2,2,59,59,59,59,59,59,59,59,59,59,59,59,59,59,59,59,59,59,59,59,59,59,
59,59,59,59,2,2,59,59,59,59,59,59,59,59,59,59,59,59,2,2,2,2,2,2,2,2,2,2,59,59,59,59,59,59,59,59,59,59,59,59,59,59,59,59,59,59,59,59,59,59,
59,59,59,59,2,2,59,59,59,59,59,59,59,59,59,59,59,59,2,2,2,2,2,2,2,2,2,2,2,59,59,59,59,59,59,59,59,59,59,59,59,59,59,59,59,59,59,59,59,59,
59,59,59,59,2,2,59,59,59,59,59,59,59,59,59,59,59,59,59,59,2,2,2,2,59,59,2,2,2,2,59,59,59,59,59,59,59,59,59,59,59,59,59,59,59,59,59,59,59,59,
59,59,59,59,2,2,59,59,59,59,59,59,59,59,59,59,59,59,59,59,2,59,59,59,59,59,59,2,2,2,59,59,59,59,59,59,59,59,59,59,59,59,59,59,59,59,59,59,59,59,
59,59,59,59,2,2,59,59,59,59,59,59,59,59,59,59,59,59,59,59,59,59,59,59,59,59,59,59,2,2,2,59,59,59,59,59,59,59,59,59,59,59,59,59,59,59,59,59,59,59,
59,59,59,59,59,2,2,59,59,59,59,59,59,59,59,59,59,59,59,59,59,59,59,59,59,59,59,59,2,2,2,59,59,59,59,59,59,59,59,59,59,59,59,59,59,59,59,59,59,59,
59,59,59,59,59,2,2,59,59,59,59,59,59,59,59,59,59,59,59,59,59,59,59,59,59,59,59,59,59,2,2,2,59,59,59,59,59,59,59,59,59,59,59,59,59,59,59,59,59,59,
59,59,59,59,59,2,2,59,59,59,59,59,59,59,59,59,59,59,59,59,59,59,59,59,59,59,59,59,59,2,2,2,59,59,59,59,59,59,59,59,59,59,59,59,59,59,59,59,59,59,
59,59,59,59,59,2,2,2,59,59,59,59,59,59,59,59,59,59,2,59,59,59,59,59,59,59,59,59,59,2,2,2,59,59,59,59,59,59,59,59,59,59,59,59,59,59,59,59,59,59,
59,59,59,59,59,2,2,2,59,59,59,59,59,59,59,59,59,2,2,2,59,59,59,59,59,59,59,59,59,2,2,2,59,59,59,59,59,59,59,59,59,59,59,59,59,59,59,59,59,59,
59,59,59,59,59,2,2,2,2,59,59,59,59,59,59,2,2,2,2,2,2,59,59,59,59,59,59,59,59,2,2,2,2,59,59,59,59,59,59,59,59,59,59,59,59,59,59,59,59,59,
59,59,59,59,59,59,2,2,2,2,59,59,59,59,2,2,2,2,59,2,2,2,59,59,59,59,59,59,59,59,2,2,2,59,59,59,59,59,59,59,59,59,59,59,59,59,59,59,59,59,
59,59,59,59,59,59,59,2,2,2,2,2,2,2,2,2,2,59,59,2,2,2,59,59,59,59,59,59,59,59,2,2,2,59,59,59,59,59,59,59,59,59,59,59,59,59,59,59,59,59,
59,59,59,59,59,59,59,59,59,2,2,2,2,2,2,2,59,59,59,59,2,2,59,59,59,59,59,59,59,59,59,2,2,2,59,59,59,59,59,59,59,59,59,59,59,59,59,59,59,59,
59,59,59,59,59,59,59,59,59,59,59,59,59,59,59,59,59,59,59,59,2,2,2,59,59,59,59,59,59,59,59,2,2,2,2,59,59,59,59,59,59,59,59,59,59,59,59,59,59,59,
59,59,59,59,59,59,59,59,59,59,59,59,59,59,59,59,59,59,59,59,2,2,2,59,59,59,59,59,59,59,59,59,2,2,2,59,59,59,59,59,59,59,59,59,59,59,59,59,59,59,
59,59,59,59,59,59,59,59,59,59,59,59,59,59,59,59,59,59,59,59,2,2,2,59,59,59,59,59,59,59,59,59,59,2,2,59,59,59,59,59,59,59,59,59,59,59,59,59,59,59,
59,59,59,59,59,59,59,59,59,59,59,59,59,59,59,59,59,59,59,59,2,2,2,59,59,59,59,59,59,59,59,59,59,2,2,2,59,59,59,59,59,59,59,59,59,59,59,59,59,59,
59,59,59,59,59,59,59,59,59,59,59,59,59,59,59,59,59,59,59,59,59,2,2,2,2,59,59,59,59,59,59,59,59,2,2,2,2,59,59,59,59,59,59,59,59,59,59,59,59,59
</data>
 </layer>
 <objectgroup draworder="index" id="2" name="Objetos">
  <object id="24" gid="311" x="410.667" y="336" width="16" height="16"/>
  <object id="25" gid="311" x="450" y="326.667" width="16" height="16"/>
  <object id="26" gid="311" x="422.667" y="302.667" width="16" height="16"/>
  <object id="27" gid="311" x="419.333" y="266.667" width="16" height="16"/>
  <object id="28" gid="311" x="486" y="254.667" width="16" height="16"/>
  <object id="29" gid="311" x="489.333" y="288.667" width="16" height="16"/>
  <object id="30" gid="311" x="456" y="290.667" width="16" height="16"/>
  <object id="31" gid="311" x="524.667" y="307.333" width="16" height="16"/>
  <object id="32" gid="311" x="572" y="272" width="16" height="16"/>
  <object id="33" gid="311" x="532.667" y="250" width="16" height="16"/>
  <object id="34" gid="311" x="529.333" y="210.667" width="16" height="16"/>
  <object id="35" gid="311" x="526.667" y="280.667" width="16" height="16"/>
  <object id="36" gid="311" x="572" y="200.667" width="16" height="16"/>
  <object id="37" gid="311" x="552.667" y="172" width="16" height="16"/>
  <object id="38" gid="311" x="592" y="248" width="16" height="16"/>
  <object id="39" gid="311" x="623.333" y="280.667" width="16" height="16"/>
  <object id="40" gid="311" x="603.333" y="191.333" width="16" height="16"/>
  <object id="41" gid="331" x="630" y="234" width="16" height="16"/>
  <object id="42" gid="331" x="640" y="160" width="16" height="16"/>
  <object id="43" gid="331" x="577.333" y="118.667" width="16" height="16"/>
  <object id="44" gid="331" x="574" y="235.333" width="16" height="16"/>
  <object id="45" gid="331" x="506" y="222" width="16" height="16"/>
  <object id="46" gid="331" x="501.333" y="320" width="16" height="16"/>
  <object id="47" gid="331" x="444.667" y="257.333" width="16" height="16"/>
  <object id="53" gid="336" x="710" y="177.333" width="16" height="16"/>
  <object id="54" gid="336" x="674.667" y="143.333" width="16" height="16"/>
  <object id="55" gid="336" x="717.333" y="131.333" width="16" height="16"/>
  <object id="56" gid="336" x="748.667" y="158" width="16" height="16"/>
  <object id="57" gid="336" x="726" y="98.6667" width="16" height="16"/>
  <object id="58" gid="336" x="667.333" y="77.3333" width="16" height="16"/>
  <object id="62" gid="336" x="686" y="106" width="16" height="16"/>
  <object id="63" gid="336" x="736" y="38" width="16" height="16"/>
  <object id="64" gid="336" x="661.333" y="36.6667" width="16" height="16"/>
  <object id="65" gid="336" x="700.667" y="58.6667" width="16" height="16"/>
  <object id="66" gid="336" x="625.333" y="55.3333" width="16" height="16"/>
  <object id="112" x="418.909" y="259.273" width="17.4545" height="8"/>
  <object id="113" x="421.818" y="296.727" width="17.6364" height="5.45455"/>
  <object id="114" x="456.545" y="283.455" width="15.2727" height="7.09091"/>
  <object id="115" x="448.909" y="320" width="17.8182" height="6.90909"/>
  <object id="116" x="410.182" y="329.455" width="17.2727" height="6.90909"/>
  <object id="117" x="487.455" y="282.182" width="19.0909" height="6.36364"/>
  <object id="118" x="443.636" y="251.091" width="18.3636" height="6.54545"/>
  <object id="119" x="486" y="247.818" width="16.9091" height="6.54545"/>
  <object id="120" x="500" y="312.909" width="18.1818" height="7.81818"/>
  <object id="121" x="504.909" y="214.545" width="17.6364" height="8"/>
  <object id="122" x="528" y="203.818" width="19.0909" height="7.09091"/>
  <object id="123" x="531.273" y="242.545" width="19.6364" height="7.45455"/>
  <object id="124" x="525.636" y="272.909" width="18.1818" height="7.45455"/>
  <object id="125" x="523.818" y="299.636" width="17.4545" height="7.81818"/>
  <object id="126" x="571.091" y="265.091" width="18.5455" height="6.90909"/>
  <object id="127" x="591.273" y="240.545" width="17.6364" height="7.45455"/>
  <object id="128" x="573.273" y="227.455" width="16.9091" height="7.81818"/>
  <object id="129" x="570.727" y="192.909" width="18.1818" height="8"/>
  <object id="130" x="551.455" y="164.545" width="18.1818" height="6.72727"/>
  <object id="131" x="601.636" y="184.364" width="19.6364" height="6.54545"/>
  <object id="132" x="628.909" y="226.182" width="17.2727" height="7.63636"/>
  <object id="133" x="622.182" y="273.455" width="18.5455" height="6.90909"/>
  <object id="134" x="639.091" y="152" width="16.9091" height="7.81818"/>
  <object id="135" x="576" y="111.455" width="16.9091" height="7.09091"/>
  <object id="137" x="675.273" y="138.727" width="15.2727" height="6.72727"/>
  <object id="140" x="719.455" y="128.182" width="11.0909" height="4.18182"/>
  <object id="141" x="712.545" y="172.909" width="11.0909" height="5.45455"/>
  <object id="142" x="627.273" y="52.7273" width="12.1818" height="3.81818"/>
  <object id="143" x="663.818" y="32.1818" width="10.9091" height="6.18182"/>
  <object id="144" x="674.727" y="38.3636"/>
  <object id="145" x="669.091" y="73.6364" width="11.6364" height="5.45455"/>
  <object id="146" x="687.818" y="104" width="12" height="4.72727"/>
  <object id="147" x="728.364" y="94" width="11.4545" height="6.90909"/>
  <object id="148" x="703.091" y="54.5455" width="11.4545" height="6"/>
  <object id="149" x="738.182" y="34.9091" width="11.4545" height="6"/>
 </objectgroup>
</map>
