<?xml version="1.0" encoding="UTF-8"?>
<map version="1.10" tiledversion="1.11.2" orientation="orthogonal" renderorder="right-down" width="80" height="45" tilewidth="32" tileheight="32" infinite="0" nextlayerid="20" nextobjectid="610">
 <tileset firstgid="1" source="Tilesets/Desert-Tileset-cliff1-3T.tsx"/>
 <tileset firstgid="289" source="Tilesets/Desert-Tileset-cliff1-2T.tsx"/>
 <tileset firstgid="577" source="Tilesets/water-to-sand.tsx"/>
 <tileset firstgid="976" source="Tilesets/Terrain-Desert.tsx"/>
 <tileset firstgid="3507" source="Tilesets/props-sprites.tsx"/>
 <tileset firstgid="3859" source="Tilesets/props-houses-tents-sprites.tsx"/>
 <tileset firstgid="4002" source="Tilesets/props-tents-houses.tsx"/>
 <tileset firstgid="5872" source="Tilesets/Props.tsx"/>
 <layer id="1" name="sand-base" width="80" height="45">
  <data encoding="csv">
977,980,979,985,1063,982,980,982,982,986,986,983,983,985,981,986,977,1104,977,979,984,1104,986,979,984,982,977,986,1063,1063,980,1104,983,980,1147,984,1147,978,980,1105,1106,984,1104,1104,980,1106,983,1147,1104,984,984,985,981,1147,986,985,979,981,986,985,985,986,986,979,1063,1147,986,980,985,1147,1106,977,978,982,983,984,1147,1105,986,1147,
1106,980,1105,982,1105,1104,978,986,979,977,983,1104,1105,984,986,978,1063,981,981,979,985,980,981,1106,1106,979,982,985,986,986,1104,1105,1106,1105,983,979,1063,1063,1104,977,981,985,986,978,977,1105,1106,1104,979,1147,978,1105,986,980,982,980,1106,985,984,977,983,977,1104,983,984,982,1063,1147,977,1063,982,1063,980,1106,1147,1147,981,982,978,986,
980,979,1106,1106,986,980,980,979,982,1106,983,1147,1105,1147,984,981,986,1106,977,1147,1147,977,985,983,982,978,979,984,977,1106,981,982,980,979,986,983,984,977,981,982,980,984,982,978,980,982,1104,982,1104,977,1106,1147,1106,1063,1063,979,977,978,1147,981,980,1147,986,978,977,1106,978,1147,1104,980,1105,1147,986,982,986,986,1147,1104,982,979,
1063,1104,979,1063,1147,984,983,977,978,977,982,982,981,1106,978,978,1105,986,986,982,1105,1105,1063,1104,979,978,977,982,1104,979,982,984,1147,977,979,984,981,984,985,980,1104,1106,1147,983,1104,978,981,978,1105,980,982,982,1105,986,1104,1063,1106,982,983,1147,984,1106,977,1063,1104,978,1104,985,1105,978,985,1104,1147,986,1147,1105,981,1105,1105,1063,
1105,1106,982,977,981,986,1105,985,985,978,1104,985,979,1063,1063,981,981,986,979,1063,977,1106,980,1104,981,1104,986,1105,1063,980,983,977,984,1104,980,978,986,1063,984,983,984,985,978,1106,1106,979,1106,983,985,978,1147,1105,1105,1106,982,1105,980,982,1147,977,978,983,986,1063,1104,983,1105,1106,985,1105,986,981,986,985,981,978,977,1106,981,1147,
985,1147,984,1063,985,1147,981,984,1147,977,979,977,1105,977,980,979,982,1104,1063,1063,1147,1147,1105,983,1063,981,1106,1147,985,1105,1104,1105,1147,1063,986,985,981,978,1063,984,977,980,1063,977,984,1063,1147,1104,983,977,985,1105,985,980,1106,985,982,982,1105,979,980,979,986,983,985,1104,979,977,984,979,978,982,986,984,981,985,1106,977,985,977,
985,980,977,1104,977,985,985,978,1105,984,983,1106,985,986,986,977,981,977,977,981,977,1104,1147,1147,981,981,977,1106,977,979,982,978,977,982,977,977,984,979,1104,981,977,981,982,985,1105,1104,982,983,979,982,980,984,983,977,985,982,1105,986,1147,986,1104,984,1063,978,1106,984,1105,1106,1105,981,982,983,1106,982,978,1104,977,985,980,978,
1147,1063,1104,978,983,979,981,986,978,981,980,1104,985,986,979,986,985,1147,979,982,1063,977,984,986,984,983,1104,981,1105,977,1147,1147,1106,1105,984,979,982,1147,983,984,982,985,984,979,1147,985,1104,983,978,1105,1104,1104,1147,1104,985,1147,982,1147,982,983,983,983,978,984,986,978,1147,980,983,980,1147,984,982,1104,1106,1147,1104,986,984,979,
983,977,980,1106,1105,986,1105,1147,984,983,980,1147,980,980,1105,1104,1104,982,1147,982,982,984,985,1106,1106,979,977,1104,983,1104,981,982,1105,1105,980,979,1104,982,983,1105,985,977,981,1063,986,1147,985,983,1147,985,981,980,1104,983,986,983,983,1106,1106,1105,982,982,985,985,1104,978,1147,977,980,986,1106,983,978,1063,1106,1147,977,1104,986,985,
978,983,1104,982,977,982,1106,983,980,1105,980,1106,978,1104,1105,1105,1105,979,986,982,978,980,1147,980,982,1105,978,1105,986,977,982,981,1147,1104,1063,986,985,982,1106,1147,978,979,986,1106,983,1105,983,984,1105,1104,986,986,983,986,980,983,981,1063,984,984,985,1147,1105,982,981,980,981,1104,986,986,1104,980,984,986,986,981,979,978,980,986,
981,984,977,978,983,1106,980,984,983,978,979,986,1105,985,1105,977,984,1106,985,1063,979,985,1104,1106,979,1147,983,981,982,978,978,978,986,981,1104,981,984,980,984,1147,985,986,983,978,1147,984,1106,978,983,980,983,978,1104,983,981,984,986,980,984,981,1106,1105,1104,1106,1147,1104,984,978,1106,983,1063,982,1147,1147,1106,1063,982,1106,981,981,
986,980,985,979,980,986,984,985,985,1105,981,983,1063,1106,1105,982,1063,982,978,1104,977,979,978,986,981,1104,986,980,981,983,980,1147,978,983,978,1106,978,1063,981,980,1147,977,1063,1106,983,982,1105,982,986,979,986,1105,986,1106,977,986,978,981,1104,978,1063,981,985,985,1106,1104,982,979,1147,984,977,1106,978,979,1104,979,984,982,1106,984,
980,984,978,1063,1106,1105,1106,1106,981,983,977,983,1147,1106,984,1106,980,981,1104,986,985,984,984,1106,985,1104,1106,1063,977,978,1104,1106,980,1104,980,985,1104,977,1104,981,977,977,979,986,1063,977,980,982,1147,978,986,977,1104,983,985,985,978,980,983,979,986,986,982,977,981,1147,1105,979,982,981,985,985,982,982,986,977,986,977,978,1106,
985,986,986,1106,977,983,1063,979,1104,980,986,978,982,985,978,1105,979,985,978,1147,1147,982,978,1104,1104,982,1105,986,981,1104,983,986,1106,982,979,984,1106,982,1147,979,977,983,977,983,1106,1105,1063,1063,1104,985,979,986,1106,1147,983,1147,980,985,983,983,983,983,1105,982,1104,980,1106,985,982,977,980,982,1105,980,978,977,983,1104,978,1104,
981,977,986,979,1147,977,1104,982,1105,980,986,980,984,978,982,1063,1106,981,979,978,985,982,982,983,979,979,980,1063,979,1105,977,1105,979,1104,1104,1105,985,1106,983,1106,979,1147,986,1147,985,983,1063,977,984,984,982,985,984,1063,982,979,985,982,986,981,979,1106,1104,979,1063,980,1104,977,985,1105,986,985,986,984,1105,1104,983,1104,1147,978,
1105,986,977,985,1147,983,981,983,985,978,980,986,982,981,1105,982,978,1147,979,980,1105,977,1147,1104,1105,982,1063,1104,979,982,978,985,1104,980,986,986,977,986,981,982,980,984,986,977,982,982,1106,1104,982,985,982,981,986,978,981,1147,1063,1063,983,1063,1105,982,1106,982,982,984,984,983,1063,983,1063,1063,984,1105,981,984,982,981,982,977,
978,1105,1105,982,984,978,979,1063,982,983,983,1105,1147,986,983,979,1147,978,981,980,981,985,982,1106,1105,1105,985,979,984,982,1063,986,977,1104,984,982,982,985,1106,982,986,984,1063,1105,986,1106,1105,986,979,977,985,1105,984,980,977,982,985,980,981,983,983,980,1104,981,977,1104,1104,984,984,983,984,981,984,1106,984,1106,986,983,1104,986,
1147,978,1105,977,1063,981,984,983,1063,979,980,977,986,986,979,1104,1147,977,982,985,1105,984,1105,1106,984,986,986,1104,979,984,977,985,1147,1147,1063,985,980,982,984,977,983,1106,979,1105,1147,986,1105,1106,982,985,980,983,984,979,1147,978,982,986,977,1105,1147,977,986,977,986,980,1063,984,979,1063,977,986,978,979,1147,1104,1147,1104,1104,1063,
985,978,1147,978,978,981,986,981,1106,984,982,1106,979,981,981,1105,1063,1104,984,977,1106,980,1106,1104,980,1106,977,978,1104,986,981,979,1147,982,985,984,980,1106,985,1147,982,983,985,981,977,983,979,1106,1105,986,984,978,1105,1147,1106,979,1147,978,981,1063,983,1063,1106,978,979,980,1104,978,980,977,1063,978,982,978,1105,978,982,1063,982,979,
984,1104,978,977,984,982,984,979,981,986,1106,982,1104,1106,984,1147,985,1063,982,980,981,978,1104,977,1106,985,1063,986,983,984,983,983,983,1106,1104,986,1147,986,1105,1063,1147,1147,1147,984,1105,979,978,982,978,1063,1063,1104,985,978,1105,984,980,984,977,986,986,1104,983,984,981,980,978,984,1147,983,986,983,985,981,985,980,979,986,978,984,
981,983,977,979,985,982,984,985,1104,984,979,983,1105,984,1105,1063,1147,984,1106,982,981,1104,1063,985,1104,980,983,983,986,985,986,983,984,985,986,1063,1063,1063,981,982,985,1106,977,979,983,984,982,979,981,1063,984,977,983,984,985,978,1104,984,1147,979,977,980,977,978,980,1147,982,981,1147,1063,981,985,980,986,1063,1063,986,1063,981,985,
1105,985,1106,1104,1106,986,981,979,982,984,1106,1147,1063,1104,983,978,985,1106,983,983,1063,983,977,1063,983,983,985,985,980,1104,981,1147,1105,1063,978,977,984,1063,980,979,978,977,978,1104,983,980,985,981,985,977,984,1105,977,983,986,1105,986,1063,983,979,985,980,1105,985,981,982,1105,986,982,1105,1147,979,981,1147,983,1106,981,984,982,986,
1106,1063,1104,980,981,980,1063,984,1147,1063,984,979,982,1147,979,980,981,1105,980,985,1147,977,1106,985,986,1104,984,1106,979,984,981,1063,986,981,984,983,983,1063,985,981,982,982,979,986,985,1063,977,979,984,982,977,1105,977,979,1104,981,978,986,978,981,984,983,978,1063,980,1104,1063,982,981,985,1063,1063,1105,1105,978,1106,1104,985,982,978,
979,1106,981,1104,981,1104,986,982,977,986,978,982,981,1106,982,982,980,982,978,985,982,980,978,978,986,1147,978,1105,1063,983,1063,981,1104,1147,985,985,1063,978,1063,984,1147,982,981,985,986,981,983,984,983,981,986,977,982,1063,1063,986,980,981,979,982,982,983,1147,979,1063,1106,980,978,984,985,980,1147,984,979,1063,983,978,980,978,979,
978,1104,981,980,978,984,1147,1063,982,980,983,1105,985,978,982,984,1106,986,983,984,979,1106,1105,1104,984,1147,1106,978,985,979,984,981,1105,1104,984,1104,1106,983,977,1106,980,1106,983,978,982,1104,980,984,978,983,1106,984,1104,1105,981,978,1105,1063,984,978,1063,981,985,1104,1063,1104,986,984,984,1106,1106,983,978,1104,979,982,986,984,1147,980,
1147,984,1105,983,979,1063,1147,981,982,983,979,982,981,981,984,977,1104,978,1104,983,1105,978,1104,980,984,978,979,1105,985,1063,1147,983,1104,1104,982,1105,1063,979,978,1106,1104,979,1104,1063,1104,982,1147,986,980,980,984,980,1147,983,982,985,977,979,981,983,978,1147,1105,983,983,985,983,1063,1104,979,1106,1063,1147,985,981,979,982,983,982,977,
1147,981,977,983,979,1147,1105,984,984,982,981,985,1104,1106,978,1105,984,986,981,1063,979,986,1106,984,982,977,1104,1063,1104,980,985,1147,985,977,1104,979,978,981,1106,983,977,982,978,984,977,983,1147,984,977,982,986,1105,977,977,984,1147,1104,979,977,985,1063,980,978,977,986,1106,984,983,979,1063,982,986,980,1105,981,978,986,982,980,1063,
1106,1147,978,982,982,1147,1105,983,981,981,983,984,1106,983,980,1104,1063,980,986,982,982,980,985,981,1104,1104,1106,979,1106,1105,984,985,1104,1147,1063,1106,978,978,1104,984,1106,977,982,978,979,986,977,978,985,985,981,980,1106,979,1105,1063,981,1105,1104,985,982,1147,977,1147,977,985,1105,1104,1147,978,980,1147,1105,979,977,981,985,979,985,985,
984,984,986,1063,1104,984,1104,982,980,978,1106,984,982,978,1104,979,978,978,982,1104,977,979,977,983,1063,981,978,1063,1063,978,978,978,984,1147,983,977,986,1063,984,981,977,983,1104,1105,985,1104,985,977,1106,986,984,984,1147,983,1106,982,986,1104,984,1104,1104,1063,986,983,984,983,1104,979,984,986,983,1147,1105,1104,985,984,979,984,984,981,
977,981,982,1105,1063,1104,986,979,1106,986,978,980,986,981,985,979,980,1063,983,981,980,984,978,985,986,982,1063,980,986,979,981,1063,979,1104,980,1147,978,986,1105,977,986,978,978,981,977,1104,983,1104,986,1147,1104,983,981,983,977,983,982,977,985,982,980,1106,981,977,1063,1105,978,981,981,1147,979,1105,1063,983,1147,985,981,983,1104,1104,
981,979,982,980,981,984,979,985,980,980,1147,978,983,1106,1104,1063,1104,1147,979,983,980,980,986,986,1147,977,980,1105,1106,983,1104,1147,982,983,980,1105,980,979,977,1063,981,982,1105,984,979,980,1106,985,1063,985,1104,986,1147,1104,1147,1105,985,978,1106,979,978,1063,983,1147,1106,985,981,984,977,980,977,984,1105,1104,983,1063,985,982,980,1105,
978,1104,982,1106,983,982,983,979,979,986,980,977,986,980,978,1104,984,979,978,985,1104,1106,986,978,982,981,984,984,979,1063,1106,986,979,983,986,1147,977,984,983,983,980,983,980,978,982,1147,986,977,1147,977,1106,1106,1105,982,978,977,1147,1105,984,1106,978,986,979,978,980,1106,984,1105,980,977,985,979,983,1106,978,985,977,981,984,983,
978,981,1063,979,980,1147,983,978,978,981,986,985,1063,1106,1147,977,985,982,1063,984,1063,984,1105,986,1105,978,982,1104,980,980,1105,985,1105,977,1147,1105,982,983,980,1147,984,1106,986,983,1147,983,986,983,1104,986,1105,979,977,1104,1106,1063,979,984,1147,979,986,1063,1106,982,977,978,1147,1147,978,984,980,982,1105,985,1147,1104,1063,982,982,1147,
983,1063,982,1105,980,1147,1104,1105,985,984,978,985,1105,980,986,977,1063,978,1147,1105,1105,984,979,983,984,980,1063,984,984,979,986,977,1105,979,977,1104,985,985,1104,985,1063,984,983,977,980,981,980,977,978,979,978,981,1147,986,1147,1104,985,1147,1106,985,979,986,981,1106,977,980,985,977,977,980,980,982,1063,1147,978,1106,1106,980,978,1063,
1063,1104,979,1105,980,985,983,978,986,1105,982,978,984,985,983,1147,984,984,977,1147,977,983,980,1147,1105,984,980,1104,1063,985,978,981,978,985,1104,977,983,980,979,981,981,977,1106,1106,982,986,978,983,982,982,982,984,979,982,984,978,984,980,1104,978,1147,981,1063,979,982,983,1106,982,1147,977,977,982,1106,981,977,977,1147,982,1104,1106,
978,977,980,980,1105,982,982,983,1147,979,984,986,981,983,983,984,1147,983,1147,1063,1105,1063,982,1104,982,984,980,979,1104,982,986,980,1106,978,979,1105,978,1105,1104,981,982,977,984,982,985,983,1104,986,1106,977,980,985,981,986,981,977,984,978,983,981,981,982,977,982,1063,979,985,1104,985,1105,980,981,979,1105,985,977,1106,978,1104,980,
980,1106,979,985,983,985,1105,1147,1147,1104,985,1063,986,984,981,984,978,984,978,1104,981,985,1147,979,979,981,1104,984,983,986,979,1105,979,981,977,1104,983,980,983,977,1105,1147,978,979,1104,977,980,1105,1105,977,1106,982,1106,1105,1105,978,980,1147,979,1106,981,985,983,978,980,1106,1106,985,979,978,1105,986,979,1104,981,1147,1105,979,979,985,
978,979,1105,1104,1104,981,985,979,1063,986,1063,984,1106,979,1104,979,1063,1105,979,983,1063,977,978,978,982,1104,977,1104,977,986,986,979,1105,981,984,1063,985,982,986,981,978,1063,981,980,982,1063,985,980,1063,979,1106,981,984,1104,977,1106,984,979,1063,983,980,984,1104,1105,1106,980,977,981,986,983,986,984,984,982,1104,1147,1106,983,982,982,
980,984,982,977,1105,1104,1106,1104,1105,1147,980,984,1147,1105,1105,978,986,983,979,984,1106,984,983,981,983,985,979,983,985,978,980,1147,982,986,1105,979,1104,981,982,1106,1063,977,977,1063,1106,1105,977,979,981,1063,977,985,978,1106,977,1063,980,1106,981,1106,978,982,986,1063,1147,1106,1147,985,980,980,985,979,983,1105,1105,1147,1105,979,984,983,
982,978,1104,986,979,1105,977,1104,1063,1104,981,1063,1105,984,1104,977,979,984,1106,983,981,1104,1105,981,1147,1104,983,1106,1147,978,984,986,982,981,1147,981,1104,986,986,1105,977,1106,978,1063,1063,1104,986,980,1105,1104,1147,982,1147,978,977,986,979,985,978,1147,1104,1104,1104,980,1104,979,1104,977,984,985,978,1106,977,983,982,986,981,983,986,1106,
1104,978,982,986,1063,1104,1106,977,986,1106,985,1104,1147,984,1147,980,981,1063,1063,1106,1106,1105,1063,1106,984,986,1105,1147,986,1106,980,983,983,1104,1104,986,1106,983,984,1105,978,981,982,986,985,1105,1105,983,977,983,986,1063,1105,985,1105,985,986,1063,984,984,1063,980,985,985,1063,1104,979,978,1106,1147,983,1104,981,1104,982,983,977,977,985,977,
985,981,1106,981,1147,979,1105,1104,1105,985,978,1105,984,977,979,979,978,1063,1104,1106,986,1063,984,981,985,985,984,984,1063,983,986,978,1063,985,978,1104,977,983,982,1147,1106,977,984,1063,985,1104,986,983,978,977,985,982,983,982,1063,985,978,978,1147,980,1105,983,984,985,981,1104,982,983,980,979,985,979,978,1106,1105,1104,980,986,983,984,
979,1105,983,983,985,978,981,981,985,983,979,979,1105,981,986,1063,1106,984,981,1106,984,982,1063,1063,986,985,984,983,978,984,1105,1106,978,980,980,1147,982,978,984,985,985,986,982,1105,1106,1147,980,981,977,984,977,979,1104,978,986,1063,978,978,1106,985,981,985,982,986,979,978,986,1063,979,979,979,982,979,981,983,978,985,986,985,982,
1104,980,1104,986,986,1104,979,981,1063,982,985,981,1105,986,980,1106,979,982,980,986,980,979,1104,1147,1105,1104,986,1104,1105,1104,980,977,1106,979,1105,985,1105,980,980,1104,1106,1104,1063,1104,1105,985,1105,985,1105,978,979,1104,979,985,1147,1147,982,1104,1063,986,983,1106,980,1104,986,982,982,1063,979,984,983,979,982,980,981,979,984,980,981,981,
982,984,981,985,1106,981,981,979,1104,1106,977,1106,1104,977,978,983,979,1063,1105,979,977,1063,983,983,1063,1147,1106,979,982,978,1106,1063,1105,986,1105,977,980,1104,982,1106,983,979,978,982,978,977,1106,1147,980,985,979,977,1063,1104,983,984,983,978,978,983,981,1105,1147,1147,980,1147,1106,983,1104,985,983,1063,986,984,1105,1105,986,1104,983,984
</data>
 </layer>
 <layer id="15" name="terrain1" width="80" height="45">
  <data encoding="csv">
0,0,0,0,0,0,0,0,1719,1766,1723,0,0,0,0,0,0,0,0,0,0,0,0,0,0,0,0,0,0,0,0,0,0,0,0,0,0,0,0,0,0,0,0,0,0,0,0,0,0,0,0,0,0,0,0,0,1726,1762,1721,1764,1727,1687,1729,1764,1727,1765,0,0,0,0,0,0,0,1719,1769,1720,1728,1685,1762,1685,
0,0,0,0,0,0,1678,1769,1720,1806,1807,0,1678,1723,0,0,0,0,0,0,0,0,0,0,0,0,0,0,0,0,0,0,0,0,0,0,0,0,0,0,0,0,0,0,0,0,0,0,0,0,0,0,0,0,0,0,1846,1811,1804,1764,1686,1764,1806,1810,1811,1848,0,0,0,0,0,0,0,1846,1804,1729,1687,1687,1764,1805,
0,0,0,0,1678,1767,1720,1806,1810,1681,1767,1769,1720,1722,1723,0,1678,1768,1723,0,0,0,0,0,0,0,0,0,0,0,0,0,0,0,0,0,0,0,0,0,0,0,0,0,0,0,0,0,0,0,0,0,0,0,0,0,0,0,1803,1808,1847,1810,1848,0,0,0,0,0,0,0,0,0,0,0,1846,1809,1804,1762,1806,1804,
0,0,0,0,1726,1729,1687,1722,1680,1846,1804,1762,1806,1808,1807,0,1761,1764,1722,1723,0,0,0,0,0,0,0,0,0,0,0,0,0,0,0,0,0,0,0,0,0,0,0,0,0,0,0,0,0,0,0,0,0,0,0,0,0,0,0,0,0,0,0,0,0,0,0,0,0,0,0,0,0,0,0,0,1846,1804,1765,1846,
0,0,0,0,1803,1811,1811,1808,1807,0,1846,1809,1848,0,0,1678,1720,1685,1806,1848,0,0,0,0,0,0,0,1719,1679,1723,0,0,0,0,0,1691,1740,1652,0,0,0,0,0,0,0,0,0,0,0,0,0,0,0,0,0,0,0,0,0,0,0,0,0,0,0,0,0,0,0,0,0,0,0,0,0,0,0,1726,1722,1768,
0,0,0,0,0,0,0,0,0,0,0,0,0,0,0,1725,1762,1805,1765,0,0,0,0,0,0,0,0,1846,1804,1722,1723,0,0,0,1691,1692,1660,1697,0,0,0,0,0,0,0,0,0,0,0,0,0,0,0,0,0,0,0,0,0,0,0,0,0,0,0,0,0,0,0,0,0,0,0,0,0,1719,1680,1803,1804,1762,
0,0,0,0,0,0,0,0,0,0,0,0,0,0,0,1846,1811,1804,1722,1680,0,0,0,0,0,0,0,0,1846,1809,1848,0,0,0,1818,1776,1617,1697,0,0,0,0,0,0,0,0,0,0,0,0,0,0,0,0,0,0,0,0,0,0,0,0,0,0,0,0,0,0,0,0,0,0,0,0,0,1725,1722,1680,1761,1729,
0,0,0,0,0,0,0,0,0,0,0,0,0,0,0,0,1678,1720,1806,1807,0,0,0,0,0,0,0,0,0,0,0,0,0,0,0,1818,1819,1653,1739,1738,1652,0,0,0,0,0,0,0,0,0,0,0,0,0,0,0,0,0,0,0,0,0,0,0,0,0,0,0,0,0,0,0,0,0,0,1803,1804,1682,1803,1809,
0,0,0,0,0,0,0,0,0,0,0,0,0,0,0,0,1846,1808,1807,0,0,0,0,0,0,0,0,0,0,0,0,0,0,0,0,0,0,1654,1735,1615,1698,0,0,0,0,0,0,0,0,0,0,0,0,0,0,0,0,0,0,0,0,0,0,0,0,0,0,0,0,0,0,0,0,0,0,0,1846,1807,0,0,
0,0,0,0,0,0,0,0,0,0,0,0,0,0,0,0,0,0,0,0,0,0,0,0,0,0,0,0,0,0,0,1678,1768,1723,0,0,0,1655,1620,1778,1653,1695,0,0,0,0,0,0,0,0,0,0,0,0,0,0,0,0,0,0,0,0,0,0,0,0,0,0,0,0,0,0,0,0,0,0,0,0,0,0,
0,0,0,0,0,0,0,0,0,0,0,0,0,0,0,0,0,0,0,0,0,0,0,0,0,0,0,0,0,0,0,1846,1804,1722,1768,1680,1691,1649,1776,1694,1692,1694,1739,1740,1740,1695,0,0,0,0,0,0,0,0,0,0,0,0,0,0,0,0,0,0,0,0,0,0,0,0,0,0,0,0,0,0,0,0,0,0,
0,0,0,0,0,0,0,0,0,0,0,0,0,0,0,0,0,0,0,0,0,0,0,0,0,0,0,1678,1679,1680,0,0,1724,1721,1687,1722,1769,1680,1649,1782,1781,1776,1778,1819,1819,1820,0,0,0,0,0,0,0,0,0,0,0,0,0,0,0,0,0,0,0,0,0,0,0,0,0,0,0,0,0,0,0,0,0,0,
0,0,0,0,0,0,0,0,0,0,0,0,0,0,0,0,0,0,0,0,0,0,0,0,0,0,0,1803,1810,1848,0,0,1846,1804,1729,1805,1728,1684,1779,0,0,1775,1820,1650,1695,0,0,0,0,0,0,0,0,0,0,0,0,0,0,0,0,0,0,0,0,0,0,0,0,0,0,0,0,0,0,0,0,0,0,0,
0,0,0,0,0,0,0,0,0,0,0,0,0,0,0,0,0,0,0,0,0,1719,1680,0,0,0,0,0,0,0,0,0,0,1846,1809,1810,1811,1848,0,0,0,0,0,1775,1779,0,0,0,0,0,0,0,0,0,0,0,0,0,0,0,0,0,0,0,0,0,0,0,0,0,0,0,0,0,0,0,0,0,0,0,
0,0,0,0,0,0,0,0,0,0,0,0,0,0,0,0,0,0,0,1719,1723,1803,1807,0,0,0,0,0,0,0,0,0,0,0,0,1678,1766,1680,0,0,0,0,0,0,0,0,0,0,0,0,0,0,0,0,0,0,0,0,0,0,0,0,0,0,0,0,0,0,0,0,0,0,0,0,0,0,1650,1695,0,0,
0,0,0,0,0,0,0,0,0,0,0,0,0,0,0,0,0,0,1678,1720,1722,1679,1769,1769,1723,0,0,0,0,0,0,0,0,0,0,1846,1804,1722,1723,0,0,0,0,0,0,0,0,0,0,0,0,0,0,0,0,1691,1695,0,0,0,0,0,0,0,0,0,0,0,0,1650,1738,1738,1695,0,0,1691,1692,1694,1651,1651,
0,0,0,0,0,0,0,0,0,0,0,0,0,0,0,0,0,1719,1720,1729,1685,1806,1808,1811,1848,0,0,0,0,0,0,0,0,0,0,0,1846,1810,1807,0,0,0,0,0,0,0,0,0,0,0,0,0,0,0,0,1656,1696,0,0,0,0,0,0,0,0,0,0,1691,1740,1692,1778,1776,1697,0,1691,1692,1734,1618,1658,1618,
0,0,0,0,0,0,0,0,0,0,0,0,0,0,0,0,1719,1677,1804,1727,1806,1807,0,0,0,0,0,0,0,0,0,0,0,0,0,0,0,0,0,0,0,0,0,0,0,0,0,0,0,0,0,0,0,0,1691,1692,1696,0,0,0,0,0,0,0,0,1691,1739,1692,1778,1781,1653,1692,1694,1740,1692,1617,1658,1700,1734,1735,
0,0,0,0,0,0,0,0,0,0,0,0,0,0,1678,1680,1846,1848,1724,1806,1807,0,0,0,0,0,0,0,0,0,0,0,0,0,0,0,1719,1767,1680,0,0,0,0,0,0,0,0,0,0,0,0,0,0,0,1654,1778,1653,1652,0,0,0,0,0,0,0,1818,1819,1780,1653,1740,1692,1778,1781,1781,1776,1735,1778,1819,1819,1781,
0,0,0,0,0,0,0,0,0,0,0,0,0,1678,1720,1765,1719,1679,1677,1848,0,0,0,0,0,0,0,0,0,0,0,0,0,0,0,0,1846,1811,1807,0,0,0,0,0,0,0,0,0,0,0,0,0,0,1691,1649,1779,1775,1820,0,0,0,0,0,0,0,0,0,1691,1692,1620,1778,1779,0,0,1775,1819,1820,0,0,0,
0,0,0,0,0,0,0,0,0,0,0,0,0,1726,1762,1722,1720,1685,1682,0,0,0,0,0,0,0,0,0,0,0,0,0,0,0,0,0,0,0,0,0,1719,1680,0,0,0,0,0,0,0,0,0,0,0,1775,1820,0,0,0,0,0,0,0,0,0,0,0,0,1655,1778,1819,1779,0,0,0,0,0,0,0,0,0,
0,0,0,0,0,0,0,0,0,0,0,0,0,1724,1687,1806,1810,1804,1682,1678,1680,0,0,0,0,0,0,0,0,0,0,0,0,0,0,0,0,0,0,1719,1720,1684,0,0,0,0,0,0,0,0,0,0,0,1691,1695,0,0,0,0,0,0,0,0,0,0,0,0,1775,1820,0,0,0,0,0,0,0,0,0,0,0,
0,0,0,0,0,0,0,0,0,0,0,0,1678,1720,1763,1722,1768,1677,1681,1720,1765,0,0,0,0,0,0,0,0,0,0,0,0,0,0,0,0,0,1678,1677,1808,1848,0,0,0,0,0,0,0,0,0,0,0,1818,1779,0,0,0,0,0,0,0,0,0,0,0,0,0,0,0,0,0,0,0,0,0,0,0,0,0,
0,0,0,0,0,0,0,0,0,0,0,1678,1720,1764,1806,1804,1685,1722,1720,1806,1807,0,0,0,0,0,0,0,0,0,0,0,0,0,0,0,0,1678,1720,1722,1723,0,0,0,0,0,0,0,0,0,0,0,0,0,0,0,0,0,0,0,0,0,0,0,0,0,0,0,0,0,0,0,0,0,0,0,0,0,0,0,
0,0,0,0,0,0,0,0,0,0,0,1803,1847,1809,1848,1803,1804,1687,1685,1765,0,0,0,0,0,0,0,0,0,0,0,0,0,0,0,0,1678,1720,1763,1762,1765,0,0,0,0,0,0,0,0,0,0,0,0,0,0,0,0,0,0,0,0,0,0,0,0,0,0,0,0,0,0,0,0,0,0,0,0,0,0,0,
0,0,0,0,0,0,0,0,0,0,0,0,0,0,0,0,1725,1806,1804,1722,1680,0,0,0,0,0,0,0,0,0,0,0,0,0,0,1678,1720,1727,1721,1685,1722,1723,0,0,0,0,0,0,0,0,0,0,0,0,0,0,0,0,0,0,0,0,0,0,0,0,0,0,0,0,0,0,0,0,0,0,0,0,0,0,
0,0,0,0,0,0,0,0,0,0,0,0,0,0,0,0,1846,1807,1803,1804,1765,1719,1680,0,0,0,0,0,0,0,0,0,0,0,0,1725,1763,1721,1729,1685,1806,1807,0,0,0,0,0,0,0,0,0,0,0,0,0,0,0,0,0,0,0,0,0,0,0,0,0,0,0,0,0,0,0,0,0,0,0,0,0,0,
0,0,0,0,0,0,0,0,0,0,0,0,0,0,0,0,0,0,0,1803,1807,1846,1807,0,0,0,0,0,0,0,0,0,0,0,0,1846,1811,1808,1847,1804,1722,1723,0,0,0,0,0,0,0,0,0,0,0,0,0,0,0,0,0,0,0,0,0,0,0,0,0,0,0,0,0,0,0,0,0,0,0,0,0,0,
0,1691,1739,1695,0,0,0,0,0,0,0,0,0,0,0,0,0,0,0,1719,1679,1680,1678,1769,1723,0,0,0,0,0,0,0,0,0,0,0,0,0,0,1846,1811,1807,1691,1651,1738,1695,0,0,0,0,0,0,0,0,0,0,0,0,0,0,0,0,0,0,0,0,0,0,0,0,0,0,0,0,0,0,0,0,0,0,
1739,1649,1780,1820,0,1691,1652,1691,1652,0,0,0,1650,1695,0,0,0,0,0,1846,1804,1722,1720,1764,1722,1767,1767,1723,0,0,0,1719,1769,1723,0,0,0,1678,1723,0,0,0,1775,1781,1776,1694,1695,0,0,0,0,0,0,0,0,0,0,0,0,0,0,0,0,0,0,0,0,0,0,0,0,0,0,0,0,0,0,0,0,0,
1699,1698,1650,1740,1739,1692,1694,1692,1694,1740,1739,1695,1775,1653,1738,1695,0,0,0,0,1803,1811,1804,1806,1847,1847,1804,1682,0,0,0,1761,1806,1848,0,0,0,1846,1681,1680,1678,1766,1680,0,1818,1780,1779,0,0,0,0,0,0,0,0,0,0,0,0,0,0,0,0,0,0,0,0,0,0,0,0,0,0,0,0,0,0,0,0,0,
1782,1820,1733,1659,1657,1618,1616,1701,1615,1618,1615,1694,1652,1818,1776,1696,0,0,0,0,0,0,1846,1848,0,0,1846,1807,0,0,0,1846,1848,0,0,0,0,0,1803,1848,1846,1811,1807,0,0,0,0,0,0,0,0,0,0,0,0,0,0,0,0,0,0,0,0,0,0,0,0,0,0,0,0,0,0,0,0,0,0,0,0,0,
0,0,1733,1735,1660,1015,1016,1735,1736,1616,1617,1736,1694,1695,1775,1820,0,0,0,0,0,0,0,0,0,0,0,0,0,0,0,0,0,1719,1769,1723,0,1719,1679,1679,1767,1768,1680,0,0,0,0,0,0,0,0,0,0,0,0,0,0,0,0,0,0,0,0,0,0,0,0,0,0,0,0,0,0,0,0,0,0,0,0,0,
1652,1691,1692,1734,1657,1661,1618,1615,1617,1662,1734,1615,1659,1697,0,0,0,0,0,0,0,0,0,0,0,0,0,0,0,0,0,0,0,1725,1727,1722,1723,1725,1729,1686,1806,1809,1848,0,1678,1680,0,0,0,0,0,0,0,0,0,0,0,0,0,0,0,0,0,0,0,0,0,0,0,0,0,0,0,0,0,0,0,0,0,0,
1779,1654,1617,1618,1616,1657,1700,1778,1780,1776,1700,1619,1778,1820,1650,1739,1738,1652,1650,1695,0,0,0,0,0,0,0,0,0,0,0,0,0,1803,1811,1847,1848,1846,1809,1808,1681,1680,0,1678,1677,1848,0,0,0,0,0,0,0,0,0,0,0,0,0,0,0,0,0,0,0,0,0,0,0,0,0,0,0,0,0,0,0,0,0,0,
0,1733,1615,1616,1699,1659,1700,1694,1738,1692,1777,1700,1694,1652,1656,1660,1619,1698,1775,1653,1652,0,0,0,0,0,0,0,0,0,0,1678,1723,1719,1768,1766,1680,1719,1679,1723,1803,1848,0,1803,1848,0,0,0,0,0,0,0,0,0,0,0,0,0,0,0,0,0,0,0,0,0,0,0,0,0,0,0,0,0,0,0,0,0,0,0,
1691,1692,1735,1660,1699,1659,1660,1735,1735,1615,1785,1662,1657,1697,1775,1776,1619,1694,1652,1818,1820,0,0,0,0,0,0,0,0,0,1719,1677,1807,1846,1811,1809,1681,1720,1686,1722,1679,1723,0,0,0,0,0,0,0,0,0,0,0,0,0,0,0,0,0,0,0,0,0,0,0,0,0,0,0,0,0,0,0,0,0,0,0,0,0,0,
1692,1619,1616,1735,1618,1618,1011,1012,1658,1662,1736,1701,1618,1697,1691,1692,1777,1620,1694,1652,0,1650,1738,1695,0,0,0,0,0,0,1803,1848,1678,1768,1723,0,1803,1810,1847,1809,1811,1807,0,0,0,0,0,0,0,0,0,0,0,0,0,0,0,0,0,0,0,0,0,0,0,0,0,0,0,0,0,0,0,0,0,0,0,0,0,0,
1658,1616,1736,1777,1701,1735,1053,1054,1778,1819,1776,1617,1777,1694,1692,1657,1693,1057,1058,1694,1652,1775,1776,1696,0,0,0,0,0,0,0,0,1846,1847,1807,0,0,0,0,0,1691,1652,0,0,0,0,0,0,0,0,0,0,0,0,0,0,0,0,0,0,0,0,0,0,0,0,0,0,0,0,0,0,0,0,0,0,0,0,0,0,
1660,1662,1661,1827,1615,1620,1735,1699,1696,0,1733,1659,1735,1617,1615,1619,1734,1700,1778,1776,1696,0,1655,1694,1695,0,0,0,0,0,0,0,1691,1740,1740,1695,0,0,1691,1739,1692,1698,0,0,0,0,0,0,0,0,0,0,0,0,0,0,0,0,0,0,0,0,0,0,1650,1695,0,0,0,0,0,0,0,0,0,0,0,0,0,0,
1620,1659,1660,1658,1701,1620,1659,1618,1694,1652,1818,1776,1617,1615,1657,1618,1736,1661,1694,1649,1779,0,1818,1776,1697,0,0,0,0,0,0,0,1775,1776,1778,1820,0,1650,1692,1778,1780,1779,0,0,0,0,0,0,0,0,0,0,0,0,0,0,0,0,0,0,0,0,0,0,1654,1696,0,0,0,0,0,0,0,0,0,0,0,0,0,0,
1616,1699,1616,1735,1693,1693,1660,1700,1618,1697,0,1775,1776,1699,1658,1618,1616,1736,1615,1694,1652,0,0,1775,1820,0,0,0,0,0,0,0,0,1818,1779,0,0,1775,1781,1820,0,0,0,0,0,1691,1695,0,0,0,0,0,0,0,0,0,0,0,0,0,0,0,0,0,1818,1653,1695,0,0,0,0,0,0,0,0,0,0,0,0,0,
1693,1616,1620,1662,1699,1620,1699,1699,1734,1694,1740,1739,1692,1735,1658,1700,1735,1658,1693,1700,1694,1740,1652,0,0,1691,1652,0,0,0,0,0,0,0,0,0,0,0,0,0,0,0,0,0,0,1655,1694,1738,1695,0,0,0,0,0,0,0,0,0,0,0,0,0,0,0,0,1654,1698,0,0,0,0,0,0,0,0,0,0,0,0,0,
1658,1660,1615,1657,1700,1615,1005,1006,1015,1016,1659,1700,1735,1661,1657,1662,1617,1617,1616,1777,1662,1778,1820,0,0,1818,1820,0,0,0,0,0,0,0,0,0,0,0,0,0,0,0,0,0,0,1818,1781,1776,1694,1652,0,0,0,0,0,0,0,0,0,0,0,0,0,0,1691,1649,1653,1738,1652,0,0,0,0,0,0,0,0,0,0,0,
1819,1782,1776,1620,1057,1058,1047,1048,1049,1700,1619,1616,1619,1736,1777,1778,1776,1662,1778,1782,1819,1820,0,1650,1695,0,0,0,0,0,0,0,0,0,0,0,0,0,0,0,0,0,0,0,0,0,0,1775,1781,1653,1740,1739,1740,1652,0,0,0,0,0,0,0,0,1691,1740,1692,1737,1818,1776,1694,1738,1739,1652,0,0,0,0,0,0,0,0
</data>
 </layer>
 <layer id="14" name="terrain2" width="80" height="45">
  <data encoding="csv">
0,0,0,0,0,0,0,0,0,0,0,0,0,0,0,0,0,0,0,0,0,0,0,0,0,0,0,0,0,0,0,0,0,0,0,0,0,0,0,0,0,0,0,0,0,0,0,0,0,0,0,0,0,0,0,0,0,0,0,0,0,0,0,0,0,0,0,0,0,0,0,0,0,0,0,0,0,0,0,0,
0,0,0,0,0,0,0,0,0,0,0,0,0,0,0,0,0,0,0,0,0,0,0,0,0,0,0,0,0,0,0,0,0,0,0,0,0,0,0,0,0,0,0,0,0,0,0,0,0,0,0,0,0,0,0,0,0,0,0,0,0,0,0,0,0,0,0,0,0,0,0,0,0,0,0,0,0,0,0,0,
0,0,0,0,0,0,0,0,0,0,0,0,0,0,0,0,0,0,0,0,0,0,0,0,0,0,0,0,0,0,0,0,0,0,0,0,0,0,0,0,0,0,0,0,0,0,0,0,0,0,0,0,0,0,0,0,0,0,0,0,0,0,0,0,0,0,0,0,0,0,0,0,0,0,0,0,0,0,0,0,
0,0,0,0,0,0,0,0,0,0,0,0,0,0,0,0,0,0,0,0,0,0,0,0,0,0,0,0,0,0,0,0,0,0,0,0,0,0,0,0,0,0,0,0,0,0,0,0,0,0,0,0,0,0,0,0,0,0,0,0,0,0,0,0,0,0,0,0,0,0,0,0,0,0,0,0,0,0,0,0,
0,0,0,0,0,0,0,0,0,0,0,0,0,0,0,0,0,0,0,0,0,0,0,0,0,0,0,0,0,0,0,0,0,0,0,0,0,0,0,0,0,0,0,0,0,0,0,0,0,0,0,0,0,0,0,0,0,0,0,0,0,0,0,0,0,0,0,0,0,0,0,0,0,0,0,0,0,0,0,0,
0,0,0,0,0,0,0,0,0,0,0,0,0,0,0,0,0,0,0,0,0,0,0,0,0,0,0,0,0,0,0,0,0,0,0,0,0,0,0,0,0,0,0,0,0,0,0,0,0,0,0,0,0,0,0,0,0,0,0,0,0,0,0,0,0,0,0,0,0,0,0,0,0,0,0,0,0,0,0,0,
0,0,0,0,0,0,0,0,0,0,0,0,0,0,0,0,0,0,0,0,0,0,0,0,0,0,0,0,0,0,0,6125,0,0,0,0,0,0,0,0,0,0,0,0,0,0,0,0,0,0,0,0,0,0,0,0,0,0,0,0,0,0,0,0,0,0,0,0,0,0,0,0,0,0,0,0,0,0,0,0,
0,0,0,0,0,0,0,0,0,0,0,0,0,0,0,0,0,0,0,0,0,0,0,0,0,0,0,0,0,0,0,0,0,0,0,0,0,0,0,0,0,0,0,0,0,0,0,0,0,0,0,0,0,0,0,0,0,0,0,0,0,0,0,0,0,0,0,0,0,0,0,0,0,0,0,0,0,0,0,0,
0,0,0,0,0,0,0,0,0,0,0,0,0,0,0,0,0,0,0,0,6125,0,0,0,0,0,0,6095,6096,0,6094,6094,6095,0,0,0,0,0,0,0,0,0,0,0,0,0,0,0,0,0,0,0,0,0,0,0,0,0,0,0,0,0,0,0,0,0,0,0,0,0,0,0,0,0,0,0,0,0,0,0,
0,0,0,0,0,0,0,0,0,0,0,0,0,0,0,0,0,0,0,0,0,0,0,0,6094,0,0,6126,0,0,0,6125,6126,0,0,0,0,0,0,0,0,0,0,0,0,0,0,0,0,0,0,0,0,0,0,0,0,0,0,0,0,0,0,0,0,0,0,0,0,0,0,0,0,0,0,0,0,0,0,0,
0,0,0,0,0,0,0,0,0,0,0,0,0,0,0,0,0,0,0,0,0,0,0,0,0,0,0,0,6094,6095,0,0,6094,6095,0,0,0,0,0,0,0,0,0,0,0,0,0,0,0,0,0,0,0,0,0,0,0,0,0,0,0,0,0,0,0,0,0,0,0,0,0,0,0,0,0,0,0,0,0,0,
0,0,0,0,0,0,0,0,0,0,0,0,0,0,0,0,0,0,0,0,0,0,6095,6096,0,0,0,0,6125,6126,6033,6034,6125,6126,0,0,0,0,0,0,0,0,0,0,0,0,0,0,0,0,0,0,0,0,0,0,0,0,0,0,0,0,0,0,0,0,0,0,0,0,0,0,0,0,0,0,0,0,0,0,
0,0,0,0,0,0,0,0,0,0,0,0,0,0,0,0,0,0,0,0,0,0,6126,0,0,0,0,0,0,6063,6064,6065,6066,0,0,0,0,0,0,0,0,6094,6095,0,0,0,6094,0,0,0,0,0,0,0,0,0,0,0,0,0,0,0,0,0,0,0,0,0,0,0,0,0,0,0,0,0,0,0,0,0,
0,0,0,0,0,0,0,0,0,0,0,0,0,0,0,0,0,0,0,0,0,0,0,0,0,0,6032,6033,6034,6094,6095,6032,6033,6034,6035,6034,6035,0,0,0,0,6125,6126,0,0,0,0,0,0,0,0,0,0,0,0,0,0,0,0,0,0,0,0,0,0,0,0,0,0,0,0,0,0,0,0,0,0,0,0,0,
0,0,0,0,0,0,0,0,0,0,0,0,0,0,0,0,0,0,0,0,0,0,0,0,0,0,6063,6064,6065,6125,6126,6063,6064,6065,6066,6065,6066,0,0,0,0,0,0,0,6094,6095,0,0,0,0,0,0,0,0,0,0,0,0,0,0,0,0,0,0,0,0,0,0,0,0,0,0,0,0,0,0,0,0,0,0,
0,0,0,0,0,0,0,0,0,0,0,0,0,0,0,0,0,0,0,6032,6033,6034,6035,0,0,0,6094,6095,6096,6097,0,6094,6095,6096,6097,6096,6097,0,0,0,6094,6095,0,0,6125,6126,0,0,0,0,0,0,0,0,0,0,0,0,0,0,0,0,0,0,0,0,0,0,0,0,0,0,0,0,0,0,0,0,0,0,
0,0,0,0,0,0,0,0,0,0,0,0,0,0,0,0,0,6094,6095,6063,6064,6065,6066,6033,6034,6035,6125,6126,6127,6128,0,6125,6126,6127,6128,6127,6128,0,0,0,6125,6126,0,0,0,6095,6096,0,0,0,0,0,0,0,0,0,0,0,0,0,0,0,0,0,0,0,0,0,0,0,0,0,0,0,0,0,0,0,0,0,
0,0,0,0,0,0,0,0,0,0,0,0,0,0,0,0,0,6125,6126,6094,6095,6096,6097,6033,6034,6035,0,0,0,0,0,0,0,0,0,0,0,0,0,0,0,0,0,0,0,6126,6127,0,0,0,0,0,0,0,0,0,0,0,0,0,0,0,0,0,0,0,0,0,0,0,0,0,0,0,0,0,2181,2270,2272,2185,
0,0,0,0,0,0,0,0,0,0,0,0,0,0,0,0,0,0,6094,6095,6126,6127,6128,6064,6065,6066,0,0,0,0,0,0,0,0,0,0,6032,6033,6034,6035,0,0,0,0,0,0,0,0,0,0,0,0,0,0,0,0,0,0,0,0,0,0,0,0,0,0,0,0,0,0,0,0,0,0,0,0,2230,2225,2225,2184,
0,0,0,0,0,0,0,0,0,0,0,0,6095,6096,0,0,0,0,6125,6126,6033,6034,6094,6095,6096,6097,0,0,0,0,0,0,0,0,0,0,6063,6064,6065,6066,0,0,0,0,6094,0,0,0,0,0,0,0,0,0,0,0,0,0,0,0,0,0,0,0,0,0,0,0,0,0,0,0,0,0,0,0,2223,2183,2226,2224,
0,0,0,0,0,0,0,0,0,0,0,0,6126,0,0,0,6032,6033,6034,6063,6064,6065,6125,6126,6127,6128,0,0,0,0,0,0,0,0,0,0,6094,6095,6096,6097,0,0,0,0,0,0,0,0,0,0,0,0,0,0,0,0,0,0,0,2181,2272,2142,0,0,0,0,0,0,0,0,0,0,0,0,0,2140,2182,2225,2267,2267,
0,0,0,0,0,0,0,0,0,0,0,0,0,0,0,0,6063,6064,6065,6094,6095,6096,6097,0,0,0,0,0,0,0,0,0,0,0,0,0,6125,6126,6127,6128,0,6095,6096,0,0,0,0,0,0,0,0,0,0,2181,2142,0,0,2140,2141,2182,2224,2188,0,0,0,0,0,2140,2185,0,0,0,0,2181,2271,2182,2225,2224,2225,2226,
0,0,0,0,0,0,0,0,0,0,0,0,0,0,0,0,6094,6095,6096,6125,6126,6127,6128,0,0,0,0,0,0,0,0,0,0,6032,6033,6034,6035,0,0,0,0,6126,6127,0,0,0,6094,0,0,0,0,0,2140,2139,2310,2140,2141,2182,2267,2267,2267,2184,2142,0,2181,2141,2270,2182,2184,2270,2271,2141,2272,2182,2226,2226,2268,2266,2225,2268,
0,0,0,0,0,0,0,0,0,0,0,0,0,0,0,0,6125,6126,6127,6128,6033,6034,6035,0,0,0,0,0,0,0,0,0,0,6063,6064,6065,6066,0,0,0,0,0,0,0,0,0,0,0,0,0,0,0,2308,2143,2270,2182,2183,2183,2183,2268,2266,2226,2184,2272,2182,2183,2267,2267,2224,2268,2266,2225,2267,2224,2226,2225,2184,2182,2225,2184,
0,0,0,0,0,0,0,0,0,0,0,0,0,0,0,6094,6095,0,0,6094,6095,6065,6066,0,0,0,0,0,0,0,0,0,0,6094,6095,6096,6097,0,6094,6095,0,0,6095,6096,0,0,0,0,0,0,0,0,0,2308,2266,2144,2268,2266,2225,2184,2182,2268,2266,2225,2268,2266,2225,2224,2226,2184,2182,2226,2226,2183,2183,2267,2224,2267,2267,2267,
0,0,0,0,0,0,0,0,0,0,0,0,0,0,6095,6096,6126,0,6032,6125,6126,6035,6097,6032,6033,6034,6035,0,0,0,0,0,0,6125,6126,6127,6128,0,6125,6126,0,0,6126,6126,0,0,0,0,0,0,0,0,0,0,2230,2183,2187,2265,2314,2266,2267,2184,2182,2224,2186,2229,2225,2183,2268,2266,2226,2224,2267,2225,2267,2268,2312,2266,2268,2309,
0,0,0,0,0,0,0,0,0,0,0,0,0,0,6126,0,0,0,6094,6095,6065,6066,6128,6063,6064,6065,6066,0,0,6032,6033,6034,6035,0,0,0,0,0,0,0,0,0,6094,0,0,0,0,0,0,0,0,0,0,0,2308,2266,2184,2271,2142,2265,2313,2312,2312,2309,2310,2265,2309,2313,2310,2265,2312,2313,2266,2268,2266,2184,2270,2182,2184,2185,
0,0,0,0,0,0,0,0,0,0,0,0,6095,6096,0,0,0,0,6125,6126,6096,6097,0,6094,6095,6096,6097,0,0,6063,6064,6065,6066,0,0,0,0,0,0,0,0,0,0,0,0,0,0,0,0,0,0,0,0,0,0,2230,2183,2226,2184,2272,2271,2141,2271,2272,2185,2181,2270,2141,2271,2270,2271,2270,2182,2184,2182,2224,2225,2225,2183,2184,
0,0,0,0,0,0,0,0,0,0,0,0,6126,0,0,6094,0,0,6125,6126,6127,6128,6033,6125,6126,6127,6128,0,0,6094,6095,6094,6095,0,0,6094,6095,0,0,6126,0,0,0,0,0,0,0,0,0,0,0,0,0,0,2181,2182,2267,2226,2226,2225,2226,2183,2225,2183,2184,2139,2266,2224,2225,2183,2183,2267,2183,2183,2226,2226,2226,2225,2226,2225,
0,0,0,0,0,0,0,0,0,0,0,0,0,0,0,0,0,0,0,0,0,6063,6064,6065,6066,0,0,0,0,6125,6126,6125,6126,0,0,6125,6126,0,0,0,0,0,0,0,0,0,0,0,0,0,0,0,0,2181,2182,2224,2268,2266,2267,2183,2267,2183,2225,2268,2266,2227,2308,2266,2226,2226,2145,2225,2224,2225,2226,2224,2183,2268,2314,2309,
0,0,0,0,0,0,0,0,0,0,0,0,0,0,0,0,6095,6096,0,6094,6095,6094,6095,6096,6097,0,0,0,0,0,0,0,0,0,0,6126,0,0,0,0,0,0,0,0,0,0,0,0,0,0,0,0,0,2265,2266,2224,2184,2182,2224,2225,2226,2226,2267,2184,2139,2310,0,2228,2224,2267,2267,2225,2225,2226,2224,2225,2268,2269,0,0,
0,0,0,0,0,0,0,0,0,0,0,0,0,0,0,0,6126,0,0,6125,6126,6125,6126,6127,6128,0,0,6094,6095,0,0,0,0,6094,0,6064,6065,0,6126,0,0,0,0,0,0,0,0,0,0,0,0,0,0,0,2228,2146,2225,2224,2225,2145,2267,2224,2268,2266,2187,0,2140,2182,2267,2183,2225,2183,2225,2225,2225,2146,2184,2271,2142,0,
0,0,0,0,0,0,0,0,0,0,0,0,0,0,0,0,0,0,0,0,0,0,0,0,0,0,0,6125,6126,0,0,0,0,0,0,6095,6094,0,0,0,6094,6095,0,0,0,0,0,0,0,0,0,0,0,0,2223,2183,2226,2226,2183,2183,2268,2266,2184,2182,2187,0,2228,2225,2183,2226,2225,2225,2226,2224,2145,2224,2224,2226,2188,0,
0,0,0,0,0,0,0,0,0,0,0,0,0,0,0,0,0,0,0,0,6096,0,0,6094,0,0,0,0,0,0,6095,6096,0,6126,0,0,0,0,0,0,6125,6126,0,0,0,0,0,0,0,0,0,0,0,2140,2139,2314,2266,2226,2226,2226,2227,2265,2314,2266,2227,0,2228,2226,2225,2183,2183,2225,2183,2225,2183,2183,2224,2267,2184,2141,
0,0,0,0,0,0,0,0,0,0,0,0,0,0,0,0,0,0,0,0,6127,0,0,0,0,0,0,0,6096,0,6126,0,0,6064,6065,0,0,6094,0,0,6094,6095,0,0,0,0,0,0,0,0,0,0,0,2265,2143,2271,2182,2267,2225,2267,2184,2185,2140,2182,2184,2142,2308,2266,2267,2226,2225,2226,2225,2268,2309,2266,2225,2226,2268,2266,
0,0,0,0,0,0,0,0,0,0,0,0,0,0,0,0,0,0,0,0,0,6095,6096,0,0,0,0,0,6127,0,0,0,0,6095,6094,0,6064,6065,6094,6095,6125,6126,0,0,0,0,0,0,0,0,0,0,0,0,2228,2224,2268,2309,2266,2226,2224,2184,2182,2225,2267,2227,2181,2139,2266,2268,2312,2309,2266,2227,2181,2182,2225,2267,2186,2308,
0,0,0,0,0,0,0,0,0,0,0,0,0,0,0,0,0,0,0,0,0,6126,0,0,0,6094,0,0,0,0,0,0,0,0,6094,6094,6095,6094,6125,6126,6094,6095,0,0,0,0,0,0,0,0,0,0,0,2181,2182,2226,2184,2272,2182,2183,2224,2183,2226,2225,2268,2310,2229,2184,2182,2227,2140,2271,2182,2184,2139,2314,2266,2183,2188,2181,
0,0,0,0,0,0,0,0,0,0,0,0,0,0,0,0,0,0,0,0,0,0,0,0,0,0,0,0,0,0,0,0,0,0,6125,6125,6126,0,0,0,6125,6126,0,0,0,0,0,0,0,0,0,0,0,2308,2266,2225,2268,2266,2268,2266,2224,2183,2226,2226,2188,2140,2182,2224,2183,2184,2182,2226,2224,2226,2184,2270,2182,2225,2227,2223,
0,0,0,0,0,0,0,0,0,0,0,0,0,0,0,0,0,0,0,0,0,0,0,0,0,0,0,0,0,0,0,0,0,0,0,0,0,0,0,0,0,0,0,0,0,0,0,0,0,0,0,0,0,0,2265,2266,2184,2182,2184,2182,2225,2225,2224,2267,2186,2265,2314,2313,2313,2313,2309,2313,2309,2314,2266,2225,2267,2144,2184,2182,
2579,2580,2492,0,0,2490,2579,2535,0,0,0,0,0,0,0,0,0,0,0,0,0,0,0,0,0,0,0,0,0,0,0,0,0,0,0,0,0,0,0,0,0,0,0,0,0,0,0,0,0,0,0,0,0,0,0,2308,2312,2313,2314,2313,2312,2309,2314,2312,2310,0,0,0,0,0,0,0,0,0,2308,2309,2312,2313,2312,2314,
2574,2533,2534,2535,0,2615,2621,2660,0,0,0,0,0,0,0,0,0,0,0,0,0,0,0,0,0,0,0,0,0,0,0,0,0,0,0,0,0,0,0,0,0,0,0,0,0,0,0,0,0,0,0,0,0,0,0,0,0,0,0,0,0,0,0,0,0,0,0,0,0,0,0,0,0,0,0,0,0,0,0,0,
2617,2533,2574,2536,0,0,0,0,0,0,0,0,0,0,0,0,0,0,0,0,0,0,0,0,0,0,0,0,0,0,0,0,0,0,0,0,0,0,0,0,0,0,0,0,0,0,0,0,0,0,0,0,0,0,0,0,0,0,0,0,0,0,0,0,0,0,0,0,0,0,0,0,0,0,0,0,0,0,0,0,
2617,2618,2621,2660,0,0,0,0,0,0,0,0,0,0,0,0,0,0,0,0,0,0,0,0,0,0,0,0,0,0,0,0,0,0,0,0,0,0,0,0,0,0,0,0,0,0,0,0,0,0,0,0,0,0,0,0,0,0,0,0,0,0,0,0,0,0,0,0,0,0,0,0,0,0,0,0,0,0,0,0,
2621,2660,0,0,0,0,0,0,0,0,0,2531,2535,0,0,0,0,0,0,0,0,0,0,0,0,0,0,0,0,0,0,0,0,0,0,0,0,0,0,0,0,0,0,0,0,0,0,0,0,0,0,0,0,0,0,0,0,0,0,0,0,0,0,0,0,0,0,0,0,0,0,0,0,0,0,0,0,0,0,0,
0,0,0,0,0,0,0,0,0,0,2531,2532,2536,0,0,0,0,0,0,0,0,0,0,0,0,0,0,0,0,0,0,0,0,0,0,0,0,0,0,0,0,0,0,0,0,0,0,0,0,0,0,0,0,0,0,0,0,0,0,0,0,0,0,0,0,0,0,0,0,0,0,0,0,0,0,0,0,0,0,0
</data>
 </layer>
 <layer id="4" name="terrain3" width="80" height="45">
  <data encoding="csv">
0,0,0,0,0,0,0,0,0,0,0,0,0,0,0,0,0,0,0,0,0,0,0,0,0,0,0,0,0,0,0,0,0,1344,1383,1383,1383,1383,1383,1388,0,0,0,0,0,0,0,0,0,0,0,0,0,0,0,0,0,0,0,0,0,0,0,0,0,0,0,0,0,0,0,0,0,0,0,0,0,0,0,0,
0,0,0,0,0,0,0,0,0,0,0,0,0,0,0,0,0,0,0,0,0,0,0,0,0,0,0,0,0,0,0,0,1340,1382,1383,1383,1383,1383,1383,1427,0,0,0,0,0,0,0,0,0,0,0,0,0,0,0,0,0,0,0,0,0,0,0,0,0,0,0,0,0,0,0,0,0,0,0,0,0,0,0,0,
0,0,0,0,0,0,0,0,0,0,0,0,0,0,0,0,0,0,0,0,0,0,0,0,0,0,0,0,0,0,0,0,1345,1383,1383,1383,1383,1383,1383,1384,1385,0,0,0,0,0,0,0,0,0,0,0,0,0,0,0,0,0,0,0,0,0,0,0,0,0,0,0,0,0,0,0,0,0,0,0,0,0,0,0,
0,0,0,0,0,0,0,0,0,0,0,0,0,0,0,0,0,0,0,0,0,0,0,0,0,0,0,0,0,0,0,0,1391,1383,1383,1383,1383,1383,1468,1466,1427,0,0,0,0,0,0,0,0,0,0,0,0,0,0,0,0,0,0,0,0,0,0,0,0,0,0,0,0,0,0,0,0,0,0,0,0,0,0,0,
0,0,0,0,0,0,0,0,0,0,0,0,0,0,0,0,0,0,0,0,0,0,0,0,0,0,0,0,0,0,0,0,0,0,0,1383,1383,1383,1384,1382,1386,0,0,0,0,0,0,0,0,0,0,0,0,0,0,1340,1385,0,0,0,0,0,0,0,0,0,0,0,0,0,0,0,0,0,0,0,0,0,0,0,
0,0,0,0,0,0,0,0,0,0,0,0,0,0,0,0,0,0,0,0,0,0,0,0,0,0,0,0,0,0,0,0,0,0,0,1383,1383,1383,1383,1383,1427,0,0,0,0,0,0,0,0,0,0,0,0,0,1340,1382,0,0,0,0,0,0,0,0,0,0,0,0,0,0,0,0,0,0,0,0,0,0,0,0,
0,0,0,0,0,0,0,0,0,0,0,0,0,0,0,0,0,0,0,0,0,0,0,0,0,0,0,0,0,0,0,0,0,0,0,0,0,0,0,0,1384,1430,1341,1342,0,0,0,0,0,0,0,1340,1341,1341,1382,1383,0,0,0,0,0,0,0,0,0,0,0,0,0,0,0,0,0,0,0,0,0,0,0,0,
0,0,0,0,0,0,0,0,0,0,0,0,0,0,0,0,0,0,0,0,0,0,0,0,0,0,0,0,0,0,0,0,0,1389,1472,1474,1466,1383,1383,0,1383,1383,1383,1384,1385,0,0,0,1381,1430,1341,1382,1383,1383,1383,0,0,0,0,0,0,0,0,0,0,0,0,0,0,0,0,0,0,0,0,0,0,0,0,0,
0,0,0,0,0,0,0,0,0,0,0,0,0,0,0,0,0,0,0,0,0,0,0,0,0,0,0,0,0,0,0,0,0,0,0,0,1465,1466,1383,0,0,1383,1383,1468,1469,0,0,1381,1382,1383,1383,1383,1383,1383,0,0,0,0,0,0,0,0,0,0,0,0,0,0,0,0,0,0,0,0,0,0,0,0,0,0,
0,0,0,0,0,0,0,0,0,0,0,0,0,0,0,0,0,0,0,0,0,0,0,0,0,0,0,0,0,0,0,0,0,0,0,0,1381,1382,1383,1383,0,1383,1383,0,0,0,0,1382,1383,1383,1383,1383,1383,1383,1383,1350,0,0,0,0,0,0,0,0,0,0,0,0,0,0,0,0,0,0,0,0,0,0,0,0,
0,0,0,0,0,0,0,0,0,0,0,0,0,0,0,0,0,0,0,0,0,0,0,0,0,0,0,0,0,0,0,0,0,0,0,0,1344,1383,1383,1383,0,0,0,0,0,0,0,1383,1383,1383,1383,0,1383,1383,1468,1510,0,0,0,0,0,0,0,0,0,0,0,0,0,0,0,0,0,0,0,0,0,0,0,0,
0,0,0,0,0,0,0,0,0,0,0,0,0,0,0,0,0,0,0,0,0,0,0,0,0,0,0,0,0,0,0,0,0,0,0,0,1508,1466,1383,1383,0,0,0,0,0,0,0,1383,0,0,0,0,1468,1509,1469,0,0,0,0,0,0,0,0,0,0,0,0,0,0,0,0,0,0,0,0,0,0,0,0,0,
0,0,0,0,0,0,0,0,0,0,0,0,0,0,0,0,0,0,0,0,0,0,0,0,0,0,0,0,0,0,0,0,0,0,0,0,0,1465,1471,1474,1390,0,0,0,0,0,0,0,0,0,0,0,1469,0,0,0,0,0,0,0,0,0,0,0,0,0,0,0,0,0,0,0,0,0,0,0,0,0,0,0,
0,0,0,0,0,0,0,0,0,0,0,0,0,0,0,0,0,0,0,0,0,0,0,0,0,0,0,0,0,0,0,0,0,0,0,0,0,0,0,0,0,0,0,0,0,0,0,0,0,0,0,0,0,0,0,0,0,0,0,0,0,0,0,0,0,0,0,0,0,0,0,0,0,0,0,0,0,0,0,0,
0,0,0,0,0,0,0,0,0,0,0,0,0,0,0,0,0,0,0,0,0,0,0,0,0,0,0,0,0,0,0,0,0,0,0,0,0,0,0,0,0,0,0,0,0,0,0,0,0,0,0,0,0,0,0,0,0,1381,1431,1430,1432,1385,0,0,0,0,0,0,0,0,0,0,0,0,0,0,0,0,0,0,
0,0,0,0,0,0,0,0,0,0,0,0,0,0,0,1383,0,0,0,0,0,0,0,0,0,0,0,0,0,0,0,0,0,0,0,0,0,0,0,0,0,0,0,0,0,0,0,0,0,0,0,0,0,0,0,1381,1430,1382,1468,1509,1466,1388,0,0,0,0,0,0,0,0,0,0,0,0,0,0,0,0,0,0,
0,0,0,0,0,0,0,1349,0,0,0,1383,1383,1383,1383,1383,1383,0,0,0,0,0,0,0,0,0,0,0,0,0,0,0,0,0,0,0,0,0,0,0,0,0,0,0,0,0,0,0,0,0,0,0,0,0,0,1346,1383,1383,1384,1432,1382,1384,1432,1342,0,0,0,0,0,1383,1383,1383,1383,1383,1383,1427,0,0,0,0,
0,0,0,0,0,0,0,1423,0,1383,1383,1383,1383,1383,1383,1383,1383,1350,0,0,0,0,0,0,0,0,0,0,0,0,0,0,0,0,0,0,0,0,0,0,0,0,0,0,0,0,0,0,0,0,0,0,0,0,1340,1382,1383,0,0,0,0,0,0,0,0,0,0,0,0,1383,1383,1383,1383,1383,1468,1469,0,0,0,0,
0,0,0,0,1381,1341,1341,1382,1383,1383,1383,1383,1383,1383,1383,1383,1383,1387,0,0,0,0,0,0,0,0,0,0,0,0,0,0,0,0,0,0,0,0,0,0,0,0,0,0,0,0,0,0,0,0,0,0,0,1340,1382,1383,1383,0,0,0,0,0,0,0,0,0,0,0,0,1383,1383,1383,1383,1468,1510,0,0,0,0,0,
0,0,0,0,1423,1383,1383,1383,1383,1383,1383,1383,1383,1383,1383,1383,1383,1386,0,0,0,0,0,0,0,0,0,0,0,0,0,0,0,0,0,0,0,0,0,0,0,0,0,0,0,0,0,0,0,0,0,0,0,1344,1383,1383,1383,0,0,0,0,0,0,0,0,0,0,0,0,1383,1383,1383,1468,1510,0,0,0,0,0,0,
0,0,0,0,1423,1383,1383,1383,1383,1383,1383,1383,1383,1383,1383,1383,1383,1387,0,0,0,0,0,0,0,0,0,0,0,0,0,0,0,0,0,0,0,0,0,0,0,0,0,0,0,0,0,0,0,0,0,0,0,1346,1383,1383,1383,0,0,0,0,0,0,0,0,0,0,0,1389,1509,1470,1473,1469,0,0,0,0,0,0,0,
0,0,0,0,1391,1383,1383,1383,0,0,0,0,0,0,1389,1470,1470,1469,0,0,0,0,0,0,0,0,0,0,0,0,0,0,0,0,0,0,0,0,0,0,0,0,0,0,0,0,0,0,0,0,0,0,0,1391,0,0,0,0,0,0,0,0,0,0,0,0,0,0,0,0,0,0,0,0,0,0,0,0,0,0,
0,0,0,0,0,0,0,0,0,0,0,0,0,0,0,0,0,0,0,0,0,0,0,0,0,0,0,0,0,0,0,0,0,0,0,0,0,0,0,0,0,0,0,0,0,0,0,0,0,0,0,0,0,0,0,0,0,0,0,0,0,0,0,0,0,0,0,0,0,0,0,0,0,0,0,0,0,0,0,0,
0,0,0,0,0,0,0,0,0,0,0,0,0,0,0,0,0,0,0,0,0,0,0,0,0,0,0,0,0,0,0,0,0,0,0,0,0,0,0,0,0,0,0,0,0,0,0,0,0,0,0,0,0,0,0,0,0,0,0,0,0,0,0,0,0,0,0,0,0,0,0,0,0,0,0,0,0,0,0,0,
0,0,0,0,0,0,0,0,0,0,0,0,0,0,0,0,0,0,0,0,0,0,0,0,0,0,0,0,0,0,0,0,0,0,0,0,0,0,0,0,0,0,0,0,0,0,0,0,0,0,0,0,0,0,0,0,0,0,0,0,0,0,0,0,0,0,0,0,0,0,0,0,0,0,0,0,0,0,0,0,
0,0,0,0,0,0,0,0,0,0,0,0,0,0,0,0,0,0,0,0,0,0,0,0,0,0,0,0,0,0,0,0,0,0,0,0,0,0,0,0,0,0,0,0,0,0,0,0,0,0,0,0,0,0,0,0,0,0,0,0,0,0,0,0,0,0,0,0,0,0,0,0,0,0,0,0,0,0,0,0,
0,0,0,0,0,0,0,0,0,0,0,0,0,0,0,0,0,0,0,0,0,0,0,0,0,0,0,0,0,0,0,0,0,0,0,0,0,0,0,0,0,0,0,0,0,0,0,0,0,0,0,0,0,0,0,0,0,0,0,0,0,0,0,0,0,0,0,0,0,0,0,0,0,0,0,0,0,0,0,0,
0,0,0,0,0,0,0,0,0,0,0,0,0,0,0,0,0,0,0,0,0,0,0,0,0,0,0,0,0,0,0,0,0,0,0,0,0,0,0,0,0,0,0,0,0,0,0,0,0,0,0,0,0,0,0,0,0,0,0,0,0,0,0,0,0,0,0,0,0,0,0,0,0,0,0,0,0,0,0,0,
0,0,0,0,0,0,0,0,0,0,0,0,0,0,0,0,0,0,0,0,0,0,0,0,0,0,0,0,0,0,0,0,0,0,0,0,0,0,0,0,0,1347,1431,1431,1432,1342,0,0,0,0,0,0,0,0,0,0,0,0,0,0,0,0,0,0,0,0,0,0,0,0,0,0,0,0,0,0,0,0,0,0,
0,0,0,0,0,1340,1431,1431,1431,1348,0,1383,0,0,0,0,0,0,0,0,0,0,0,0,0,0,0,0,0,0,0,0,0,0,0,0,0,0,0,1383,1383,1383,1383,1383,1383,1384,1385,0,0,0,0,0,0,0,0,0,0,0,0,0,0,0,0,0,0,0,0,0,0,0,0,0,0,0,0,0,0,0,0,0,
0,0,0,1381,1432,1382,1383,1383,1383,1383,1383,1383,0,0,0,0,0,0,0,0,0,0,0,0,0,0,0,0,0,0,0,0,1383,1383,1383,1383,1383,1383,1383,1383,1383,1383,1383,1383,1383,1383,1386,0,0,0,0,0,0,0,0,0,0,0,0,0,0,0,0,0,0,0,0,0,0,0,0,0,0,0,0,0,0,0,0,0,
0,0,1340,1382,1383,1383,1383,1383,1383,1383,1383,1383,0,0,0,0,0,0,0,0,0,0,0,0,0,0,0,0,1383,1383,1383,1383,1383,1383,1383,1383,1383,1383,1383,1383,1383,1383,1383,1383,1383,1383,1427,0,0,0,0,0,0,0,0,0,0,0,0,0,0,0,0,0,0,0,0,0,0,0,0,0,0,0,0,0,0,0,0,0,
0,0,1423,1383,1383,1383,1383,1383,1383,1383,1383,1383,0,0,0,0,0,0,0,0,0,0,0,0,0,0,0,0,1383,1383,1383,1383,1383,1383,1383,1383,1383,1383,1383,1383,1383,1383,1383,1383,1383,1383,1384,1430,1348,0,0,0,0,0,0,0,0,0,0,0,0,0,0,0,0,0,0,0,0,0,0,0,0,0,0,0,0,0,0,0,
0,0,1423,1383,1383,1383,1383,1383,1383,1383,1383,1383,0,0,0,0,0,0,0,0,0,0,0,0,0,0,0,0,1383,1383,1383,1383,1383,1383,1383,1383,1383,1383,1383,1383,1383,1383,1383,1383,1383,1383,1383,1383,0,0,0,0,0,0,0,0,0,0,0,0,0,0,0,0,0,0,0,0,0,0,0,0,0,0,0,0,0,0,0,0,
0,0,1423,1383,1383,1383,1383,1383,1383,1383,1383,1383,0,0,0,0,0,0,0,0,0,0,0,0,0,0,0,0,1383,1383,1383,1383,1383,1383,1383,1383,1383,1383,1383,1383,1383,1383,1383,1383,1383,1383,1383,1383,0,0,0,0,0,0,0,0,0,0,0,0,0,0,0,0,0,0,0,0,0,0,0,0,0,0,0,0,0,0,0,0,
0,0,1346,1383,1383,1383,1383,1383,1383,0,1383,1383,0,0,0,0,0,0,0,0,0,0,0,0,0,0,0,0,1383,1383,1383,1383,1383,1383,1383,1383,1383,1383,1383,1383,1383,1383,1383,1383,1383,1383,1383,1383,0,0,0,0,0,0,0,0,0,0,0,0,0,0,0,0,0,0,0,0,0,0,0,0,0,0,0,0,0,0,0,0,
0,0,1391,0,0,0,0,0,0,0,0,0,0,0,0,0,0,0,0,0,0,0,0,0,0,0,0,0,1383,1383,1383,1383,1383,1383,1383,1383,1383,1383,1383,1383,1383,1383,1383,1383,1383,1383,0,0,0,0,0,0,0,0,0,0,0,0,0,0,0,0,0,0,0,0,0,0,0,0,0,0,0,0,0,0,0,0,0,0,
0,0,0,0,0,0,0,0,0,0,0,0,0,0,0,0,0,0,0,0,0,0,0,0,0,0,0,0,1383,1383,1383,0,0,0,1383,1383,1383,1383,1383,1383,1383,1383,1383,1383,1383,0,0,0,0,0,0,0,0,0,0,0,0,0,0,0,0,0,0,0,0,0,0,0,0,0,0,0,0,0,0,0,0,0,0,0,
0,0,0,0,0,0,0,0,0,0,0,0,0,0,0,0,0,0,0,0,0,0,0,0,0,0,0,0,0,0,0,0,0,0,0,0,0,0,0,1383,1383,1383,0,0,0,0,0,0,0,0,0,0,0,0,0,0,0,0,0,0,0,0,0,0,0,0,0,0,0,0,0,0,0,0,0,0,0,0,0,0,
0,0,0,0,0,0,0,0,0,0,0,0,0,0,0,0,0,0,0,0,0,0,0,0,0,0,0,0,0,0,0,0,0,0,1383,1383,1383,1383,0,0,0,0,1350,0,0,0,0,0,0,0,0,0,0,0,0,0,0,0,0,0,0,0,0,0,0,0,0,0,0,0,0,0,0,0,0,0,0,0,0,0,
0,0,0,0,0,0,0,0,0,0,0,0,0,0,0,0,0,0,0,0,0,0,0,0,0,0,0,0,0,0,0,1389,1473,1466,1383,1383,1383,1383,1383,1468,1471,1472,1510,0,0,0,0,0,0,0,0,0,0,0,0,0,0,0,0,0,0,0,0,0,0,0,0,0,0,0,0,0,0,0,0,0,0,0,0,0,
0,0,0,0,0,0,0,0,0,0,0,0,0,0,0,0,0,0,0,0,0,0,0,0,0,0,0,0,0,0,0,0,0,1508,1473,1470,1509,1471,1509,1469,0,0,0,0,0,0,0,0,0,0,0,0,0,0,0,0,0,0,0,0,0,0,0,0,0,0,0,0,0,0,0,0,0,0,0,0,0,0,0,0,
0,0,0,0,0,0,0,0,0,0,0,0,0,0,0,0,0,0,0,0,0,0,0,0,0,0,0,0,0,0,0,0,0,0,0,0,0,0,0,0,0,0,0,0,0,0,0,0,0,0,0,0,0,0,0,0,0,0,0,0,0,0,0,0,0,0,0,0,0,0,0,0,0,0,0,0,0,0,0,0,
0,0,0,0,0,0,0,0,0,0,0,0,0,0,0,0,0,0,0,0,0,0,0,0,0,0,0,0,0,0,0,0,0,0,0,0,0,0,0,0,0,0,0,0,0,0,0,0,0,0,0,0,0,0,0,0,0,0,0,0,0,0,0,0,0,0,0,0,0,0,0,0,0,0,0,0,0,0,0,0,
0,0,0,0,0,0,0,0,0,0,0,0,0,0,0,0,0,0,0,0,0,0,0,0,0,0,0,0,0,0,0,0,0,0,0,0,0,0,0,0,0,0,0,0,0,0,0,0,0,0,0,0,0,0,0,0,0,0,0,0,0,0,0,0,0,0,0,0,0,0,0,0,0,0,0,0,0,0,0,0
</data>
 </layer>
 <layer id="19" name="terrain4" width="80" height="45">
  <data encoding="csv">
0,0,0,0,0,0,0,0,0,0,0,0,0,0,0,0,0,0,0,0,0,0,0,0,0,0,0,0,0,0,0,0,0,0,0,0,0,0,0,0,0,0,0,0,0,0,0,0,0,0,0,0,0,0,0,0,0,0,0,0,0,0,0,0,0,0,0,0,0,0,0,0,0,0,0,0,0,0,0,0,
0,0,0,0,0,0,0,0,0,0,0,0,0,0,0,0,0,0,0,0,0,0,0,0,0,0,0,0,0,0,0,0,0,0,0,0,0,0,0,0,0,0,0,0,0,0,0,0,0,0,0,0,0,0,0,0,0,0,0,0,0,0,0,0,0,0,0,0,0,0,0,0,0,0,0,0,0,0,0,0,
0,0,0,0,0,0,0,0,0,0,0,0,0,0,0,0,0,0,0,0,0,0,0,0,0,0,0,0,0,0,0,0,0,0,0,0,0,0,0,0,0,0,0,0,0,0,0,0,0,0,0,0,0,0,0,0,0,0,0,0,0,0,0,0,0,0,0,0,0,0,0,0,0,0,0,0,0,0,0,0,
0,0,0,0,0,0,0,0,0,0,0,0,0,0,0,0,0,0,0,0,0,0,0,0,0,0,0,0,0,0,0,0,0,0,0,0,0,0,0,0,0,0,0,0,0,0,0,0,0,0,0,0,0,0,0,0,0,0,0,0,0,0,0,0,0,0,0,0,0,0,0,0,0,0,0,0,0,0,0,0,
0,0,0,0,0,0,0,0,0,0,0,0,0,0,0,0,0,0,0,0,0,0,0,0,0,0,0,0,0,0,0,0,0,0,0,0,0,0,0,0,0,0,0,0,0,0,0,0,0,0,0,0,0,0,0,0,0,0,0,0,0,0,0,0,0,0,0,0,0,0,0,0,0,0,0,0,0,0,0,0,
0,0,0,0,0,0,0,0,0,0,0,0,0,0,0,0,0,0,0,0,0,0,0,0,0,0,0,0,0,0,0,0,0,0,0,0,0,0,0,0,0,0,0,0,0,0,0,0,0,0,0,0,0,0,0,0,0,0,0,0,0,0,0,0,0,0,0,0,0,0,0,0,0,0,0,0,0,0,0,0,
0,0,0,0,0,0,0,0,0,0,0,0,0,0,0,0,0,0,0,0,0,0,0,0,0,0,0,0,0,0,0,0,0,0,0,0,0,0,0,0,0,0,0,0,0,0,0,0,0,0,0,0,0,0,0,0,0,0,0,0,0,0,0,0,0,0,0,0,0,0,0,0,0,0,0,0,0,0,0,0,
0,0,0,0,0,0,0,0,0,0,0,0,0,0,0,0,0,0,0,0,0,0,0,0,0,0,0,0,0,0,0,0,0,0,0,0,0,0,0,0,0,0,0,0,0,0,0,0,0,0,0,0,0,0,0,0,0,0,0,0,0,0,0,0,0,0,0,0,0,0,0,0,0,0,0,0,0,0,0,0,
0,0,0,0,0,0,0,0,0,0,0,0,0,0,0,0,0,0,0,0,0,0,0,0,0,0,0,0,0,0,0,0,0,0,0,0,0,0,0,0,0,0,0,0,0,0,0,0,0,0,0,0,0,0,0,0,0,0,0,0,0,0,0,0,0,0,0,0,0,0,0,0,0,0,0,0,0,0,0,0,
0,0,0,0,0,0,0,0,0,0,0,0,0,0,0,0,0,0,0,0,0,0,0,0,0,0,0,0,0,0,0,0,0,0,0,0,0,0,0,0,0,0,0,0,0,0,0,0,0,0,0,0,0,0,0,0,0,0,0,0,0,0,0,0,0,0,0,0,0,0,0,0,0,0,0,0,0,0,0,0,
0,0,0,0,0,0,0,0,0,0,0,0,0,0,0,0,0,0,0,0,0,0,0,0,0,0,0,0,0,0,0,0,0,0,0,0,0,0,0,0,0,0,0,0,0,0,0,0,0,0,0,0,0,0,0,0,0,0,0,0,0,0,0,0,0,0,0,0,0,0,0,0,0,0,0,0,0,0,0,0,
0,0,0,0,0,0,0,0,0,0,0,0,0,0,0,0,0,0,0,0,0,0,0,0,0,0,0,0,0,0,0,0,0,0,0,0,0,0,0,0,0,0,0,0,0,0,0,0,0,0,0,0,0,0,0,0,0,0,0,0,0,0,0,0,0,0,0,0,0,0,0,0,0,0,0,0,0,0,0,0,
0,0,0,0,0,0,0,0,0,0,0,0,0,0,0,0,0,0,0,0,0,0,0,0,0,0,0,0,0,0,0,0,0,0,0,0,0,0,0,0,0,0,0,0,0,0,0,0,0,0,0,0,0,0,0,0,0,0,0,0,0,0,0,0,0,0,0,0,0,0,0,0,0,0,0,0,0,0,0,0,
0,0,0,0,0,0,0,0,0,0,0,0,0,0,0,0,0,0,0,0,0,0,0,0,0,0,0,0,0,0,0,0,0,0,0,0,0,0,0,0,0,0,0,0,0,0,0,0,0,0,0,0,0,0,0,0,0,0,0,0,0,0,0,0,0,0,0,0,0,0,0,0,0,0,0,0,0,0,0,0,
0,0,0,0,0,0,0,0,0,0,0,0,0,0,0,0,0,0,0,0,0,0,0,0,0,0,0,0,0,0,0,0,0,0,0,0,0,0,0,0,0,0,0,0,0,0,0,0,0,0,0,0,0,0,0,0,0,0,0,0,0,0,0,0,0,0,0,0,0,0,0,0,0,0,0,0,0,0,0,0,
0,0,0,0,0,0,0,0,0,0,0,0,0,0,0,0,0,0,0,0,0,0,0,0,0,0,0,0,0,0,0,0,0,0,0,0,0,0,0,0,0,0,0,0,0,0,0,0,0,0,0,0,0,0,0,0,0,0,0,0,0,0,0,0,0,0,0,0,0,0,0,0,0,0,0,0,0,0,0,0,
0,0,0,0,0,0,0,0,0,0,0,0,0,0,0,0,0,0,0,0,0,0,0,0,0,0,0,0,0,0,0,0,0,0,0,0,0,0,0,0,0,0,0,0,0,0,0,0,0,0,0,0,0,0,0,0,0,0,0,0,0,0,0,0,0,0,0,0,0,0,0,0,0,0,0,0,0,0,0,0,
0,0,0,0,0,0,0,0,0,0,0,0,0,0,0,0,0,0,0,0,0,0,0,0,0,0,0,0,0,0,0,0,0,0,0,0,0,0,0,0,0,0,0,0,0,0,0,0,0,0,0,0,0,0,0,0,0,0,0,0,0,0,0,0,0,0,0,0,0,0,0,0,0,0,0,0,0,0,0,0,
0,0,0,0,0,0,0,0,0,0,0,0,0,0,0,0,0,0,0,0,0,0,0,0,0,0,0,0,0,0,0,0,0,0,0,0,0,0,0,0,0,0,0,0,0,0,0,0,0,0,0,0,0,0,0,0,0,0,0,0,0,0,0,0,0,0,0,0,0,0,0,0,0,0,0,0,0,0,0,0,
0,0,0,0,0,0,0,0,0,0,0,0,0,0,0,0,0,0,0,0,0,0,0,0,0,0,0,0,0,0,0,0,0,0,0,0,0,0,0,0,0,0,0,0,0,0,0,0,0,0,0,0,0,0,0,0,0,0,0,0,0,0,0,0,0,0,0,0,0,0,0,0,0,0,0,0,0,0,0,0,
0,0,0,0,0,0,0,0,0,0,0,0,0,0,0,0,0,0,0,0,0,0,0,0,0,0,0,0,0,0,0,0,0,0,0,0,0,0,0,0,0,0,0,0,0,0,0,0,0,0,0,0,0,0,0,0,0,0,0,0,0,0,0,0,0,0,0,0,0,0,0,0,0,0,0,0,0,0,0,0,
0,0,0,0,0,0,0,0,0,0,0,0,0,0,0,0,0,0,0,0,0,0,0,0,0,0,0,0,0,0,0,0,0,0,0,0,0,0,0,0,0,0,0,0,0,0,0,0,0,0,0,0,0,0,0,0,0,0,0,0,0,0,0,0,0,0,0,0,0,0,0,0,0,0,0,0,0,0,0,0,
0,0,0,0,0,0,0,0,0,0,0,0,0,0,0,0,0,0,0,0,0,0,0,0,0,0,0,0,0,0,0,0,0,0,0,0,0,0,0,0,0,0,0,0,0,0,0,0,0,0,0,0,0,0,0,0,0,0,0,0,0,0,0,0,0,0,0,0,0,0,0,0,0,0,0,0,0,0,0,0,
0,0,0,0,0,0,0,0,0,0,0,0,0,0,0,0,0,0,0,0,0,0,0,0,0,0,0,0,0,0,0,0,0,0,0,0,0,0,0,0,0,0,0,0,0,0,0,0,0,0,0,0,0,0,0,0,0,0,0,0,0,0,0,0,0,0,0,0,0,0,0,0,0,0,0,0,0,0,0,0,
0,0,0,0,0,0,0,0,0,0,0,0,0,0,0,0,0,0,0,0,0,0,0,0,0,0,0,0,0,0,0,0,0,0,0,0,0,0,0,0,0,0,0,0,0,0,0,0,0,0,0,0,0,0,0,0,0,0,0,0,0,0,0,0,0,0,0,0,0,0,0,0,0,0,0,0,0,0,0,0,
0,0,0,0,0,0,0,0,0,0,0,0,0,0,0,0,0,0,0,0,0,0,0,0,0,0,0,0,0,0,0,0,0,0,0,0,0,0,0,0,0,0,0,0,0,0,0,0,0,0,0,0,0,0,0,0,0,0,6095,0,0,0,0,0,0,6095,0,0,0,0,0,0,0,0,0,0,0,0,0,0,
0,0,0,0,0,0,0,0,0,0,0,0,0,0,0,0,0,0,0,0,0,0,0,0,0,0,0,0,0,0,0,0,0,0,0,0,0,0,0,0,0,0,0,0,0,0,0,0,0,0,0,0,0,0,0,0,0,0,6126,0,0,6095,0,0,0,6126,0,0,0,0,0,0,0,0,0,0,0,0,0,0,
0,0,0,0,0,0,0,0,0,0,0,0,0,0,0,0,0,0,0,0,0,0,0,0,0,0,0,0,0,0,0,0,0,0,0,0,0,0,0,0,0,0,0,0,0,0,0,0,0,0,0,0,0,0,0,0,0,0,0,0,0,0,0,0,6065,0,0,0,0,0,0,0,0,0,0,0,0,0,0,0,
0,0,0,0,0,0,0,0,0,0,0,0,0,0,0,0,0,0,0,0,0,0,0,0,0,0,0,0,0,0,0,0,0,0,0,0,0,0,0,0,0,0,0,0,0,0,0,0,0,0,0,0,0,0,0,0,0,0,0,0,0,0,0,0,0,0,0,0,0,0,0,0,0,0,0,0,0,0,0,0,
0,0,0,0,0,0,0,0,0,0,0,0,0,0,0,0,0,0,0,0,0,0,0,0,0,0,0,0,0,0,0,0,0,0,0,0,0,0,0,0,0,0,0,0,0,0,0,0,0,0,0,0,0,0,0,0,0,0,0,0,0,0,0,0,0,6127,0,0,0,0,0,0,0,0,0,0,0,0,0,0,
0,0,0,0,0,0,0,0,0,0,0,0,0,0,0,0,0,0,0,0,0,0,0,0,0,0,0,0,0,0,0,0,0,0,0,0,0,0,0,0,0,0,0,0,0,0,0,0,0,0,0,0,0,0,0,0,0,6095,0,0,0,0,0,0,0,0,0,0,0,0,0,0,0,0,0,0,0,0,0,0,
0,0,0,0,0,0,0,0,0,0,0,0,0,0,0,0,0,0,0,0,0,0,0,0,0,0,0,0,0,0,0,0,0,0,0,0,0,0,0,0,0,0,0,0,0,0,0,0,0,0,0,0,0,6094,0,0,0,0,0,0,0,0,0,0,0,0,0,0,0,0,0,0,0,0,0,0,0,0,0,0,
0,0,0,0,0,0,0,0,0,0,0,0,0,0,0,0,0,0,0,0,0,0,0,0,0,0,0,0,0,0,0,0,0,0,0,0,0,0,0,0,0,0,0,0,0,0,0,0,0,0,0,0,0,6125,0,0,0,0,0,0,0,0,0,0,0,6095,6126,0,0,0,0,0,0,0,0,0,0,0,0,0,
0,0,0,0,0,0,0,0,0,0,0,0,0,0,0,0,0,0,0,0,0,0,0,0,0,0,0,0,0,0,0,0,0,0,0,0,0,0,0,0,0,0,0,0,0,0,0,0,0,0,0,0,0,0,0,0,0,0,0,0,0,0,0,0,0,6095,0,0,0,0,0,0,0,0,0,0,0,0,0,0,
0,0,0,0,0,0,0,0,0,0,0,0,0,0,0,0,0,0,0,0,0,0,0,0,0,0,0,0,0,0,0,0,0,0,0,0,0,0,0,0,0,0,0,0,0,0,0,0,0,0,0,0,0,0,0,0,0,0,0,0,0,0,0,0,0,0,0,0,0,0,0,0,0,0,0,0,0,0,0,0,
0,0,0,0,0,0,0,0,0,0,0,0,0,0,0,0,0,0,0,0,0,0,0,0,0,0,0,0,0,0,0,0,0,0,0,0,0,0,0,0,0,0,0,0,0,0,0,0,0,0,0,0,0,0,0,0,0,0,0,0,0,0,0,0,0,0,6126,0,0,6096,0,0,0,0,0,0,0,0,0,0,
0,0,0,0,0,0,0,0,0,0,0,0,0,0,0,0,0,0,0,0,0,0,0,0,0,0,0,0,0,0,0,0,0,0,0,0,0,0,0,0,0,0,0,0,0,0,0,0,0,0,0,0,0,0,0,0,0,0,0,0,0,0,0,0,0,0,0,0,0,0,6126,0,0,0,0,0,0,0,0,0,
0,0,0,0,0,0,0,0,0,0,0,0,0,0,0,0,0,0,0,0,0,0,0,0,0,0,0,0,0,0,0,0,0,0,0,0,0,0,0,0,0,0,0,0,0,0,0,0,0,0,0,0,0,0,0,0,0,0,0,0,0,0,0,0,0,0,0,0,0,0,0,0,0,0,0,0,0,0,0,0,
0,0,0,0,0,0,0,0,0,0,0,0,0,0,0,0,0,0,0,0,0,0,0,0,0,0,0,0,0,0,0,0,0,0,0,0,0,0,0,0,0,0,0,0,0,0,0,0,0,0,0,0,0,0,0,0,0,0,0,0,0,0,0,0,0,0,0,0,0,0,0,0,0,0,0,0,0,0,0,0,
0,0,0,0,0,0,0,0,0,0,0,0,0,0,0,0,0,0,0,0,0,0,0,0,0,0,0,0,0,0,0,0,0,0,0,0,0,0,0,0,0,0,0,0,0,0,0,0,0,0,0,0,0,0,0,0,0,0,0,0,0,0,0,0,0,0,0,0,0,0,0,0,0,0,0,0,0,0,0,0,
0,0,0,0,0,0,0,0,0,0,0,0,0,0,0,0,0,0,0,0,0,0,0,0,0,0,0,0,0,0,0,0,0,0,0,0,0,0,0,0,0,0,0,0,0,0,0,0,0,0,0,0,0,0,0,0,0,0,0,0,0,0,0,0,0,0,0,0,0,0,0,0,0,0,0,0,0,0,0,0,
0,0,0,0,0,0,0,0,0,0,0,0,0,0,0,0,0,0,0,0,0,0,0,0,0,0,0,0,0,0,0,0,0,0,0,0,0,0,0,0,0,0,0,0,0,0,0,0,0,0,0,0,0,0,0,0,0,0,0,0,0,0,0,0,0,0,0,0,0,0,0,0,0,0,0,0,0,0,0,0,
0,0,0,0,0,0,0,0,0,0,0,0,0,0,0,0,0,0,0,0,0,0,0,0,0,0,0,0,0,0,0,0,0,0,0,0,0,0,0,0,0,0,0,0,0,0,0,0,0,0,0,0,0,0,0,0,0,0,0,0,0,0,0,0,0,0,0,0,0,0,0,0,0,0,0,0,0,0,0,0,
0,0,0,0,0,0,0,0,0,0,0,0,0,0,0,0,0,0,0,0,0,0,0,0,0,0,0,0,0,0,0,0,0,0,0,0,0,0,0,0,0,0,0,0,0,0,0,0,0,0,0,0,0,0,0,0,0,0,0,0,0,0,0,0,0,0,0,0,0,0,0,0,0,0,0,0,0,0,0,0,
0,0,0,0,0,0,0,0,0,0,0,0,0,0,0,0,0,0,0,0,0,0,0,0,0,0,0,0,0,0,0,0,0,0,0,0,0,0,0,0,0,0,0,0,0,0,0,0,0,0,0,0,0,0,0,0,0,0,0,0,0,0,0,0,0,0,0,0,0,0,0,0,0,0,0,0,0,0,0,0
</data>
 </layer>
 <layer id="3" name="water" width="80" height="45">
  <data encoding="csv">
0,0,0,0,0,0,0,0,0,0,0,0,0,0,0,0,0,0,0,0,0,0,0,0,0,0,0,0,0,0,0,0,0,0,0,0,0,0,0,0,0,0,0,0,0,0,0,0,0,0,0,0,0,0,0,0,0,0,0,0,0,0,0,0,0,0,0,0,0,0,0,0,0,0,0,0,0,0,0,0,
0,0,0,0,0,0,0,0,0,0,0,0,0,0,0,0,0,0,0,0,0,0,0,0,0,0,0,0,0,0,0,0,0,0,0,0,0,0,0,0,0,0,0,0,0,0,0,0,0,0,0,0,0,0,0,0,0,0,0,0,0,0,0,0,0,0,0,0,0,0,0,0,0,0,0,0,0,0,0,0,
0,0,0,0,0,0,0,0,0,0,0,0,0,0,0,0,0,0,0,0,0,0,0,0,0,0,0,0,0,0,0,0,0,0,0,0,0,0,0,0,0,0,0,0,0,0,0,0,0,0,0,0,0,0,0,0,0,0,0,0,0,0,0,0,0,0,0,0,0,0,0,0,0,0,0,0,0,0,0,0,
0,0,0,0,0,0,0,0,0,0,0,0,0,0,0,0,0,0,0,0,0,0,0,0,0,0,0,0,0,0,0,0,0,0,0,0,0,0,0,0,0,0,0,0,0,0,0,0,0,0,0,0,0,0,0,0,0,0,0,0,0,0,0,0,0,0,0,0,0,0,0,0,0,0,0,0,0,0,0,0,
0,0,0,0,0,0,0,0,0,0,0,0,0,0,0,0,0,0,0,0,0,0,0,0,0,0,0,0,0,0,0,0,0,0,0,0,0,0,0,0,0,0,0,0,0,0,0,0,0,0,0,0,0,0,0,0,0,0,0,0,0,0,0,0,0,0,0,0,0,0,0,0,0,0,0,0,0,0,0,0,
0,0,0,0,0,0,0,0,0,0,0,0,0,0,0,0,0,0,0,0,0,0,0,0,0,0,0,0,0,0,0,0,0,0,0,0,0,0,0,0,0,0,0,0,0,0,0,0,0,0,0,0,0,0,0,0,0,0,0,0,0,0,0,0,0,0,0,0,0,0,0,0,0,0,0,0,0,0,0,0,
0,0,0,0,0,0,0,0,0,0,0,0,0,0,0,0,0,0,0,0,0,0,0,0,0,0,0,0,0,0,0,0,0,0,0,0,0,0,0,0,0,0,0,0,0,0,0,0,0,0,0,0,0,0,0,0,0,0,0,0,0,0,0,0,0,0,0,0,0,0,0,0,0,0,0,0,0,0,0,0,
0,0,0,0,0,0,0,0,0,0,0,0,0,0,0,0,0,0,0,0,0,0,0,0,0,0,0,0,0,0,0,0,0,0,0,0,0,0,0,0,0,0,0,0,0,0,0,0,0,0,0,0,0,0,0,0,0,0,0,0,0,0,0,0,0,0,0,0,0,0,0,0,0,0,0,0,0,0,0,0,
0,0,0,0,0,0,0,0,0,0,0,0,0,0,0,0,0,0,0,0,0,0,0,0,0,0,0,0,0,0,0,0,0,0,0,0,0,0,0,0,0,0,0,0,0,0,0,0,0,0,0,0,0,0,0,0,0,0,0,0,0,0,0,0,0,0,0,0,0,0,0,0,0,0,0,0,0,0,0,0,
0,0,0,0,0,0,0,0,0,0,0,0,0,0,0,0,0,0,0,0,0,0,0,0,0,0,0,0,0,0,0,0,0,0,0,0,0,0,0,0,0,0,0,0,0,0,0,0,0,0,0,0,0,0,0,0,0,0,0,0,0,0,0,0,0,0,0,0,0,0,0,0,0,0,0,0,0,0,0,0,
0,0,0,0,0,0,0,0,0,0,0,0,0,0,0,0,0,0,0,0,0,0,0,0,0,0,0,0,0,0,0,0,0,0,0,0,0,0,0,0,0,0,0,0,0,0,0,0,0,0,0,0,0,0,0,0,0,0,0,0,0,0,0,0,0,0,0,0,0,0,0,0,0,0,0,0,0,0,0,0,
0,0,0,0,0,0,0,0,0,0,0,0,0,0,0,0,0,0,0,0,0,0,0,0,0,0,0,0,0,0,0,0,0,0,0,0,0,0,0,0,0,0,0,0,0,0,0,0,0,0,0,0,0,0,0,0,0,0,0,0,0,0,0,0,0,0,0,0,0,0,0,0,0,0,0,0,0,0,0,0,
0,0,0,0,0,0,0,0,0,0,0,0,0,0,0,0,0,0,0,0,0,0,0,0,0,0,0,0,0,0,0,0,0,0,0,0,0,0,0,0,0,0,0,0,0,0,0,0,0,0,0,0,0,0,0,0,0,0,0,0,0,0,0,0,0,0,0,0,0,0,0,0,0,0,0,0,0,0,0,0,
0,0,0,0,0,0,0,0,0,0,0,0,0,0,0,0,0,0,0,0,0,0,0,0,0,0,0,0,0,0,0,0,0,0,0,0,0,0,0,0,0,0,0,0,0,0,0,0,0,0,0,0,0,0,0,0,0,0,0,0,0,0,0,0,0,0,0,0,0,0,0,0,0,0,0,0,0,0,0,0,
0,0,0,0,0,0,0,0,0,0,0,0,0,0,0,0,0,0,0,0,0,0,0,0,0,0,0,0,0,0,0,0,0,0,0,0,0,0,0,0,0,0,0,0,0,0,0,0,0,0,0,0,0,0,0,0,0,0,0,0,0,0,0,0,0,0,0,0,0,0,0,0,0,0,0,0,0,0,0,0,
0,0,0,0,0,0,0,0,0,0,0,0,0,0,0,0,0,0,0,0,0,0,0,0,0,0,0,0,806,739,749,777,777,730,0,0,0,0,0,0,0,0,0,0,0,0,0,0,0,0,0,0,0,0,0,0,0,0,0,0,0,0,0,0,0,0,0,0,0,0,0,0,0,0,0,0,0,0,0,0,
0,0,0,0,0,0,0,0,0,0,0,0,0,0,0,0,0,0,0,0,0,0,0,0,0,0,768,777,787,597,597,597,597,711,692,0,0,0,0,0,0,0,0,0,0,0,0,0,0,0,0,0,0,0,0,0,0,0,0,0,0,0,0,0,0,0,0,0,0,0,0,0,0,0,0,0,0,0,0,0,
0,0,0,0,0,0,0,0,0,0,0,0,0,0,0,0,0,0,0,0,0,0,0,0,806,758,787,597,597,597,597,597,597,597,711,692,0,0,0,0,0,0,0,0,0,0,0,0,0,0,0,0,0,0,0,0,0,0,0,0,0,0,0,0,0,0,0,0,0,0,0,0,0,0,0,0,0,0,0,0,
0,0,0,0,0,0,0,0,0,0,0,0,0,0,0,0,0,0,0,0,0,0,0,768,787,597,597,597,597,597,597,597,597,597,597,673,0,0,0,0,0,0,0,0,0,0,0,0,0,0,0,0,0,0,0,0,0,0,0,0,0,0,0,0,0,0,0,0,0,0,0,0,0,0,0,0,0,0,0,0,
0,0,0,0,0,0,0,0,0,0,0,0,0,0,0,0,0,0,0,0,0,0,0,825,597,597,597,597,597,597,597,597,597,597,597,720,0,0,0,0,0,0,0,0,0,0,0,0,0,0,0,0,0,0,0,0,0,0,0,0,0,0,0,0,0,0,0,0,0,0,0,0,0,0,0,0,0,0,0,0,
0,0,0,0,0,0,0,0,0,0,0,0,0,0,0,0,0,0,0,0,0,0,806,787,597,597,597,597,597,597,597,597,597,597,597,673,0,0,0,0,0,0,0,0,0,0,0,0,0,0,0,0,0,0,0,0,0,0,0,0,0,0,0,0,0,0,0,0,0,0,0,0,0,0,0,0,0,0,0,0,
0,0,0,0,0,0,0,0,0,0,0,0,0,0,0,0,0,0,0,0,0,0,644,597,597,597,597,597,597,597,597,597,597,597,597,720,0,0,0,0,0,0,0,0,0,0,0,0,0,0,0,0,0,0,0,0,0,0,0,0,0,0,0,0,0,0,0,0,0,0,0,0,0,0,0,0,0,0,0,0,
0,0,0,0,0,0,0,0,0,0,0,0,0,0,0,0,0,0,0,0,0,0,663,597,597,597,597,597,597,597,597,597,597,597,635,616,0,0,0,0,0,0,0,0,0,0,0,0,0,0,0,0,0,0,0,0,0,0,0,0,0,0,0,0,0,0,0,0,0,0,0,0,0,0,0,0,0,0,0,0,
0,0,0,0,0,0,0,0,0,0,0,0,0,0,0,0,0,0,0,0,0,0,663,597,597,597,597,597,597,597,597,597,597,597,701,0,0,0,0,0,0,0,0,0,0,0,0,0,0,0,0,0,0,0,0,0,0,0,0,0,0,0,0,0,0,0,0,0,0,0,0,0,0,0,0,0,0,0,0,0,
0,0,0,0,0,0,0,0,0,0,0,0,0,0,0,0,0,0,0,0,0,0,825,597,597,597,597,597,597,597,597,597,597,597,720,0,0,0,0,0,0,0,0,0,0,0,0,0,0,0,0,0,0,0,0,0,0,0,0,0,0,0,0,0,0,0,0,0,0,0,0,0,0,0,0,0,0,0,0,0,
0,0,0,0,0,0,0,0,0,0,0,0,0,0,0,0,0,0,0,0,0,0,844,863,597,597,597,597,597,597,597,635,796,901,654,0,0,0,0,0,0,0,0,0,0,0,0,0,0,0,0,0,0,0,0,0,0,0,0,0,0,0,0,0,0,0,0,0,0,0,0,0,0,0,0,0,0,0,0,0,
0,0,0,0,0,0,0,0,0,0,0,0,0,0,0,0,0,0,0,0,0,0,0,844,863,597,597,597,597,635,834,616,0,0,0,0,0,0,0,0,0,0,0,0,0,0,0,0,0,0,0,0,0,0,0,0,0,0,0,0,0,0,0,0,0,0,0,0,0,0,0,0,0,0,0,0,0,0,0,0,
0,0,0,0,0,0,0,0,0,0,0,0,0,0,0,0,0,0,0,0,0,0,0,0,844,796,796,815,834,654,0,0,0,0,0,0,0,0,0,0,0,0,0,0,0,0,0,0,0,0,0,0,0,0,0,0,0,0,0,0,0,0,0,0,0,0,0,0,0,0,0,0,0,0,0,0,0,0,0,0,
0,0,0,0,0,0,0,0,0,0,0,0,0,0,0,0,0,0,0,0,0,0,0,0,0,0,0,0,0,0,0,0,0,0,0,0,0,0,0,0,0,0,0,0,0,0,0,0,0,0,0,0,0,0,0,0,0,0,0,0,0,0,0,0,0,0,0,0,0,0,0,0,0,0,0,0,0,0,0,0,
0,0,0,0,0,0,0,0,0,0,0,0,0,0,0,0,0,0,0,0,0,0,0,0,0,0,0,0,0,0,0,0,0,0,0,0,0,0,0,0,0,0,0,0,0,0,0,0,0,0,0,0,0,0,0,0,0,0,0,0,0,0,0,0,0,0,0,0,0,0,0,0,0,0,0,0,0,0,0,0,
0,0,0,0,0,0,0,0,0,0,0,0,0,0,0,0,0,0,0,0,0,0,0,0,0,0,0,0,0,0,0,0,0,0,0,0,0,0,0,0,0,0,0,0,0,0,0,0,0,0,0,0,0,0,0,0,0,0,0,0,0,0,0,0,0,0,0,0,0,0,0,0,0,0,0,0,0,0,0,0,
0,0,0,0,0,0,0,0,0,0,0,0,0,0,0,0,0,0,0,0,0,0,0,0,0,0,0,0,0,0,0,0,0,0,0,0,0,0,0,0,0,0,0,0,0,0,0,0,0,0,0,0,0,0,0,0,0,0,0,0,0,0,0,0,0,0,0,0,0,0,0,0,0,0,0,0,0,0,0,0,
0,0,0,0,0,0,0,0,0,0,0,0,0,0,0,0,0,0,0,0,0,0,0,0,0,0,0,0,0,0,0,0,0,0,0,0,0,0,0,0,0,0,0,0,0,0,0,0,0,0,0,0,0,0,0,0,0,0,0,0,0,0,0,0,0,0,0,0,0,0,0,0,0,0,0,0,0,0,0,0,
0,0,0,0,0,0,0,0,0,0,0,0,0,0,0,0,0,0,0,0,0,0,0,0,0,0,0,0,0,0,0,0,0,0,0,0,0,0,0,0,0,0,0,0,0,0,0,0,0,0,0,0,0,0,0,0,0,0,0,0,0,0,0,0,0,0,0,0,0,0,0,0,0,0,0,0,0,0,0,0,
0,0,0,0,0,0,0,0,0,0,0,0,0,0,0,0,0,0,0,0,0,0,0,0,0,0,0,0,0,0,0,0,0,0,0,0,0,0,0,0,0,0,0,0,0,0,0,0,0,0,0,0,0,0,0,0,0,0,0,0,0,0,0,0,0,0,0,0,0,0,0,0,0,0,0,0,0,0,0,0,
0,0,0,0,0,0,0,0,0,0,0,0,0,0,0,0,0,0,0,0,0,0,0,0,0,0,0,0,0,0,0,0,0,0,0,0,0,0,0,0,0,0,0,0,0,0,0,0,0,0,0,0,0,0,0,0,0,0,0,0,0,0,0,0,0,0,0,0,0,0,0,0,0,0,0,0,0,0,0,0,
0,0,0,0,0,0,0,0,0,0,0,0,0,0,0,0,0,0,0,0,0,0,0,0,0,0,0,0,0,0,0,0,0,0,0,0,0,0,0,0,0,0,0,0,0,0,0,0,0,0,0,0,0,0,0,0,0,0,0,0,0,0,0,0,0,0,0,0,0,0,0,0,0,0,0,0,0,0,0,0,
0,0,0,0,0,0,0,0,0,0,0,0,0,0,0,0,0,0,0,0,0,0,0,0,0,0,0,0,0,0,0,0,0,0,0,0,0,0,0,0,0,0,0,0,0,0,0,0,0,0,0,0,0,0,0,0,0,0,0,0,0,0,0,0,0,0,0,0,0,0,0,0,0,0,0,0,0,0,0,0,
0,0,0,0,0,0,0,0,0,0,0,0,0,0,0,0,0,0,0,0,0,0,0,0,0,0,0,0,0,0,0,0,0,0,0,0,0,0,0,0,0,0,0,0,0,0,0,0,0,0,0,0,0,0,0,0,0,0,0,0,0,0,0,0,0,0,0,0,0,0,0,0,0,0,0,0,0,0,0,0,
0,0,0,0,0,0,0,0,0,0,0,0,0,0,0,0,0,0,0,0,0,0,0,0,0,0,0,0,0,0,0,0,0,0,0,0,0,0,0,0,0,0,0,0,0,0,0,0,0,0,0,0,0,0,0,0,0,0,0,0,0,0,0,0,0,0,0,0,0,0,0,0,0,0,0,0,0,0,0,0,
0,0,0,0,0,0,0,0,0,0,0,0,0,0,0,0,0,0,0,0,0,0,0,0,0,0,0,0,0,0,0,0,0,0,0,0,0,0,0,0,0,0,0,0,0,0,0,0,0,0,0,0,0,0,0,0,0,0,0,0,0,0,0,0,0,0,0,0,0,0,0,0,0,0,0,0,0,0,0,0,
0,0,0,0,0,0,0,0,0,0,0,0,0,0,0,0,0,0,0,0,0,0,0,0,0,0,0,0,0,0,0,0,0,0,0,0,0,0,0,0,0,0,0,0,0,0,0,0,0,0,0,0,0,0,0,0,0,0,0,0,0,0,0,0,0,0,0,0,0,0,0,0,0,0,0,0,0,0,0,0,
0,0,0,0,0,0,0,0,0,0,0,0,0,0,0,0,0,0,0,0,0,0,0,0,0,0,0,0,0,0,0,0,0,0,0,0,0,0,0,0,0,0,0,0,0,0,0,0,0,0,0,0,0,0,0,0,0,0,0,0,0,0,0,0,0,0,0,0,0,0,0,0,0,0,0,0,0,0,0,0,
0,0,0,0,0,0,0,0,0,0,0,0,0,0,0,0,0,0,0,0,0,0,0,0,0,0,0,0,0,0,0,0,0,0,0,0,0,0,0,0,0,0,0,0,0,0,0,0,0,0,0,0,0,0,0,0,0,0,0,0,0,0,0,0,0,0,0,0,0,0,0,0,0,0,0,0,0,0,0,0,
0,0,0,0,0,0,0,0,0,0,0,0,0,0,0,0,0,0,0,0,0,0,0,0,0,0,0,0,0,0,0,0,0,0,0,0,0,0,0,0,0,0,0,0,0,0,0,0,0,0,0,0,0,0,0,0,0,0,0,0,0,0,0,0,0,0,0,0,0,0,0,0,0,0,0,0,0,0,0,0
</data>
 </layer>
 <layer id="8" name="cliffs2" width="80" height="45">
  <data encoding="csv">
0,0,0,0,0,0,0,0,0,0,0,0,0,0,0,0,0,0,0,0,0,0,0,0,0,0,0,0,0,0,0,0,0,0,0,0,0,0,0,0,0,0,0,0,0,0,0,0,0,0,0,0,0,0,0,0,0,0,0,0,0,0,0,0,0,0,0,0,0,0,0,0,0,0,0,0,0,0,0,0,
0,0,0,0,0,0,0,0,0,0,0,0,0,0,0,0,0,0,0,0,0,0,0,0,0,0,0,0,0,0,0,0,0,0,0,0,0,0,0,0,0,0,0,0,0,0,0,0,0,0,0,0,0,0,0,0,0,0,0,0,0,0,0,0,0,0,0,17,3,197,3,229,21,0,0,0,0,0,0,0,
0,0,0,0,0,0,0,0,0,0,0,0,0,0,0,0,0,0,0,0,0,0,0,0,0,0,0,0,0,0,0,0,0,0,0,0,0,0,0,0,0,0,0,0,0,0,0,0,0,0,0,0,0,0,0,0,0,0,0,0,0,0,0,0,0,0,0,33,138,133,129,36,37,0,0,0,0,0,0,0,
0,0,0,0,0,0,0,0,0,0,0,0,0,0,0,0,0,0,0,0,0,0,0,0,0,0,0,0,0,0,0,0,0,0,0,0,0,0,0,0,0,0,0,0,0,0,0,0,0,0,0,0,0,0,0,0,0,0,0,0,0,0,0,0,0,17,197,18,19,136,35,138,37,0,0,0,0,0,0,0,
0,0,0,0,0,0,0,0,0,0,0,0,0,0,0,0,0,0,0,0,0,0,0,0,0,0,0,0,0,0,0,0,0,0,0,0,0,0,0,0,0,0,0,0,0,0,0,0,0,0,0,0,0,0,0,0,0,0,0,0,0,0,0,0,0,211,135,133,36,138,136,138,20,213,4,0,0,0,0,0,
0,0,0,0,0,0,0,0,0,0,0,0,0,0,0,0,0,0,0,0,0,0,0,0,0,0,0,0,0,0,0,0,0,0,0,0,0,0,0,0,0,0,0,0,0,0,0,0,0,0,0,0,0,0,0,0,0,0,0,0,0,0,0,0,0,211,35,36,35,36,134,137,129,130,37,0,0,0,0,0,
0,0,0,0,0,0,0,0,0,0,0,0,0,0,0,0,0,0,0,0,0,0,0,0,0,0,0,0,0,0,0,0,0,0,0,0,0,0,0,0,0,0,0,0,0,0,0,0,0,0,0,0,0,0,0,0,0,0,0,0,0,0,0,0,0,33,133,210,146,145,145,145,50,129,228,0,0,0,0,0,
0,0,0,0,0,0,0,0,0,0,0,0,0,0,0,0,0,0,0,0,0,0,0,0,0,0,0,0,0,0,0,0,0,0,0,0,0,0,0,0,0,0,0,0,0,0,0,0,0,0,0,0,0,0,0,0,0,0,0,0,0,0,0,0,0,49,146,68,162,161,161,161,66,153,203,0,0,0,0,0,
0,0,0,0,0,0,0,0,0,0,0,0,0,0,0,0,0,0,0,0,0,0,0,0,0,0,0,0,0,0,0,0,0,0,0,0,0,0,0,0,0,0,0,0,0,0,0,0,0,0,0,0,0,0,0,0,0,0,0,0,0,0,0,0,0,65,162,84,178,177,177,177,82,169,219,0,0,0,0,0,
0,0,0,0,0,0,0,0,0,0,0,0,0,0,0,0,0,0,0,0,0,0,0,0,0,0,0,0,0,0,0,0,0,0,0,0,0,0,0,0,0,0,0,0,0,0,0,0,0,0,0,0,0,0,0,0,0,0,0,0,0,0,0,0,0,81,178,100,0,0,0,0,98,185,235,0,0,0,0,0,
0,0,0,0,0,0,0,0,0,0,0,0,0,0,0,0,0,0,0,0,0,0,0,0,0,0,0,0,0,0,0,0,0,0,0,0,0,0,0,0,0,0,0,0,0,0,0,0,0,0,0,0,0,0,0,0,0,0,0,0,0,0,0,0,0,0,0,0,0,0,0,0,0,0,0,0,0,0,0,0,
0,0,0,0,0,0,0,0,0,0,0,0,0,0,0,0,0,0,0,0,0,0,0,0,0,0,0,0,0,0,0,0,0,0,0,0,0,0,0,0,0,0,0,0,0,0,0,0,0,0,0,0,0,0,0,0,0,0,0,0,0,0,0,0,0,0,0,0,0,0,0,0,0,0,0,0,0,0,0,0,
0,0,0,0,0,0,0,0,0,0,0,0,0,0,0,0,0,0,0,0,0,0,0,0,0,0,0,0,0,0,0,0,0,0,0,0,0,0,0,0,0,0,0,0,0,0,0,0,0,0,0,0,0,0,0,0,0,0,0,0,0,0,0,0,0,0,0,0,0,0,0,0,0,0,0,0,0,0,0,0,
0,0,0,0,0,0,0,0,0,0,0,0,0,0,0,0,0,0,0,0,0,0,0,0,0,0,0,0,0,0,0,0,0,0,0,0,0,0,0,0,0,0,0,0,0,0,0,0,0,0,0,0,0,0,0,0,0,0,0,0,0,0,0,0,0,0,0,0,0,0,0,0,0,0,0,0,0,0,0,0,
0,0,0,0,0,0,0,0,0,0,0,0,0,0,0,0,0,0,0,0,0,0,0,0,0,0,0,0,0,0,0,0,0,0,0,0,0,0,0,0,0,0,0,0,0,0,0,0,0,0,0,0,0,0,0,0,0,0,0,0,0,0,0,0,0,0,0,0,0,0,0,0,0,0,0,0,0,0,0,0,
0,0,0,0,0,0,0,0,0,0,0,0,0,0,0,0,0,0,0,0,0,0,0,0,0,0,0,0,0,0,0,0,0,0,0,0,0,0,0,0,0,0,0,0,0,0,0,0,0,0,0,0,0,0,0,0,0,0,0,0,0,0,0,0,0,0,0,0,0,0,0,0,0,0,0,0,0,0,0,0,
0,0,0,0,0,0,0,0,0,0,0,0,0,0,0,0,0,0,0,0,0,0,0,0,0,0,0,0,0,0,0,0,0,0,0,0,0,0,0,0,0,0,0,0,0,0,0,0,0,0,0,0,0,0,0,0,0,0,0,0,0,0,0,0,0,0,0,0,0,0,0,0,0,0,0,0,0,0,0,0,
0,0,0,0,0,0,0,0,0,0,0,0,0,0,0,0,0,0,0,0,0,0,0,0,0,0,0,0,0,0,0,0,0,0,0,0,0,0,0,0,0,0,0,0,0,0,0,0,0,0,0,0,0,0,0,0,0,0,0,0,0,0,0,0,0,0,0,0,0,0,0,0,0,0,0,0,0,0,0,0,
0,0,0,0,0,0,0,0,0,0,0,0,0,0,0,0,0,0,0,0,0,0,0,0,0,0,0,0,0,0,0,0,0,0,0,0,0,0,0,0,0,0,0,0,0,0,0,0,0,0,0,0,0,0,0,0,0,0,0,0,0,0,0,0,0,0,0,0,0,0,0,0,0,0,0,0,0,0,0,0,
0,0,0,0,0,0,0,0,0,0,0,0,0,0,0,0,0,0,0,0,0,0,0,0,0,0,0,0,0,0,0,0,0,0,0,0,0,0,0,0,0,0,0,0,0,0,0,0,0,0,0,0,0,0,0,0,0,0,0,0,0,0,0,0,0,0,0,0,0,0,0,0,0,0,0,0,0,0,0,0,
0,0,0,0,0,0,0,0,0,0,0,0,0,0,0,0,0,0,0,0,0,0,0,0,0,0,0,0,0,0,0,0,0,0,0,0,0,0,0,0,0,0,0,0,0,0,0,0,0,0,0,0,0,0,0,0,0,0,0,0,0,0,0,0,0,0,0,0,0,0,0,0,0,0,0,0,0,0,0,0,
0,0,0,0,0,0,0,0,0,0,0,0,0,0,0,0,0,0,0,0,0,0,0,0,0,0,0,0,0,0,0,0,0,0,0,0,0,0,0,0,0,0,0,0,0,0,0,0,0,0,0,0,0,0,0,0,0,0,0,0,0,0,0,0,0,0,0,0,0,0,0,0,0,0,0,0,0,0,0,0,
0,0,0,0,0,0,0,0,0,0,0,0,0,0,0,0,0,0,0,0,0,0,0,0,0,0,0,0,0,0,0,0,0,0,0,0,0,0,0,0,0,0,0,0,0,0,0,0,0,0,0,0,0,0,0,0,0,0,0,0,0,0,0,0,0,0,0,0,0,0,0,0,0,0,0,0,0,0,0,0,
0,0,0,0,0,0,0,0,0,0,0,0,0,0,0,0,0,0,0,0,0,0,0,0,0,0,0,0,0,0,0,0,0,0,0,0,0,0,0,0,0,0,0,0,0,0,0,0,0,0,0,0,0,0,0,0,0,0,0,0,0,0,0,0,0,0,0,0,0,0,0,0,0,0,0,0,0,0,0,0,
0,0,0,0,0,0,0,0,0,0,0,0,0,0,0,0,0,0,0,0,0,0,0,0,0,0,0,0,0,0,0,0,0,0,0,0,0,0,0,0,0,0,0,0,0,0,0,0,0,0,0,0,0,0,0,0,0,0,0,0,0,0,0,0,0,0,0,0,0,0,0,0,0,0,0,0,0,0,0,0,
0,0,0,0,0,0,0,0,0,0,0,0,0,0,0,0,0,0,0,0,0,0,0,0,0,0,0,0,0,0,0,0,0,0,0,0,0,0,0,0,0,0,0,0,0,0,0,0,0,0,0,0,0,0,0,0,0,0,0,0,0,0,0,0,0,0,0,0,0,0,0,0,0,0,0,0,0,0,0,0,
0,0,0,0,0,0,0,0,0,0,0,0,0,0,0,0,0,0,0,0,0,0,0,0,0,0,0,0,0,0,0,0,0,0,0,0,0,0,0,0,0,0,0,0,0,0,0,0,0,0,0,0,0,0,0,0,0,0,0,0,0,0,0,0,0,0,0,0,0,0,0,0,0,0,0,0,0,0,0,0,
0,0,0,0,0,0,0,0,0,0,0,0,0,0,0,0,0,0,0,0,0,0,0,0,0,0,0,0,0,0,0,0,0,0,0,0,0,0,0,0,0,0,0,0,0,0,0,0,0,0,0,0,0,0,0,0,0,0,0,0,0,0,0,0,0,0,0,0,0,0,0,0,0,0,0,0,0,0,0,0,
0,0,0,0,0,0,0,0,0,0,0,0,0,0,0,0,0,0,0,0,0,0,0,0,0,0,0,0,0,0,0,0,0,0,0,0,0,0,0,0,0,0,0,0,0,0,0,0,0,0,0,0,0,0,0,0,0,0,0,0,0,0,0,0,0,0,0,0,0,0,0,0,0,0,0,0,0,0,0,0,
0,0,0,0,0,0,0,0,0,0,0,0,0,0,0,0,0,0,0,0,0,0,0,0,0,0,0,0,0,0,0,0,0,0,0,0,0,0,0,0,0,0,0,0,0,0,0,0,0,0,0,0,0,0,0,0,0,0,0,0,0,0,0,0,0,0,0,0,0,0,0,0,0,0,0,0,0,0,0,0,
0,0,0,0,0,0,0,0,0,0,0,0,0,0,0,0,0,0,0,0,0,0,0,0,0,0,0,0,0,0,0,0,0,0,0,0,0,0,0,0,0,0,0,0,0,0,0,0,0,0,0,0,0,0,0,0,0,0,0,0,0,0,0,0,0,0,0,0,0,0,0,0,0,0,0,0,0,0,0,0,
0,0,0,0,0,0,0,0,0,0,0,0,0,0,0,0,0,0,0,0,0,0,0,0,0,0,0,0,0,0,0,0,0,0,0,0,0,0,0,0,0,0,0,0,0,0,0,0,0,0,0,0,0,0,0,0,0,0,0,0,0,0,0,0,0,0,0,0,0,0,0,0,0,0,0,0,0,0,0,0,
0,0,0,0,0,0,0,0,0,0,0,0,0,0,0,0,0,0,0,0,0,0,0,0,0,0,0,0,0,0,0,0,0,0,0,0,0,0,0,0,0,0,0,0,0,0,0,0,0,0,0,0,0,0,0,0,0,0,0,0,0,0,0,0,0,0,0,0,0,0,0,0,0,0,0,0,0,0,0,0,
0,0,0,0,0,0,0,0,0,0,0,0,0,0,0,0,0,0,0,0,0,0,0,0,0,0,0,0,0,0,0,0,0,0,0,0,0,0,0,0,0,0,0,0,0,0,0,0,0,0,0,0,0,0,0,0,0,0,0,0,0,0,0,0,0,0,0,0,0,0,0,0,0,0,0,0,0,0,0,0,
0,0,0,0,0,0,0,0,0,0,0,0,0,0,0,0,0,0,0,0,0,0,0,0,0,0,0,0,0,0,0,0,0,0,0,0,0,0,0,0,0,0,0,0,0,0,0,0,0,0,0,0,0,0,0,0,0,0,0,0,0,0,0,0,0,0,0,0,0,0,0,0,0,0,0,0,0,0,0,0,
0,0,0,0,0,0,0,0,0,0,0,0,0,0,0,0,0,0,0,0,0,0,0,0,0,0,0,0,0,0,0,0,0,0,0,0,0,0,0,0,0,0,0,0,0,0,0,0,0,0,0,0,0,0,0,0,0,0,0,0,0,0,0,0,0,0,0,0,0,0,0,0,0,0,0,0,0,0,0,0,
0,0,0,0,0,0,0,0,0,0,0,0,0,0,0,0,0,0,0,0,0,0,0,0,0,0,0,0,0,0,0,0,0,0,0,0,0,0,0,0,0,0,0,0,0,0,0,0,0,0,0,0,0,0,0,0,0,0,0,0,0,0,0,0,0,0,0,0,0,0,0,0,0,0,0,0,0,0,0,0,
0,0,0,0,0,0,0,0,0,0,0,0,0,0,0,0,0,0,0,0,0,0,0,0,0,0,0,0,0,0,0,0,0,0,0,0,0,0,0,0,0,0,0,0,0,0,0,0,0,0,0,0,0,0,0,0,0,0,0,0,0,0,0,0,0,0,0,0,0,0,0,0,0,0,0,0,0,0,0,0,
0,0,0,0,0,0,0,0,0,0,0,0,0,0,0,0,0,0,0,0,0,0,0,0,0,0,0,0,0,0,0,0,0,0,0,0,0,0,0,0,0,0,0,0,0,0,0,0,0,0,0,0,0,0,0,0,0,0,0,0,0,0,0,0,0,0,0,0,0,0,0,0,0,0,0,0,0,0,0,0,
0,0,0,0,0,0,0,0,0,0,0,0,0,0,0,0,0,0,0,0,0,0,0,0,0,0,0,0,0,0,0,0,0,0,0,0,0,0,0,0,0,0,0,0,0,0,0,0,0,0,0,0,0,0,0,0,0,0,0,0,0,0,0,0,0,0,0,0,0,0,0,0,0,0,0,0,0,0,0,0,
0,0,0,0,0,0,0,0,0,0,0,0,0,0,0,0,0,0,0,0,0,0,0,0,0,0,0,0,0,0,0,0,0,0,0,0,0,0,0,0,0,0,0,0,0,0,0,0,0,0,0,0,0,0,0,0,0,0,0,0,0,0,0,0,0,0,0,0,0,0,0,0,0,0,0,0,0,0,0,0,
0,0,0,0,0,0,0,0,0,0,0,0,0,0,0,0,0,0,0,0,0,0,0,0,0,0,0,0,0,0,0,0,0,0,0,0,0,0,0,0,0,0,0,0,0,0,0,0,0,0,0,0,0,0,0,0,0,0,0,0,0,0,0,0,0,0,0,0,0,0,0,0,0,0,0,0,0,0,0,0,
0,0,0,0,0,0,0,0,0,0,0,0,0,0,0,0,0,0,0,0,0,0,0,0,0,0,0,0,0,0,0,0,0,0,0,0,0,0,0,0,0,0,0,0,0,0,0,0,0,0,0,0,0,0,0,0,0,0,0,0,0,0,0,0,0,0,0,0,0,0,0,0,0,0,0,0,0,0,0,0,
0,0,0,0,0,0,0,0,0,0,0,0,0,0,0,0,0,0,0,0,0,0,0,0,0,0,0,0,0,0,0,0,0,0,0,0,0,0,0,0,0,0,0,0,0,0,0,0,0,0,0,0,0,0,0,0,0,0,0,0,0,0,0,0,0,0,0,0,0,0,0,0,0,0,0,0,0,0,0,0,
0,0,0,0,0,0,0,0,0,0,0,0,0,0,0,0,0,0,0,0,0,0,0,0,0,0,0,0,0,0,0,0,0,0,0,0,0,0,0,0,0,0,0,0,0,0,0,0,0,0,0,0,0,0,0,0,0,0,0,0,0,0,0,0,0,0,0,0,0,0,0,0,0,0,0,0,0,0,0,0
</data>
 </layer>
 <objectgroup id="13" name="props">
  <object id="86" gid="3896" x="1792" y="512" width="32" height="96"/>
  <object id="363" gid="3852" x="734" y="176.667" width="32" height="64"/>
  <object id="364" gid="3854" x="730.333" y="241.333" width="64" height="64"/>
  <object id="366" gid="3221229327" x="741" y="300" width="96" height="64"/>
  <object id="367" gid="3856" x="833.667" y="324" width="64" height="64"/>
 </objectgroup>
 <layer id="5" name="cliffs" width="80" height="45">
  <data encoding="csv">
52,53,0,0,49,145,148,68,69,0,0,0,0,33,19,136,19,133,134,135,52,145,243,244,245,145,50,19,136,19,35,138,36,37,0,0,483,420,417,425,323,423,418,423,420,323,323,323,426,420,307,421,420,323,426,422,426,421,484,0,0,0,0,0,0,0,0,0,0,0,0,0,0,0,0,0,0,0,0,0,
37,0,0,0,0,161,164,84,85,0,0,0,0,33,34,132,52,145,146,146,68,161,259,260,261,161,66,146,146,150,145,146,146,203,0,0,321,424,418,425,422,323,424,419,422,418,424,323,426,424,307,424,426,418,422,424,423,422,482,309,0,0,0,0,0,0,0,0,0,0,0,0,0,0,0,0,0,0,0,0,
20,3,3,3,21,37,180,100,101,0,0,0,17,18,133,52,68,161,162,162,84,177,275,276,277,177,82,162,162,166,161,162,162,219,0,0,483,421,423,420,420,417,420,322,422,424,307,424,425,417,419,422,422,424,323,420,424,424,423,484,0,0,0,0,0,0,0,0,0,0,0,0,0,0,0,0,0,0,0,0,
34,133,137,34,20,37,0,0,0,17,3,3,18,132,135,27,84,177,178,178,100,0,0,0,0,0,98,178,178,182,177,178,178,235,0,0,483,419,426,418,419,339,417,423,323,421,421,419,418,419,421,420,323,424,417,420,419,420,323,484,0,0,0,0,0,0,0,0,0,0,0,0,0,0,0,0,0,0,0,0,
132,19,132,133,129,20,3,3,3,18,138,34,134,136,136,57,14,0,0,0,0,0,0,0,0,0,0,0,0,0,0,0,0,0,0,0,490,497,424,323,425,424,421,421,323,421,425,323,420,425,424,417,417,424,423,418,514,433,436,493,0,0,0,0,0,0,0,0,0,0,0,0,0,0,0,0,0,0,0,0,
137,133,130,36,136,35,138,35,131,36,36,138,131,136,138,137,194,21,0,0,0,0,0,0,0,0,0,0,0,0,0,0,0,0,0,0,506,330,425,417,420,425,417,426,423,322,322,419,419,323,417,417,418,340,434,434,356,449,452,509,0,0,0,0,0,0,0,0,0,0,0,0,0,0,0,0,0,0,0,0,
138,138,129,136,36,130,136,133,35,130,130,132,131,131,133,135,34,37,0,0,0,0,0,0,0,0,0,0,0,0,0,0,0,0,0,0,0,490,434,436,338,323,419,422,424,423,419,420,423,420,323,420,421,331,450,450,372,0,0,0,0,0,0,0,0,0,0,0,0,0,0,0,0,0,0,0,0,0,0,0,
150,50,137,138,132,51,138,35,138,132,130,35,34,134,129,129,52,53,0,0,0,0,0,0,0,0,0,0,0,0,0,0,0,0,0,0,0,506,450,452,330,422,417,419,425,323,417,420,417,424,323,423,498,491,0,0,0,0,0,0,0,0,0,0,0,0,0,0,0,0,0,0,0,0,0,0,0,0,0,0,
166,66,146,225,129,131,137,134,137,34,130,34,34,129,226,145,201,69,0,0,0,0,0,0,0,0,0,0,0,0,0,0,0,0,0,0,0,0,0,0,337,497,421,425,421,422,323,423,514,436,434,437,356,507,0,0,0,0,0,0,0,0,0,0,0,0,305,517,485,485,291,501,292,0,0,0,0,0,0,0,
182,82,162,26,19,134,133,133,129,52,146,145,147,148,201,161,217,85,0,0,0,0,0,0,0,0,0,0,0,0,0,0,0,0,0,0,0,0,0,0,353,354,444,995,0,0,997,433,487,452,450,453,372,0,0,0,0,0,0,0,290,485,485,485,485,291,306,324,419,425,417,422,482,501,517,501,517,485,485,291,
0,98,178,91,1030,1031,1032,1033,149,68,162,161,163,164,217,177,233,0,0,0,0,0,0,0,0,0,0,0,0,0,0,0,0,0,0,0,0,0,0,0,0,370,460,1037,0,0,1039,449,503,0,0,0,0,0,0,0,0,0,290,501,481,422,426,417,423,420,424,418,420,426,422,323,323,421,425,426,421,419,421,426,
0,0,0,65,1072,1073,1074,1075,165,84,178,177,179,180,233,0,0,0,0,0,0,0,0,0,0,0,0,0,0,0,0,0,0,0,0,0,0,0,0,0,0,0,0,0,0,0,0,0,0,0,0,0,0,0,0,0,0,0,483,323,424,420,422,339,421,423,426,417,426,424,425,418,417,422,339,424,420,323,426,419,
0,0,0,81,1114,1115,1116,1117,181,100,0,0,0,0,0,0,0,0,0,0,0,0,0,0,0,0,0,0,0,0,0,0,0,0,0,0,0,0,0,0,0,0,0,0,0,0,0,0,0,0,0,0,0,0,0,0,305,501,481,425,418,426,423,417,421,422,425,425,425,426,417,426,423,339,419,426,418,423,423,426,
0,0,0,0,0,0,0,0,0,0,0,0,0,0,0,0,0,0,0,0,0,0,0,0,0,0,0,0,0,0,0,0,0,0,0,0,0,0,0,0,0,0,0,0,0,0,0,0,0,0,0,0,0,0,0,0,483,426,421,421,417,323,422,426,422,417,422,418,323,418,419,421,425,421,424,424,424,426,424,423,
0,0,0,0,0,0,0,0,0,0,0,0,0,0,0,0,0,0,0,0,0,0,0,0,0,0,0,0,0,0,0,0,0,0,0,0,0,0,0,0,0,0,0,0,0,0,0,0,0,0,0,0,0,0,0,0,515,421,417,417,419,419,424,426,423,418,423,419,421,424,422,339,423,422,422,498,437,436,434,433,
0,0,0,0,0,0,0,0,0,0,0,0,0,0,0,0,0,0,0,0,0,0,0,0,0,0,0,0,0,0,0,0,0,0,0,0,0,0,0,0,0,0,0,0,0,0,0,0,0,0,0,0,0,0,0,0,483,426,418,425,418,424,421,323,425,424,420,422,323,498,436,995,0,997,434,487,453,452,450,449,
0,0,0,0,0,0,0,0,0,0,0,0,0,0,0,0,0,0,0,0,0,0,0,0,0,0,0,0,0,0,0,0,0,0,0,0,0,0,0,0,0,0,0,0,0,0,0,0,0,0,0,0,0,0,0,0,483,323,323,424,423,323,421,417,421,418,514,436,435,487,452,1037,0,1039,450,503,0,0,0,0,
0,0,0,0,0,0,0,0,0,0,0,0,0,0,0,0,0,0,0,0,0,0,0,0,0,0,0,0,0,0,0,0,0,0,0,0,0,0,0,0,0,0,0,0,0,0,0,0,0,0,0,0,0,0,0,0,337,338,418,323,422,423,422,323,423,498,487,452,451,503,0,0,0,0,0,0,0,0,0,0,
0,0,0,0,0,0,0,0,0,0,0,0,0,0,0,0,0,0,0,0,0,0,0,0,0,0,0,0,0,0,0,0,0,0,0,0,0,0,0,0,0,0,0,0,0,0,0,0,0,0,0,0,0,0,0,0,353,488,434,440,433,433,434,433,438,489,503,0,0,0,0,0,0,0,0,0,0,0,0,0,
0,0,0,0,0,0,0,0,0,0,0,0,0,0,0,0,0,0,0,0,0,0,0,0,0,0,0,0,0,0,0,0,0,0,0,0,0,0,0,0,0,0,0,0,0,0,0,0,0,0,0,0,0,0,0,0,0,504,450,456,449,449,450,449,454,505,0,0,0,0,0,0,0,0,0,0,0,0,0,0,
0,0,0,0,0,0,0,0,0,0,0,0,0,0,0,0,0,0,0,0,0,0,0,0,0,0,0,0,0,0,0,0,0,0,0,0,0,0,0,0,0,0,0,0,0,0,0,0,0,0,0,0,0,0,0,0,0,0,0,0,0,0,0,0,0,0,0,0,0,0,0,0,0,0,0,0,0,0,0,0,
0,0,0,0,0,0,0,0,0,0,0,0,0,0,0,0,0,0,0,0,0,0,0,0,0,0,0,0,0,0,0,0,0,0,0,0,0,0,0,0,0,0,0,0,0,0,0,0,0,0,0,0,0,0,0,0,0,0,0,0,0,0,0,0,0,0,0,0,0,0,0,0,0,0,0,0,0,0,0,0,
0,0,0,0,0,0,0,0,0,0,0,0,0,0,0,0,0,0,0,0,0,0,0,0,0,0,0,0,0,0,0,0,0,0,0,0,0,0,0,0,0,0,0,0,0,0,0,0,0,0,0,0,0,0,0,0,0,0,0,0,0,0,0,0,0,0,0,0,0,0,0,0,0,0,0,0,0,0,0,0,
0,0,0,0,0,0,0,0,0,0,0,0,0,0,0,0,0,0,0,0,0,0,0,0,0,0,0,0,0,0,0,0,0,0,0,0,0,0,0,0,0,0,0,0,0,0,0,0,0,0,0,0,0,0,0,0,0,0,0,0,0,0,0,0,0,0,0,0,0,0,0,0,0,0,0,0,0,0,0,0,
0,0,0,0,0,0,0,0,0,0,0,0,0,0,0,0,0,0,0,0,0,0,0,0,0,0,0,0,0,0,0,0,0,0,0,0,0,0,0,0,0,0,0,0,0,0,0,0,0,0,0,0,0,0,0,0,0,0,0,0,0,0,0,0,0,0,0,0,0,0,0,0,0,0,0,0,0,0,0,0,
0,0,0,0,0,0,0,0,0,0,0,0,0,0,0,0,0,0,0,0,0,0,0,0,0,0,0,0,0,0,0,0,0,0,0,0,0,0,0,0,0,0,0,0,0,0,0,0,0,0,0,0,0,0,0,0,0,0,0,0,0,0,0,0,0,0,0,0,0,0,0,0,0,0,0,0,0,0,0,0,
0,0,0,0,0,0,0,0,0,0,0,0,0,0,0,0,0,0,0,0,0,0,0,0,0,0,0,0,0,0,0,0,0,0,0,0,0,0,0,0,0,0,0,0,0,0,0,0,0,0,0,0,0,0,0,0,0,0,0,0,0,0,0,0,0,0,0,0,0,0,0,0,0,0,0,0,0,0,0,0,
0,0,0,0,0,0,0,0,0,0,0,0,0,0,0,0,0,0,0,0,0,0,0,0,0,0,0,0,0,0,0,0,0,0,0,0,0,0,0,0,0,0,0,0,0,0,0,0,0,0,0,0,0,0,0,0,0,0,0,0,0,0,0,0,0,0,0,0,0,0,0,0,0,0,0,0,0,0,0,0,
0,0,0,0,0,0,0,0,0,0,0,0,0,0,0,0,0,0,0,0,0,0,0,0,0,0,0,0,0,0,0,0,0,0,0,0,0,0,0,0,0,0,0,0,0,0,0,0,0,0,0,0,0,0,0,0,0,0,0,0,0,0,0,0,0,0,0,0,0,0,0,0,0,0,0,0,0,0,0,0,
0,0,0,0,0,0,0,0,0,0,0,0,0,0,0,0,0,0,0,0,0,0,0,0,0,0,0,0,0,0,0,0,0,0,0,0,0,0,0,0,0,0,0,0,0,0,0,0,0,0,0,0,0,0,0,0,0,0,0,0,0,0,0,0,0,0,0,0,0,0,0,0,0,0,0,0,0,0,0,0,
0,0,0,0,0,0,0,0,0,0,0,0,0,0,0,0,0,0,0,0,0,0,0,0,0,0,0,0,0,0,0,0,0,0,0,0,0,0,0,0,0,0,0,0,0,0,0,0,0,0,0,0,0,0,0,0,0,0,0,0,0,0,0,0,0,0,0,0,0,0,0,0,0,0,0,0,0,0,0,0,
0,0,0,0,0,0,0,0,0,0,0,0,0,0,0,0,0,0,0,0,0,0,0,0,0,0,0,0,0,0,0,0,0,0,0,0,0,0,0,0,0,0,0,0,0,0,0,0,0,0,0,0,0,0,0,0,0,0,0,0,0,0,0,0,0,0,0,0,0,0,0,0,0,0,0,0,0,0,0,0,
0,0,0,0,0,0,0,0,0,0,0,0,0,0,0,0,0,0,0,0,0,0,0,0,0,0,0,0,0,0,0,0,0,0,0,0,0,0,0,0,0,0,0,0,0,0,0,0,0,0,0,0,0,0,0,0,0,0,0,0,0,0,0,0,0,0,0,0,0,0,0,0,0,0,0,0,0,0,0,0,
0,0,0,0,0,0,0,0,0,0,0,0,0,0,0,0,0,0,0,0,0,0,0,0,0,0,0,0,0,0,0,0,0,0,0,0,0,0,0,0,0,0,0,0,0,0,0,0,0,0,0,0,0,0,0,0,0,0,0,0,0,0,0,0,0,0,0,0,0,0,0,0,0,0,0,0,0,0,0,0,
0,0,0,0,0,0,0,0,0,0,0,0,0,0,0,0,0,0,0,0,0,0,0,0,0,0,0,0,0,0,0,0,0,0,0,0,0,0,0,0,0,0,0,0,0,0,0,0,0,0,0,0,0,0,0,0,0,0,0,0,0,0,0,0,0,0,0,0,0,0,0,0,0,0,0,0,0,0,0,0,
0,0,0,0,0,0,0,0,0,0,0,0,0,0,0,0,0,0,0,0,0,0,0,0,0,0,0,0,0,0,0,0,0,0,0,0,0,0,0,0,0,0,0,0,0,0,0,0,0,0,0,0,0,0,0,0,0,0,0,0,0,0,0,0,0,0,0,0,0,0,0,0,0,0,0,0,0,0,0,0,
0,0,0,0,0,0,0,0,0,0,0,0,0,0,0,0,0,0,0,0,0,0,0,0,0,0,0,0,0,0,0,0,0,0,0,0,0,0,0,0,0,0,0,0,0,0,0,0,0,0,0,0,0,0,0,0,0,0,0,0,0,0,0,0,0,0,0,0,0,0,0,0,0,0,0,0,0,0,0,0,
0,0,0,0,0,0,0,0,0,0,0,0,0,0,0,0,0,0,0,0,0,0,0,0,0,0,0,0,0,0,0,0,0,0,0,0,0,0,0,0,0,0,0,0,0,0,0,0,0,0,0,0,0,0,0,0,0,0,0,0,0,0,0,0,0,0,0,0,0,0,0,0,0,0,0,0,0,0,0,0,
0,0,0,0,0,0,0,0,0,0,0,0,0,0,0,0,0,0,0,0,0,0,0,0,0,0,0,0,0,0,0,0,0,0,0,0,0,0,0,0,0,0,0,0,0,0,0,0,0,0,0,0,0,0,0,0,0,0,0,0,0,0,0,0,0,0,0,0,0,0,0,0,0,0,0,0,0,0,0,0,
0,0,0,0,0,0,0,0,0,0,0,0,0,0,0,0,0,0,0,0,0,0,0,0,0,0,0,0,0,0,0,0,0,0,0,0,0,0,0,0,0,0,0,0,0,0,0,0,0,0,0,0,0,0,0,0,0,0,0,0,0,0,0,0,0,0,0,0,0,0,0,0,0,0,0,0,0,0,0,0,
0,0,0,0,0,0,0,0,0,0,0,0,0,0,0,0,0,0,0,0,0,0,0,0,0,0,0,0,0,0,0,0,0,0,0,0,0,0,0,0,0,0,0,0,0,0,0,0,0,0,0,0,0,0,0,0,0,0,0,0,0,0,0,0,0,0,0,0,0,0,0,0,0,0,0,0,0,0,0,0,
0,0,0,0,0,0,0,0,0,0,0,0,0,0,0,0,0,0,0,0,0,0,0,0,0,0,0,0,0,0,0,0,0,0,0,0,0,0,0,0,0,0,0,0,0,0,0,0,0,0,0,0,0,0,0,0,0,0,0,0,0,0,0,0,0,0,0,0,0,0,0,0,0,0,0,0,0,0,0,0,
0,0,0,0,0,0,0,0,0,0,0,0,0,0,0,0,0,0,0,0,0,0,0,0,0,0,0,0,0,0,0,0,0,0,0,0,0,0,0,0,0,0,0,0,0,0,0,0,0,0,0,0,0,0,0,0,0,0,0,0,0,0,0,0,0,0,0,0,0,0,0,0,0,0,0,0,0,0,0,0,
0,0,0,0,0,0,0,0,0,0,0,0,0,0,0,0,0,0,0,0,0,0,0,0,0,0,0,0,0,0,0,0,0,0,0,0,0,0,0,0,0,0,0,0,0,0,0,0,0,0,0,0,0,0,0,0,0,0,0,0,0,0,0,0,0,0,0,0,0,0,0,0,0,0,0,0,0,0,0,0,
0,0,0,0,0,0,0,0,0,0,0,0,0,0,0,0,0,0,0,0,0,0,0,0,0,0,0,0,0,0,0,0,0,0,0,0,0,0,0,0,0,0,0,0,0,0,0,0,0,0,0,0,0,0,0,0,0,0,0,0,0,0,0,0,0,0,0,0,0,0,0,0,0,0,0,0,0,0,0,0
</data>
 </layer>
 <layer id="17" name="terrain5" width="80" height="45">
  <data encoding="csv">
1911,1912,1870,0,0,0,0,0,0,0,0,0,2036,1994,1954,1911,1953,1955,0,0,0,0,0,0,0,0,0,0,0,0,0,0,0,0,0,0,0,0,0,0,0,0,0,0,0,0,0,0,0,0,0,0,0,0,0,0,0,0,0,0,0,0,0,0,0,0,0,0,0,0,0,0,0,0,0,0,0,0,0,0,
1911,1996,2038,0,0,0,0,0,0,0,0,0,0,2036,2000,2001,2001,1997,0,0,0,0,0,0,0,0,0,0,0,0,0,0,0,0,0,0,0,0,0,0,0,0,0,0,0,0,0,0,0,0,0,0,0,0,0,0,0,0,0,0,0,0,0,0,0,0,0,0,0,0,0,0,0,0,0,0,0,0,0,0,
1911,1872,0,0,0,0,0,0,0,0,0,0,0,0,0,0,0,0,0,0,0,0,0,0,0,0,0,0,0,0,0,0,0,0,0,0,0,0,0,0,0,0,0,0,0,0,0,0,0,0,0,0,0,0,0,0,0,0,0,0,0,0,0,0,0,0,0,0,0,0,0,0,0,0,0,0,0,0,0,0,
1996,1997,0,0,0,0,1914,1996,0,0,0,0,0,0,0,0,0,0,0,0,0,0,0,0,0,0,0,0,0,0,0,0,0,0,0,0,0,0,0,0,0,0,0,0,0,0,0,0,0,0,0,0,0,0,0,0,0,0,0,0,0,0,0,0,0,0,0,0,0,0,0,0,0,0,0,0,0,0,0,0,
1872,0,0,0,0,0,2036,2038,0,0,0,0,0,0,0,1868,1913,0,0,0,0,0,0,0,0,0,0,0,0,0,0,0,0,0,0,0,0,0,0,0,0,0,0,0,0,0,0,0,0,0,0,0,0,0,0,0,0,0,0,0,0,0,0,0,0,0,0,0,0,0,0,0,0,0,0,0,0,0,0,0,
1912,1869,1870,0,0,0,0,0,0,0,0,0,0,0,0,1914,1912,1913,0,0,0,0,0,0,0,0,0,0,0,0,0,0,0,0,0,0,0,0,0,0,0,0,0,0,0,0,0,0,0,0,0,0,0,0,0,0,0,0,0,0,0,0,0,0,0,0,0,0,0,0,0,0,0,0,0,0,0,0,0,0,
1994,1952,1872,1868,1870,0,0,0,0,0,0,0,0,0,0,1951,1911,1873,0,0,0,0,0,0,0,0,0,0,0,0,0,0,0,0,0,0,0,0,0,0,0,0,0,0,0,0,0,0,0,0,0,0,0,0,0,0,0,0,0,0,0,0,0,0,0,0,0,0,0,0,0,0,0,0,0,0,0,0,0,0,
2036,1994,1874,1993,2038,0,0,0,0,0,0,0,0,0,1909,1910,1996,2038,0,0,0,0,0,0,0,0,0,0,0,0,0,0,0,0,0,0,0,0,0,0,0,0,0,0,0,0,0,0,0,0,0,0,0,0,0,0,0,0,0,0,0,0,0,0,0,0,0,0,0,0,0,0,0,0,0,0,0,0,0,0,
0,1993,1997,0,0,0,0,0,0,0,0,0,0,0,1993,2037,2038,0,0,0,0,0,0,0,0,0,0,0,0,0,0,0,0,0,0,0,0,0,0,0,0,0,0,0,0,0,0,0,0,0,0,0,0,0,0,0,0,0,0,0,0,0,0,0,0,0,0,0,0,0,0,0,0,0,0,0,0,0,0,0,
0,0,0,0,0,0,0,0,0,0,0,0,0,0,0,0,0,0,0,0,0,0,0,0,0,0,0,0,0,0,0,0,0,0,0,0,0,0,0,0,0,0,0,0,0,0,0,0,0,0,0,0,0,0,0,0,0,0,0,0,0,0,0,0,0,0,0,0,0,0,0,0,0,0,0,0,0,0,0,0,
0,0,0,0,0,0,0,0,0,0,0,0,0,0,0,0,0,0,0,0,0,0,0,0,0,0,0,0,0,0,0,0,0,0,0,0,0,0,0,0,0,0,0,0,0,0,0,0,0,0,0,0,0,0,0,0,0,0,0,0,0,6126,0,0,0,0,0,0,0,0,0,0,0,0,0,0,0,6126,0,0,
0,0,0,0,0,0,0,0,0,0,0,0,0,0,0,0,0,0,0,0,0,0,0,0,0,0,0,0,0,0,0,0,0,0,0,0,0,0,0,0,0,0,0,0,0,0,0,0,0,0,0,0,0,0,0,0,0,0,0,0,0,0,0,6094,0,0,0,0,0,2119,0,0,0,0,0,6066,0,0,0,6094,
0,0,0,0,0,0,0,0,0,0,0,0,0,0,0,0,0,0,0,0,0,0,0,0,0,0,0,0,0,0,0,0,0,0,0,0,0,0,0,0,0,0,0,0,0,0,0,0,0,0,0,0,0,0,0,0,0,0,0,6126,6094,0,0,6127,0,6066,0,0,0,2161,2162,0,0,0,6096,6095,0,0,6125,0,
0,0,0,0,0,0,0,0,0,0,0,0,0,0,0,0,0,0,0,0,0,0,0,0,0,0,0,0,0,0,0,0,0,0,0,0,0,0,0,0,0,0,0,0,0,0,0,0,0,0,0,0,0,0,0,0,0,0,6094,0,0,6096,6125,0,0,0,6094,0,0,0,2161,2162,0,6126,0,0,0,0,0,0,
0,0,0,0,0,0,0,0,0,0,0,0,0,0,0,0,0,0,0,0,0,0,0,0,0,0,0,0,0,0,0,0,0,0,0,0,0,0,0,0,0,0,0,0,0,0,0,0,0,0,0,0,0,0,0,0,0,0,6127,0,6096,6065,6126,0,0,6126,0,0,0,0,0,0,0,0,0,0,0,0,0,0,
0,0,0,0,0,0,0,0,0,0,0,0,0,0,0,0,0,0,0,0,0,0,0,0,0,0,0,0,0,0,0,0,0,0,0,0,0,0,0,0,0,0,0,0,0,0,0,0,0,0,0,0,0,0,0,0,0,0,0,0,6125,6127,0,0,0,0,6126,0,0,0,0,0,0,0,0,0,0,0,0,0,
0,0,0,0,0,0,0,0,0,0,0,0,0,0,0,0,0,0,0,0,0,0,0,0,0,0,0,0,0,0,0,0,0,0,0,0,0,0,0,0,0,0,0,0,0,0,0,0,0,0,0,0,0,0,0,0,0,0,0,6127,0,0,0,0,0,6032,0,0,0,0,0,0,0,0,0,0,0,0,0,0,
0,0,0,0,0,0,0,0,0,0,0,0,0,0,0,0,0,0,0,0,0,0,0,0,0,0,0,0,0,0,0,0,0,0,0,0,0,0,0,0,0,0,0,0,0,0,0,0,0,0,0,0,0,0,0,0,0,0,0,0,6126,6095,0,0,0,0,0,0,0,0,0,0,0,0,0,0,0,0,0,0,
0,0,0,0,0,0,0,0,0,0,0,0,0,0,0,0,0,0,0,0,0,0,0,0,0,0,0,0,0,0,0,0,0,0,0,0,0,0,0,0,0,0,0,0,0,0,0,0,0,0,0,0,0,0,0,0,0,0,0,0,0,0,0,0,0,0,0,0,0,0,0,0,0,0,0,0,0,0,0,0,
0,0,0,0,0,0,0,0,0,0,0,0,0,0,0,0,0,0,0,0,0,0,0,0,0,0,0,0,0,0,0,0,0,0,0,0,0,0,0,0,0,0,0,0,0,0,0,0,0,0,0,0,0,0,0,0,0,0,0,0,0,0,0,0,0,0,0,0,0,0,0,0,0,0,0,0,0,0,0,0,
0,0,0,0,0,0,0,0,0,0,0,0,0,0,0,0,0,0,0,0,0,0,0,0,0,0,0,0,0,0,0,0,0,0,0,0,0,0,0,0,0,0,0,0,0,0,0,0,0,0,0,0,0,0,0,0,0,0,0,0,0,0,0,0,0,0,0,0,0,0,0,0,0,0,0,0,0,0,0,0,
0,0,0,0,0,0,0,0,0,0,0,0,0,0,0,0,0,0,0,0,0,0,0,0,0,0,0,0,0,0,0,0,0,0,0,0,0,0,0,0,0,0,0,0,0,0,0,0,0,0,0,0,0,0,0,0,0,0,0,0,0,0,0,0,0,0,0,0,0,0,0,0,0,0,0,0,0,0,0,0,
0,0,0,0,0,0,0,0,0,0,0,0,0,0,0,0,0,0,0,0,0,0,0,0,0,0,0,0,0,0,0,0,0,0,0,0,0,0,0,0,0,0,0,0,0,0,0,0,0,0,0,0,0,0,0,0,0,0,0,0,0,0,0,0,0,0,0,0,0,0,0,0,0,0,0,0,0,0,0,0,
0,0,0,0,0,0,0,0,0,0,0,0,0,0,0,0,0,0,0,0,0,0,0,0,0,0,0,0,0,0,0,0,0,0,0,0,0,0,0,0,0,0,0,0,0,0,0,0,0,0,0,0,0,0,0,0,0,0,0,0,0,0,0,0,0,0,0,0,0,0,0,0,0,0,0,0,0,0,0,0,
0,0,0,0,0,0,0,0,0,0,0,0,0,0,0,0,0,0,0,0,0,0,0,0,0,0,0,0,0,0,0,0,0,0,0,0,0,0,0,0,0,0,0,0,0,0,0,0,0,0,0,0,0,0,0,0,0,0,0,0,0,0,0,0,0,0,0,0,0,0,0,0,0,0,0,0,0,0,0,0,
0,0,0,0,0,0,0,0,0,0,0,0,0,0,0,0,0,0,0,0,0,0,0,0,0,0,0,0,0,0,0,0,0,0,0,0,0,0,0,0,0,0,0,0,0,0,0,0,0,0,0,0,0,0,0,0,0,0,0,0,0,0,0,0,0,0,0,0,0,0,0,0,0,0,0,0,0,0,0,0,
0,0,0,0,0,0,0,0,0,0,0,0,0,0,0,0,0,0,0,0,0,0,0,0,0,0,0,0,0,0,0,0,0,0,0,0,0,0,0,0,0,0,0,0,0,0,0,0,0,0,0,0,0,0,0,0,0,0,0,0,0,0,0,0,0,0,0,0,0,0,0,0,0,0,0,0,0,0,0,0,
0,0,0,0,0,0,0,0,0,0,0,0,0,0,0,0,0,0,0,0,0,0,0,0,0,0,0,0,0,0,0,0,0,0,0,0,0,0,0,0,0,0,0,0,0,0,0,0,0,0,0,0,0,0,0,0,0,0,0,0,0,0,0,0,0,0,0,0,0,0,0,0,0,0,0,0,0,0,0,0,
0,0,0,0,0,0,0,0,0,0,0,0,0,0,0,0,0,0,0,0,0,0,0,0,0,0,0,0,0,0,0,0,0,0,0,0,0,0,0,0,0,0,0,0,0,0,0,0,0,0,0,0,0,0,0,0,0,0,0,0,0,0,0,0,0,0,0,0,0,0,0,0,0,0,0,0,0,0,0,0,
0,0,0,0,0,0,0,0,0,0,0,0,0,0,0,0,0,0,0,0,0,0,0,0,0,0,0,0,0,0,0,0,0,0,0,0,0,0,0,0,0,0,0,0,0,0,0,0,0,0,0,0,0,0,0,0,0,0,0,0,0,0,0,0,0,0,0,0,0,0,0,0,0,0,0,0,0,0,0,0,
0,0,0,0,0,0,0,0,0,0,0,0,0,0,0,0,0,0,0,0,0,0,0,0,0,0,0,0,0,0,0,0,0,0,0,0,0,0,0,0,0,0,0,0,0,0,0,0,0,0,0,0,0,0,0,0,0,0,0,0,0,0,0,0,0,0,0,0,0,0,0,0,0,0,0,0,0,0,0,0,
0,0,0,0,0,0,0,0,0,0,0,0,0,0,0,0,0,0,0,0,0,0,0,0,0,0,0,0,0,0,0,0,0,0,0,0,0,0,0,0,0,0,0,0,0,0,0,0,0,0,0,0,0,0,0,0,0,0,0,0,0,0,0,0,0,0,0,0,0,0,0,0,0,0,0,0,0,0,0,0,
0,0,0,0,0,0,0,0,0,0,0,0,0,0,0,0,0,0,0,0,0,0,0,0,0,0,0,0,0,0,0,0,0,0,0,0,0,0,0,0,0,0,0,0,0,0,0,0,0,0,0,0,0,0,0,0,0,0,0,0,0,0,0,0,0,0,0,0,0,0,0,0,0,0,0,0,0,0,0,0,
0,0,0,0,0,0,0,0,0,0,0,0,0,0,0,0,0,0,0,0,0,0,0,0,0,0,0,0,0,0,0,0,0,0,0,0,0,0,0,0,0,0,0,0,0,0,0,0,0,0,0,0,0,0,0,0,0,0,0,0,0,0,0,0,0,0,0,0,0,0,0,0,0,0,0,0,0,0,0,0,
0,0,0,0,0,0,0,0,0,0,0,0,0,0,0,0,0,0,0,0,0,0,0,0,0,0,0,0,0,0,0,0,0,0,0,0,0,0,0,0,0,0,0,0,0,0,0,0,0,0,0,0,0,0,0,0,0,0,0,0,0,0,0,0,0,0,0,0,0,0,0,0,0,0,0,0,0,0,0,0,
0,0,0,0,0,0,0,0,0,0,0,0,0,0,0,0,0,0,0,0,0,0,0,0,0,0,0,0,0,0,0,0,0,0,0,0,0,0,0,0,0,0,0,0,0,0,0,0,0,0,0,0,0,0,0,0,0,0,0,0,0,0,0,0,0,0,0,0,0,0,0,0,0,0,0,0,0,0,0,0,
0,0,0,0,0,0,0,0,0,0,0,0,0,0,0,0,0,0,0,0,0,0,0,0,0,0,0,0,0,0,0,0,0,0,0,0,0,0,0,0,0,0,0,0,0,0,0,0,0,0,0,0,0,0,0,0,0,0,0,0,0,0,0,0,0,0,0,0,0,0,0,0,0,0,0,0,0,0,0,0,
0,0,0,1918,1922,0,0,0,0,0,0,0,0,0,0,0,0,0,0,0,0,0,0,0,0,0,0,0,0,0,0,0,0,0,0,0,0,0,0,0,0,0,0,0,0,0,0,0,0,0,0,0,0,0,0,0,0,0,0,0,0,0,0,0,0,0,0,0,0,0,0,0,0,0,0,0,0,0,0,0,
0,0,0,2045,2047,0,0,0,0,0,0,0,0,0,0,0,0,0,0,0,0,0,0,0,0,0,0,0,0,0,0,0,0,0,0,0,0,0,0,0,0,0,0,0,0,0,0,0,0,0,0,0,0,0,0,0,0,0,0,0,0,0,0,0,0,0,0,0,0,0,0,0,0,0,0,0,0,0,0,0,
0,0,0,0,0,0,0,0,0,0,0,0,0,0,0,0,0,0,0,0,0,0,0,0,0,0,0,0,0,0,0,0,0,0,0,0,0,0,0,0,0,0,0,0,0,0,0,0,0,0,0,0,0,0,0,0,0,0,0,0,0,0,0,0,0,0,0,0,0,0,0,0,0,0,0,0,0,0,0,0,
0,0,0,0,0,0,0,0,0,0,0,0,0,0,0,0,0,0,0,0,0,0,0,0,0,0,0,0,0,0,0,0,0,0,0,0,0,0,0,0,0,0,0,0,0,0,0,0,0,0,0,0,0,0,0,0,0,0,0,0,0,0,0,0,0,0,0,0,0,0,0,0,0,0,0,0,0,0,0,0,
0,0,0,0,0,0,0,0,0,0,0,0,0,0,0,0,0,0,0,0,0,0,0,0,0,0,0,0,0,0,0,0,0,0,0,0,0,0,0,0,0,0,0,0,0,0,0,0,0,0,0,0,0,0,0,0,0,0,0,0,0,0,0,0,0,0,0,0,0,0,0,0,0,0,0,0,0,0,0,0,
0,0,0,0,0,0,0,0,0,0,0,0,0,0,0,0,0,0,0,0,0,0,0,0,0,0,0,0,0,0,0,0,0,0,0,0,0,0,0,0,0,0,0,0,0,0,0,0,0,0,0,0,0,0,0,0,0,0,0,0,0,0,0,0,0,0,0,0,0,0,0,0,0,0,0,0,0,0,0,0,
0,0,0,0,0,0,0,0,0,0,0,0,0,0,0,0,0,0,0,0,0,0,0,0,0,0,0,0,0,0,0,0,0,0,0,0,0,0,0,0,0,0,0,0,0,0,0,0,0,0,0,0,0,0,0,0,0,0,0,0,0,0,0,0,0,0,0,0,0,0,0,0,0,0,0,0,0,0,0,0,
0,0,0,0,0,0,0,0,0,0,0,0,0,0,0,0,0,0,0,0,0,0,0,0,0,0,0,0,0,0,0,0,0,0,0,0,0,0,0,0,0,0,0,0,0,0,0,0,0,0,0,0,0,0,0,0,0,0,0,0,0,0,0,0,0,0,0,0,0,0,0,0,0,0,0,0,0,0,0,0
</data>
 </layer>
 <objectgroup id="7" name="props1">
  <object id="1" gid="3723" x="2176" y="352" width="128" height="160"/>
  <object id="3" gid="3778" x="2112" y="352" width="64" height="96"/>
  <object id="4" gid="3775" x="2304" y="352" width="64" height="128"/>
  <object id="5" gid="3881" x="1920" y="1344" width="352" height="192"/>
  <object id="6" gid="3895" x="1888" y="1312" width="32" height="96"/>
  <object id="7" gid="3895" x="1856" y="1312" width="32" height="96"/>
  <object id="8" gid="3891" x="1888" y="1312" width="32" height="96"/>
  <object id="9" gid="3891" x="1856" y="1312" width="32" height="96"/>
  <object id="10" gid="3896" x="1856" y="1312" width="32" height="96"/>
  <object id="11" gid="3896" x="1856" y="1312" width="32" height="96"/>
  <object id="12" gid="3896" x="1760" y="1312" width="32" height="96"/>
  <object id="13" gid="3896" x="1824" y="1312" width="32" height="96"/>
  <object id="14" gid="3896" x="1792" y="1312" width="32" height="96"/>
  <object id="15" gid="3896" x="1728" y="1312" width="32" height="96"/>
  <object id="16" gid="3896" x="1696" y="1312" width="32" height="96"/>
  <object id="17" gid="3920" x="1664" y="1312" width="32" height="96"/>
  <object id="18" gid="3907" x="1664" y="1216" width="32" height="32"/>
  <object id="19" gid="3906" x="1664" y="1184" width="32" height="32"/>
  <object id="20" gid="3905" x="1664" y="1152" width="32" height="32"/>
  <object id="21" gid="3904" x="1664" y="1120" width="32" height="32"/>
  <object id="22" gid="3907" x="1664" y="1088" width="32" height="32"/>
  <object id="23" gid="3906" x="1664" y="1056" width="32" height="32"/>
  <object id="24" gid="3905" x="1664" y="1024" width="32" height="32"/>
  <object id="25" gid="3904" x="1664" y="992" width="32" height="32"/>
  <object id="36" gid="3988" x="1600" y="960" width="160" height="160"/>
  <object id="39" gid="3898" x="1888" y="1312" width="32" height="64"/>
  <object id="40" gid="3896" x="2336" y="1312" width="32" height="96"/>
  <object id="41" gid="3896" x="2400" y="1312" width="32" height="96"/>
  <object id="42" gid="3896" x="2368" y="1312" width="32" height="96"/>
  <object id="43" gid="3896" x="2304" y="1312" width="32" height="96"/>
  <object id="44" gid="3896" x="2272" y="1312" width="32" height="96"/>
  <object id="45" gid="3896" x="2496" y="1312" width="32" height="96"/>
  <object id="46" gid="3896" x="2560" y="1312" width="32" height="96"/>
  <object id="47" gid="3896" x="2528" y="1312" width="32" height="96"/>
  <object id="48" gid="3896" x="2464" y="1312" width="32" height="96"/>
  <object id="49" gid="3896" x="2432" y="1312" width="32" height="96"/>
  <object id="50" gid="3897" x="1696" y="1312" width="32" height="64"/>
  <object id="51" gid="3897" x="1760" y="1312" width="32" height="64"/>
  <object id="52" gid="3897" x="1824" y="1312" width="32" height="64"/>
  <object id="53" gid="3897" x="2304" y="1312" width="32" height="64"/>
  <object id="54" gid="3897" x="2368" y="1312" width="32" height="64"/>
  <object id="55" gid="3897" x="2432" y="1312" width="32" height="64"/>
  <object id="56" gid="3897" x="2496" y="1312" width="32" height="64"/>
  <object id="57" gid="3898" x="2272" y="1312" width="32" height="64"/>
  <object id="63" gid="3904" x="1664" y="800" width="32" height="32"/>
  <object id="64" gid="3907" x="1664" y="768" width="32" height="32"/>
  <object id="65" gid="3906" x="1664" y="736" width="32" height="32"/>
  <object id="66" gid="3905" x="1664" y="704" width="32" height="32"/>
  <object id="67" gid="3904" x="1664" y="672" width="32" height="32"/>
  <object id="68" gid="3904" x="1664" y="640" width="32" height="32"/>
  <object id="69" gid="3907" x="1664" y="608" width="32" height="32"/>
  <object id="79" gid="3889" x="1664" y="512" width="32" height="96"/>
  <object id="87" gid="3905" x="1664" y="576" width="32" height="32"/>
  <object id="88" gid="3904" x="1664" y="544" width="32" height="32"/>
  <object id="233" gid="3871" x="1791.66" y="996.997" width="64" height="32"/>
  <object id="234" gid="3870" x="1794.33" y="1031" width="96" height="64"/>
  <object id="235" gid="3876" x="1760.33" y="1033.67" width="96" height="64"/>
  <object id="236" gid="3866" x="1784.33" y="1048.34" width="96" height="64"/>
  <object id="246" gid="3548" x="810.667" y="496" width="32" height="32"/>
  <object id="247" gid="3544" x="1028" y="454.667" width="64" height="64"/>
  <object id="248" gid="3548" x="1058.67" y="462.667" width="32" height="32"/>
  <object id="249" gid="3551" x="993.333" y="456" width="32" height="32"/>
  <object id="250" gid="3546" x="1157.33" y="597.333" width="64" height="32"/>
  <object id="251" gid="3549" x="1254.67" y="711" width="32" height="32"/>
  <object id="252" gid="3546" x="976" y="926.667" width="64" height="32"/>
  <object id="254" gid="3548" x="702.667" y="878.667" width="32" height="32"/>
  <object id="255" gid="3549" x="685.333" y="890.667" width="32" height="32"/>
  <object id="256" gid="3550" x="749.333" y="918.667" width="32" height="32"/>
  <object id="257" gid="3547" x="624" y="785.333" width="64" height="32"/>
  <object id="258" gid="3547" x="772" y="516" width="64" height="32"/>
  <object id="259" gid="3549" x="650.667" y="566.667" width="32" height="32"/>
  <object id="260" gid="3550" x="616" y="593.333" width="32" height="32"/>
  <object id="262" gid="3546" x="1149.33" y="857.333" width="64" height="32"/>
  <object id="263" gid="3547" x="505.333" y="749.333" width="64" height="32"/>
  <object id="265" gid="3547" x="1156" y="488" width="64" height="32"/>
  <object id="266" gid="3642" x="1097.33" y="476" width="64" height="32"/>
  <object id="267" gid="3648" x="720" y="502.667" width="64" height="32"/>
  <object id="268" gid="3642" x="594.667" y="812" width="64" height="32"/>
  <object id="269" gid="3649" x="1184" y="821.333" width="64" height="32"/>
  <object id="270" gid="3647" x="916" y="956" width="64" height="32"/>
  <object id="271" gid="3650" x="1189.33" y="640" width="64" height="32"/>
  <object id="272" gid="3640" x="686.667" y="916" width="64" height="32"/>
  <object id="273" gid="3640" x="666.667" y="650.667" width="64" height="32"/>
  <object id="274" gid="3635" x="1209.33" y="574.667" width="32" height="32"/>
  <object id="275" gid="3634" x="912" y="440" width="32" height="32"/>
  <object id="276" gid="3637" x="748" y="412" width="32" height="32"/>
  <object id="277" gid="3639" x="618.667" y="497.333" width="64" height="32"/>
  <object id="278" gid="3632" x="566.667" y="630.667" width="32" height="32"/>
  <object id="279" gid="3631" x="1118.67" y="930.667" width="32" height="32"/>
  <object id="280" gid="3635" x="965.333" y="477.333" width="32" height="32"/>
  <object id="281" gid="3635" x="1269.33" y="728" width="32" height="32"/>
  <object id="282" gid="3616" x="1086.67" y="850.667" width="64" height="32"/>
  <object id="283" gid="3618" x="702.667" y="580" width="64" height="32"/>
  <object id="284" gid="3619" x="954.667" y="434.667" width="64" height="64"/>
  <object id="285" gid="3617" x="764" y="932" width="64" height="32"/>
  <object id="286" gid="3616" x="581.333" y="746.667" width="64" height="32"/>
  <object id="287" gid="3616" x="1196.36" y="536.182" width="64" height="32"/>
  <object id="288" gid="3615" x="1320.17" y="607.583" width="32" height="32"/>
  <object id="289" gid="3614" x="1199.33" y="762.667" width="32" height="32"/>
  <object id="290" gid="3613" x="922.667" y="468" width="32" height="32"/>
  <object id="291" gid="3612" x="666.667" y="593.333" width="32" height="32"/>
  <object id="292" gid="3611" x="676" y="678.667" width="32" height="32"/>
  <object id="293" gid="3611" x="840" y="925.333" width="32" height="32"/>
  <object id="294" gid="3610" x="752" y="964" width="32" height="32"/>
  <object id="295" gid="3610" x="1125.33" y="882.667" width="32" height="32"/>
  <object id="296" gid="3609" x="1150.67" y="820" width="32" height="32"/>
  <object id="297" gid="3608" x="1153.33" y="674.667" width="32" height="32"/>
  <object id="298" gid="3608" x="1149.33" y="509.333" width="32" height="32"/>
  <object id="299" gid="3608" x="612" y="560" width="32" height="32"/>
  <object id="300" gid="3612" x="548" y="782.667" width="32" height="32"/>
  <object id="301" gid="3612" x="453.333" y="805.333" width="32" height="32"/>
  <object id="302" gid="3612" x="613.333" y="981.333" width="32" height="32"/>
  <object id="303" gid="3612" x="1353.33" y="697.333" width="32" height="32"/>
  <object id="304" gid="3612" x="910.667" y="356" width="32" height="32"/>
  <object id="305" gid="3612" x="614.667" y="400" width="32" height="32"/>
  <object id="306" gid="3608" x="984" y="324" width="32" height="32"/>
  <object id="307" gid="3679" x="990.667" y="896" width="96" height="64"/>
  <object id="308" gid="3678" x="989.333" y="864" width="96" height="160"/>
  <object id="312" gid="3678" x="573.333" y="678.667" width="96" height="160"/>
  <object id="313" gid="3679" x="825.333" y="466.667" width="96" height="64"/>
  <object id="314" gid="3679" x="1257.33" y="685.333" width="96" height="64"/>
  <object id="315" gid="3678" x="824" y="434.667" width="96" height="160"/>
  <object id="316" gid="3678" x="1257.33" y="654.667" width="96" height="160"/>
  <object id="319" gid="3678" x="654.667" y="837.333" width="96" height="160"/>
  <object id="320" gid="3679" x="656" y="868" width="96" height="64"/>
  <object id="324" gid="3678" x="837.333" y="978.667" width="96" height="160"/>
  <object id="355" gid="3678" x="713.333" y="472" width="96" height="160"/>
  <object id="326" gid="3678" x="1020" y="917.333" width="96" height="160"/>
  <object id="327" gid="3679" x="1017.33" y="945.333" width="96" height="64"/>
  <object id="328" gid="3679" x="837.333" y="1008" width="96" height="64"/>
  <object id="356" gid="3679" x="714.833" y="502.333" width="96" height="64"/>
  <object id="331" gid="3544" x="867" y="463" width="64" height="64"/>
  <object id="332" gid="3547" x="1091" y="549" width="64" height="32"/>
  <object id="333" gid="3749" x="1215" y="510" width="32" height="32"/>
  <object id="334" gid="3753" x="742" y="539" width="32" height="32"/>
  <object id="335" gid="3749" x="786" y="446" width="32" height="32"/>
  <object id="336" gid="3762" x="642" y="626" width="32" height="32"/>
  <object id="337" gid="3750" x="577" y="722" width="32" height="32"/>
  <object id="338" gid="3755" x="961" y="890" width="32" height="32"/>
  <object id="339" gid="3756" x="986" y="896" width="32" height="32"/>
  <object id="340" gid="3769" x="1144" y="759" width="32" height="32"/>
  <object id="341" gid="3773" x="689" y="526" width="32" height="32"/>
  <object id="343" gid="3744" x="685" y="468" width="64" height="32"/>
  <object id="344" gid="3747" x="643" y="528" width="32" height="32"/>
  <object id="345" gid="3753" x="700" y="545" width="32" height="32"/>
  <object id="346" gid="3753" x="669" y="566" width="32" height="32"/>
  <object id="347" gid="3598" x="576" y="480" width="128" height="96"/>
  <object id="351" gid="3602" x="423" y="459" width="224" height="128"/>
  <object id="353" gid="3598" x="563" y="396" width="128" height="96"/>
  <object id="372" gid="3724" x="1088" y="1152" width="224" height="192"/>
  <object id="383" gid="3529" x="1312" y="224" width="256" height="192"/>
  <object id="384" gid="3678" x="496" y="1019" width="96" height="160"/>
  <object id="385" gid="3679" x="497.333" y="1049.33" width="96" height="64"/>
  <object id="388" gid="3678" x="43.3335" y="682" width="96" height="160"/>
  <object id="389" gid="3679" x="44.6665" y="712.33" width="96" height="64"/>
  <object id="392" gid="3678" x="335.333" y="406" width="96" height="160"/>
  <object id="393" gid="3679" x="336.666" y="436.33" width="96" height="64"/>
  <object id="394" gid="3678" x="849.333" y="1366" width="96" height="160"/>
  <object id="395" gid="3679" x="850.667" y="1396.33" width="96" height="64"/>
  <object id="396" gid="3678" x="1471.33" y="1244" width="96" height="160"/>
  <object id="397" gid="3679" x="1472.67" y="1274.33" width="96" height="64"/>
  <object id="398" gid="3678" x="1497.33" y="666" width="96" height="160"/>
  <object id="399" gid="3679" x="1498.67" y="696.33" width="96" height="64"/>
  <object id="414" gid="3678" x="1763.94" y="1348.97" width="96" height="160"/>
  <object id="415" gid="3679" x="1765.27" y="1379.3" width="96" height="64"/>
  <object id="416" gid="3678" x="2375.58" y="1420" width="96" height="160"/>
  <object id="417" gid="3679" x="2376.91" y="1450.33" width="96" height="64"/>
  <object id="436" gid="3616" x="1081" y="1163" width="64" height="32"/>
  <object id="438" gid="3611" x="1277" y="1139" width="32" height="32"/>
  <object id="439" gid="3617" x="1159" y="1159" width="64" height="32"/>
  <object id="440" gid="3608" x="1132" y="1053" width="32" height="32"/>
  <object id="441" gid="3615" x="1251" y="1063" width="32" height="32"/>
  <object id="442" gid="3615" x="1052" y="1096" width="32" height="32"/>
  <object id="539" gid="3602" x="1523.33" y="52.8333" width="224" height="128"/>
  <object id="540" gid="3598" x="1678" y="157.833" width="128" height="96"/>
  <object id="541" gid="3602" x="1653.33" y="65.3333" width="224" height="128"/>
  <object id="589" gid="3858" x="263" y="629" width="96" height="192"/>
  <object id="590" gid="3858" x="297.333" y="130.667" width="96" height="192"/>
  <object id="591" gid="2147487506" x="1001.33" y="196" width="96" height="192"/>
  <object id="592" gid="3858" x="1094.67" y="542.667" width="96" height="192"/>
  <object id="593" gid="3858" x="1174.67" y="724" width="96" height="192"/>
  <object id="594" gid="2147487506" x="1366.67" y="890.667" width="96" height="192"/>
  <object id="598" gid="3858" x="756" y="976" width="96" height="192"/>
  <object id="595" gid="3858" x="1400" y="1313.33" width="96" height="192"/>
  <object id="596" gid="3858" x="946.667" y="1390.67" width="96" height="192"/>
  <object id="597" gid="3858" x="2412" y="1373.33" width="96" height="192"/>
  <object id="599" gid="3680" x="265" y="656.5" width="128" height="64"/>
  <object id="600" gid="3680" x="298.5" y="157.5" width="128" height="64"/>
  <object id="601" gid="3680" x="561" y="709" width="128" height="64"/>
  <object id="602" gid="3680" x="755" y="1004" width="128" height="64"/>
  <object id="603" gid="3680" x="950" y="1417" width="128" height="64"/>
  <object id="604" gid="3680" x="1398" y="1341" width="128" height="64"/>
  <object id="609" gid="3680" x="2412.67" y="1402.33" width="128" height="64"/>
  <object id="605" gid="3680" x="1340" y="916" width="128" height="64"/>
  <object id="606" gid="3680" x="1175" y="751" width="128" height="64"/>
  <object id="607" gid="3680" x="1098" y="570" width="128" height="64"/>
  <object id="608" gid="3680" x="973" y="224" width="128" height="64"/>
 </objectgroup>
 <objectgroup id="9" name="props2">
  <object id="82" gid="4913" x="1683" y="849" width="32" height="32"/>
  <object id="83" gid="3896" x="1696" y="512" width="32" height="96"/>
  <object id="84" gid="3896" x="1728" y="512" width="32" height="96"/>
  <object id="85" gid="3896" x="1760" y="512" width="32" height="96"/>
  <object id="237" gid="3803" x="1822" y="988" width="32" height="32"/>
  <object id="238" gid="3805" x="1783.33" y="994" width="32" height="32"/>
  <object id="239" gid="3791" x="1837.33" y="998" width="32" height="32"/>
  <object id="240" gid="3801" x="1769.33" y="1021.33" width="32" height="32"/>
  <object id="241" gid="3797" x="1800.67" y="1004" width="32" height="32"/>
  <object id="242" gid="3582" x="1826.67" y="1018.67" width="32" height="32"/>
  <object id="243" gid="3587" x="1799.33" y="1030" width="32" height="32"/>
  <object id="359" gid="3544" x="758.5" y="487" width="64" height="64"/>
  <object id="360" gid="3544" x="758.5" y="487" width="64" height="64"/>
  <object id="361" gid="3544" x="1172" y="733" width="64" height="64"/>
  <object id="444" gid="3510" x="164" y="686" width="96" height="96"/>
  <object id="445" gid="3516" x="320" y="888" width="64" height="32"/>
  <object id="446" gid="3514" x="652" y="1338" width="96" height="64"/>
  <object id="447" gid="3508" x="1454" y="870" width="64" height="64"/>
  <object id="448" gid="3509" x="476" y="498" width="64" height="64"/>
  <object id="449" gid="3508" x="390" y="534" width="64" height="64"/>
  <object id="450" gid="3515" x="952" y="248" width="64" height="32"/>
  <object id="451" gid="3515" x="1566" y="724" width="64" height="32"/>
  <object id="452" gid="3513" x="1376" y="1270" width="64" height="64"/>
  <object id="453" gid="3557" x="285.333" y="40.6667" width="32" height="32"/>
  <object id="455" gid="3553" x="438.667" y="108" width="32" height="64"/>
  <object id="456" gid="3565" x="394.667" y="146.667" width="64" height="64"/>
  <object id="457" gid="3564" x="428" y="226.667" width="64" height="64"/>
  <object id="458" gid="3554" x="362.667" y="249.333" width="32" height="64"/>
  <object id="459" gid="3577" x="924" y="46.6667" width="64" height="64"/>
  <object id="460" gid="3573" x="629.333" y="141.333" width="32" height="32"/>
  <object id="461" gid="3562" x="281.167" y="177.833" width="64" height="64"/>
  <object id="462" gid="3563" x="10.6667" y="426.667" width="64" height="64"/>
  <object id="463" gid="3574" x="302.667" y="433.333" width="64" height="64"/>
  <object id="464" gid="3573" x="377.333" y="446.667" width="32" height="32"/>
  <object id="465" gid="3561" x="604" y="182.667" width="32" height="32"/>
  <object id="466" gid="3560" x="653.333" y="228" width="32" height="32"/>
  <object id="467" gid="3560" x="22.6667" y="736" width="32" height="32"/>
  <object id="468" gid="3560" x="796" y="1206.67" width="32" height="32"/>
  <object id="469" gid="3560" x="162.667" y="892" width="32" height="32"/>
  <object id="470" gid="3560" x="1246.67" y="164" width="32" height="32"/>
  <object id="471" gid="3560" x="1596" y="1080" width="32" height="32"/>
  <object id="472" gid="3560" x="904" y="1422.67" width="32" height="32"/>
  <object id="473" gid="3564" x="1598.67" y="1397.33" width="64" height="64"/>
  <object id="474" gid="3559" x="2333.33" y="1333.33" width="32" height="32"/>
  <object id="475" gid="3558" x="2308" y="1353.33" width="32" height="32"/>
  <object id="477" gid="3557" x="2518.67" y="1408" width="32" height="32"/>
  <object id="478" gid="3553" x="1540" y="1340" width="32" height="64"/>
  <object id="479" gid="3554" x="1573.33" y="1354.67" width="32" height="64"/>
  <object id="481" gid="3552" x="1553.33" y="1362.67" width="32" height="64"/>
  <object id="482" gid="3552" x="1121.33" y="1422.67" width="32" height="64"/>
  <object id="484" gid="3552" x="1417.33" y="929.333" width="32" height="64"/>
  <object id="485" gid="3561" x="1496" y="360" width="32" height="32"/>
  <object id="486" gid="3558" x="1569.33" y="340.667" width="32" height="32"/>
  <object id="487" gid="3562" x="2014.67" y="229.333" width="64" height="64"/>
  <object id="488" gid="3552" x="2134.67" y="178.667" width="32" height="64"/>
  <object id="490" gid="3553" x="1750.67" y="269.333" width="32" height="64"/>
  <object id="491" gid="3556" x="1749.33" y="41.3333" width="32" height="64"/>
  <object id="492" gid="3564" x="1264" y="38.6667" width="64" height="64"/>
  <object id="494" gid="3575" x="589.333" y="1390.67" width="64" height="32"/>
  <object id="495" gid="3574" x="90.6667" y="1158.67" width="64" height="64"/>
  <object id="496" gid="3559" x="497.333" y="1157.33" width="32" height="32"/>
  <object id="497" gid="3560" x="128" y="1369.33" width="32" height="32"/>
  <object id="499" gid="3564" x="244" y="570" width="64" height="64"/>
  <object id="500" gid="3828" x="1250.67" y="1160" width="32" height="32"/>
  <object id="501" gid="3816" x="1232.67" y="1157.33" width="32" height="32"/>
  <object id="502" gid="3839" x="1271" y="1111" width="32" height="32"/>
  <object id="503" gid="3844" x="1266.5" y="1090.25" width="32" height="32"/>
  <object id="507" gid="3707" x="751" y="538" width="32" height="32"/>
  <object id="508" gid="3710" x="859" y="497" width="64" height="32"/>
  <object id="509" gid="3715" x="1064" y="500" width="64" height="32"/>
  <object id="510" gid="3703" x="1051" y="498" width="32" height="32"/>
  <object id="511" gid="3700" x="897" y="422" width="64" height="32"/>
  <object id="512" gid="3700" x="695" y="613" width="64" height="32"/>
  <object id="513" gid="3700" x="1207" y="844" width="64" height="32"/>
  <object id="514" gid="3719" x="1192" y="867" width="64" height="32"/>
  <object id="515" gid="3705" x="1228" y="872" width="64" height="32"/>
  <object id="516" gid="3704" x="912" y="923" width="64" height="32"/>
  <object id="517" gid="3714" x="934" y="938" width="64" height="32"/>
  <object id="518" gid="3715" x="715" y="976" width="64" height="32"/>
  <object id="519" gid="3718" x="724" y="551" width="32" height="32"/>
  <object id="521" gid="3718" x="524" y="673" width="32" height="32"/>
  <object id="522" gid="3705" x="265" y="631" width="64" height="32"/>
  <object id="523" gid="3699" x="540" y="1028" width="64" height="32"/>
  <object id="524" gid="3708" x="533" y="1045" width="32" height="32"/>
  <object id="525" gid="3708" x="1475" y="1238" width="32" height="32"/>
  <object id="526" gid="3718" x="1533" y="1254" width="32" height="32"/>
  <object id="527" gid="3704" x="1457" y="1265" width="64" height="32"/>
  <object id="528" gid="3703" x="1324" y="642" width="32" height="32"/>
  <object id="529" gid="3699" x="1327" y="655" width="64" height="32"/>
  <object id="530" gid="3718" x="1299" y="707" width="32" height="32"/>
  <object id="542" gid="3622" x="546" y="1430" width="32" height="32"/>
  <object id="543" gid="3623" x="751" y="1377" width="32" height="32"/>
  <object id="544" gid="3626" x="435" y="1075" width="64" height="64"/>
  <object id="545" gid="3625" x="505" y="1101" width="64" height="64"/>
  <object id="546" gid="3630" x="19" y="1088" width="32" height="64"/>
  <object id="547" gid="3629" x="-21" y="1124" width="64" height="64"/>
  <object id="548" gid="3629" x="1710" y="125" width="64" height="64"/>
  <object id="549" gid="3620" x="1544" y="31" width="64" height="32"/>
  <object id="550" gid="3621" x="1841" y="126" width="32" height="32"/>
  <object id="551" gid="3621" x="2474" y="342" width="32" height="32"/>
  <object id="552" gid="3621" x="245" y="930" width="32" height="32"/>
  <object id="553" gid="3621" x="153" y="621" width="32" height="32"/>
  <object id="554" gid="3619" x="1864" y="1321" width="64" height="64"/>
  <object id="555" gid="3617" x="1747" y="1318" width="64" height="32"/>
  <object id="556" gid="3612" x="1723" y="1316" width="32" height="32"/>
  <object id="557" gid="3612" x="2296" y="1318" width="32" height="32"/>
  <object id="558" gid="3609" x="2356" y="1317" width="32" height="32"/>
  <object id="559" gid="3613" x="2259.25" y="1314.5" width="32" height="32"/>
  <object id="560" gid="3546" x="2018" y="1326" width="64" height="32"/>
  <object id="561" gid="3551" x="2130" y="1324.5" width="32" height="32"/>
  <object id="562" gid="3551" x="1828" y="1321.33" width="32" height="32"/>
  <object id="563" gid="3634" x="1732" y="1346" width="32" height="32"/>
  <object id="564" gid="3635" x="2369" y="1371" width="32" height="32"/>
  <object id="565" gid="3634" x="2255" y="1341" width="32" height="32"/>
  <object id="567" gid="3632" x="1864" y="1355" width="32" height="32"/>
  <object id="568" gid="3691" x="2204" y="1342" width="64" height="64"/>
  <object id="569" gid="3696" x="1917" y="1346" width="64" height="64"/>
  <object id="580" gid="3515" x="1976" y="360" width="64" height="32"/>
  <object id="581" gid="3513" x="2492" y="420" width="64" height="64"/>
  <object id="582" gid="3559" x="2432" y="318" width="32" height="32"/>
  <object id="583" gid="3560" x="2422" y="338" width="32" height="32"/>
  <object id="584" gid="3755" x="2478" y="390" width="32" height="32"/>
  <object id="585" gid="3756" x="2532" y="440" width="32" height="32"/>
  <object id="586" gid="3753" x="2494" y="450" width="32" height="32"/>
  <object id="587" gid="3748" x="1966" y="389" width="32" height="32"/>
  <object id="588" gid="3753" x="2010" y="387" width="32" height="32"/>
 </objectgroup>
 <layer id="10" name="props3" width="80" height="45">
  <data encoding="csv">
0,0,0,0,0,0,0,0,0,0,0,0,0,0,0,0,0,0,0,0,0,0,0,0,0,0,0,0,0,0,0,0,0,0,0,0,0,0,0,0,0,0,0,0,0,0,0,0,0,0,0,0,0,0,0,0,0,0,0,0,0,0,0,0,0,0,0,0,0,0,0,0,0,0,0,0,0,0,0,0,
0,0,0,0,0,0,0,0,0,0,0,0,0,0,0,0,0,0,0,0,0,0,0,0,0,0,0,0,0,0,0,0,0,0,0,0,0,0,0,0,0,0,0,0,0,0,0,0,0,0,0,0,0,0,0,0,0,0,0,0,0,0,0,0,0,0,0,0,0,0,0,0,0,0,0,0,0,0,0,0,
0,0,0,0,0,0,0,0,0,0,0,0,0,0,0,0,0,0,0,0,0,0,0,0,0,0,0,0,0,0,0,0,0,0,0,0,0,0,0,0,0,0,0,0,0,0,0,0,0,0,0,0,0,0,0,0,0,0,0,0,0,0,0,0,0,0,0,0,0,0,0,0,0,0,0,0,0,0,0,0,
0,0,0,0,0,0,0,0,0,0,0,0,0,0,0,0,0,0,0,0,0,0,0,0,0,0,0,0,0,0,0,0,0,0,0,0,0,0,0,0,0,0,0,0,0,0,0,0,0,0,0,0,0,0,0,0,0,0,0,0,0,0,0,0,0,0,0,0,0,0,0,0,0,0,0,0,0,0,0,0,
0,0,0,0,0,0,0,0,0,0,0,0,0,0,0,0,0,0,0,0,0,0,0,0,0,0,0,0,0,0,0,0,0,0,0,0,0,0,0,0,0,0,0,0,0,0,0,0,0,0,0,0,0,0,0,0,0,0,0,0,0,0,0,0,0,0,0,0,0,0,0,0,0,0,0,0,0,0,0,0,
0,0,0,0,0,0,0,0,0,0,0,0,0,0,0,0,0,0,0,0,0,0,0,0,0,0,0,0,0,0,0,0,0,0,0,0,0,0,0,0,0,0,0,0,0,0,0,0,0,0,0,0,0,0,0,0,0,0,0,0,0,0,0,0,0,0,0,0,0,0,0,0,0,0,0,0,0,0,0,0,
0,0,0,0,0,0,0,0,0,0,0,0,0,0,0,0,0,0,0,0,0,0,0,0,0,0,0,0,0,0,0,0,0,0,0,0,0,0,0,0,0,0,0,0,0,0,0,0,0,0,0,0,0,0,0,0,0,0,0,0,0,0,0,0,0,0,0,0,0,0,0,0,0,0,0,0,0,0,0,0,
0,0,0,0,0,0,0,0,0,0,0,0,0,0,0,0,0,0,0,0,0,0,0,0,0,0,0,0,0,0,0,0,0,0,0,0,0,0,0,0,0,0,0,0,0,0,0,0,0,0,0,0,0,0,0,0,0,0,0,0,0,0,0,0,0,0,0,0,0,0,0,0,0,0,0,0,0,0,0,0,
0,0,0,0,0,0,0,0,0,0,0,0,0,0,0,0,0,0,0,0,0,0,0,0,0,0,0,0,0,0,0,0,0,0,0,0,0,0,0,0,0,0,0,0,0,0,0,0,0,0,0,0,0,0,0,0,0,0,0,0,0,0,0,0,0,0,0,0,0,0,0,0,0,0,0,0,0,0,0,0,
0,0,0,0,0,0,0,0,0,0,0,0,0,0,0,0,0,0,0,0,0,0,0,0,0,0,0,0,0,0,0,0,0,0,0,0,0,0,0,0,0,0,0,0,0,0,0,0,0,0,0,0,0,0,0,0,0,0,0,0,0,0,0,0,0,0,0,0,0,0,0,0,0,0,0,0,0,0,0,0,
0,0,0,0,0,0,0,0,0,0,0,0,0,0,0,0,0,0,0,0,0,0,0,0,0,0,0,0,0,0,0,0,0,0,0,0,0,0,0,0,0,0,0,0,0,0,0,0,0,0,0,0,0,0,0,0,0,0,0,0,0,0,0,0,0,0,0,0,0,0,0,0,0,0,0,0,0,0,0,0,
0,0,0,0,0,0,0,0,0,0,0,0,0,0,0,0,0,0,0,0,0,0,0,0,0,0,0,0,0,0,0,0,0,0,0,0,0,0,0,0,0,0,0,0,0,0,0,0,0,0,4910,0,0,0,4914,0,0,0,0,0,0,0,0,0,0,0,0,0,0,0,0,0,0,0,0,0,0,0,0,0,
0,0,0,0,0,0,0,0,0,0,0,0,0,0,0,0,0,0,0,0,0,0,0,0,0,0,0,0,0,0,0,0,0,0,0,0,0,0,0,0,0,0,0,0,0,0,0,0,0,0,5186,5187,5117,4947,4948,0,0,0,0,0,0,0,0,0,0,0,0,0,0,0,0,0,0,0,0,0,0,0,0,0,
0,0,0,0,0,0,0,0,0,0,0,0,0,0,0,0,0,0,0,0,0,0,0,0,0,0,0,0,0,0,0,0,0,0,0,0,0,0,0,0,0,0,0,0,0,0,0,0,0,0,5220,5221,4980,4981,4982,0,0,0,0,0,0,0,0,0,0,0,0,0,0,0,0,0,0,0,0,0,0,0,0,0,
0,0,0,0,0,0,0,0,0,0,0,0,0,0,0,0,0,0,0,0,0,0,0,0,0,0,0,0,0,0,0,0,0,0,0,0,0,0,0,0,0,0,0,0,0,0,0,0,0,0,5254,5255,5256,5015,5016,0,0,0,0,0,0,0,0,0,0,0,0,0,0,0,0,0,0,0,0,0,0,0,0,0,
0,0,0,0,0,0,0,0,0,0,0,0,0,0,0,0,0,0,0,0,0,0,0,0,0,0,0,0,0,0,0,0,0,0,0,0,0,0,0,0,0,0,0,0,0,0,0,0,0,0,5288,5047,5290,5049,5050,0,0,0,0,0,0,0,0,0,0,0,0,0,0,0,0,0,0,0,0,0,0,0,0,0,
0,0,0,0,0,0,0,0,0,0,0,0,0,0,0,0,0,0,0,0,0,0,0,0,0,0,0,0,0,0,0,0,0,0,0,0,0,0,0,0,0,0,0,0,0,0,0,0,0,0,5322,5081,5324,5083,5084,0,0,0,0,0,0,0,0,0,0,0,0,0,0,0,0,0,0,0,0,0,0,0,0,0,
0,0,0,0,0,0,0,0,0,0,0,0,0,0,0,0,0,0,0,0,0,0,0,0,0,0,0,0,0,0,0,0,0,0,0,0,0,0,0,0,0,0,0,0,0,0,0,0,0,0,0,0,0,0,0,0,0,0,0,0,0,0,0,0,0,0,0,0,0,0,0,0,0,0,0,0,0,0,0,0,
0,0,0,0,0,0,0,0,0,0,0,0,0,0,0,0,0,0,0,0,0,0,0,0,0,0,0,0,0,0,0,0,0,0,0,0,0,0,0,0,0,0,0,0,0,0,0,0,0,0,0,0,0,0,0,0,0,0,0,0,0,0,0,0,0,0,0,0,0,0,0,0,0,0,0,0,0,0,0,0,
0,0,0,0,0,0,0,0,0,0,0,0,0,0,0,0,0,0,0,0,0,0,0,0,0,0,0,0,0,0,0,0,0,0,0,0,0,0,0,0,0,0,0,0,0,0,0,0,0,0,0,0,0,0,0,0,0,0,0,0,0,0,0,0,0,0,0,0,0,0,0,0,0,0,0,0,0,0,0,0,
0,0,0,0,0,0,0,0,0,0,0,0,0,0,0,0,0,0,0,0,0,0,0,0,0,0,0,0,0,0,0,0,0,0,0,0,0,0,0,0,0,0,0,0,0,0,0,0,0,0,0,0,0,0,0,0,0,0,0,0,0,0,0,0,0,0,0,0,0,0,0,0,0,0,0,0,0,0,0,0,
0,0,0,0,0,0,0,0,0,0,0,0,0,0,0,0,0,0,0,0,0,0,0,0,0,0,0,0,0,0,0,0,0,0,0,0,0,0,0,0,0,0,0,0,0,0,0,0,0,0,0,0,0,0,0,0,0,0,0,0,0,0,0,0,0,0,0,0,0,0,0,0,0,0,0,0,0,0,0,0,
0,0,0,0,0,0,0,0,0,0,0,0,0,0,0,0,0,0,0,0,0,0,0,0,0,0,0,0,0,0,0,0,0,0,0,0,0,0,0,0,0,0,0,0,0,0,0,0,0,0,0,0,0,0,0,0,0,0,0,0,0,0,0,0,0,0,0,0,0,0,0,0,0,0,0,0,0,0,0,0,
0,0,0,0,0,0,0,0,0,0,0,0,0,0,0,0,0,0,0,0,0,0,0,0,0,0,0,0,0,0,0,0,0,0,0,0,0,0,0,0,0,0,0,0,0,0,0,0,0,0,0,0,0,0,0,0,0,0,0,0,0,0,0,0,0,0,0,0,0,0,0,0,0,0,0,0,0,0,0,0,
0,0,0,0,0,0,0,0,0,0,0,0,0,0,0,0,0,0,0,0,0,0,0,0,0,0,0,0,0,0,0,0,0,0,0,0,0,0,0,0,0,0,0,0,0,0,0,0,0,0,0,0,0,0,0,0,0,0,0,0,0,0,0,0,0,0,0,0,0,0,0,0,0,0,0,0,0,0,0,0,
0,0,0,0,0,0,0,0,0,0,0,0,0,0,0,0,0,0,0,0,0,0,0,0,0,0,0,0,0,0,0,0,0,0,0,0,0,0,0,0,0,0,0,0,0,0,0,0,0,0,0,0,0,0,0,0,0,0,0,0,0,0,0,0,0,0,0,0,0,0,0,0,0,0,0,0,0,0,0,0,
0,0,0,0,0,0,0,0,0,0,0,0,0,0,0,0,0,0,0,0,0,0,0,0,0,0,0,0,0,0,0,0,0,0,0,0,0,0,0,0,0,0,0,0,0,0,0,0,0,0,0,0,0,0,0,0,0,0,0,0,0,0,0,0,0,0,0,0,0,0,0,0,0,0,0,0,0,0,0,0,
0,0,0,0,0,0,0,0,0,0,0,0,0,0,0,0,0,0,0,0,0,0,0,0,0,0,0,0,0,0,0,0,0,0,0,0,0,0,0,0,0,0,0,0,0,0,0,0,0,0,0,0,0,0,0,0,0,0,0,0,0,0,0,0,0,0,0,0,0,0,0,0,0,0,0,0,0,0,0,0,
0,0,0,0,0,0,0,0,0,0,0,0,0,0,0,0,0,0,0,0,0,0,0,0,0,0,0,0,0,0,0,0,0,0,0,0,0,0,0,0,0,0,0,0,0,0,0,0,0,0,0,0,0,0,0,0,0,0,0,0,0,0,0,0,0,0,0,0,0,0,0,0,0,0,0,0,0,0,0,0,
0,0,0,0,0,0,0,0,0,0,0,0,0,0,0,0,0,0,0,0,0,0,0,0,0,0,0,0,0,0,0,0,0,0,0,0,0,0,0,0,0,0,0,0,0,0,0,0,0,0,0,0,0,0,0,0,0,0,0,0,0,0,0,0,0,0,0,0,0,0,0,0,0,0,0,0,0,0,0,0,
0,0,0,0,0,0,0,0,0,0,0,0,0,0,0,0,0,0,0,0,0,0,0,0,0,0,0,0,0,0,0,0,0,0,0,0,0,0,0,0,0,0,0,0,0,0,0,0,0,0,0,0,0,0,0,0,0,0,0,0,0,0,0,0,0,0,0,0,0,0,0,0,0,0,0,0,0,0,0,0,
0,0,0,0,0,0,0,0,0,0,0,0,0,0,0,0,0,0,0,0,0,0,0,0,0,0,0,0,0,0,0,0,0,0,0,0,0,0,0,0,0,0,0,0,0,0,0,0,0,0,0,0,0,0,0,0,0,0,0,0,0,0,0,0,0,0,0,0,0,0,0,0,0,0,0,0,0,0,0,0,
0,0,0,0,0,0,0,0,0,0,0,0,0,0,0,0,0,0,0,0,0,0,0,0,0,0,0,0,0,0,0,0,0,0,0,0,0,0,0,0,0,0,0,0,0,0,0,0,0,0,0,0,0,0,0,0,0,0,0,0,0,0,0,0,0,0,0,0,0,0,0,0,0,0,0,0,0,0,0,0,
0,0,0,0,0,0,0,0,0,0,0,0,0,0,0,0,0,0,0,0,0,0,0,0,0,0,0,0,0,0,0,0,0,0,0,0,0,0,0,0,0,0,0,0,0,0,0,0,0,0,0,0,0,0,0,0,0,0,0,0,0,0,0,0,0,0,0,0,0,0,0,0,0,0,0,0,0,0,0,0,
0,0,0,0,0,0,0,0,0,0,0,0,0,0,0,0,0,0,0,0,0,0,0,0,0,0,0,0,0,0,0,0,0,0,0,0,0,0,0,0,0,0,0,0,0,0,0,0,0,0,0,0,0,0,0,0,0,0,0,0,0,0,0,0,0,0,0,0,0,0,0,0,0,0,0,0,0,0,0,0,
0,0,0,0,0,0,0,0,0,0,0,0,0,0,0,0,0,0,0,0,0,0,0,0,0,0,0,0,0,0,0,0,0,0,0,0,0,0,0,0,0,0,0,0,0,0,0,0,0,0,0,0,0,0,0,0,0,0,0,0,0,0,0,0,0,0,0,0,0,0,0,0,0,0,0,0,0,0,0,0,
0,0,0,0,0,0,0,0,0,0,0,0,0,0,0,0,0,0,0,0,0,0,0,0,0,0,0,0,0,0,0,0,0,0,0,0,0,0,0,0,0,0,0,0,0,0,0,0,0,0,4910,0,0,0,4914,0,0,0,0,0,0,0,0,0,0,0,0,0,0,0,0,0,0,0,0,0,0,0,0,0,
0,0,0,0,0,0,0,0,0,0,0,0,0,0,0,0,0,0,0,0,0,0,0,0,0,0,0,0,0,0,0,0,0,0,0,0,0,0,0,0,0,0,0,0,0,0,0,0,0,0,5186,5187,5188,4947,4948,0,0,0,0,0,0,0,0,0,0,0,0,0,0,0,0,0,0,0,0,0,0,0,0,0,
0,0,0,0,0,0,0,0,0,0,0,0,0,0,0,0,0,0,0,0,0,0,0,0,0,0,0,0,0,0,0,0,0,0,0,0,0,0,0,0,0,0,0,0,0,0,0,0,0,0,5220,5221,4980,4981,4982,0,0,0,0,0,0,0,0,0,0,0,0,0,0,0,0,0,0,0,0,0,0,0,0,0,
0,0,0,0,0,0,0,0,0,0,0,0,0,0,0,0,0,0,0,0,0,0,0,0,0,0,0,0,0,0,0,0,0,0,0,0,0,0,0,0,0,0,0,0,0,0,0,0,0,0,5254,5255,5014,5015,5016,0,0,0,0,0,0,0,0,0,0,0,0,0,0,0,0,0,0,0,0,0,0,0,0,0,
0,0,0,0,0,0,0,0,0,0,0,0,0,0,0,0,0,0,0,0,0,0,0,0,0,0,0,0,0,0,0,0,0,0,0,0,0,0,0,0,0,0,0,0,0,0,0,0,0,0,5288,5047,5048,5049,5050,0,0,0,0,0,0,0,0,0,0,0,0,0,0,0,0,0,0,0,0,0,0,0,0,0,
0,0,0,0,0,0,0,0,0,0,0,0,0,0,0,0,0,0,0,0,0,0,0,0,0,0,0,0,0,0,0,0,0,0,0,0,0,0,0,0,0,0,0,0,0,0,0,0,0,0,5322,5081,5082,5083,5084,0,0,0,0,0,0,0,0,0,0,0,0,0,0,0,0,0,0,0,0,0,0,0,0,0,
0,0,0,0,0,0,0,0,0,0,0,0,0,0,0,0,0,0,0,0,0,0,0,0,0,0,0,0,0,0,0,0,0,0,0,0,0,0,0,0,0,0,0,0,0,0,0,0,0,0,0,0,0,0,0,0,0,0,0,0,0,0,0,0,0,0,0,0,0,0,0,0,0,0,0,0,0,0,0,0,
0,0,0,0,0,0,0,0,0,0,0,0,0,0,0,0,0,0,0,0,0,0,0,0,0,0,0,0,0,0,0,0,0,0,0,0,0,0,0,0,0,0,0,0,0,0,0,0,0,0,0,0,0,0,0,0,0,0,0,0,0,0,0,0,0,0,0,0,0,0,0,0,0,0,0,0,0,0,0,0,
0,0,0,0,0,0,0,0,0,0,0,0,0,0,0,0,0,0,0,0,0,0,0,0,0,0,0,0,0,0,0,0,0,0,0,0,0,0,0,0,0,0,0,0,0,0,0,0,0,0,0,0,0,0,0,0,0,0,0,0,0,0,0,0,0,0,0,0,0,0,0,0,0,0,0,0,0,0,0,0
</data>
 </layer>
 <layer id="11" name="props4" width="80" height="45">
  <data encoding="csv">
0,0,0,0,0,0,0,0,0,0,0,0,0,0,0,6493,0,0,0,0,0,0,0,0,0,0,0,0,0,0,0,0,0,0,0,0,0,0,0,0,0,0,0,0,0,0,0,0,0,0,0,0,0,6557,0,0,0,0,0,0,0,0,0,0,0,0,0,0,0,0,0,0,0,0,0,0,0,0,0,0,
0,0,0,0,0,0,0,6528,0,0,0,0,0,0,0,0,0,0,0,0,0,0,0,0,0,0,0,0,0,0,0,0,0,0,0,0,0,0,0,0,0,6497,0,0,0,0,0,0,0,0,0,0,0,0,0,0,0,0,0,0,0,0,0,0,0,6558,0,0,0,0,0,0,0,0,0,0,0,0,0,0,
0,0,0,0,0,0,0,0,0,0,0,0,0,0,0,0,0,0,0,0,0,0,0,0,0,0,0,0,0,0,0,0,0,0,0,0,0,0,0,0,0,0,0,0,0,0,0,0,0,0,0,0,0,0,6497,0,0,0,0,0,0,0,0,0,0,0,0,0,0,0,0,6585,0,0,0,0,0,0,0,0,
0,6497,0,0,6588,0,0,0,0,0,0,0,0,0,0,0,0,0,0,0,0,0,0,0,0,0,0,0,0,0,0,0,0,0,0,0,0,6558,0,0,0,0,0,0,0,0,0,0,0,0,0,0,0,0,0,0,0,0,0,0,0,0,6558,0,0,0,0,0,0,0,0,0,0,0,0,6558,0,0,0,0,
6497,6492,0,0,6558,0,0,0,0,0,0,0,0,0,0,0,0,0,0,0,0,0,0,0,0,6492,0,0,0,0,0,0,0,0,0,0,0,0,0,0,0,0,0,0,0,0,0,0,0,6620,0,0,0,0,0,0,0,0,0,0,0,0,0,0,0,0,0,0,6492,0,0,0,0,0,0,0,0,0,0,0,
0,0,0,0,0,0,0,0,0,0,0,6620,0,0,0,0,0,0,0,0,6620,0,0,0,0,0,0,0,0,0,0,0,0,0,0,0,0,0,0,0,6495,0,0,0,0,0,0,0,0,0,0,0,0,0,0,0,0,0,0,0,0,0,0,0,0,0,0,0,0,0,0,6497,6585,0,0,0,0,0,0,6558,
0,0,0,0,0,0,0,0,0,0,0,0,0,0,0,0,0,0,0,0,0,0,0,0,0,6527,0,0,0,0,0,6559,0,0,0,0,0,0,0,0,0,0,0,0,0,0,0,0,0,0,0,0,0,0,0,0,0,0,6558,0,0,0,0,0,0,0,0,0,0,0,0,0,0,0,0,0,0,6558,0,0,
0,0,0,0,0,0,0,0,0,6528,0,0,0,0,0,0,0,0,0,0,0,0,0,0,0,0,0,0,6585,0,0,0,0,0,0,0,0,0,0,0,0,0,0,0,0,0,0,0,0,0,6528,0,0,0,0,0,0,0,0,0,0,0,0,0,0,0,0,0,0,0,0,0,0,0,0,0,0,0,0,0,
0,0,0,0,0,0,0,0,0,0,0,0,0,0,0,0,0,0,0,0,0,0,0,0,0,0,0,0,0,0,6585,0,0,0,0,0,0,0,0,0,0,0,0,0,0,0,0,0,0,0,0,0,0,0,0,0,0,0,0,0,0,0,0,0,0,0,0,0,0,0,0,0,0,0,0,0,0,0,0,0,
0,0,0,0,0,0,0,0,0,0,0,0,0,0,0,0,0,0,0,6558,0,0,0,0,0,0,0,0,0,0,0,0,0,0,0,0,0,0,0,0,0,0,0,0,0,0,0,0,0,0,0,0,0,0,0,0,0,0,6558,0,0,0,0,0,0,0,0,0,0,0,0,0,0,0,0,0,0,0,0,0,
0,0,0,0,0,0,0,0,0,0,0,0,0,0,0,0,0,0,0,0,0,0,0,0,0,0,0,0,0,0,0,0,0,0,0,0,0,0,0,0,0,0,0,0,0,0,0,0,0,0,0,0,0,0,0,0,0,0,0,0,0,0,0,0,0,0,0,0,0,0,0,0,0,0,0,0,0,0,0,0,
0,0,0,0,0,0,0,0,0,0,0,0,0,0,0,0,0,0,0,0,0,0,0,0,0,0,0,0,0,0,0,0,0,0,0,0,0,0,0,0,0,0,0,0,0,0,0,0,0,6589,0,4809,4810,4811,0,0,0,0,0,0,0,0,0,0,0,0,0,0,0,0,0,0,0,0,0,0,0,0,0,0,
0,0,0,6494,0,0,0,0,0,0,0,0,0,0,0,0,0,0,0,0,0,0,0,0,0,0,0,0,0,0,0,0,0,0,0,0,0,0,0,0,0,0,0,0,0,0,0,0,0,0,0,4843,4844,4845,0,0,0,0,0,0,0,0,0,0,0,0,0,0,0,0,0,0,0,0,0,0,0,0,0,0,
0,0,0,0,0,0,0,0,0,0,0,0,0,0,0,0,0,0,0,0,0,0,0,0,0,0,0,0,0,0,0,0,0,0,0,0,0,0,0,0,0,0,6495,0,0,0,6493,6557,0,0,0,4877,4878,4879,0,0,0,0,0,0,0,0,0,0,0,0,0,0,0,0,0,0,0,0,0,0,0,0,0,0,
0,0,0,0,0,0,0,0,0,0,0,0,0,0,0,0,0,0,0,0,0,0,0,0,0,0,0,0,0,0,0,0,0,0,0,0,0,0,0,0,0,0,0,0,0,0,6526,0,0,0,0,4911,4912,4913,0,0,0,0,0,0,0,0,0,0,0,6492,0,0,0,0,0,0,0,0,0,0,0,0,0,0,
0,0,0,0,0,0,0,0,0,0,0,0,0,0,6620,0,0,0,6524,0,0,0,0,0,0,0,0,0,0,0,0,0,0,0,0,0,0,0,0,0,0,0,0,0,0,0,0,0,0,0,0,0,0,0,0,0,0,0,0,0,0,0,0,0,0,0,0,0,0,0,0,0,0,0,0,0,0,0,0,0,
0,0,0,0,0,0,0,0,0,0,0,6524,0,0,0,0,0,0,0,0,0,0,0,0,0,0,0,0,0,0,0,0,0,0,0,0,0,0,0,0,0,0,0,0,0,0,0,0,0,0,0,0,0,0,0,0,0,0,0,0,0,0,0,0,0,0,0,0,0,0,0,0,0,0,0,0,0,0,0,0,
0,0,0,0,0,0,0,0,0,0,0,0,0,6557,0,0,0,0,0,0,0,0,0,0,0,0,0,0,0,0,0,0,0,0,0,0,0,0,0,0,0,0,0,0,0,0,0,0,0,0,0,0,0,0,0,0,0,0,0,0,0,0,0,0,0,0,0,0,0,0,0,0,0,0,0,0,0,0,0,0,
0,0,0,0,0,0,0,0,0,0,0,0,0,0,0,0,0,0,0,0,0,0,0,0,0,0,0,0,0,0,0,0,0,0,0,0,0,0,0,0,0,0,0,0,0,0,0,0,0,0,0,0,0,0,0,0,0,0,0,0,0,0,0,0,0,0,0,0,0,0,0,0,0,0,0,0,0,0,0,0,
0,6495,0,0,0,0,0,0,0,0,0,0,0,0,0,0,0,0,0,0,0,0,0,0,0,0,0,0,0,0,0,0,0,0,0,0,0,0,0,0,0,0,0,0,0,0,0,0,0,0,0,0,0,0,0,0,0,0,0,0,0,0,0,0,0,0,0,0,0,0,0,0,0,0,0,0,0,0,0,0,
0,0,0,0,0,0,0,0,6528,0,0,0,0,0,0,0,0,0,0,0,0,0,0,0,0,0,0,0,0,0,0,0,0,0,0,0,0,0,0,0,0,0,0,0,0,0,0,0,0,0,0,0,0,0,0,0,0,0,0,0,0,0,0,0,0,0,0,0,0,0,0,0,0,0,0,0,0,0,0,0,
0,0,0,0,0,0,0,0,0,0,0,0,0,0,0,0,0,0,0,0,0,0,0,0,0,0,0,0,0,0,0,0,0,0,0,0,0,0,0,0,0,0,0,0,0,0,0,0,6589,0,0,6559,0,0,0,0,0,0,0,0,0,0,0,0,0,0,0,0,0,0,0,0,0,0,0,0,0,0,0,0,
0,0,0,0,0,0,6558,0,0,0,0,0,0,0,0,0,0,0,0,0,0,0,0,0,0,0,0,0,0,0,0,0,0,0,0,0,0,0,0,0,0,0,0,0,0,0,0,0,6497,6558,0,6558,0,0,0,0,0,0,0,0,0,0,0,0,0,0,0,0,0,0,0,0,0,0,0,0,0,0,0,0,
0,0,0,0,0,0,0,0,0,0,0,0,0,0,0,0,0,0,0,0,0,0,0,0,0,0,0,0,0,0,0,0,0,0,0,0,0,0,0,0,0,0,0,0,0,0,0,0,0,0,0,0,0,0,0,0,0,0,0,0,0,0,0,0,0,0,0,0,0,0,0,0,0,0,0,0,0,0,0,0,
0,0,0,0,0,0,0,0,0,0,0,0,6493,6524,0,0,0,7038,0,0,0,0,0,0,0,0,0,0,0,0,0,0,0,0,0,0,0,0,0,0,0,0,0,0,0,0,0,0,6558,0,0,4814,4815,4816,3910,0,0,0,0,0,0,0,3908,0,0,0,0,0,0,0,0,0,0,0,0,0,0,0,0,0,
0,0,0,0,0,0,0,0,0,0,0,0,6497,0,0,0,0,7007,0,0,0,0,0,0,0,0,0,0,0,0,0,0,0,0,0,0,0,0,0,0,0,0,0,0,0,6523,0,0,0,0,0,4848,4849,4850,0,0,0,0,0,0,0,0,0,0,0,0,0,0,0,0,3909,0,0,0,0,0,0,0,0,0,
0,0,0,0,0,0,0,0,6493,6526,0,0,0,0,0,0,0,0,0,0,0,0,0,0,0,0,0,0,0,0,0,0,0,0,0,0,0,0,0,0,0,0,0,0,0,0,0,6528,0,0,0,4882,4883,4884,0,0,0,0,0,0,0,0,0,0,0,0,0,0,0,0,0,0,0,0,0,0,0,0,0,0,
0,0,0,6945,0,0,0,0,0,0,0,0,0,0,0,6943,0,0,0,0,0,0,0,0,0,0,0,0,0,0,0,0,0,0,0,0,0,0,0,0,0,0,0,0,0,6585,6556,0,0,0,0,0,0,0,0,0,0,0,0,0,0,0,0,0,0,0,0,0,0,0,0,0,0,0,0,0,0,0,0,0,
0,0,0,6976,6556,0,0,0,0,6526,0,0,6528,0,0,0,0,0,0,0,0,0,0,0,0,0,0,0,0,0,0,0,0,0,0,0,0,0,0,0,0,0,0,0,0,0,6588,0,6585,0,0,0,0,0,0,0,0,0,0,0,0,0,0,0,0,0,0,0,0,0,0,0,0,0,0,0,0,0,0,0,
0,0,0,0,0,0,0,0,0,0,0,0,0,0,0,0,0,0,0,0,0,0,0,0,0,0,0,0,0,0,0,0,0,0,0,0,0,0,0,0,0,0,0,0,0,0,0,0,0,0,0,0,0,0,0,0,0,0,0,0,0,0,0,0,0,0,0,0,0,0,0,0,0,0,0,0,0,0,0,0,
0,6913,0,0,0,6976,6912,0,7038,0,6912,0,0,0,0,0,0,0,0,0,0,0,0,0,0,0,0,0,0,0,0,0,0,0,0,0,0,0,0,0,0,0,0,0,0,0,0,0,0,0,0,0,0,0,0,0,0,0,0,0,0,0,0,0,0,0,0,0,0,0,0,0,0,0,0,0,0,0,0,0,
0,0,0,0,0,0,0,0,0,6620,7008,0,0,0,0,0,6943,0,0,0,0,0,0,0,0,0,0,0,0,0,0,0,0,0,0,0,0,0,0,0,0,0,0,0,0,0,0,0,0,0,0,0,0,0,0,0,0,0,0,0,0,0,0,0,0,0,0,0,0,0,0,0,0,0,0,0,0,0,0,0,
6976,6976,0,0,0,6496,0,0,0,0,0,0,6559,0,0,0,0,0,6524,0,0,0,0,0,0,0,0,0,0,0,6526,0,0,0,0,0,0,0,0,0,0,0,0,0,0,0,0,0,0,0,0,0,0,0,0,3911,0,0,0,0,0,0,0,0,0,0,0,0,0,0,0,0,0,0,0,0,0,0,0,0,
0,0,0,6945,6913,0,7007,0,0,0,0,6946,0,0,0,6495,0,6526,0,6493,0,0,0,0,0,0,0,0,0,6526,6525,0,0,0,0,0,0,0,0,0,0,0,0,0,0,0,0,0,0,0,0,0,0,0,0,0,0,0,0,0,0,0,0,0,0,0,0,0,0,0,0,0,0,0,0,0,0,0,0,0,
0,0,0,0,0,0,6947,0,0,0,0,6912,0,0,0,0,0,0,0,6589,0,0,0,0,0,0,0,0,0,0,0,0,0,0,0,0,0,0,0,0,0,0,0,0,0,0,0,0,0,0,0,0,0,0,0,0,0,0,0,0,0,0,0,0,0,0,0,0,3913,0,0,0,0,0,0,0,0,0,0,0,
0,0,0,0,0,0,6556,0,0,0,0,0,0,0,0,0,0,0,0,0,0,0,0,0,0,0,0,0,6527,0,0,0,0,0,0,0,0,0,0,0,0,0,0,0,0,0,0,0,6492,0,0,0,0,0,0,0,0,0,0,0,0,0,0,0,0,0,0,0,0,0,0,0,0,0,0,0,0,0,0,0,
0,0,0,0,0,0,0,0,0,0,0,0,0,0,0,0,0,0,0,0,0,0,0,0,0,0,0,0,6556,0,0,0,0,0,0,0,0,0,0,0,0,0,0,0,0,0,0,0,6558,0,0,4809,4810,4811,0,0,0,0,0,0,0,0,0,0,0,0,0,0,0,0,0,0,0,0,0,0,0,0,0,0,
0,0,0,0,0,0,0,0,0,0,0,0,0,6913,0,6913,0,0,6945,0,0,0,0,0,0,0,0,0,0,0,0,0,0,0,0,0,0,0,0,6526,0,0,0,0,0,0,0,0,0,0,0,4843,4844,4845,0,0,0,0,0,0,0,0,0,0,0,0,0,0,0,0,0,0,0,0,0,0,0,0,0,0,
0,0,0,6585,7007,0,0,0,0,0,0,0,0,7038,0,0,0,0,0,0,0,0,0,0,0,0,0,0,0,0,0,0,0,0,0,0,0,0,6496,6526,0,0,0,0,0,0,0,0,0,0,0,4877,4878,4879,0,0,0,0,0,0,0,0,0,0,0,0,0,0,0,0,0,0,0,0,0,0,0,0,0,0,
0,6523,0,0,6557,0,0,0,0,0,0,6495,0,0,0,0,6492,0,0,0,0,0,0,0,0,0,6620,0,0,0,0,0,0,0,0,0,0,0,0,0,0,0,0,6492,0,0,0,0,0,0,0,4911,4912,4913,0,0,0,0,0,0,0,0,0,0,0,0,0,0,0,0,0,0,0,0,0,0,0,0,0,0,
0,0,0,0,6914,0,0,0,0,0,6558,6526,0,0,6492,6559,0,0,0,0,0,0,0,0,0,6558,6558,0,0,0,0,0,0,0,0,0,0,0,0,0,0,0,0,6589,0,0,0,0,0,0,0,0,0,0,0,0,0,0,0,0,0,0,0,0,0,0,0,0,0,0,0,0,0,0,0,0,0,0,0,0,
0,6914,6912,0,6944,0,0,0,0,6492,6556,6914,0,0,6495,7008,0,0,0,6944,0,0,0,0,0,0,0,0,0,0,0,0,0,0,0,0,0,0,0,0,0,6559,0,0,0,0,0,0,0,0,0,0,0,0,0,0,0,0,0,0,0,0,0,0,0,0,0,0,0,0,0,6496,0,0,0,0,0,0,0,0,
0,6585,0,0,0,0,0,0,0,6589,0,0,0,0,6946,0,0,0,0,0,0,0,0,0,0,0,0,0,0,0,0,0,0,0,0,0,0,0,0,6585,6495,0,0,0,0,0,0,0,0,0,0,0,0,0,0,0,0,0,0,6559,0,0,0,0,0,0,0,0,0,0,0,0,0,6559,0,0,0,0,0,6526,
0,0,0,6492,0,7008,0,0,0,0,0,7039,0,6913,6977,6589,0,0,0,0,0,0,6525,6524,0,0,0,0,0,0,0,0,0,0,0,0,0,0,6556,6557,0,0,0,0,0,6588,0,0,0,0,0,0,6524,0,0,0,0,0,0,0,6495,0,0,0,0,0,0,0,0,6525,0,0,0,0,0,0,0,0,0,0,
0,0,0,0,0,0,0,0,0,0,0,0,0,7038,6557,6523,0,0,0,0,0,0,6494,0,0,0,0,0,0,0,0,0,0,0,0,0,0,0,0,0,0,0,0,0,0,0,0,0,0,0,0,0,0,0,0,0,6496,0,0,0,0,0,0,0,0,0,0,0,0,0,0,0,6525,0,0,0,0,0,6496,0
</data>
 </layer>
 <objectgroup id="16" name="props5">
  <object id="90" gid="3859" x="1757.33" y="828" width="64" height="32"/>
  <object id="91" gid="3871" x="1794.67" y="837.333" width="64" height="32"/>
  <object id="92" gid="3873" x="2089.33" y="654.667" width="64" height="64"/>
  <object id="93" gid="3866" x="2025.33" y="661.333" width="96" height="64"/>
  <object id="94" gid="3863" x="1994.67" y="689.333" width="96" height="64"/>
  <object id="96" gid="3862" x="2058.67" y="694.667" width="96" height="64"/>
  <object id="97" gid="3859" x="1808" y="668" width="64" height="32"/>
  <object id="99" gid="3877" x="1755" y="693.75" width="96" height="64"/>
  <object id="100" gid="3877" x="2456" y="695" width="96" height="64"/>
  <object id="101" gid="2147487524" x="2441" y="712" width="96" height="64"/>
  <object id="102" gid="3873" x="2422" y="691" width="64" height="64"/>
  <object id="104" gid="3860" x="2478" y="717" width="64" height="32"/>
  <object id="105" gid="3860" x="1904" y="1080" width="64" height="32"/>
  <object id="106" gid="3869" x="1894" y="749" width="96" height="64"/>
  <object id="107" gid="3873" x="1933" y="771" width="64" height="64"/>
  <object id="109" gid="3868" x="1887" y="784" width="96" height="64"/>
  <object id="110" gid="3864" x="1912" y="807" width="96" height="64"/>
  <object id="111" gid="3864" x="2157" y="759" width="96" height="64"/>
  <object id="112" gid="3878" x="2165" y="780" width="96" height="64"/>
  <object id="113" gid="2147487525" x="2153.5" y="791.25" width="96" height="64"/>
  <object id="188" gid="3832" x="2263.75" y="816.5" width="32" height="32"/>
  <object id="189" gid="3832" x="2263.75" y="816.5" width="32" height="32"/>
  <object id="200" gid="3822" x="2128" y="799" width="32" height="32"/>
  <object id="216" gid="3862" x="2193" y="981" width="96" height="64"/>
  <object id="217" gid="3863" x="2319" y="978" width="96" height="64" rotation="270"/>
  <object id="218" gid="3866" x="2197" y="957" width="96" height="64"/>
  <object id="219" gid="3861" x="2456" y="993" width="96" height="64"/>
  <object id="220" gid="3874" x="2189" y="927" width="96" height="64"/>
  <object id="533" gid="3678" x="180.333" y="229.5" width="96" height="160"/>
  <object id="534" gid="3679" x="181.666" y="259.83" width="96" height="64"/>
 </objectgroup>
 <objectgroup id="18" name="props6">
  <object id="116" gid="3817" x="2203" y="723.5" width="32" height="32"/>
  <object id="117" gid="3818" x="2210" y="736" width="32" height="32"/>
  <object id="118" gid="3830" x="2166" y="722" width="32" height="32"/>
  <object id="119" gid="3814" x="2186" y="732" width="32" height="32"/>
  <object id="120" gid="3812" x="1902" y="719.333" width="32" height="32"/>
  <object id="121" gid="3830" x="1968.67" y="729.333" width="32" height="32"/>
  <object id="122" gid="3837" x="1965.33" y="742" width="32" height="32"/>
  <object id="123" gid="3838" x="1868.67" y="797.333" width="32" height="32"/>
  <object id="124" gid="3789" x="1973.33" y="755.333" width="32" height="32"/>
  <object id="125" gid="3793" x="1895.33" y="730.667" width="32" height="32"/>
  <object id="126" gid="3818" x="1976.67" y="765.333" width="32" height="32"/>
  <object id="127" gid="3831" x="1905.33" y="738" width="32" height="32"/>
  <object id="128" gid="3845" x="1853.33" y="799.333" width="32" height="32"/>
  <object id="131" gid="3793" x="2221.5" y="747.5" width="32" height="32"/>
  <object id="132" gid="3842" x="2226" y="764.5" width="32" height="32"/>
  <object id="133" gid="3845" x="2154" y="737" width="32" height="32"/>
  <object id="134" gid="3733" x="2169.5" y="772" width="64" height="64"/>
  <object id="135" gid="3589" x="2191.5" y="809" width="64" height="64"/>
  <object id="136" gid="3612" x="2083" y="855" width="32" height="32"/>
  <object id="137" gid="3610" x="1894" y="842" width="32" height="32"/>
  <object id="138" gid="3610" x="1720" y="1052" width="32" height="32"/>
  <object id="139" gid="3610" x="2131" y="1115" width="32" height="32"/>
  <object id="140" gid="3609" x="2146" y="1108" width="32" height="32"/>
  <object id="141" gid="3609" x="2106" y="865" width="32" height="32"/>
  <object id="142" gid="3611" x="2405" y="841" width="32" height="32"/>
  <object id="143" gid="3608" x="2126" y="970" width="32" height="32"/>
  <object id="144" gid="3608" x="2047" y="1072" width="32" height="32"/>
  <object id="145" gid="3608" x="1709" y="1065" width="32" height="32"/>
  <object id="146" gid="3670" x="2056" y="1022" width="64" height="32"/>
  <object id="147" gid="3669" x="2072" y="1125" width="64" height="32"/>
  <object id="148" gid="3669" x="1794" y="1159" width="64" height="32"/>
  <object id="149" gid="3652" x="1731" y="1069" width="32" height="32"/>
  <object id="150" gid="3618" x="2516" y="1176" width="64" height="32"/>
  <object id="151" gid="3651" x="2270" y="1156" width="32" height="32"/>
  <object id="152" gid="3652" x="2299" y="1153" width="32" height="32"/>
  <object id="153" gid="3654" x="2286.5" y="1169" width="32" height="32"/>
  <object id="154" gid="3670" x="2119" y="998" width="64" height="32"/>
  <object id="155" gid="3670" x="1983" y="1102" width="64" height="32"/>
  <object id="156" gid="3672" x="1903" y="861" width="64" height="32"/>
  <object id="157" gid="3672" x="1728" y="877" width="64" height="32"/>
  <object id="158" gid="3672" x="2023" y="868" width="64" height="32"/>
  <object id="159" gid="3672" x="2169" y="843" width="64" height="32"/>
  <object id="160" gid="3670" x="1951" y="1136" width="64" height="32"/>
  <object id="163" gid="3755" x="2031" y="569" width="32" height="32"/>
  <object id="164" gid="3759" x="1834" y="453" width="32" height="32"/>
  <object id="165" gid="3760" x="2458" y="424" width="32" height="32"/>
  <object id="166" gid="3747" x="1905" y="394" width="32" height="32"/>
  <object id="167" gid="3672" x="2155" y="369.333" width="64" height="32"/>
  <object id="168" gid="3670" x="2348" y="338" width="64" height="32"/>
  <object id="169" gid="3654" x="2292" y="355" width="32" height="32"/>
  <object id="170" gid="3670" x="2325" y="365" width="64" height="32"/>
  <object id="171" gid="3668" x="2068" y="328" width="64" height="32"/>
  <object id="174" gid="3653" x="2162" y="312.5" width="32" height="32"/>
  <object id="176" gid="3611" x="2154" y="355" width="32" height="32"/>
  <object id="177" gid="3609" x="2286" y="315.5" width="32" height="32"/>
  <object id="178" gid="3609" x="2084.5" y="338.5" width="32" height="32"/>
  <object id="180" gid="3618" x="2086.67" y="364.667" width="64" height="32"/>
  <object id="181" gid="3691" x="2093" y="628" width="64" height="64"/>
  <object id="182" gid="3693" x="1983" y="798" width="64" height="64"/>
  <object id="183" gid="3695" x="2336" y="817" width="64" height="64"/>
  <object id="193" gid="3720" x="2264.5" y="806.625" width="32" height="32"/>
  <object id="195" gid="3717" x="2194" y="588" width="32" height="32"/>
  <object id="202" gid="3688" x="2097.27" y="799" width="96" height="64"/>
  <object id="203" gid="3672" x="2035.67" y="440.667" width="64" height="32"/>
  <object id="204" gid="3672" x="2035.67" y="440.667" width="64" height="32"/>
  <object id="205" gid="3609" x="2370.67" y="459.333" width="32" height="32"/>
  <object id="206" gid="3609" x="1848.67" y="542" width="32" height="32"/>
  <object id="207" gid="3672" x="2413" y="348" width="64" height="32"/>
  <object id="208" gid="3609" x="2520" y="334" width="32" height="32"/>
  <object id="209" gid="3609" x="2520" y="334" width="32" height="32"/>
  <object id="210" gid="3696" x="2275" y="1093" width="64" height="64"/>
  <object id="211" gid="3789" x="2266" y="1090" width="32" height="32"/>
  <object id="212" gid="3802" x="2241" y="1089" width="32" height="32"/>
  <object id="213" gid="3730" x="2255" y="1102" width="32" height="32"/>
  <object id="214" gid="3731" x="2283" y="1107" width="32" height="32"/>
  <object id="215" gid="3735" x="2194" y="988" width="64" height="64"/>
  <object id="222" gid="3584" x="2287" y="970" width="32" height="32"/>
  <object id="223" gid="3585" x="2250" y="976" width="32" height="32"/>
  <object id="226" gid="3989" x="2017.5" y="805" width="32" height="128"/>
  <object id="244" gid="3697" x="1717" y="1025" width="64" height="64"/>
  <object id="245" gid="3730" x="1763" y="1035" width="32" height="32"/>
  <object id="382" gid="3528" x="1408" y="160" width="96" height="160"/>
  <object id="424" gid="3678" x="2188.34" y="157" width="96" height="160"/>
  <object id="425" gid="3679" x="2189.66" y="187.33" width="96" height="64"/>
  <object id="428" gid="3546" x="2259.15" y="154.666" width="64" height="32"/>
  <object id="429" gid="3546" x="2161.82" y="119.333" width="64" height="32"/>
  <object id="430" gid="3547" x="2094.49" y="151.333" width="64" height="32"/>
  <object id="431" gid="3616" x="2162.85" y="144.849" width="64" height="32"/>
  <object id="432" gid="3609" x="2278.49" y="108.667" width="32" height="32"/>
  <object id="433" gid="3608" x="1955.82" y="229.334" width="32" height="32"/>
  <object id="434" gid="3608" x="2236.67" y="184" width="32" height="32"/>
  <object id="532" gid="3578" x="0" y="128" width="192" height="128"/>
  <object id="578" gid="3959" x="224" y="1344" width="320" height="224"/>
 </objectgroup>
 <layer id="2" name="walls" width="80" height="45">
  <data encoding="csv">
0,0,0,0,0,0,0,0,0,0,0,0,0,0,0,0,0,0,0,0,0,0,0,0,0,0,0,0,0,0,0,0,0,0,0,0,0,0,0,0,0,0,0,0,0,0,0,0,0,0,0,0,0,0,0,0,0,0,0,0,0,0,0,0,0,0,0,0,0,0,0,0,0,0,0,0,0,0,0,0,
0,0,0,0,0,0,0,0,0,0,0,0,0,0,0,0,0,0,0,0,0,0,0,0,0,0,0,0,0,0,0,0,0,0,0,0,0,0,0,0,0,0,0,0,0,0,0,0,0,0,0,0,0,0,0,0,0,0,0,0,0,0,0,0,0,0,0,0,0,0,0,0,0,0,0,0,0,0,0,0,
0,0,0,0,0,0,0,0,0,0,0,0,0,0,0,0,0,0,0,0,0,0,0,0,0,0,0,0,0,0,0,0,0,0,0,0,0,0,0,0,0,0,0,0,0,0,0,0,0,0,0,0,0,0,0,0,0,0,0,0,0,0,0,0,0,0,0,0,0,0,0,0,0,0,0,0,0,0,0,0,
0,0,0,0,0,0,0,0,0,0,0,0,0,0,0,0,0,0,0,0,0,0,0,0,0,0,0,0,0,0,0,0,0,0,0,0,0,0,0,0,0,0,0,0,0,0,0,0,0,0,0,0,0,0,0,0,0,0,0,0,0,0,0,0,0,0,0,0,0,0,0,0,0,0,0,0,0,0,0,0,
0,0,0,0,0,0,0,0,0,0,0,0,0,0,0,0,0,0,0,0,0,0,0,0,0,0,0,0,0,0,0,0,0,0,0,0,0,0,0,0,0,0,0,0,0,0,0,0,0,0,0,0,0,0,0,0,0,0,0,0,0,0,0,0,0,0,0,0,0,0,0,0,0,0,0,0,0,0,0,0,
0,0,0,0,0,0,0,0,0,0,0,0,0,0,0,0,0,0,0,0,0,0,0,0,0,0,0,0,0,0,0,0,0,0,0,0,0,0,0,0,0,0,0,0,0,0,0,0,0,0,0,0,0,0,0,0,0,0,0,0,0,0,0,0,0,0,0,0,0,0,0,0,0,0,0,0,0,0,0,0,
0,0,0,0,0,0,0,0,0,0,0,0,0,0,0,0,0,0,0,0,0,0,0,0,0,0,0,0,0,0,0,0,0,0,0,0,0,0,0,0,0,0,0,0,0,0,0,0,0,0,0,0,0,0,0,0,0,0,0,0,0,0,0,0,0,0,0,0,0,0,0,0,0,0,0,0,0,0,0,0,
0,0,0,0,0,0,0,0,0,0,0,0,0,0,0,0,0,0,0,0,0,0,0,0,0,0,0,0,0,0,0,0,0,0,0,0,0,0,0,0,0,0,0,0,0,0,0,0,0,0,0,0,0,0,0,0,0,0,0,0,0,0,0,0,0,0,0,0,0,0,0,0,0,0,0,0,0,0,0,0,
0,0,0,0,0,0,0,0,0,0,0,0,0,0,0,0,0,0,0,0,0,0,0,0,0,0,0,0,0,0,0,0,0,0,0,0,0,0,0,0,0,0,0,0,0,0,0,0,0,0,0,0,0,0,0,0,0,0,0,0,0,0,0,0,0,0,0,0,0,0,0,0,0,0,0,0,0,0,0,0,
0,0,0,0,0,0,0,0,0,0,0,0,0,0,0,0,0,0,0,0,0,0,0,0,0,0,0,0,0,0,0,0,0,0,0,0,0,0,0,0,0,0,0,0,0,0,0,0,0,0,0,0,0,0,0,0,0,0,0,0,0,0,0,0,0,0,0,0,0,0,0,0,0,0,0,0,0,0,0,0,
0,0,0,0,0,0,0,0,0,0,0,0,0,0,0,0,0,0,0,0,0,0,0,0,0,0,0,0,0,0,0,0,0,0,0,0,0,0,0,0,0,0,0,0,0,0,0,0,0,0,0,0,0,0,0,0,0,0,0,0,0,0,0,0,0,0,0,0,0,0,0,0,0,0,0,0,0,0,0,0,
0,0,0,0,0,0,0,0,0,0,0,0,0,0,0,0,0,0,0,0,0,0,0,0,0,0,0,0,0,0,0,0,0,0,0,0,0,0,0,0,0,0,0,0,0,0,0,0,0,0,0,0,0,0,0,0,0,0,0,0,0,0,0,0,0,0,0,0,0,0,0,0,0,0,0,0,0,0,0,0,
0,0,0,0,0,0,0,0,0,0,0,0,0,0,0,0,0,0,0,0,0,0,0,0,0,0,0,0,0,0,0,0,0,0,0,0,0,0,0,0,0,0,0,0,0,0,0,0,0,0,0,0,0,0,0,0,0,0,0,0,0,0,0,0,0,0,0,0,0,0,0,0,0,0,0,0,0,0,0,0,
0,0,0,0,0,0,0,0,0,0,0,0,0,0,0,0,0,0,0,0,0,0,0,0,0,0,0,0,0,0,0,0,0,0,0,0,0,0,0,0,0,0,0,0,0,0,0,0,0,0,0,0,0,0,0,0,0,0,0,0,0,0,0,0,0,0,0,0,0,0,0,0,0,0,0,0,0,0,0,0,
0,0,0,0,0,0,0,0,0,0,0,0,0,0,0,0,0,0,0,0,0,0,0,0,0,0,0,0,0,0,0,0,0,0,0,0,0,0,0,0,0,0,0,0,0,0,0,0,0,0,0,0,0,0,0,0,0,0,0,0,0,0,0,0,0,0,0,0,0,0,0,0,0,0,0,0,0,0,0,0,
0,0,0,0,0,0,0,0,0,0,0,0,0,0,0,0,0,0,0,0,0,0,0,0,0,0,0,0,0,0,0,0,0,0,0,0,0,0,0,0,0,0,0,0,0,0,0,0,0,0,0,0,0,0,0,0,0,0,0,0,0,0,0,0,0,0,0,0,0,0,0,0,0,0,0,0,0,0,0,0,
0,0,0,0,0,0,0,0,0,0,0,0,0,0,0,0,0,0,0,0,0,0,0,0,0,0,0,0,0,0,0,0,0,0,0,0,0,0,0,0,0,0,0,0,0,0,0,0,0,0,0,0,0,0,0,0,0,0,0,0,0,0,0,0,0,0,0,0,0,0,0,0,0,0,0,0,0,0,0,0,
0,0,0,0,0,0,0,0,0,0,0,0,0,0,0,0,0,0,0,0,0,0,0,0,0,0,0,0,0,0,0,0,0,0,0,0,0,0,0,0,0,0,0,0,0,0,0,0,0,0,0,0,0,0,0,0,0,0,0,0,0,0,0,0,0,0,0,0,0,0,0,0,0,0,0,0,0,0,0,0,
0,0,0,0,0,0,0,0,0,0,0,0,0,0,0,0,0,0,0,0,0,0,0,0,0,0,0,0,0,0,0,0,0,0,0,0,0,0,0,0,0,0,0,0,0,0,0,0,0,0,0,0,0,0,0,0,0,0,0,0,0,0,0,0,0,0,0,0,0,0,0,0,0,0,0,0,0,0,0,0,
0,0,0,0,0,0,0,0,0,0,0,0,0,0,0,0,0,0,0,0,0,0,0,0,0,0,0,0,0,0,0,0,0,0,0,0,0,0,0,0,0,0,0,0,0,0,0,0,0,0,0,0,0,0,0,0,0,0,0,0,0,0,0,0,0,0,0,0,0,0,0,0,0,0,0,0,0,0,0,0,
0,0,0,0,0,0,0,0,0,0,0,0,0,0,0,0,0,0,0,0,0,0,0,0,0,0,0,0,0,0,0,0,0,0,0,0,0,0,0,0,0,0,0,0,0,0,0,0,0,0,0,0,0,0,0,0,0,0,0,0,0,0,0,0,0,0,0,0,0,0,0,0,0,0,0,0,0,0,0,0,
0,0,0,0,0,0,0,0,0,0,0,0,0,0,0,0,0,0,0,0,0,0,0,0,0,0,0,0,0,0,0,0,0,0,0,0,0,0,0,0,0,0,0,0,0,0,0,0,0,0,0,0,0,0,0,0,0,0,0,0,0,0,0,0,0,0,0,0,0,0,0,0,0,0,0,0,0,0,0,0,
0,0,0,0,0,0,0,0,0,0,0,0,0,0,0,0,0,0,0,0,0,0,0,0,0,0,0,0,0,0,0,0,0,0,0,0,0,0,0,0,0,0,0,0,0,0,0,0,0,0,0,0,0,0,0,0,0,0,0,0,0,0,0,0,0,0,0,0,0,0,0,0,0,0,0,0,0,0,0,0,
0,0,0,0,0,0,0,0,0,0,0,0,0,0,0,0,0,0,0,0,0,0,0,0,0,0,0,0,0,0,0,0,0,0,0,0,0,0,0,0,0,0,0,0,0,0,0,0,0,0,0,0,0,0,0,0,0,0,0,0,0,0,0,0,0,0,0,0,0,0,0,0,0,0,0,0,0,0,0,0,
0,0,0,0,0,0,0,0,0,0,0,0,0,0,0,0,0,0,0,0,0,0,0,0,0,0,0,0,0,0,0,0,0,0,0,0,0,0,0,0,0,0,0,0,0,0,0,0,0,0,0,0,0,0,0,0,0,0,0,0,0,0,0,0,0,0,0,0,0,0,0,0,0,0,0,0,0,0,0,0,
0,0,0,0,0,0,0,0,0,0,0,0,0,0,0,0,0,0,0,0,0,0,0,0,0,0,0,0,0,0,0,0,0,0,0,0,0,0,0,0,0,0,0,0,0,0,0,0,0,0,0,0,0,0,0,0,0,0,0,0,0,0,0,0,0,0,0,0,0,0,0,0,0,0,0,0,0,0,0,0,
0,0,0,0,0,0,0,0,0,0,0,0,0,0,0,0,0,0,0,0,0,0,0,0,0,0,0,0,0,0,0,0,0,0,0,0,0,0,0,0,0,0,0,0,0,0,0,0,0,0,0,0,0,0,0,0,0,0,0,0,0,0,0,0,0,0,0,0,0,0,0,0,0,0,0,0,0,0,0,0,
0,0,0,0,0,0,0,0,0,0,0,0,0,0,0,0,0,0,0,0,0,0,0,0,0,0,0,0,0,0,0,0,0,0,0,0,0,0,0,0,0,0,0,0,0,0,0,0,0,0,0,0,0,0,0,0,0,0,0,0,0,0,0,0,0,0,0,0,0,0,0,0,0,0,0,0,0,0,0,0,
0,0,0,0,0,0,0,0,0,0,0,0,0,0,0,0,0,0,0,0,0,0,0,0,0,0,0,0,0,0,0,0,0,0,0,0,0,0,0,0,0,0,0,0,0,0,0,0,0,0,0,0,0,0,0,0,0,0,0,0,0,0,0,0,0,0,0,0,0,0,0,0,0,0,0,0,0,0,0,0,
0,0,0,0,0,0,0,0,0,0,0,0,0,0,0,0,0,0,0,0,0,0,0,0,0,0,0,0,0,0,0,0,0,0,0,0,0,0,0,0,0,0,0,0,0,0,0,0,0,0,0,0,0,0,0,0,0,0,0,0,0,0,0,0,0,0,0,0,0,0,0,0,0,0,0,0,0,0,0,0,
0,0,0,0,0,0,0,0,0,0,0,0,0,0,0,0,0,0,0,0,0,0,0,0,0,0,0,0,0,0,0,0,0,0,0,0,0,0,0,0,0,0,0,0,0,0,0,0,0,0,0,0,0,0,0,0,0,0,0,0,0,0,0,0,0,0,0,0,0,0,0,0,0,0,0,0,0,0,0,0,
0,0,0,0,0,0,0,0,0,0,0,0,0,0,0,0,0,0,0,0,0,0,0,0,0,0,0,0,0,0,0,0,0,0,0,0,0,0,0,0,0,0,0,0,0,0,0,0,0,0,0,0,0,0,0,0,0,0,0,0,0,0,0,0,0,0,0,0,0,0,0,0,0,0,0,0,0,0,0,0,
0,0,0,0,0,0,0,0,0,0,0,0,0,0,0,0,0,0,0,0,0,0,0,0,0,0,0,0,0,0,0,0,0,0,0,0,0,0,0,0,0,0,0,0,0,0,0,0,0,0,0,0,0,0,0,0,0,0,0,0,0,0,0,0,0,0,0,0,0,0,0,0,0,0,0,0,0,0,0,0,
0,0,0,0,0,0,0,0,0,0,0,0,0,0,0,0,0,0,0,0,0,0,0,0,0,0,0,0,0,0,0,0,0,0,0,0,0,0,0,0,0,0,0,0,0,0,0,0,0,0,0,0,0,0,0,0,0,0,0,0,0,0,0,0,0,0,0,0,0,0,0,0,0,0,0,0,0,0,0,0,
0,0,0,0,0,0,0,0,0,0,0,0,0,0,0,0,0,0,0,0,0,0,0,0,0,0,0,0,0,0,0,0,0,0,0,0,0,0,0,0,0,0,0,0,0,0,0,0,0,0,0,0,0,0,0,0,0,0,0,0,0,0,0,0,0,0,0,0,0,0,0,0,0,0,0,0,0,0,0,0,
0,0,0,0,0,0,0,0,0,0,0,0,0,0,0,0,0,0,0,0,0,0,0,0,0,0,0,0,0,0,0,0,0,0,0,0,0,0,0,0,0,0,0,0,0,0,0,0,0,0,0,0,0,0,0,0,0,0,0,0,0,0,0,0,0,0,0,0,0,0,0,0,0,0,0,0,0,0,0,0,
0,0,0,0,0,0,0,0,0,0,0,0,0,0,0,0,0,0,0,0,0,0,0,0,0,0,0,0,0,0,0,0,0,0,0,0,0,0,0,0,0,0,0,0,0,0,0,0,0,0,0,0,0,0,0,0,0,0,0,0,0,0,0,0,0,0,0,0,0,0,0,0,0,0,0,0,0,0,0,0,
0,0,0,0,0,0,0,0,0,0,0,0,0,0,0,0,0,0,0,0,0,0,0,0,0,0,0,0,0,0,0,0,0,0,0,0,0,0,0,0,0,0,0,0,0,0,0,0,0,0,0,0,0,0,0,0,0,0,0,0,0,0,0,0,0,0,0,0,0,0,0,0,0,0,0,0,0,0,0,0,
0,0,0,0,0,0,0,0,0,0,0,0,0,0,0,0,0,0,0,0,0,0,0,0,0,0,0,0,0,0,0,0,0,0,0,0,0,0,0,0,0,0,0,0,0,0,0,0,0,0,0,0,0,0,0,0,0,0,0,0,0,0,0,0,0,0,0,0,0,0,0,0,0,0,0,0,0,0,0,0,
0,0,0,0,0,0,0,0,0,0,0,0,0,0,0,0,0,0,0,0,0,0,0,0,0,0,0,0,0,0,0,0,0,0,0,0,0,0,0,0,0,0,0,0,0,0,0,0,0,0,0,0,0,0,0,0,0,0,0,0,0,0,0,0,0,0,0,0,0,0,0,0,0,0,0,0,0,0,0,0,
0,0,0,0,0,0,0,0,0,0,0,0,0,0,0,0,0,0,0,0,0,0,0,0,0,0,0,0,0,0,0,0,0,0,0,0,0,0,0,0,0,0,0,0,0,0,0,0,0,0,0,0,0,0,0,0,0,0,0,0,0,0,0,0,0,0,0,0,0,0,0,0,0,0,0,0,0,0,0,0,
0,0,0,0,0,0,0,0,0,0,0,0,0,0,0,0,0,0,0,0,0,0,0,0,0,0,0,0,0,0,0,0,0,0,0,0,0,0,0,0,0,0,0,0,0,0,0,0,0,0,0,0,0,0,0,0,0,0,0,0,0,0,0,0,0,0,0,0,0,0,0,0,0,0,0,0,0,0,0,0,
0,0,0,0,0,0,0,0,0,0,0,0,0,0,0,0,0,0,0,0,0,0,0,0,0,0,0,0,0,0,0,0,0,0,0,0,0,0,0,0,0,0,0,0,0,0,0,0,0,0,0,0,0,0,0,0,0,0,0,0,0,0,0,0,0,0,0,0,0,0,0,0,0,0,0,0,0,0,0,0,
0,0,0,0,0,0,0,0,0,0,0,0,0,0,0,0,0,0,0,0,0,0,0,0,0,0,0,0,0,0,0,0,0,0,0,0,0,0,0,0,0,0,0,0,0,0,0,0,0,0,0,0,0,0,0,0,0,0,0,0,0,0,0,0,0,0,0,0,0,0,0,0,0,0,0,0,0,0,0,0,
0,0,0,0,0,0,0,0,0,0,0,0,0,0,0,0,0,0,0,0,0,0,0,0,0,0,0,0,0,0,0,0,0,0,0,0,0,0,0,0,0,0,0,0,0,0,0,0,0,0,0,0,0,0,0,0,0,0,0,0,0,0,0,0,0,0,0,0,0,0,0,0,0,0,0,0,0,0,0,0
</data>
 </layer>
</map>
