<?xml version="1.0" encoding="UTF-8"?>
<map version="1.10" tiledversion="1.12.2" orientation="orthogonal" renderorder="right-down" width="75" height="75" tilewidth="32" tileheight="32" infinite="0" nextlayerid="15" nextobjectid="22">
 <editorsettings>
  <export target="mapa.json" format="json"/>
 </editorsettings>
 <tileset firstgid="1" name="Tilesets and props Demo" tilewidth="32" tileheight="32" tilecount="546" columns="26">
  <image source="../tiled/EPIC RPG World Pack Grass/Tilesets and props/Tilesets and props Demo.png" width="832" height="672"/>
  <tile id="26">
   <objectgroup draworder="index" id="2">
    <object id="2" x="0.545455" y="9.45455">
     <polygon points="0,0 6.90909,5.81818 12.9091,2.36364 15.8182,-8.90909 4.54545,-8.54545 3.45455,-1.81818 -0.363636,-5.81818"/>
    </object>
   </objectgroup>
  </tile>
  <tile id="27">
   <objectgroup draworder="index" id="2">
    <object id="1" x="31.0909" y="20.7273">
     <polygon points="0,0 -13.0909,10.7273 -29.0909,9.63636 -14.9091,-8.18182 0,-16.9091"/>
    </object>
   </objectgroup>
  </tile>
  <tile id="28">
   <objectgroup draworder="index" id="2">
    <object id="1" x="0.545455" y="2.36364">
     <polygon points="0,0 12.1818,4.72727 24.3636,3.63636 31.2727,0.545455 30.9091,12.3636 -0.181818,11.6364"/>
    </object>
   </objectgroup>
  </tile>
  <tile id="29">
   <objectgroup draworder="index" id="2">
    <object id="4" x="7.27273" y="9.81818" width="0.181818" height="0.363636"/>
    <object id="5" x="0" y="12.5455">
     <polygon points="0,0 13.4545,17.6364 28.3636,18.1818 17.8182,0.363636 -0.727273,-11.4545"/>
    </object>
   </objectgroup>
  </tile>
  <tile id="30">
   <objectgroup draworder="index" id="2">
    <object id="1" x="0.363636" y="4.72727">
     <polygon points="0,0 10.1818,9.81818 16.1818,13.0909 18.9091,24.9091 2.90909,26.5455 0.181818,20"/>
    </object>
    <object id="2" x="15.4545" y="1.63636">
     <polygon points="0,0 4.54545,4 10.3636,8.18182 13.6364,9.45455 16.1818,0"/>
    </object>
   </objectgroup>
  </tile>
  <tile id="32">
   <objectgroup draworder="index" id="2">
    <object id="1" x="5.45455" y="0.909091">
     <polygon points="0,0 -3.63636,5.81818 7.63636,16.7273 24.7273,14.9091 25.6364,7.09091 13.0909,-0.545455"/>
    </object>
   </objectgroup>
  </tile>
  <tile id="33">
   <objectgroup draworder="index" id="2">
    <object id="1" x="1.81818" y="8.54545">
     <polygon points="0,0 24.9091,-0.909091 -0.545455,7.81818"/>
    </object>
   </objectgroup>
  </tile>
  <tile id="34">
   <objectgroup draworder="index" id="2">
    <object id="1" x="9.45455" y="6.90909">
     <polygon points="0,0 21.2727,8.72727 20.9091,-0.727273"/>
    </object>
   </objectgroup>
  </tile>
  <tile id="35">
   <objectgroup draworder="index" id="2">
    <object id="1" x="16" y="2.36364">
     <polygon points="0,0 -14.1818,5.27273 -14.7273,14.1818 0.909091,15.6364 15.0909,2.72727 11.4545,-2.18182"/>
    </object>
   </objectgroup>
  </tile>
  <tile id="52">
   <objectgroup draworder="index" id="2">
    <object id="1" x="31.0909" y="4.36364">
     <polygon points="0,0 -18.1818,11.0909 -25.0909,26.7273 -9.27273,25.2727 0.181818,11.6364"/>
    </object>
   </objectgroup>
  </tile>
  <tile id="53">
   <objectgroup draworder="index" id="2">
    <object id="1" x="1.81818" y="14.3636">
     <polygon points="0,0 13.0909,-2.36364 13.0909,-14.5455 -1.27273,-14.9091"/>
    </object>
   </objectgroup>
  </tile>
  <tile id="55">
   <objectgroup draworder="index" id="2">
    <object id="1" x="15.4545" y="1.63636">
     <polygon points="0,0 0.727273,11.4545 9.09091,13.4545 15.6364,8.36364 15.6364,-1.27273"/>
    </object>
   </objectgroup>
  </tile>
  <tile id="56">
   <objectgroup draworder="index" id="5">
    <object id="5" x="2.18182" y="11.0909">
     <polygon points="-1.45455,0.181818 8.36364,8.72727 10.3636,18.9091 25.8182,18.3636 13.6364,0.545455 -2,-8"/>
    </object>
   </objectgroup>
  </tile>
  <tile id="78">
   <objectgroup draworder="index" id="2">
    <object id="1" x="19.0909" y="2.18182">
     <polygon points="0,0 5.81818,16.1818 2.90909,28.9091 -14.5455,28.9091 -16,-2.36364"/>
    </object>
   </objectgroup>
  </tile>
  <tile id="82">
   <objectgroup draworder="index" id="2">
    <object id="1" x="11.8182" y="-0.363636" width="14.7273" height="32.1818"/>
   </objectgroup>
  </tile>
  <tile id="84">
   <objectgroup draworder="index" id="2">
    <object id="1" x="30.9091" y="15.2727">
     <polygon points="0,0 -12.5455,15.6364 -26.7273,14.9091 -19.6364,-0.909091 -0.727273,-12.3636"/>
    </object>
   </objectgroup>
  </tile>
  <tile id="85">
   <objectgroup draworder="index" id="2">
    <object id="1" x="21.8182" y="9.63636">
     <polygon points="0,0 -20.9091,-4.36364 -20.7273,4.54545"/>
    </object>
   </objectgroup>
  </tile>
  <tile id="87">
   <objectgroup draworder="index" id="3">
    <object id="2" x="1.45455" y="4">
     <polygon points="0,0 12.1818,6.90909 20.1818,15.4545 24,26.7273 13.4545,26.3636 6.90909,18 -1.09091,9.09091"/>
    </object>
   </objectgroup>
  </tile>
  <tile id="104">
   <objectgroup draworder="index" id="2">
    <object id="1" x="20.9091" y="0.909091">
     <polygon points="0,0 10.5455,8.18182 9.81818,26.9091 -12.9091,19.4545 -18.3636,-0.727273"/>
    </object>
   </objectgroup>
  </tile>
  <tile id="105">
   <objectgroup draworder="index" id="2">
    <object id="1" x="0.727273" y="6">
     <polygon points="0,0 13.0909,2.54545 18.7273,15.0909 18.9091,24.7273 0.181818,25.6364"/>
    </object>
   </objectgroup>
  </tile>
  <tile id="107">
   <objectgroup draworder="index" id="3">
    <object id="3" x="29.8182" y="8.36364">
     <polygon points="0,0 -14.5455,7.81818 -14.3636,22.9091 1.45455,22.9091"/>
    </object>
   </objectgroup>
  </tile>
  <tile id="108">
   <objectgroup draworder="index" id="2">
    <object id="1" x="16" y="1.45455">
     <polygon points="0,0 -15.8182,7.45455 -14.9091,28.5455 4.90909,20.9091 14.7273,7.63636 12.1818,-1.81818"/>
    </object>
   </objectgroup>
  </tile>
  <tile id="131">
   <objectgroup draworder="index" id="3">
    <object id="2" x="3.63636" y="1.09091">
     <polygon points="0,0 2.18182,16.7273 20,30.9091 27.2727,25.4545 27.8182,7.45455 16.3636,2.54545 13.4545,-0.909091"/>
    </object>
   </objectgroup>
  </tile>
  <tile id="132">
   <objectgroup draworder="index" id="2">
    <object id="1" x="0.545455" y="7.27273">
     <polygon points="0,0 16.7273,-2.36364 29.6364,-0.727273 30.5455,18.7273 12.5455,21.0909 0,20"/>
    </object>
   </objectgroup>
  </tile>
  <tile id="133">
   <objectgroup draworder="index" id="2">
    <object id="1" x="14.9091" y="0.909091">
     <polygon points="0,0 -4.36364,6 -14,6 -13.6364,27.8182 3.27273,19.8182 11.6364,11.4545 13.4545,-0.909091"/>
    </object>
   </objectgroup>
  </tile>
  <tile id="135">
   <objectgroup draworder="index" id="2">
    <object id="1" x="12.5455" y="31.2727">
     <polygon points="0,0 6.36364,-7.27273 8.72727,0.181818"/>
    </object>
   </objectgroup>
  </tile>
  <tile id="137">
   <objectgroup draworder="index" id="2">
    <object id="1" x="10.7273" y="31.8182">
     <polygon points="0,0 3.63636,-8.36364 7.09091,-0.363636"/>
    </object>
   </objectgroup>
  </tile>
  <tile id="156">
   <objectgroup draworder="index" id="2">
    <object id="1" x="2.54545" y="0.363636" width="16.7273" height="32"/>
   </objectgroup>
  </tile>
  <tile id="157">
   <objectgroup draworder="index" id="2">
    <object id="1" x="10" y="-4" width="18" height="41.2727"/>
   </objectgroup>
  </tile>
  <tile id="158">
   <objectgroup draworder="index" id="2">
    <object id="1" x="0.363636" y="2.18182" width="31.4545" height="9.45455"/>
   </objectgroup>
  </tile>
  <tile id="159">
   <objectgroup draworder="index" id="2">
    <object id="1" x="0" y="2.18182" width="31.8182" height="10.5455"/>
   </objectgroup>
  </tile>
  <tile id="161">
   <objectgroup draworder="index" id="2">
    <object id="1" x="15.0909" y="1.09091">
     <polygon points="0,0 -3.63636,5.27273 -14.1818,5.27273 -14.1818,22.5455 -3.45455,17.6364 2.54545,6.90909 3.27273,-0.727273"/>
    </object>
   </objectgroup>
  </tile>
  <tile id="163">
   <objectgroup draworder="index" id="2">
    <object id="1" x="10.3636" y="1.09091">
     <polygon points="0,0 9.45455,14.9091 20.3636,23.6364 19.4545,5.81818 11.6364,1.63636 8.18182,-2"/>
    </object>
   </objectgroup>
  </tile>
  <tile id="182">
   <objectgroup draworder="index" id="2">
    <object id="1" x="7.45455" y="0.181818" width="13.2727" height="31.2727"/>
   </objectgroup>
  </tile>
  <tile id="183">
   <objectgroup draworder="index" id="2">
    <object id="1" x="12.5455" y="-4.18182" width="12.5455" height="40.7273"/>
   </objectgroup>
  </tile>
  <tile id="184">
   <objectgroup draworder="index" id="2">
    <object id="1" x="-1.81818" y="7.09091" width="36" height="17.8182"/>
   </objectgroup>
  </tile>
  <tile id="185">
   <objectgroup draworder="index" id="2">
    <object id="1" x="-1.09091" y="7.63636" width="33.6364" height="17.2727"/>
   </objectgroup>
  </tile>
  <tile id="208">
   <objectgroup draworder="index" id="2">
    <object id="1" x="6.72727" y="-0.181818" width="9.09091" height="32"/>
   </objectgroup>
  </tile>
  <tile id="209">
   <objectgroup draworder="index" id="2">
    <object id="1" x="8.72727" y="-4.36364" width="17.8182" height="41.4545"/>
   </objectgroup>
  </tile>
  <tile id="210">
   <objectgroup draworder="index" id="2">
    <object id="1" x="-1.09091" y="2" width="34.3636" height="8.18182"/>
   </objectgroup>
  </tile>
  <tile id="211">
   <objectgroup draworder="index" id="2">
    <object id="1" x="-1.81818" y="2.72727" width="35.2727" height="12.1818"/>
   </objectgroup>
  </tile>
  <tile id="213">
   <objectgroup draworder="index" id="2">
    <object id="1" x="23.4545" y="5.27273">
     <polygon points="0,0 -0.545455,25.0909 -18.9091,26.1818 -7.63636,15.4545 -6.90909,0"/>
    </object>
   </objectgroup>
  </tile>
  <tile id="215">
   <objectgroup draworder="index" id="2">
    <object id="1" x="12" y="3.09091">
     <polygon points="0,0 0,28.3636 14.9091,28 6.72727,11.8182 4.90909,-1.27273"/>
    </object>
   </objectgroup>
  </tile>
  <tile id="216">
   <objectgroup draworder="index" id="2">
    <object id="1" x="3.63636" y="3.27273">
     <polygon points="0,0 28.5455,6.36364 28.3636,-4.36364"/>
    </object>
   </objectgroup>
  </tile>
  <tile id="217">
   <objectgroup draworder="index" id="2">
    <object id="1" x="31.6364" y="2.36364">
     <polygon points="0,0 0,12.3636 -35.2727,9.27273 -35.2727,-0.181818"/>
    </object>
   </objectgroup>
  </tile>
  <tile id="236">
   <objectgroup draworder="index" id="2">
    <object id="1" x="-3.09091" y="7.63636" width="35.6364" height="17.6364"/>
   </objectgroup>
  </tile>
  <tile id="237">
   <objectgroup draworder="index" id="2">
    <object id="1" x="-2.54545" y="6.72727" width="36" height="20.3636"/>
   </objectgroup>
  </tile>
  <tile id="239">
   <objectgroup draworder="index" id="2">
    <object id="1" x="24.3636" y="31.0909">
     <polygon points="0,0 1.27273,-24.3636 -7.09091,-31.2727 -22.9091,-31.0909"/>
    </object>
   </objectgroup>
  </tile>
  <tile id="241">
   <objectgroup draworder="index" id="2">
    <object id="1" x="12" y="1.09091">
     <polygon points="0,0 -2.18182,29.6364 4.36364,29.8182 17.0909,-1.63636"/>
    </object>
   </objectgroup>
  </tile>
  <tile id="242">
   <objectgroup draworder="index" id="2">
    <object id="1" x="0" y="20.3636">
     <polygon points="0,0 0.363636,7.27273 31.2727,7.81818 31.2727,-4.54545"/>
    </object>
   </objectgroup>
  </tile>
  <tile id="243">
   <objectgroup draworder="index" id="2">
    <object id="1" x="-0.363636" y="16.5455">
     <polygon points="0,0 32.1818,-7.81818 30.9091,10.5455 -0.727273,11.0909"/>
    </object>
   </objectgroup>
  </tile>
  <tile id="399">
   <objectgroup draworder="index" id="3">
    <object id="2" x="12.9091" y="0" width="18.7273" height="32.1818"/>
   </objectgroup>
  </tile>
  <tile id="400">
   <objectgroup draworder="index" id="2">
    <object id="1" x="-0.181818" y="0" width="2.18182" height="32.1818"/>
   </objectgroup>
  </tile>
  <tile id="425">
   <objectgroup draworder="index" id="2">
    <object id="1" x="6.90909" y="-0.363636" width="24.7273" height="4.36364"/>
   </objectgroup>
  </tile>
  <tile id="426">
   <objectgroup draworder="index" id="2">
    <object id="1" x="-0.181818" y="0.181818" width="7.09091" height="3.09091"/>
   </objectgroup>
  </tile>
  <tile id="462">
   <objectgroup draworder="index" id="2">
    <object id="1" x="21.2727" y="25.4545" width="12.5455" height="12.9091">
     <ellipse/>
    </object>
   </objectgroup>
  </tile>
  <tile id="463">
   <objectgroup draworder="index" id="5">
    <object id="6" x="3.09091" y="26.5455" width="28.5455" height="24">
     <ellipse/>
    </object>
   </objectgroup>
  </tile>
  <tile id="464">
   <objectgroup draworder="index" id="2">
    <object id="1" x="-2.90909" y="27.0909" width="11.6364" height="12">
     <ellipse/>
    </object>
   </objectgroup>
  </tile>
  <tile id="488">
   <objectgroup draworder="index" id="2">
    <object id="1" x="18.5455" y="-6.36364" width="15.6364" height="41.0909">
     <ellipse/>
    </object>
   </objectgroup>
  </tile>
  <tile id="490">
   <objectgroup draworder="index" id="2">
    <object id="1" x="-5.09091" y="-0.545455" width="15.6364" height="31.2727">
     <ellipse/>
    </object>
   </objectgroup>
  </tile>
  <tile id="514">
   <objectgroup draworder="index" id="2">
    <object id="1" x="24.1818" y="-6.54545" width="10.1818" height="10.5455">
     <ellipse/>
    </object>
   </objectgroup>
  </tile>
  <tile id="515">
   <objectgroup draworder="index" id="2">
    <object id="1" x="2.18182" y="-8.54545" width="29.2727" height="14.7273">
     <ellipse/>
    </object>
   </objectgroup>
  </tile>
  <tile id="516">
   <objectgroup draworder="index" id="2">
    <object id="1" x="-4.54545" y="-6.18182" width="6.18182" height="12.1818">
     <ellipse/>
    </object>
   </objectgroup>
  </tile>
  <wangsets>
   <wangset name="cliff" type="corner" tile="-1">
    <wangcolor name="" color="#ff0000" tile="-1" probability="1"/>
    <wangtile tileid="26" wangid="0,1,0,0,0,1,0,0"/>
    <wangtile tileid="27" wangid="0,0,0,1,0,0,0,0"/>
    <wangtile tileid="28" wangid="0,0,0,1,0,1,0,0"/>
    <wangtile tileid="29" wangid="0,0,0,0,0,1,0,0"/>
    <wangtile tileid="30" wangid="0,0,0,1,0,0,0,1"/>
    <wangtile tileid="52" wangid="0,0,0,1,0,0,0,0"/>
    <wangtile tileid="53" wangid="0,1,0,1,0,1,0,0"/>
    <wangtile tileid="54" wangid="0,1,0,1,0,1,0,1"/>
    <wangtile tileid="55" wangid="0,0,0,1,0,1,0,1"/>
    <wangtile tileid="56" wangid="0,0,0,0,0,1,0,0"/>
    <wangtile tileid="78" wangid="0,1,0,1,0,0,0,0"/>
    <wangtile tileid="79" wangid="0,1,0,1,0,1,0,1"/>
    <wangtile tileid="80" wangid="0,1,0,1,0,1,0,1"/>
    <wangtile tileid="81" wangid="0,1,0,1,0,1,0,1"/>
    <wangtile tileid="82" wangid="0,0,0,0,0,1,0,1"/>
    <wangtile tileid="104" wangid="0,1,0,0,0,0,0,0"/>
    <wangtile tileid="105" wangid="0,1,0,1,0,0,0,1"/>
    <wangtile tileid="106" wangid="0,1,0,1,0,1,0,1"/>
    <wangtile tileid="107" wangid="0,1,0,0,0,1,0,1"/>
    <wangtile tileid="108" wangid="0,0,0,0,0,0,0,1"/>
    <wangtile tileid="131" wangid="0,1,0,0,0,0,0,0"/>
    <wangtile tileid="132" wangid="0,1,0,0,0,0,0,1"/>
    <wangtile tileid="133" wangid="0,0,0,0,0,0,0,1"/>
    <wangtile tileid="156" wangid="0,1,0,1,0,0,0,0"/>
    <wangtile tileid="157" wangid="0,0,0,0,0,1,0,1"/>
    <wangtile tileid="158" wangid="0,0,0,1,0,1,0,0"/>
    <wangtile tileid="159" wangid="0,0,0,1,0,1,0,0"/>
    <wangtile tileid="182" wangid="0,1,0,1,0,0,0,0"/>
    <wangtile tileid="183" wangid="0,0,0,0,0,1,0,1"/>
    <wangtile tileid="184" wangid="0,1,0,0,0,0,0,1"/>
    <wangtile tileid="185" wangid="0,1,0,0,0,0,0,1"/>
    <wangtile tileid="208" wangid="0,1,0,1,0,0,0,0"/>
    <wangtile tileid="209" wangid="0,0,0,0,0,1,0,1"/>
    <wangtile tileid="210" wangid="0,0,0,1,0,1,0,0"/>
    <wangtile tileid="211" wangid="0,0,0,1,0,1,0,0"/>
    <wangtile tileid="236" wangid="0,1,0,0,0,0,0,1"/>
    <wangtile tileid="237" wangid="0,1,0,0,0,0,0,1"/>
   </wangset>
   <wangset name="grass-extra shade" type="corner" tile="-1">
    <wangcolor name="" color="#ff0000" tile="-1" probability="1"/>
    <wangtile tileid="45" wangid="0,1,0,0,0,1,0,0"/>
    <wangtile tileid="46" wangid="0,0,0,1,0,0,0,0"/>
    <wangtile tileid="47" wangid="0,0,0,1,0,1,0,0"/>
    <wangtile tileid="48" wangid="0,0,0,0,0,1,0,0"/>
    <wangtile tileid="49" wangid="0,0,0,1,0,0,0,1"/>
    <wangtile tileid="71" wangid="0,0,0,1,0,0,0,0"/>
    <wangtile tileid="72" wangid="0,1,0,1,0,1,0,0"/>
    <wangtile tileid="73" wangid="0,1,0,1,0,1,0,1"/>
    <wangtile tileid="74" wangid="0,0,0,1,0,1,0,1"/>
    <wangtile tileid="75" wangid="0,0,0,0,0,1,0,0"/>
    <wangtile tileid="97" wangid="0,1,0,1,0,0,0,0"/>
    <wangtile tileid="98" wangid="0,1,0,1,0,1,0,1"/>
    <wangtile tileid="99" wangid="0,1,0,1,0,1,0,1"/>
    <wangtile tileid="100" wangid="0,1,0,1,0,1,0,1"/>
    <wangtile tileid="101" wangid="0,0,0,0,0,1,0,1"/>
    <wangtile tileid="123" wangid="0,1,0,0,0,0,0,0"/>
    <wangtile tileid="124" wangid="0,1,0,1,0,0,0,1"/>
    <wangtile tileid="125" wangid="0,1,0,1,0,1,0,1"/>
    <wangtile tileid="126" wangid="0,1,0,0,0,1,0,1"/>
    <wangtile tileid="127" wangid="0,0,0,0,0,0,0,1"/>
    <wangtile tileid="149" wangid="0,0,0,1,0,1,0,0"/>
    <wangtile tileid="150" wangid="0,1,0,0,0,0,0,0"/>
    <wangtile tileid="151" wangid="0,1,0,0,0,0,0,1"/>
    <wangtile tileid="152" wangid="0,0,0,0,0,0,0,1"/>
    <wangtile tileid="153" wangid="0,1,0,1,0,0,0,0"/>
    <wangtile tileid="175" wangid="0,1,0,0,0,0,0,1"/>
    <wangtile tileid="179" wangid="0,0,0,0,0,1,0,1"/>
   </wangset>
   <wangset name="packs of taller grass" type="corner" tile="-1">
    <wangcolor name="" color="#ff0000" tile="-1" probability="1"/>
    <wangtile tileid="220" wangid="0,1,0,1,0,1,0,1"/>
    <wangtile tileid="221" wangid="0,1,0,1,0,1,0,1"/>
    <wangtile tileid="222" wangid="0,1,0,1,0,1,0,1"/>
    <wangtile tileid="223" wangid="0,1,0,1,0,1,0,1"/>
    <wangtile tileid="224" wangid="0,1,0,1,0,1,0,1"/>
    <wangtile tileid="226" wangid="0,1,0,1,0,1,0,1"/>
    <wangtile tileid="227" wangid="0,1,0,1,0,1,0,1"/>
    <wangtile tileid="228" wangid="0,1,0,1,0,1,0,1"/>
    <wangtile tileid="229" wangid="0,1,0,1,0,1,0,1"/>
    <wangtile tileid="230" wangid="0,1,0,1,0,1,0,1"/>
    <wangtile tileid="246" wangid="0,1,0,1,0,1,0,1"/>
    <wangtile tileid="247" wangid="0,1,0,1,0,1,0,1"/>
    <wangtile tileid="248" wangid="0,1,0,1,0,1,0,1"/>
    <wangtile tileid="249" wangid="0,1,0,1,0,1,0,1"/>
    <wangtile tileid="250" wangid="0,1,0,1,0,1,0,1"/>
    <wangtile tileid="252" wangid="0,1,0,1,0,1,0,1"/>
    <wangtile tileid="253" wangid="0,1,0,1,0,1,0,1"/>
    <wangtile tileid="254" wangid="0,1,0,1,0,1,0,1"/>
    <wangtile tileid="255" wangid="0,1,0,1,0,1,0,1"/>
    <wangtile tileid="256" wangid="0,1,0,1,0,1,0,1"/>
    <wangtile tileid="272" wangid="0,1,0,1,0,1,0,1"/>
    <wangtile tileid="273" wangid="0,1,0,1,0,1,0,1"/>
    <wangtile tileid="274" wangid="0,1,0,1,0,1,0,1"/>
    <wangtile tileid="275" wangid="0,1,0,1,0,1,0,1"/>
    <wangtile tileid="276" wangid="0,1,0,1,0,1,0,1"/>
    <wangtile tileid="278" wangid="0,1,0,1,0,1,0,1"/>
    <wangtile tileid="279" wangid="0,1,0,1,0,1,0,1"/>
    <wangtile tileid="280" wangid="0,1,0,1,0,1,0,1"/>
    <wangtile tileid="281" wangid="0,1,0,1,0,1,0,1"/>
    <wangtile tileid="282" wangid="0,1,0,1,0,1,0,1"/>
    <wangtile tileid="298" wangid="0,1,0,1,0,1,0,1"/>
    <wangtile tileid="299" wangid="0,1,0,1,0,1,0,1"/>
    <wangtile tileid="300" wangid="0,1,0,1,0,1,0,1"/>
    <wangtile tileid="301" wangid="0,1,0,1,0,1,0,1"/>
    <wangtile tileid="302" wangid="0,1,0,1,0,1,0,1"/>
    <wangtile tileid="304" wangid="0,1,0,1,0,1,0,1"/>
    <wangtile tileid="305" wangid="0,1,0,1,0,1,0,1"/>
    <wangtile tileid="306" wangid="0,1,0,1,0,1,0,1"/>
    <wangtile tileid="307" wangid="0,1,0,1,0,1,0,1"/>
    <wangtile tileid="308" wangid="0,1,0,1,0,1,0,1"/>
    <wangtile tileid="324" wangid="0,1,0,1,0,1,0,1"/>
    <wangtile tileid="325" wangid="0,1,0,1,0,1,0,1"/>
    <wangtile tileid="326" wangid="0,1,0,1,0,1,0,1"/>
    <wangtile tileid="327" wangid="0,1,0,1,0,1,0,1"/>
    <wangtile tileid="328" wangid="0,1,0,1,0,1,0,1"/>
    <wangtile tileid="330" wangid="0,1,0,1,0,1,0,1"/>
    <wangtile tileid="331" wangid="0,1,0,1,0,1,0,1"/>
    <wangtile tileid="332" wangid="0,1,0,1,0,1,0,1"/>
    <wangtile tileid="333" wangid="0,1,0,1,0,1,0,1"/>
    <wangtile tileid="334" wangid="0,1,0,1,0,1,0,1"/>
    <wangtile tileid="350" wangid="0,1,0,1,0,1,0,1"/>
    <wangtile tileid="351" wangid="0,1,0,1,0,1,0,1"/>
    <wangtile tileid="352" wangid="0,1,0,1,0,1,0,1"/>
    <wangtile tileid="353" wangid="0,1,0,1,0,1,0,1"/>
    <wangtile tileid="354" wangid="0,1,0,1,0,1,0,1"/>
    <wangtile tileid="356" wangid="0,1,0,1,0,1,0,1"/>
    <wangtile tileid="357" wangid="0,1,0,1,0,1,0,1"/>
    <wangtile tileid="358" wangid="0,1,0,1,0,1,0,1"/>
    <wangtile tileid="359" wangid="0,1,0,1,0,1,0,1"/>
    <wangtile tileid="360" wangid="0,1,0,1,0,1,0,1"/>
    <wangtile tileid="376" wangid="0,1,0,1,0,1,0,1"/>
    <wangtile tileid="377" wangid="0,1,0,1,0,1,0,1"/>
    <wangtile tileid="378" wangid="0,1,0,1,0,1,0,1"/>
    <wangtile tileid="379" wangid="0,1,0,1,0,1,0,1"/>
    <wangtile tileid="380" wangid="0,1,0,1,0,1,0,1"/>
    <wangtile tileid="382" wangid="0,1,0,1,0,1,0,1"/>
    <wangtile tileid="383" wangid="0,1,0,1,0,1,0,1"/>
    <wangtile tileid="384" wangid="0,1,0,1,0,1,0,1"/>
    <wangtile tileid="385" wangid="0,1,0,1,0,1,0,1"/>
    <wangtile tileid="386" wangid="0,1,0,1,0,1,0,1"/>
   </wangset>
   <wangset name="dirt to grass" type="corner" tile="-1">
    <wangcolor name="" color="#ff0000" tile="-1" probability="1"/>
    <wangtile tileid="287" wangid="0,1,0,0,0,1,0,0"/>
    <wangtile tileid="288" wangid="0,0,0,1,0,0,0,0"/>
    <wangtile tileid="289" wangid="0,0,0,1,0,1,0,0"/>
    <wangtile tileid="290" wangid="0,0,0,0,0,1,0,0"/>
    <wangtile tileid="291" wangid="0,0,0,1,0,0,0,1"/>
    <wangtile tileid="313" wangid="0,0,0,1,0,0,0,0"/>
    <wangtile tileid="314" wangid="0,1,0,1,0,1,0,0"/>
    <wangtile tileid="315" wangid="0,1,0,1,0,1,0,1"/>
    <wangtile tileid="316" wangid="0,0,0,1,0,1,0,1"/>
    <wangtile tileid="317" wangid="0,0,0,0,0,1,0,0"/>
    <wangtile tileid="339" wangid="0,1,0,1,0,0,0,0"/>
    <wangtile tileid="340" wangid="0,1,0,1,0,1,0,1"/>
    <wangtile tileid="341" wangid="0,1,0,1,0,1,0,1"/>
    <wangtile tileid="342" wangid="0,1,0,1,0,1,0,1"/>
    <wangtile tileid="343" wangid="0,0,0,0,0,1,0,1"/>
    <wangtile tileid="365" wangid="0,1,0,0,0,0,0,0"/>
    <wangtile tileid="366" wangid="0,1,0,1,0,0,0,1"/>
    <wangtile tileid="367" wangid="0,1,0,1,0,1,0,1"/>
    <wangtile tileid="368" wangid="0,1,0,0,0,1,0,1"/>
    <wangtile tileid="369" wangid="0,0,0,0,0,0,0,1"/>
    <wangtile tileid="391" wangid="0,1,0,1,0,0,0,1"/>
    <wangtile tileid="392" wangid="0,1,0,0,0,0,0,0"/>
    <wangtile tileid="393" wangid="0,1,0,0,0,0,0,1"/>
    <wangtile tileid="394" wangid="0,0,0,0,0,0,0,1"/>
    <wangtile tileid="395" wangid="0,1,0,0,0,1,0,1"/>
    <wangtile tileid="417" wangid="0,0,0,1,0,1,0,1"/>
    <wangtile tileid="418" wangid="0,1,0,1,0,1,0,0"/>
    <wangtile tileid="419" wangid="0,0,0,0,0,1,0,1"/>
    <wangtile tileid="420" wangid="0,1,0,1,0,0,0,0"/>
    <wangtile tileid="443" wangid="0,0,0,1,0,1,0,1"/>
    <wangtile tileid="444" wangid="0,1,0,1,0,1,0,0"/>
    <wangtile tileid="445" wangid="0,0,0,0,0,1,0,1"/>
    <wangtile tileid="446" wangid="0,1,0,1,0,0,0,0"/>
    <wangtile tileid="469" wangid="0,0,0,1,0,1,0,1"/>
    <wangtile tileid="470" wangid="0,1,0,1,0,1,0,0"/>
    <wangtile tileid="471" wangid="0,0,0,0,0,1,0,1"/>
    <wangtile tileid="472" wangid="0,1,0,1,0,0,0,0"/>
   </wangset>
  </wangsets>
 </tileset>
 <tileset firstgid="4143" name="Atlas-Props-Sprites" tilewidth="448" tileheight="320" tilecount="748" columns="0">
  <grid orientation="orthogonal" width="1" height="1"/>
  <tile id="1449">
   <image source="../tiled/ERW-Grass Land/Props/Atlas-Props-individual sprites/barrels_0.png" width="32" height="32"/>
  </tile>
  <tile id="1450">
   <image source="../tiled/ERW-Grass Land/Props/Atlas-Props-individual sprites/barrels_1.png" width="32" height="32"/>
  </tile>
  <tile id="1451">
   <image source="../tiled/ERW-Grass Land/Props/Atlas-Props-individual sprites/barrels_2.png" width="32" height="32"/>
  </tile>
  <tile id="1452">
   <image source="../tiled/ERW-Grass Land/Props/Atlas-Props-individual sprites/barrels_3.png" width="32" height="32"/>
  </tile>
  <tile id="1453">
   <image source="../tiled/ERW-Grass Land/Props/Atlas-Props-individual sprites/barrels_4.png" width="32" height="32"/>
  </tile>
  <tile id="1454">
   <image source="../tiled/ERW-Grass Land/Props/Atlas-Props-individual sprites/barrels_5.png" width="32" height="32"/>
  </tile>
  <tile id="1455">
   <image source="../tiled/ERW-Grass Land/Props/Atlas-Props-individual sprites/barrels_6.png" width="32" height="32"/>
  </tile>
  <tile id="1456">
   <image source="../tiled/ERW-Grass Land/Props/Atlas-Props-individual sprites/barrels_7.png" width="32" height="32"/>
  </tile>
  <tile id="1457">
   <image source="../tiled/ERW-Grass Land/Props/Atlas-Props-individual sprites/barrels_8.png" width="32" height="32"/>
  </tile>
  <tile id="1458">
   <image source="../tiled/ERW-Grass Land/Props/Atlas-Props-individual sprites/barrels_9.png" width="32" height="32"/>
  </tile>
  <tile id="1459">
   <image source="../tiled/ERW-Grass Land/Props/Atlas-Props-individual sprites/barrels_10.png" width="32" height="32"/>
  </tile>
  <tile id="1460">
   <image source="../tiled/ERW-Grass Land/Props/Atlas-Props-individual sprites/barrels_11.png" width="32" height="32"/>
  </tile>
  <tile id="1461">
   <image source="../tiled/ERW-Grass Land/Props/Atlas-Props-individual sprites/barrels_12.png" width="32" height="32"/>
  </tile>
  <tile id="1462">
   <image source="../tiled/ERW-Grass Land/Props/Atlas-Props-individual sprites/barrels_13.png" width="32" height="32"/>
  </tile>
  <tile id="1463">
   <image source="../tiled/ERW-Grass Land/Props/Atlas-Props-individual sprites/barrels_14.png" width="32" height="32"/>
  </tile>
  <tile id="1464">
   <image source="../tiled/ERW-Grass Land/Props/Atlas-Props-individual sprites/barrels_15.png" width="32" height="32"/>
  </tile>
  <tile id="1465">
   <image source="../tiled/ERW-Grass Land/Props/Atlas-Props-individual sprites/blacksmith as a simple house.png" width="160" height="288"/>
  </tile>
  <tile id="1466">
   <image source="../tiled/ERW-Grass Land/Props/Atlas-Props-individual sprites/blacksmith props_0.png" width="32" height="32"/>
  </tile>
  <tile id="1467">
   <image source="../tiled/ERW-Grass Land/Props/Atlas-Props-individual sprites/blacksmith props_1.png" width="32" height="32"/>
  </tile>
  <tile id="1468">
   <image source="../tiled/ERW-Grass Land/Props/Atlas-Props-individual sprites/blacksmith props_2.png" width="32" height="32"/>
  </tile>
  <tile id="1469">
   <image source="../tiled/ERW-Grass Land/Props/Atlas-Props-individual sprites/blacksmith props_3.png" width="32" height="32"/>
  </tile>
  <tile id="1470">
   <image source="../tiled/ERW-Grass Land/Props/Atlas-Props-individual sprites/blacksmith props_4.png" width="32" height="32"/>
  </tile>
  <tile id="1471">
   <image source="../tiled/ERW-Grass Land/Props/Atlas-Props-individual sprites/blacksmith props_5.png" width="32" height="32"/>
  </tile>
  <tile id="1472">
   <image source="../tiled/ERW-Grass Land/Props/Atlas-Props-individual sprites/blacksmith props_6.png" width="32" height="32"/>
  </tile>
  <tile id="1473">
   <image source="../tiled/ERW-Grass Land/Props/Atlas-Props-individual sprites/blacksmith props_7.png" width="32" height="32"/>
  </tile>
  <tile id="1474">
   <image source="../tiled/ERW-Grass Land/Props/Atlas-Props-individual sprites/blacksmith props_8.png" width="32" height="32"/>
  </tile>
  <tile id="1475">
   <image source="../tiled/ERW-Grass Land/Props/Atlas-Props-individual sprites/blacksmith props_9.png" width="32" height="32"/>
  </tile>
  <tile id="1476">
   <image source="../tiled/ERW-Grass Land/Props/Atlas-Props-individual sprites/blacksmith props_10.png" width="32" height="32"/>
  </tile>
  <tile id="1477">
   <image source="../tiled/ERW-Grass Land/Props/Atlas-Props-individual sprites/blacksmith props_11.png" width="32" height="32"/>
  </tile>
  <tile id="1478">
   <image source="../tiled/ERW-Grass Land/Props/Atlas-Props-individual sprites/blacksmith props_12.png" width="32" height="32"/>
  </tile>
  <tile id="1479">
   <image source="../tiled/ERW-Grass Land/Props/Atlas-Props-individual sprites/blacksmith props_13.png" width="32" height="32"/>
  </tile>
  <tile id="1480">
   <image source="../tiled/ERW-Grass Land/Props/Atlas-Props-individual sprites/blacksmith props_14.png" width="32" height="32"/>
  </tile>
  <tile id="1481">
   <image source="../tiled/ERW-Grass Land/Props/Atlas-Props-individual sprites/blacksmith props_15.png" width="32" height="32"/>
  </tile>
  <tile id="1482">
   <image source="../tiled/ERW-Grass Land/Props/Atlas-Props-individual sprites/blacksmith props_16.png" width="32" height="32"/>
  </tile>
  <tile id="1483">
   <image source="../tiled/ERW-Grass Land/Props/Atlas-Props-individual sprites/blacksmith props_17.png" width="64" height="32"/>
  </tile>
  <tile id="1484">
   <image source="../tiled/ERW-Grass Land/Props/Atlas-Props-individual sprites/blacksmith props_18.png" width="64" height="32"/>
  </tile>
  <tile id="1485">
   <image source="../tiled/ERW-Grass Land/Props/Atlas-Props-individual sprites/blacksmith props_19.png" width="64" height="32"/>
  </tile>
  <tile id="1486">
   <image source="../tiled/ERW-Grass Land/Props/Atlas-Props-individual sprites/blacksmith props_20.png" width="64" height="32"/>
  </tile>
  <tile id="1487">
   <image source="../tiled/ERW-Grass Land/Props/Atlas-Props-individual sprites/blacksmith props_21.png" width="64" height="32"/>
  </tile>
  <tile id="1488">
   <image source="../tiled/ERW-Grass Land/Props/Atlas-Props-individual sprites/blacksmith props_30.png" width="32" height="64"/>
  </tile>
  <tile id="1489">
   <image source="../tiled/ERW-Grass Land/Props/Atlas-Props-individual sprites/blacksmith props_31.png" width="32" height="64"/>
  </tile>
  <tile id="1490">
   <image source="../tiled/ERW-Grass Land/Props/Atlas-Props-individual sprites/blacksmith props_32.png" width="32" height="64"/>
  </tile>
  <tile id="1491">
   <image source="../tiled/ERW-Grass Land/Props/Atlas-Props-individual sprites/blacksmith props_33.png" width="32" height="64"/>
  </tile>
  <tile id="1492">
   <image source="../tiled/ERW-Grass Land/Props/Atlas-Props-individual sprites/blacksmith props_34.png" width="32" height="64"/>
  </tile>
  <tile id="1493">
   <image source="../tiled/ERW-Grass Land/Props/Atlas-Props-individual sprites/blacksmith props_35.png" width="32" height="32"/>
  </tile>
  <tile id="1494">
   <image source="../tiled/ERW-Grass Land/Props/Atlas-Props-individual sprites/blacksmith props_36.png" width="32" height="32"/>
  </tile>
  <tile id="1495">
   <image source="../tiled/ERW-Grass Land/Props/Atlas-Props-individual sprites/blacksmith props_37.png" width="64" height="64"/>
  </tile>
  <tile id="1496">
   <image source="../tiled/ERW-Grass Land/Props/Atlas-Props-individual sprites/blacksmith props_38.png" width="64" height="160"/>
  </tile>
  <tile id="1497">
   <image source="../tiled/ERW-Grass Land/Props/Atlas-Props-individual sprites/blacksmith props_39.png" width="64" height="160"/>
  </tile>
  <tile id="1498">
   <image source="../tiled/ERW-Grass Land/Props/Atlas-Props-individual sprites/blacksmith props_40.png" width="64" height="96"/>
  </tile>
  <tile id="1499">
   <image source="../tiled/ERW-Grass Land/Props/Atlas-Props-individual sprites/blacksmith props_41.png" width="64" height="64"/>
  </tile>
  <tile id="1500">
   <image source="../tiled/ERW-Grass Land/Props/Atlas-Props-individual sprites/blacksmith props_42.png" width="64" height="96"/>
  </tile>
  <tile id="1501">
   <image source="../tiled/ERW-Grass Land/Props/Atlas-Props-individual sprites/blacksmith props_43.png" width="64" height="32"/>
  </tile>
  <tile id="1502">
   <image source="../tiled/ERW-Grass Land/Props/Atlas-Props-individual sprites/blacksmith shadow.png" width="320" height="128"/>
  </tile>
  <tile id="1503">
   <image source="../tiled/ERW-Grass Land/Props/Atlas-Props-individual sprites/blacksmith wall1.png" width="192" height="64"/>
  </tile>
  <tile id="1504">
   <image source="../tiled/ERW-Grass Land/Props/Atlas-Props-individual sprites/blacksmith wall1-tileable.png" width="32" height="64"/>
  </tile>
  <tile id="1505">
   <image source="../tiled/ERW-Grass Land/Props/Atlas-Props-individual sprites/blacksmith wall2.png" width="192" height="64"/>
  </tile>
  <tile id="1506">
   <image source="../tiled/ERW-Grass Land/Props/Atlas-Props-individual sprites/blacksmith wall2-tileable.png" width="32" height="64"/>
  </tile>
  <tile id="1507">
   <image source="../tiled/ERW-Grass Land/Props/Atlas-Props-individual sprites/blacksmith.png" width="320" height="288"/>
  </tile>
  <tile id="1508">
   <image source="../tiled/ERW-Grass Land/Props/Atlas-Props-individual sprites/blacksmith-doorway only.png" width="96" height="96"/>
  </tile>
  <tile id="1509">
   <image source="../tiled/ERW-Grass Land/Props/Atlas-Props-individual sprites/bucket_0.png" width="32" height="32"/>
  </tile>
  <tile id="1510">
   <image source="../tiled/ERW-Grass Land/Props/Atlas-Props-individual sprites/bucket_1.png" width="32" height="32"/>
  </tile>
  <tile id="1511">
   <image source="../tiled/ERW-Grass Land/Props/Atlas-Props-individual sprites/bucket_2.png" width="32" height="32"/>
  </tile>
  <tile id="1512">
   <image source="../tiled/ERW-Grass Land/Props/Atlas-Props-individual sprites/bucket_3.png" width="32" height="32"/>
  </tile>
  <tile id="1513">
   <image source="../tiled/ERW-Grass Land/Props/Atlas-Props-individual sprites/bushes_0.png" width="64" height="64"/>
  </tile>
  <tile id="1514">
   <image source="../tiled/ERW-Grass Land/Props/Atlas-Props-individual sprites/bushes_1.png" width="64" height="64"/>
  </tile>
  <tile id="1515">
   <image source="../tiled/ERW-Grass Land/Props/Atlas-Props-individual sprites/bushes_2.png" width="64" height="64"/>
  </tile>
  <tile id="1516">
   <image source="../tiled/ERW-Grass Land/Props/Atlas-Props-individual sprites/bushes_3.png" width="64" height="64"/>
  </tile>
  <tile id="1517">
   <image source="../tiled/ERW-Grass Land/Props/Atlas-Props-individual sprites/bushes_4.png" width="64" height="64"/>
  </tile>
  <tile id="1518">
   <image source="../tiled/ERW-Grass Land/Props/Atlas-Props-individual sprites/bushes_5.png" width="64" height="64"/>
  </tile>
  <tile id="1519">
   <image source="../tiled/ERW-Grass Land/Props/Atlas-Props-individual sprites/bushes_6.png" width="64" height="64"/>
  </tile>
  <tile id="1520">
   <image source="../tiled/ERW-Grass Land/Props/Atlas-Props-individual sprites/bushes_7.png" width="64" height="64"/>
  </tile>
  <tile id="1521">
   <image source="../tiled/ERW-Grass Land/Props/Atlas-Props-individual sprites/bushes_8.png" width="64" height="32"/>
  </tile>
  <tile id="1522">
   <image source="../tiled/ERW-Grass Land/Props/Atlas-Props-individual sprites/bushes_9.png" width="64" height="32"/>
  </tile>
  <tile id="1523">
   <image source="../tiled/ERW-Grass Land/Props/Atlas-Props-individual sprites/bushes_10.png" width="64" height="32"/>
  </tile>
  <tile id="1524">
   <image source="../tiled/ERW-Grass Land/Props/Atlas-Props-individual sprites/bushes_11.png" width="64" height="32"/>
  </tile>
  <tile id="1525">
   <image source="../tiled/ERW-Grass Land/Props/Atlas-Props-individual sprites/bushes_12.png" width="64" height="32"/>
  </tile>
  <tile id="1526">
   <image source="../tiled/ERW-Grass Land/Props/Atlas-Props-individual sprites/bushes_13.png" width="64" height="32"/>
  </tile>
  <tile id="1527">
   <image source="../tiled/ERW-Grass Land/Props/Atlas-Props-individual sprites/bushes_14.png" width="64" height="32"/>
  </tile>
  <tile id="1528">
   <image source="../tiled/ERW-Grass Land/Props/Atlas-Props-individual sprites/bushes_15.png" width="64" height="32"/>
  </tile>
  <tile id="1529">
   <image source="../tiled/ERW-Grass Land/Props/Atlas-Props-individual sprites/campfire and firewood_0.png" width="64" height="64"/>
  </tile>
  <tile id="1530">
   <image source="../tiled/ERW-Grass Land/Props/Atlas-Props-individual sprites/campfire and firewood_1.png" width="64" height="64"/>
  </tile>
  <tile id="1531">
   <image source="../tiled/ERW-Grass Land/Props/Atlas-Props-individual sprites/campfire and firewood_2.png" width="64" height="64"/>
  </tile>
  <tile id="1532">
   <image source="../tiled/ERW-Grass Land/Props/Atlas-Props-individual sprites/campfire and firewood_3.png" width="64" height="64"/>
  </tile>
  <tile id="1533">
   <image source="../tiled/ERW-Grass Land/Props/Atlas-Props-individual sprites/campfire and firewood_4.png" width="64" height="64"/>
  </tile>
  <tile id="1534">
   <image source="../tiled/ERW-Grass Land/Props/Atlas-Props-individual sprites/campfire and firewood_5.png" width="64" height="64"/>
  </tile>
  <tile id="1535">
   <image source="../tiled/ERW-Grass Land/Props/Atlas-Props-individual sprites/chests_0.png" width="64" height="64"/>
  </tile>
  <tile id="1536">
   <image source="../tiled/ERW-Grass Land/Props/Atlas-Props-individual sprites/chests_1.png" width="64" height="64"/>
  </tile>
  <tile id="1537">
   <image source="../tiled/ERW-Grass Land/Props/Atlas-Props-individual sprites/chests_2.png" width="64" height="64"/>
  </tile>
  <tile id="1538">
   <image source="../tiled/ERW-Grass Land/Props/Atlas-Props-individual sprites/chests_3.png" width="64" height="64"/>
  </tile>
  <tile id="1539">
   <image source="../tiled/ERW-Grass Land/Props/Atlas-Props-individual sprites/chests_4.png" width="64" height="64"/>
  </tile>
  <tile id="1540">
   <image source="../tiled/ERW-Grass Land/Props/Atlas-Props-individual sprites/chests_5.png" width="64" height="64"/>
  </tile>
  <tile id="1544">
   <image source="../tiled/ERW-Grass Land/Props/Atlas-Props-individual sprites/crate_0.png" width="64" height="32"/>
  </tile>
  <tile id="1545">
   <image source="../tiled/ERW-Grass Land/Props/Atlas-Props-individual sprites/crate_1.png" width="64" height="32"/>
  </tile>
  <tile id="1546">
   <image source="../tiled/ERW-Grass Land/Props/Atlas-Props-individual sprites/crate_2.png" width="64" height="32"/>
  </tile>
  <tile id="1547">
   <image source="../tiled/ERW-Grass Land/Props/Atlas-Props-individual sprites/crate_3.png" width="64" height="32"/>
  </tile>
  <tile id="1548">
   <image source="../tiled/ERW-Grass Land/Props/Atlas-Props-individual sprites/crate_4.png" width="64" height="32"/>
  </tile>
  <tile id="1549">
   <image source="../tiled/ERW-Grass Land/Props/Atlas-Props-individual sprites/crate_5.png" width="32" height="64"/>
  </tile>
  <tile id="1550">
   <image source="../tiled/ERW-Grass Land/Props/Atlas-Props-individual sprites/crate_6.png" width="32" height="64"/>
  </tile>
  <tile id="1551">
   <image source="../tiled/ERW-Grass Land/Props/Atlas-Props-individual sprites/crate_7.png" width="64" height="32"/>
  </tile>
  <tile id="1552">
   <image source="../tiled/ERW-Grass Land/Props/Atlas-Props-individual sprites/fences-_1.png" width="32" height="32"/>
  </tile>
  <tile id="1553">
   <image source="../tiled/ERW-Grass Land/Props/Atlas-Props-individual sprites/fences-_2.png" width="64" height="32"/>
  </tile>
  <tile id="1554">
   <image source="../tiled/ERW-Grass Land/Props/Atlas-Props-individual sprites/fences-_3.png" width="96" height="32"/>
  </tile>
  <tile id="1555">
   <image source="../tiled/ERW-Grass Land/Props/Atlas-Props-individual sprites/fences-_4.png" width="32" height="32"/>
  </tile>
  <tile id="1556">
   <image source="../tiled/ERW-Grass Land/Props/Atlas-Props-individual sprites/fences-_5.png" width="96" height="32"/>
  </tile>
  <tile id="1557">
   <image source="../tiled/ERW-Grass Land/Props/Atlas-Props-individual sprites/fences-_6.png" width="32" height="32"/>
  </tile>
  <tile id="1558">
   <image source="../tiled/ERW-Grass Land/Props/Atlas-Props-individual sprites/fences-_7.png" width="32" height="32"/>
  </tile>
  <tile id="1559">
   <image source="../tiled/ERW-Grass Land/Props/Atlas-Props-individual sprites/fences-_8.png" width="32" height="32"/>
  </tile>
  <tile id="1560">
   <image source="../tiled/ERW-Grass Land/Props/Atlas-Props-individual sprites/fences-_9.png" width="64" height="32"/>
  </tile>
  <tile id="1561">
   <image source="../tiled/ERW-Grass Land/Props/Atlas-Props-individual sprites/fences-_10.png" width="32" height="32"/>
  </tile>
  <tile id="1562">
   <image source="../tiled/ERW-Grass Land/Props/Atlas-Props-individual sprites/fences-_11.png" width="32" height="32"/>
  </tile>
  <tile id="1563">
   <image source="../tiled/ERW-Grass Land/Props/Atlas-Props-individual sprites/fences-_12.png" width="32" height="32"/>
  </tile>
  <tile id="1564">
   <image source="../tiled/ERW-Grass Land/Props/Atlas-Props-individual sprites/fences-_13.png" width="32" height="32"/>
  </tile>
  <tile id="1565">
   <image source="../tiled/ERW-Grass Land/Props/Atlas-Props-individual sprites/fences-_14.png" width="32" height="32"/>
  </tile>
  <tile id="1566">
   <image source="../tiled/ERW-Grass Land/Props/Atlas-Props-individual sprites/fences-_15.png" width="32" height="32"/>
  </tile>
  <tile id="1567">
   <image source="../tiled/ERW-Grass Land/Props/Atlas-Props-individual sprites/fences-_16.png" width="32" height="32"/>
  </tile>
  <tile id="1568">
   <image source="../tiled/ERW-Grass Land/Props/Atlas-Props-individual sprites/fences-_17.png" width="32" height="32"/>
  </tile>
  <tile id="1569">
   <image source="../tiled/ERW-Grass Land/Props/Atlas-Props-individual sprites/fences-_18.png" width="32" height="32"/>
  </tile>
  <tile id="1570">
   <image source="../tiled/ERW-Grass Land/Props/Atlas-Props-individual sprites/fences-_19.png" width="96" height="32"/>
  </tile>
  <tile id="1571">
   <image source="../tiled/ERW-Grass Land/Props/Atlas-Props-individual sprites/fences-_20.png" width="32" height="32"/>
  </tile>
  <tile id="1572">
   <image source="../tiled/ERW-Grass Land/Props/Atlas-Props-individual sprites/fences-_21.png" width="96" height="32"/>
  </tile>
  <tile id="1573">
   <image source="../tiled/ERW-Grass Land/Props/Atlas-Props-individual sprites/fences-_22.png" width="64" height="32"/>
  </tile>
  <tile id="1574">
   <image source="../tiled/ERW-Grass Land/Props/Atlas-Props-individual sprites/fences-_23.png" width="32" height="32"/>
  </tile>
  <tile id="1575">
   <image source="../tiled/ERW-Grass Land/Props/Atlas-Props-individual sprites/fences-_24.png" width="64" height="32"/>
  </tile>
  <tile id="1576">
   <image source="../tiled/ERW-Grass Land/Props/Atlas-Props-individual sprites/fences-_25.png" width="64" height="32"/>
  </tile>
  <tile id="1577">
   <image source="../tiled/ERW-Grass Land/Props/Atlas-Props-individual sprites/fences-_26.png" width="64" height="32"/>
  </tile>
  <tile id="1578">
   <image source="../tiled/ERW-Grass Land/Props/Atlas-Props-individual sprites/fences-_27.png" width="64" height="32"/>
  </tile>
  <tile id="1579">
   <image source="../tiled/ERW-Grass Land/Props/Atlas-Props-individual sprites/fences-_28.png" width="64" height="32"/>
  </tile>
  <tile id="1580">
   <image source="../tiled/ERW-Grass Land/Props/Atlas-Props-individual sprites/fences-_32.png" width="32" height="32"/>
  </tile>
  <tile id="1581">
   <image source="../tiled/ERW-Grass Land/Props/Atlas-Props-individual sprites/fences-_33.png" width="32" height="32"/>
  </tile>
  <tile id="1582">
   <image source="../tiled/ERW-Grass Land/Props/Atlas-Props-individual sprites/fences-gate_29.png" width="32" height="64"/>
  </tile>
  <tile id="1583">
   <image source="../tiled/ERW-Grass Land/Props/Atlas-Props-individual sprites/fences-gate_30.png" width="32" height="64"/>
  </tile>
  <tile id="1584">
   <image source="../tiled/ERW-Grass Land/Props/Atlas-Props-individual sprites/fences-gate_31.png" width="96" height="32"/>
  </tile>
  <tile id="1585">
   <image source="../tiled/ERW-Grass Land/Props/Atlas-Props-individual sprites/fences-grass-_2.png" width="64" height="32"/>
  </tile>
  <tile id="1586">
   <image source="../tiled/ERW-Grass Land/Props/Atlas-Props-individual sprites/fences-grass-_3.png" width="32" height="32"/>
  </tile>
  <tile id="1587">
   <image source="../tiled/ERW-Grass Land/Props/Atlas-Props-individual sprites/fences-grass-_4.png" width="64" height="32"/>
  </tile>
  <tile id="1588">
   <image source="../tiled/ERW-Grass Land/Props/Atlas-Props-individual sprites/fences-grass-_5.png" width="96" height="32"/>
  </tile>
  <tile id="1589">
   <image source="../tiled/ERW-Grass Land/Props/Atlas-Props-individual sprites/fences-grass-_6.png" width="32" height="32"/>
  </tile>
  <tile id="1590">
   <image source="../tiled/ERW-Grass Land/Props/Atlas-Props-individual sprites/fences-grass-_7.png" width="96" height="32"/>
  </tile>
  <tile id="1591">
   <image source="../tiled/ERW-Grass Land/Props/Atlas-Props-individual sprites/fences-grass-_8.png" width="64" height="32"/>
  </tile>
  <tile id="1592">
   <image source="../tiled/ERW-Grass Land/Props/Atlas-Props-individual sprites/fences-grass-_9.png" width="32" height="32"/>
  </tile>
  <tile id="1593">
   <image source="../tiled/ERW-Grass Land/Props/Atlas-Props-individual sprites/fences-grass-_10.png" width="32" height="32"/>
  </tile>
  <tile id="1594">
   <image source="../tiled/ERW-Grass Land/Props/Atlas-Props-individual sprites/fences-grass-_11.png" width="32" height="32"/>
  </tile>
  <tile id="1595">
   <image source="../tiled/ERW-Grass Land/Props/Atlas-Props-individual sprites/fences-grass-_12.png" width="64" height="32"/>
  </tile>
  <tile id="1596">
   <image source="../tiled/ERW-Grass Land/Props/Atlas-Props-individual sprites/fences-grass-_13.png" width="32" height="32"/>
  </tile>
  <tile id="1597">
   <image source="../tiled/ERW-Grass Land/Props/Atlas-Props-individual sprites/fences-grass-_14.png" width="32" height="32"/>
  </tile>
  <tile id="1598">
   <image source="../tiled/ERW-Grass Land/Props/Atlas-Props-individual sprites/fences-grass-_15.png" width="32" height="32"/>
  </tile>
  <tile id="1599">
   <image source="../tiled/ERW-Grass Land/Props/Atlas-Props-individual sprites/fences-grass-_16.png" width="32" height="32"/>
  </tile>
  <tile id="1600">
   <image source="../tiled/ERW-Grass Land/Props/Atlas-Props-individual sprites/fences-grass-_17.png" width="32" height="32"/>
  </tile>
  <tile id="1601">
   <image source="../tiled/ERW-Grass Land/Props/Atlas-Props-individual sprites/fences-grass-_18.png" width="32" height="32"/>
  </tile>
  <tile id="1602">
   <image source="../tiled/ERW-Grass Land/Props/Atlas-Props-individual sprites/fences-grass-_19.png" width="32" height="32"/>
  </tile>
  <tile id="1603">
   <image source="../tiled/ERW-Grass Land/Props/Atlas-Props-individual sprites/fences-grass-_20.png" width="64" height="32"/>
  </tile>
  <tile id="1604">
   <image source="../tiled/ERW-Grass Land/Props/Atlas-Props-individual sprites/fences-grass-_21.png" width="32" height="32"/>
  </tile>
  <tile id="1605">
   <image source="../tiled/ERW-Grass Land/Props/Atlas-Props-individual sprites/fences-grass-_22.png" width="32" height="32"/>
  </tile>
  <tile id="1606">
   <image source="../tiled/ERW-Grass Land/Props/Atlas-Props-individual sprites/fences-grass-_23.png" width="32" height="32"/>
  </tile>
  <tile id="1607">
   <image source="../tiled/ERW-Grass Land/Props/Atlas-Props-individual sprites/fences-grass-_24.png" width="64" height="32"/>
  </tile>
  <tile id="1608">
   <image source="../tiled/ERW-Grass Land/Props/Atlas-Props-individual sprites/fences-grass-_25.png" width="32" height="32"/>
  </tile>
  <tile id="1609">
   <image source="../tiled/ERW-Grass Land/Props/Atlas-Props-individual sprites/fences-grass-_26.png" width="96" height="32"/>
  </tile>
  <tile id="1610">
   <image source="../tiled/ERW-Grass Land/Props/Atlas-Props-individual sprites/fences-grass-_27.png" width="64" height="32"/>
  </tile>
  <tile id="1611">
   <image source="../tiled/ERW-Grass Land/Props/Atlas-Props-individual sprites/fences-grass-_28.png" width="32" height="32"/>
  </tile>
  <tile id="1612">
   <image source="../tiled/ERW-Grass Land/Props/Atlas-Props-individual sprites/fences-grass-_29.png" width="64" height="32"/>
  </tile>
  <tile id="1613">
   <image source="../tiled/ERW-Grass Land/Props/Atlas-Props-individual sprites/fences-grass-_30.png" width="32" height="32"/>
  </tile>
  <tile id="1614">
   <image source="../tiled/ERW-Grass Land/Props/Atlas-Props-individual sprites/fences-grass-_31.png" width="32" height="32"/>
  </tile>
  <tile id="1615">
   <image source="../tiled/ERW-Grass Land/Props/Atlas-Props-individual sprites/fences-grass-_33.png" width="96" height="32"/>
  </tile>
  <tile id="1616">
   <image source="../tiled/ERW-Grass Land/Props/Atlas-Props-individual sprites/fences-grass-gate_0.png" width="32" height="64"/>
  </tile>
  <tile id="1617">
   <image source="../tiled/ERW-Grass Land/Props/Atlas-Props-individual sprites/fences-grass-gate_1.png" width="96" height="32"/>
  </tile>
  <tile id="1618">
   <image source="../tiled/ERW-Grass Land/Props/Atlas-Props-individual sprites/fences-grass-gate_2.png" width="32" height="64"/>
  </tile>
  <tile id="1619">
   <image source="../tiled/ERW-Grass Land/Props/Atlas-Props-individual sprites/flowers_0.png" width="32" height="32"/>
  </tile>
  <tile id="1620">
   <image source="../tiled/ERW-Grass Land/Props/Atlas-Props-individual sprites/flowers_1.png" width="32" height="32"/>
  </tile>
  <tile id="1621">
   <image source="../tiled/ERW-Grass Land/Props/Atlas-Props-individual sprites/flowers_2.png" width="32" height="32"/>
  </tile>
  <tile id="1622">
   <image source="../tiled/ERW-Grass Land/Props/Atlas-Props-individual sprites/flowers_3.png" width="32" height="32"/>
  </tile>
  <tile id="1623">
   <image source="../tiled/ERW-Grass Land/Props/Atlas-Props-individual sprites/flowers_4.png" width="32" height="32"/>
  </tile>
  <tile id="1624">
   <image source="../tiled/ERW-Grass Land/Props/Atlas-Props-individual sprites/flowers_5.png" width="32" height="32"/>
  </tile>
  <tile id="1625">
   <image source="../tiled/ERW-Grass Land/Props/Atlas-Props-individual sprites/flowers_6.png" width="32" height="32"/>
  </tile>
  <tile id="1626">
   <image source="../tiled/ERW-Grass Land/Props/Atlas-Props-individual sprites/flowers_7.png" width="32" height="32"/>
  </tile>
  <tile id="1627">
   <image source="../tiled/ERW-Grass Land/Props/Atlas-Props-individual sprites/flowers_8.png" width="32" height="32"/>
  </tile>
  <tile id="1628">
   <image source="../tiled/ERW-Grass Land/Props/Atlas-Props-individual sprites/flowers_9.png" width="32" height="32"/>
  </tile>
  <tile id="1629">
   <image source="../tiled/ERW-Grass Land/Props/Atlas-Props-individual sprites/flowers_10.png" width="32" height="32"/>
  </tile>
  <tile id="1630">
   <image source="../tiled/ERW-Grass Land/Props/Atlas-Props-individual sprites/flowers_11.png" width="32" height="32"/>
  </tile>
  <tile id="1631">
   <image source="../tiled/ERW-Grass Land/Props/Atlas-Props-individual sprites/flowers_12.png" width="32" height="32"/>
  </tile>
  <tile id="1632">
   <image source="../tiled/ERW-Grass Land/Props/Atlas-Props-individual sprites/flowers_13.png" width="32" height="32"/>
  </tile>
  <tile id="1633">
   <image source="../tiled/ERW-Grass Land/Props/Atlas-Props-individual sprites/flowers_14.png" width="32" height="32"/>
  </tile>
  <tile id="1634">
   <image source="../tiled/ERW-Grass Land/Props/Atlas-Props-individual sprites/flowers_15.png" width="32" height="32"/>
  </tile>
  <tile id="1635">
   <image source="../tiled/ERW-Grass Land/Props/Atlas-Props-individual sprites/flowers_16.png" width="32" height="32"/>
  </tile>
  <tile id="1636">
   <image source="../tiled/ERW-Grass Land/Props/Atlas-Props-individual sprites/flowers_17.png" width="32" height="32"/>
  </tile>
  <tile id="1637">
   <image source="../tiled/ERW-Grass Land/Props/Atlas-Props-individual sprites/flowers_18.png" width="32" height="32"/>
  </tile>
  <tile id="1638">
   <image source="../tiled/ERW-Grass Land/Props/Atlas-Props-individual sprites/flowers_19.png" width="32" height="32"/>
  </tile>
  <tile id="1639">
   <image source="../tiled/ERW-Grass Land/Props/Atlas-Props-individual sprites/grass as sprites - darker_0.png" width="32" height="32"/>
  </tile>
  <tile id="1640">
   <image source="../tiled/ERW-Grass Land/Props/Atlas-Props-individual sprites/grass as sprites - darker_1.png" width="32" height="32"/>
  </tile>
  <tile id="1641">
   <image source="../tiled/ERW-Grass Land/Props/Atlas-Props-individual sprites/grass as sprites - darker_2.png" width="32" height="32"/>
  </tile>
  <tile id="1642">
   <image source="../tiled/ERW-Grass Land/Props/Atlas-Props-individual sprites/grass as sprites - darker_3.png" width="32" height="32"/>
  </tile>
  <tile id="1643">
   <image source="../tiled/ERW-Grass Land/Props/Atlas-Props-individual sprites/grass as sprites - darker_4.png" width="32" height="32"/>
  </tile>
  <tile id="1644">
   <image source="../tiled/ERW-Grass Land/Props/Atlas-Props-individual sprites/grass as sprites - darker_5.png" width="32" height="32"/>
  </tile>
  <tile id="1645">
   <image source="../tiled/ERW-Grass Land/Props/Atlas-Props-individual sprites/grass as sprites - darker_6.png" width="32" height="32"/>
  </tile>
  <tile id="1646">
   <image source="../tiled/ERW-Grass Land/Props/Atlas-Props-individual sprites/grass as sprites - darker_7.png" width="32" height="32"/>
  </tile>
  <tile id="1647">
   <image source="../tiled/ERW-Grass Land/Props/Atlas-Props-individual sprites/grass as sprites - darker_8.png" width="32" height="32"/>
  </tile>
  <tile id="1648">
   <image source="../tiled/ERW-Grass Land/Props/Atlas-Props-individual sprites/grass as sprites - darker_9.png" width="32" height="32"/>
  </tile>
  <tile id="1649">
   <image source="../tiled/ERW-Grass Land/Props/Atlas-Props-individual sprites/grass as sprites - darker_10.png" width="32" height="32"/>
  </tile>
  <tile id="1650">
   <image source="../tiled/ERW-Grass Land/Props/Atlas-Props-individual sprites/grass as sprites - darker_11.png" width="32" height="32"/>
  </tile>
  <tile id="1651">
   <image source="../tiled/ERW-Grass Land/Props/Atlas-Props-individual sprites/grass as sprites - darker_12.png" width="32" height="32"/>
  </tile>
  <tile id="1652">
   <image source="../tiled/ERW-Grass Land/Props/Atlas-Props-individual sprites/grass as sprites - darker_13.png" width="32" height="32"/>
  </tile>
  <tile id="1653">
   <image source="../tiled/ERW-Grass Land/Props/Atlas-Props-individual sprites/grass as sprites - darker_14.png" width="32" height="32"/>
  </tile>
  <tile id="1654">
   <image source="../tiled/ERW-Grass Land/Props/Atlas-Props-individual sprites/grass as sprites - darker_15.png" width="32" height="32"/>
  </tile>
  <tile id="1655">
   <image source="../tiled/ERW-Grass Land/Props/Atlas-Props-individual sprites/grass as sprites - darker_16.png" width="32" height="32"/>
  </tile>
  <tile id="1656">
   <image source="../tiled/ERW-Grass Land/Props/Atlas-Props-individual sprites/grass as sprites - darker_17.png" width="32" height="32"/>
  </tile>
  <tile id="1657">
   <image source="../tiled/ERW-Grass Land/Props/Atlas-Props-individual sprites/grass as sprites - darker_18.png" width="32" height="32"/>
  </tile>
  <tile id="1658">
   <image source="../tiled/ERW-Grass Land/Props/Atlas-Props-individual sprites/grass as sprites - darker_19.png" width="32" height="32"/>
  </tile>
  <tile id="1659">
   <image source="../tiled/ERW-Grass Land/Props/Atlas-Props-individual sprites/grass as sprites - darker_20.png" width="32" height="32"/>
  </tile>
  <tile id="1660">
   <image source="../tiled/ERW-Grass Land/Props/Atlas-Props-individual sprites/grass as sprites - darker_21.png" width="32" height="32"/>
  </tile>
  <tile id="1661">
   <image source="../tiled/ERW-Grass Land/Props/Atlas-Props-individual sprites/grass as sprites - lighter_0.png" width="32" height="32"/>
  </tile>
  <tile id="1662">
   <image source="../tiled/ERW-Grass Land/Props/Atlas-Props-individual sprites/grass as sprites - lighter_1.png" width="32" height="32"/>
  </tile>
  <tile id="1663">
   <image source="../tiled/ERW-Grass Land/Props/Atlas-Props-individual sprites/grass as sprites - lighter_2.png" width="32" height="32"/>
  </tile>
  <tile id="1664">
   <image source="../tiled/ERW-Grass Land/Props/Atlas-Props-individual sprites/grass as sprites - lighter_3.png" width="32" height="32"/>
  </tile>
  <tile id="1665">
   <image source="../tiled/ERW-Grass Land/Props/Atlas-Props-individual sprites/grass as sprites - lighter_4.png" width="32" height="32"/>
  </tile>
  <tile id="1666">
   <image source="../tiled/ERW-Grass Land/Props/Atlas-Props-individual sprites/grass as sprites - lighter_5.png" width="32" height="32"/>
  </tile>
  <tile id="1667">
   <image source="../tiled/ERW-Grass Land/Props/Atlas-Props-individual sprites/grass as sprites - lighter_6.png" width="32" height="32"/>
  </tile>
  <tile id="1668">
   <image source="../tiled/ERW-Grass Land/Props/Atlas-Props-individual sprites/grass as sprites - lighter_7.png" width="32" height="32"/>
  </tile>
  <tile id="1669">
   <image source="../tiled/ERW-Grass Land/Props/Atlas-Props-individual sprites/grass as sprites - lighter_8.png" width="32" height="32"/>
  </tile>
  <tile id="1670">
   <image source="../tiled/ERW-Grass Land/Props/Atlas-Props-individual sprites/grass as sprites - lighter_9.png" width="32" height="32"/>
  </tile>
  <tile id="1671">
   <image source="../tiled/ERW-Grass Land/Props/Atlas-Props-individual sprites/grass as sprites - lighter_10.png" width="32" height="32"/>
  </tile>
  <tile id="1672">
   <image source="../tiled/ERW-Grass Land/Props/Atlas-Props-individual sprites/grass as sprites - lighter_11.png" width="32" height="32"/>
  </tile>
  <tile id="1673">
   <image source="../tiled/ERW-Grass Land/Props/Atlas-Props-individual sprites/grass as sprites - lighter_12.png" width="32" height="32"/>
  </tile>
  <tile id="1674">
   <image source="../tiled/ERW-Grass Land/Props/Atlas-Props-individual sprites/grass as sprites - lighter_13.png" width="32" height="32"/>
  </tile>
  <tile id="1675">
   <image source="../tiled/ERW-Grass Land/Props/Atlas-Props-individual sprites/grass as sprites - lighter_14.png" width="32" height="32"/>
  </tile>
  <tile id="1676">
   <image source="../tiled/ERW-Grass Land/Props/Atlas-Props-individual sprites/grass as sprites - lighter_15.png" width="32" height="32"/>
  </tile>
  <tile id="1677">
   <image source="../tiled/ERW-Grass Land/Props/Atlas-Props-individual sprites/grass as sprites - lighter_16.png" width="32" height="32"/>
  </tile>
  <tile id="1678">
   <image source="../tiled/ERW-Grass Land/Props/Atlas-Props-individual sprites/grass as sprites - lighter_17.png" width="32" height="32"/>
  </tile>
  <tile id="1679">
   <image source="../tiled/ERW-Grass Land/Props/Atlas-Props-individual sprites/grass as sprites - lighter_18.png" width="32" height="32"/>
  </tile>
  <tile id="1680">
   <image source="../tiled/ERW-Grass Land/Props/Atlas-Props-individual sprites/grass as sprites - lighter_19.png" width="32" height="32"/>
  </tile>
  <tile id="1681">
   <image source="../tiled/ERW-Grass Land/Props/Atlas-Props-individual sprites/grass as sprites - lighter_20.png" width="32" height="32"/>
  </tile>
  <tile id="1682">
   <image source="../tiled/ERW-Grass Land/Props/Atlas-Props-individual sprites/grass as sprites - lighter_21.png" width="32" height="32"/>
  </tile>
  <tile id="1683">
   <image source="../tiled/ERW-Grass Land/Props/Atlas-Props-individual sprites/house_0.png" width="448" height="320"/>
  </tile>
  <tile id="1684">
   <image source="../tiled/ERW-Grass Land/Props/Atlas-Props-individual sprites/house_1.png" width="448" height="320"/>
  </tile>
  <tile id="1685">
   <image source="../tiled/ERW-Grass Land/Props/Atlas-Props-individual sprites/house_detail1.png" width="128" height="64"/>
  </tile>
  <tile id="1686">
   <image source="../tiled/ERW-Grass Land/Props/Atlas-Props-individual sprites/house-stairs.png" width="64" height="32"/>
  </tile>
  <tile id="1687">
   <image source="../tiled/ERW-Grass Land/Props/Atlas-Props-individual sprites/house-stairs-grass.png" width="64" height="32"/>
  </tile>
  <tile id="1688">
   <image source="../tiled/ERW-Grass Land/Props/Atlas-Props-individual sprites/lamp post - with lamp_0.png" width="64" height="96"/>
  </tile>
  <tile id="1689">
   <image source="../tiled/ERW-Grass Land/Props/Atlas-Props-individual sprites/lamp post - with lamp_1.png" width="64" height="96"/>
  </tile>
  <tile id="1690">
   <image source="../tiled/ERW-Grass Land/Props/Atlas-Props-individual sprites/lamp post - with lamp_2.png" width="64" height="96"/>
  </tile>
  <tile id="1691">
   <image source="../tiled/ERW-Grass Land/Props/Atlas-Props-individual sprites/lamp post - with lamp_3.png" width="64" height="96"/>
  </tile>
  <tile id="1692">
   <image source="../tiled/ERW-Grass Land/Props/Atlas-Props-individual sprites/lamp post - with lamp_4.png" width="64" height="96"/>
  </tile>
  <tile id="1693">
   <image source="../tiled/ERW-Grass Land/Props/Atlas-Props-individual sprites/lamp post - with lamp_5.png" width="64" height="96"/>
  </tile>
  <tile id="1694">
   <image source="../tiled/ERW-Grass Land/Props/Atlas-Props-individual sprites/lamp post - with lamp_6.png" width="64" height="96"/>
  </tile>
  <tile id="1695">
   <image source="../tiled/ERW-Grass Land/Props/Atlas-Props-individual sprites/lamp post - with lamp_7.png" width="64" height="96"/>
  </tile>
  <tile id="1696">
   <image source="../tiled/ERW-Grass Land/Props/Atlas-Props-individual sprites/lamp post - with lamp_8.png" width="64" height="96"/>
  </tile>
  <tile id="1697">
   <image source="../tiled/ERW-Grass Land/Props/Atlas-Props-individual sprites/lamp post - with lamp_9.png" width="64" height="96"/>
  </tile>
  <tile id="1698">
   <image source="../tiled/ERW-Grass Land/Props/Atlas-Props-individual sprites/lamp post - with lamp_10.png" width="64" height="96"/>
  </tile>
  <tile id="1699">
   <image source="../tiled/ERW-Grass Land/Props/Atlas-Props-individual sprites/lamp post - with lamp_11.png" width="64" height="96"/>
  </tile>
  <tile id="1700">
   <image source="../tiled/ERW-Grass Land/Props/Atlas-Props-individual sprites/lamp post -no lamp_0.png" width="64" height="96"/>
  </tile>
  <tile id="1701">
   <image source="../tiled/ERW-Grass Land/Props/Atlas-Props-individual sprites/lamp post -no lamp_1.png" width="64" height="96"/>
  </tile>
  <tile id="1702">
   <image source="../tiled/ERW-Grass Land/Props/Atlas-Props-individual sprites/lamp post -no lamp_2.png" width="64" height="96"/>
  </tile>
  <tile id="1703">
   <image source="../tiled/ERW-Grass Land/Props/Atlas-Props-individual sprites/lamp post -no lamp_3.png" width="64" height="96"/>
  </tile>
  <tile id="1704">
   <image source="../tiled/ERW-Grass Land/Props/Atlas-Props-individual sprites/lamp post -no lamp_4.png" width="64" height="96"/>
  </tile>
  <tile id="1705">
   <image source="../tiled/ERW-Grass Land/Props/Atlas-Props-individual sprites/lamp post -no lamp_5.png" width="64" height="96"/>
  </tile>
  <tile id="1706">
   <image source="../tiled/ERW-Grass Land/Props/Atlas-Props-individual sprites/lamp post -no lamp_6.png" width="64" height="96"/>
  </tile>
  <tile id="1707">
   <image source="../tiled/ERW-Grass Land/Props/Atlas-Props-individual sprites/lamp post -no lamp_7.png" width="64" height="96"/>
  </tile>
  <tile id="1708">
   <image source="../tiled/ERW-Grass Land/Props/Atlas-Props-individual sprites/lamp post -no lamp_8.png" width="64" height="96"/>
  </tile>
  <tile id="1709">
   <image source="../tiled/ERW-Grass Land/Props/Atlas-Props-individual sprites/lamp post -no lamp_9.png" width="64" height="96"/>
  </tile>
  <tile id="1710">
   <image source="../tiled/ERW-Grass Land/Props/Atlas-Props-individual sprites/lamp post -no lamp_10.png" width="64" height="96"/>
  </tile>
  <tile id="1711">
   <image source="../tiled/ERW-Grass Land/Props/Atlas-Props-individual sprites/lamp post -no lamp_11.png" width="64" height="96"/>
  </tile>
  <tile id="1712">
   <image source="../tiled/ERW-Grass Land/Props/Atlas-Props-individual sprites/medieval wooden wagon_0.png" width="64" height="64"/>
  </tile>
  <tile id="1713">
   <image source="../tiled/ERW-Grass Land/Props/Atlas-Props-individual sprites/medieval wooden wagon_1.png" width="64" height="64"/>
  </tile>
  <tile id="1714">
   <image source="../tiled/ERW-Grass Land/Props/Atlas-Props-individual sprites/medieval wooden wagon_2.png" width="64" height="64"/>
  </tile>
  <tile id="1715">
   <image source="../tiled/ERW-Grass Land/Props/Atlas-Props-individual sprites/medieval wooden wagon_3.png" width="32" height="32"/>
  </tile>
  <tile id="1716">
   <image source="../tiled/ERW-Grass Land/Props/Atlas-Props-individual sprites/mushrooms_0.png" width="32" height="32"/>
  </tile>
  <tile id="1717">
   <image source="../tiled/ERW-Grass Land/Props/Atlas-Props-individual sprites/mushrooms_1.png" width="32" height="32"/>
  </tile>
  <tile id="1718">
   <image source="../tiled/ERW-Grass Land/Props/Atlas-Props-individual sprites/mushrooms_2.png" width="32" height="32"/>
  </tile>
  <tile id="1719">
   <image source="../tiled/ERW-Grass Land/Props/Atlas-Props-individual sprites/mushrooms_3.png" width="32" height="32"/>
  </tile>
  <tile id="1720">
   <image source="../tiled/ERW-Grass Land/Props/Atlas-Props-individual sprites/mushrooms_4.png" width="32" height="32"/>
  </tile>
  <tile id="1721">
   <image source="../tiled/ERW-Grass Land/Props/Atlas-Props-individual sprites/mushrooms_5.png" width="32" height="32"/>
  </tile>
  <tile id="1722">
   <image source="../tiled/ERW-Grass Land/Props/Atlas-Props-individual sprites/mushrooms_6.png" width="32" height="32"/>
  </tile>
  <tile id="1723">
   <image source="../tiled/ERW-Grass Land/Props/Atlas-Props-individual sprites/rocks-color scheme1__0.png" width="64" height="64"/>
  </tile>
  <tile id="1724">
   <image source="../tiled/ERW-Grass Land/Props/Atlas-Props-individual sprites/rocks-color scheme1__1.png" width="64" height="64"/>
  </tile>
  <tile id="1725">
   <image source="../tiled/ERW-Grass Land/Props/Atlas-Props-individual sprites/rocks-color scheme1__2.png" width="64" height="64"/>
  </tile>
  <tile id="1726">
   <image source="../tiled/ERW-Grass Land/Props/Atlas-Props-individual sprites/rocks-color scheme1__3.png" width="64" height="64"/>
  </tile>
  <tile id="1727">
   <image source="../tiled/ERW-Grass Land/Props/Atlas-Props-individual sprites/rocks-color scheme1__4.png" width="64" height="32"/>
  </tile>
  <tile id="1728">
   <image source="../tiled/ERW-Grass Land/Props/Atlas-Props-individual sprites/rocks-color scheme1__5.png" width="32" height="32"/>
  </tile>
  <tile id="1729">
   <image source="../tiled/ERW-Grass Land/Props/Atlas-Props-individual sprites/rocks-color scheme1__6.png" width="32" height="32"/>
  </tile>
  <tile id="1730">
   <image source="../tiled/ERW-Grass Land/Props/Atlas-Props-individual sprites/rocks-color scheme1__7.png" width="32" height="32"/>
  </tile>
  <tile id="1731">
   <image source="../tiled/ERW-Grass Land/Props/Atlas-Props-individual sprites/rocks-color scheme1__8.png" width="32" height="32"/>
  </tile>
  <tile id="1732">
   <image source="../tiled/ERW-Grass Land/Props/Atlas-Props-individual sprites/rocks-color scheme1__9.png" width="32" height="32"/>
  </tile>
  <tile id="1733">
   <image source="../tiled/ERW-Grass Land/Props/Atlas-Props-individual sprites/rocks-color scheme1__10.png" width="32" height="32"/>
  </tile>
  <tile id="1734">
   <image source="../tiled/ERW-Grass Land/Props/Atlas-Props-individual sprites/rocks-color scheme1__11.png" width="32" height="32"/>
  </tile>
  <tile id="1735">
   <image source="../tiled/ERW-Grass Land/Props/Atlas-Props-individual sprites/rocks-color scheme1__12.png" width="32" height="32"/>
  </tile>
  <tile id="1736">
   <image source="../tiled/ERW-Grass Land/Props/Atlas-Props-individual sprites/rocks-color scheme1__13.png" width="32" height="32"/>
  </tile>
  <tile id="1737">
   <image source="../tiled/ERW-Grass Land/Props/Atlas-Props-individual sprites/rocks-color scheme1__14.png" width="32" height="32"/>
  </tile>
  <tile id="1738">
   <image source="../tiled/ERW-Grass Land/Props/Atlas-Props-individual sprites/rocks-color scheme1__15.png" width="32" height="32"/>
  </tile>
  <tile id="1739">
   <image source="../tiled/ERW-Grass Land/Props/Atlas-Props-individual sprites/rocks-color scheme1__16.png" width="32" height="32"/>
  </tile>
  <tile id="1740">
   <image source="../tiled/ERW-Grass Land/Props/Atlas-Props-individual sprites/rocks-color scheme1__17.png" width="32" height="32"/>
  </tile>
  <tile id="1741">
   <image source="../tiled/ERW-Grass Land/Props/Atlas-Props-individual sprites/rocks-color scheme1__18.png" width="32" height="32"/>
  </tile>
  <tile id="1742">
   <image source="../tiled/ERW-Grass Land/Props/Atlas-Props-individual sprites/rocks-color scheme1__19.png" width="32" height="32"/>
  </tile>
  <tile id="1743">
   <image source="../tiled/ERW-Grass Land/Props/Atlas-Props-individual sprites/rocks-color scheme1__20.png" width="32" height="32"/>
  </tile>
  <tile id="1744">
   <image source="../tiled/ERW-Grass Land/Props/Atlas-Props-individual sprites/rocks-color scheme1__21.png" width="96" height="64"/>
  </tile>
  <tile id="1745">
   <image source="../tiled/ERW-Grass Land/Props/Atlas-Props-individual sprites/rocks-color scheme1-grass_0.png" width="32" height="32"/>
  </tile>
  <tile id="1746">
   <image source="../tiled/ERW-Grass Land/Props/Atlas-Props-individual sprites/rocks-color scheme1-grass_1.png" width="32" height="32"/>
  </tile>
  <tile id="1747">
   <image source="../tiled/ERW-Grass Land/Props/Atlas-Props-individual sprites/rocks-color scheme1-grass_2.png" width="32" height="32"/>
  </tile>
  <tile id="1748">
   <image source="../tiled/ERW-Grass Land/Props/Atlas-Props-individual sprites/rocks-color scheme1-grass_3.png" width="32" height="32"/>
  </tile>
  <tile id="1749">
   <image source="../tiled/ERW-Grass Land/Props/Atlas-Props-individual sprites/rocks-color scheme1-grass_4.png" width="32" height="32"/>
  </tile>
  <tile id="1750">
   <image source="../tiled/ERW-Grass Land/Props/Atlas-Props-individual sprites/rocks-color scheme1-grass_5.png" width="32" height="32"/>
  </tile>
  <tile id="1751">
   <image source="../tiled/ERW-Grass Land/Props/Atlas-Props-individual sprites/rocks-color scheme1-grass_6.png" width="32" height="32"/>
  </tile>
  <tile id="1752">
   <image source="../tiled/ERW-Grass Land/Props/Atlas-Props-individual sprites/rocks-color scheme1-grass_7.png" width="32" height="32"/>
  </tile>
  <tile id="1753">
   <image source="../tiled/ERW-Grass Land/Props/Atlas-Props-individual sprites/rocks-color scheme1-grass_8.png" width="32" height="32"/>
  </tile>
  <tile id="1754">
   <image source="../tiled/ERW-Grass Land/Props/Atlas-Props-individual sprites/rocks-color scheme1-grass_9.png" width="32" height="32"/>
  </tile>
  <tile id="1755">
   <image source="../tiled/ERW-Grass Land/Props/Atlas-Props-individual sprites/rocks-color scheme1-grass_10.png" width="32" height="32"/>
  </tile>
  <tile id="1756">
   <image source="../tiled/ERW-Grass Land/Props/Atlas-Props-individual sprites/rocks-color scheme1-grass_11.png" width="32" height="32"/>
  </tile>
  <tile id="1757">
   <image source="../tiled/ERW-Grass Land/Props/Atlas-Props-individual sprites/rocks-color scheme1-grass_12.png" width="32" height="32"/>
  </tile>
  <tile id="1758">
   <image source="../tiled/ERW-Grass Land/Props/Atlas-Props-individual sprites/rocks-color scheme1-grass_13.png" width="32" height="32"/>
  </tile>
  <tile id="1759">
   <image source="../tiled/ERW-Grass Land/Props/Atlas-Props-individual sprites/rocks-color scheme1-grass_14.png" width="32" height="32"/>
  </tile>
  <tile id="1760">
   <image source="../tiled/ERW-Grass Land/Props/Atlas-Props-individual sprites/rocks-color scheme1-grass_15.png" width="32" height="32"/>
  </tile>
  <tile id="1761">
   <image source="../tiled/ERW-Grass Land/Props/Atlas-Props-individual sprites/rocks-color scheme1-grass_16.png" width="64" height="32"/>
  </tile>
  <tile id="1762">
   <image source="../tiled/ERW-Grass Land/Props/Atlas-Props-individual sprites/rocks-color scheme1-grass_17.png" width="64" height="64"/>
  </tile>
  <tile id="1763">
   <image source="../tiled/ERW-Grass Land/Props/Atlas-Props-individual sprites/rocks-color scheme1-grass_18.png" width="64" height="64"/>
  </tile>
  <tile id="1764">
   <image source="../tiled/ERW-Grass Land/Props/Atlas-Props-individual sprites/rocks-color scheme1-grass_19.png" width="64" height="64"/>
  </tile>
  <tile id="1765">
   <image source="../tiled/ERW-Grass Land/Props/Atlas-Props-individual sprites/rocks-color scheme1-grass_20.png" width="64" height="64"/>
  </tile>
  <tile id="1766">
   <image source="../tiled/ERW-Grass Land/Props/Atlas-Props-individual sprites/rocks-color scheme1-grass_21.png" width="96" height="64"/>
  </tile>
  <tile id="1767">
   <image source="../tiled/ERW-Grass Land/Props/Atlas-Props-individual sprites/rocks-color scheme2__0.png" width="64" height="32"/>
  </tile>
  <tile id="1768">
   <image source="../tiled/ERW-Grass Land/Props/Atlas-Props-individual sprites/rocks-color scheme2__1.png" width="64" height="64"/>
  </tile>
  <tile id="1769">
   <image source="../tiled/ERW-Grass Land/Props/Atlas-Props-individual sprites/rocks-color scheme2__2.png" width="64" height="64"/>
  </tile>
  <tile id="1770">
   <image source="../tiled/ERW-Grass Land/Props/Atlas-Props-individual sprites/rocks-color scheme2__3.png" width="64" height="64"/>
  </tile>
  <tile id="1771">
   <image source="../tiled/ERW-Grass Land/Props/Atlas-Props-individual sprites/rocks-color scheme2__4.png" width="64" height="64"/>
  </tile>
  <tile id="1772">
   <image source="../tiled/ERW-Grass Land/Props/Atlas-Props-individual sprites/rocks-color scheme2__5.png" width="32" height="32"/>
  </tile>
  <tile id="1773">
   <image source="../tiled/ERW-Grass Land/Props/Atlas-Props-individual sprites/rocks-color scheme2__6.png" width="32" height="32"/>
  </tile>
  <tile id="1774">
   <image source="../tiled/ERW-Grass Land/Props/Atlas-Props-individual sprites/rocks-color scheme2__7.png" width="32" height="32"/>
  </tile>
  <tile id="1775">
   <image source="../tiled/ERW-Grass Land/Props/Atlas-Props-individual sprites/rocks-color scheme2__8.png" width="32" height="32"/>
  </tile>
  <tile id="1776">
   <image source="../tiled/ERW-Grass Land/Props/Atlas-Props-individual sprites/rocks-color scheme2__9.png" width="32" height="32"/>
  </tile>
  <tile id="1777">
   <image source="../tiled/ERW-Grass Land/Props/Atlas-Props-individual sprites/rocks-color scheme2__10.png" width="32" height="32"/>
  </tile>
  <tile id="1778">
   <image source="../tiled/ERW-Grass Land/Props/Atlas-Props-individual sprites/rocks-color scheme2__11.png" width="32" height="32"/>
  </tile>
  <tile id="1779">
   <image source="../tiled/ERW-Grass Land/Props/Atlas-Props-individual sprites/rocks-color scheme2__12.png" width="32" height="32"/>
  </tile>
  <tile id="1780">
   <image source="../tiled/ERW-Grass Land/Props/Atlas-Props-individual sprites/rocks-color scheme2__13.png" width="32" height="32"/>
  </tile>
  <tile id="1781">
   <image source="../tiled/ERW-Grass Land/Props/Atlas-Props-individual sprites/rocks-color scheme2__14.png" width="32" height="32"/>
  </tile>
  <tile id="1782">
   <image source="../tiled/ERW-Grass Land/Props/Atlas-Props-individual sprites/rocks-color scheme2__15.png" width="32" height="32"/>
  </tile>
  <tile id="1783">
   <image source="../tiled/ERW-Grass Land/Props/Atlas-Props-individual sprites/rocks-color scheme2__16.png" width="32" height="32"/>
  </tile>
  <tile id="1784">
   <image source="../tiled/ERW-Grass Land/Props/Atlas-Props-individual sprites/rocks-color scheme2__17.png" width="32" height="32"/>
  </tile>
  <tile id="1785">
   <image source="../tiled/ERW-Grass Land/Props/Atlas-Props-individual sprites/rocks-color scheme2__18.png" width="32" height="32"/>
  </tile>
  <tile id="1786">
   <image source="../tiled/ERW-Grass Land/Props/Atlas-Props-individual sprites/rocks-color scheme2__19.png" width="32" height="32"/>
  </tile>
  <tile id="1787">
   <image source="../tiled/ERW-Grass Land/Props/Atlas-Props-individual sprites/rocks-color scheme2__20.png" width="32" height="32"/>
  </tile>
  <tile id="1788">
   <image source="../tiled/ERW-Grass Land/Props/Atlas-Props-individual sprites/rocks-color scheme2__21.png" width="96" height="64"/>
  </tile>
  <tile id="1789">
   <image source="../tiled/ERW-Grass Land/Props/Atlas-Props-individual sprites/rocks-color scheme2-grass_0.png" width="32" height="32"/>
  </tile>
  <tile id="1790">
   <image source="../tiled/ERW-Grass Land/Props/Atlas-Props-individual sprites/rocks-color scheme2-grass_1.png" width="32" height="32"/>
  </tile>
  <tile id="1791">
   <image source="../tiled/ERW-Grass Land/Props/Atlas-Props-individual sprites/rocks-color scheme2-grass_2.png" width="32" height="32"/>
  </tile>
  <tile id="1792">
   <image source="../tiled/ERW-Grass Land/Props/Atlas-Props-individual sprites/rocks-color scheme2-grass_3.png" width="32" height="32"/>
  </tile>
  <tile id="1793">
   <image source="../tiled/ERW-Grass Land/Props/Atlas-Props-individual sprites/rocks-color scheme2-grass_4.png" width="32" height="32"/>
  </tile>
  <tile id="1794">
   <image source="../tiled/ERW-Grass Land/Props/Atlas-Props-individual sprites/rocks-color scheme2-grass_5.png" width="32" height="32"/>
  </tile>
  <tile id="1795">
   <image source="../tiled/ERW-Grass Land/Props/Atlas-Props-individual sprites/rocks-color scheme2-grass_6.png" width="32" height="32"/>
  </tile>
  <tile id="1796">
   <image source="../tiled/ERW-Grass Land/Props/Atlas-Props-individual sprites/rocks-color scheme2-grass_7.png" width="32" height="32"/>
  </tile>
  <tile id="1797">
   <image source="../tiled/ERW-Grass Land/Props/Atlas-Props-individual sprites/rocks-color scheme2-grass_8.png" width="32" height="32"/>
  </tile>
  <tile id="1798">
   <image source="../tiled/ERW-Grass Land/Props/Atlas-Props-individual sprites/rocks-color scheme2-grass_9.png" width="32" height="32"/>
  </tile>
  <tile id="1799">
   <image source="../tiled/ERW-Grass Land/Props/Atlas-Props-individual sprites/rocks-color scheme2-grass_10.png" width="32" height="32"/>
  </tile>
  <tile id="1800">
   <image source="../tiled/ERW-Grass Land/Props/Atlas-Props-individual sprites/rocks-color scheme2-grass_11.png" width="32" height="32"/>
  </tile>
  <tile id="1801">
   <image source="../tiled/ERW-Grass Land/Props/Atlas-Props-individual sprites/rocks-color scheme2-grass_12.png" width="32" height="32"/>
  </tile>
  <tile id="1802">
   <image source="../tiled/ERW-Grass Land/Props/Atlas-Props-individual sprites/rocks-color scheme2-grass_13.png" width="32" height="32"/>
  </tile>
  <tile id="1803">
   <image source="../tiled/ERW-Grass Land/Props/Atlas-Props-individual sprites/rocks-color scheme2-grass_14.png" width="32" height="32"/>
  </tile>
  <tile id="1804">
   <image source="../tiled/ERW-Grass Land/Props/Atlas-Props-individual sprites/rocks-color scheme2-grass_15.png" width="32" height="32"/>
  </tile>
  <tile id="1805">
   <image source="../tiled/ERW-Grass Land/Props/Atlas-Props-individual sprites/rocks-color scheme2-grass_16.png" width="64" height="32"/>
  </tile>
  <tile id="1806">
   <image source="../tiled/ERW-Grass Land/Props/Atlas-Props-individual sprites/rocks-color scheme2-grass_17.png" width="64" height="64"/>
  </tile>
  <tile id="1807">
   <image source="../tiled/ERW-Grass Land/Props/Atlas-Props-individual sprites/rocks-color scheme2-grass_18.png" width="64" height="64"/>
  </tile>
  <tile id="1808">
   <image source="../tiled/ERW-Grass Land/Props/Atlas-Props-individual sprites/rocks-color scheme2-grass_19.png" width="64" height="64"/>
  </tile>
  <tile id="1809">
   <image source="../tiled/ERW-Grass Land/Props/Atlas-Props-individual sprites/rocks-color scheme2-grass_20.png" width="64" height="64"/>
  </tile>
  <tile id="1810">
   <image source="../tiled/ERW-Grass Land/Props/Atlas-Props-individual sprites/rocks-color scheme2-grass_21.png" width="96" height="64"/>
  </tile>
  <tile id="1811">
   <image source="../tiled/ERW-Grass Land/Props/Atlas-Props-individual sprites/shrine_0.png" width="64" height="64"/>
  </tile>
  <tile id="1812">
   <image source="../tiled/ERW-Grass Land/Props/Atlas-Props-individual sprites/shrine_1.png" width="64" height="64"/>
  </tile>
  <tile id="1813">
   <image source="../tiled/ERW-Grass Land/Props/Atlas-Props-individual sprites/shrine_2.png" width="64" height="64"/>
  </tile>
  <tile id="1814">
   <image source="../tiled/ERW-Grass Land/Props/Atlas-Props-individual sprites/shrine_3.png" width="64" height="64"/>
  </tile>
  <tile id="1815">
   <image source="../tiled/ERW-Grass Land/Props/Atlas-Props-individual sprites/shrine_4.png" width="64" height="64"/>
  </tile>
  <tile id="1816">
   <image source="../tiled/ERW-Grass Land/Props/Atlas-Props-individual sprites/shrine_5.png" width="64" height="64"/>
  </tile>
  <tile id="1817">
   <image source="../tiled/ERW-Grass Land/Props/Atlas-Props-individual sprites/shrine_6.png" width="64" height="64"/>
  </tile>
  <tile id="1818">
   <image source="../tiled/ERW-Grass Land/Props/Atlas-Props-individual sprites/shrine_7.png" width="64" height="64"/>
  </tile>
  <tile id="1819">
   <image source="../tiled/ERW-Grass Land/Props/Atlas-Props-individual sprites/signs_0.png" width="32" height="32"/>
  </tile>
  <tile id="1820">
   <image source="../tiled/ERW-Grass Land/Props/Atlas-Props-individual sprites/signs_1.png" width="32" height="32"/>
  </tile>
  <tile id="1821">
   <image source="../tiled/ERW-Grass Land/Props/Atlas-Props-individual sprites/signs_2.png" width="32" height="32"/>
  </tile>
  <tile id="1822">
   <image source="../tiled/ERW-Grass Land/Props/Atlas-Props-individual sprites/signs_3.png" width="32" height="32"/>
  </tile>
  <tile id="1823">
   <image source="../tiled/ERW-Grass Land/Props/Atlas-Props-individual sprites/signs_4.png" width="32" height="32"/>
  </tile>
  <tile id="1824">
   <image source="../tiled/ERW-Grass Land/Props/Atlas-Props-individual sprites/signs_5.png" width="32" height="32"/>
  </tile>
  <tile id="1825">
   <image source="../tiled/ERW-Grass Land/Props/Atlas-Props-individual sprites/signs_6.png" width="32" height="32"/>
  </tile>
  <tile id="1826">
   <image source="../tiled/ERW-Grass Land/Props/Atlas-Props-individual sprites/signs_7.png" width="32" height="32"/>
  </tile>
  <tile id="1827">
   <image source="../tiled/ERW-Grass Land/Props/Atlas-Props-individual sprites/signs_8.png" width="32" height="32"/>
  </tile>
  <tile id="1828">
   <image source="../tiled/ERW-Grass Land/Props/Atlas-Props-individual sprites/signs_9.png" width="32" height="32"/>
  </tile>
  <tile id="1829">
   <image source="../tiled/ERW-Grass Land/Props/Atlas-Props-individual sprites/signs_10.png" width="32" height="32"/>
  </tile>
  <tile id="1830">
   <image source="../tiled/ERW-Grass Land/Props/Atlas-Props-individual sprites/signs_11.png" width="32" height="32"/>
  </tile>
  <tile id="1831">
   <image source="../tiled/ERW-Grass Land/Props/Atlas-Props-individual sprites/signs_12.png" width="32" height="32"/>
  </tile>
  <tile id="1832">
   <image source="../tiled/ERW-Grass Land/Props/Atlas-Props-individual sprites/signs_13.png" width="32" height="32"/>
  </tile>
  <tile id="1833">
   <image source="../tiled/ERW-Grass Land/Props/Atlas-Props-individual sprites/signs_14.png" width="32" height="32"/>
  </tile>
  <tile id="1834">
   <image source="../tiled/ERW-Grass Land/Props/Atlas-Props-individual sprites/signs_15.png" width="32" height="32"/>
  </tile>
  <tile id="1835">
   <image source="../tiled/ERW-Grass Land/Props/Atlas-Props-individual sprites/signs_16.png" width="32" height="32"/>
  </tile>
  <tile id="1836">
   <image source="../tiled/ERW-Grass Land/Props/Atlas-Props-individual sprites/signs_17.png" width="32" height="32"/>
  </tile>
  <tile id="1837">
   <image source="../tiled/ERW-Grass Land/Props/Atlas-Props-individual sprites/signs_18.png" width="32" height="32"/>
  </tile>
  <tile id="1838">
   <image source="../tiled/ERW-Grass Land/Props/Atlas-Props-individual sprites/signs_19.png" width="32" height="32"/>
  </tile>
  <tile id="1839">
   <image source="../tiled/ERW-Grass Land/Props/Atlas-Props-individual sprites/signs_20.png" width="32" height="32"/>
  </tile>
  <tile id="1840">
   <image source="../tiled/ERW-Grass Land/Props/Atlas-Props-individual sprites/signs_21.png" width="32" height="32"/>
  </tile>
  <tile id="1841">
   <image source="../tiled/ERW-Grass Land/Props/Atlas-Props-individual sprites/signs_22.png" width="32" height="32"/>
  </tile>
  <tile id="1842">
   <image source="../tiled/ERW-Grass Land/Props/Atlas-Props-individual sprites/signs_23.png" width="32" height="32"/>
  </tile>
  <tile id="1843">
   <image source="../tiled/ERW-Grass Land/Props/Atlas-Props-individual sprites/signs_24.png" width="32" height="32"/>
  </tile>
  <tile id="1844">
   <image source="../tiled/ERW-Grass Land/Props/Atlas-Props-individual sprites/signs_25.png" width="32" height="32"/>
  </tile>
  <tile id="1845">
   <image source="../tiled/ERW-Grass Land/Props/Atlas-Props-individual sprites/signs_26.png" width="32" height="32"/>
  </tile>
  <tile id="1846">
   <image source="../tiled/ERW-Grass Land/Props/Atlas-Props-individual sprites/stone-halfsized walls-pillars_0.png" width="32" height="64"/>
  </tile>
  <tile id="1847">
   <image source="../tiled/ERW-Grass Land/Props/Atlas-Props-individual sprites/stone-halfsized walls-pillars_1.png" width="32" height="64"/>
  </tile>
  <tile id="1848">
   <image source="../tiled/ERW-Grass Land/Props/Atlas-Props-individual sprites/stone-halfsized walls-pillars_2.png" width="32" height="64"/>
  </tile>
  <tile id="1849">
   <image source="../tiled/ERW-Grass Land/Props/Atlas-Props-individual sprites/stone-halfsized walls-pillars_3.png" width="32" height="64"/>
  </tile>
  <tile id="1850">
   <image source="../tiled/ERW-Grass Land/Props/Atlas-Props-individual sprites/stone-halfsized walls-pillars_4.png" width="32" height="64"/>
  </tile>
  <tile id="1851">
   <image source="../tiled/ERW-Grass Land/Props/Atlas-Props-individual sprites/stone-halfsized walls-pillars_5.png" width="32" height="64"/>
  </tile>
  <tile id="1852">
   <image source="../tiled/ERW-Grass Land/Props/Atlas-Props-individual sprites/stone-halfsized walls-pillars_6.png" width="32" height="64"/>
  </tile>
  <tile id="1853">
   <image source="../tiled/ERW-Grass Land/Props/Atlas-Props-individual sprites/stone-halfsized walls-pillars_7.png" width="32" height="64"/>
  </tile>
  <tile id="1854">
   <image source="../tiled/ERW-Grass Land/Props/Atlas-Props-individual sprites/stone-halfsized walls-pillars_8.png" width="32" height="64"/>
  </tile>
  <tile id="1855">
   <image source="../tiled/ERW-Grass Land/Props/Atlas-Props-individual sprites/stone-halfsized walls-pillars_9.png" width="32" height="64"/>
  </tile>
  <tile id="1856">
   <image source="../tiled/ERW-Grass Land/Props/Atlas-Props-individual sprites/stone-halfsized walls-pillars_10.png" width="32" height="64"/>
  </tile>
  <tile id="1857">
   <image source="../tiled/ERW-Grass Land/Props/Atlas-Props-individual sprites/stone-halfsized walls-pillars_11.png" width="32" height="64"/>
  </tile>
  <tile id="1858">
   <image source="../tiled/ERW-Grass Land/Props/Atlas-Props-individual sprites/stone-halfsized walls-pillars_12.png" width="32" height="64"/>
  </tile>
  <tile id="1859">
   <image source="../tiled/ERW-Grass Land/Props/Atlas-Props-individual sprites/stone-halfsized walls-pillars_13.png" width="32" height="64"/>
  </tile>
  <tile id="1860">
   <image source="../tiled/ERW-Grass Land/Props/Atlas-Props-individual sprites/stone-halfsized walls-pillars_14.png" width="32" height="64"/>
  </tile>
  <tile id="1861">
   <image source="../tiled/ERW-Grass Land/Props/Atlas-Props-individual sprites/stone-halfsized walls-pillars_15.png" width="32" height="64"/>
  </tile>
  <tile id="1862">
   <image source="../tiled/ERW-Grass Land/Props/Atlas-Props-individual sprites/stone-halfsized walls-solo blocks_0.png" width="32" height="32"/>
  </tile>
  <tile id="1863">
   <image source="../tiled/ERW-Grass Land/Props/Atlas-Props-individual sprites/stone-halfsized walls-solo blocks_1.png" width="32" height="32"/>
  </tile>
  <tile id="1864">
   <image source="../tiled/ERW-Grass Land/Props/Atlas-Props-individual sprites/stone-halfsized walls-solo blocks_2.png" width="32" height="32"/>
  </tile>
  <tile id="1865">
   <image source="../tiled/ERW-Grass Land/Props/Atlas-Props-individual sprites/stone-halfsized walls-solo blocks_3.png" width="32" height="32"/>
  </tile>
  <tile id="1866">
   <image source="../tiled/ERW-Grass Land/Props/Atlas-Props-individual sprites/stone-halfsized walls-solo blocks_4.png" width="32" height="32"/>
  </tile>
  <tile id="1867">
   <image source="../tiled/ERW-Grass Land/Props/Atlas-Props-individual sprites/stone-halfsized walls-solo blocks_5.png" width="32" height="32"/>
  </tile>
  <tile id="1868">
   <image source="../tiled/ERW-Grass Land/Props/Atlas-Props-individual sprites/stone-halfsized walls-solo blocks_6.png" width="32" height="32"/>
  </tile>
  <tile id="1869">
   <image source="../tiled/ERW-Grass Land/Props/Atlas-Props-individual sprites/stone-halfsized walls-solo blocks_7.png" width="32" height="32"/>
  </tile>
  <tile id="1870">
   <image source="../tiled/ERW-Grass Land/Props/Atlas-Props-individual sprites/stone-halfsized walls-solo blocks_8.png" width="32" height="32"/>
  </tile>
  <tile id="1871">
   <image source="../tiled/ERW-Grass Land/Props/Atlas-Props-individual sprites/stone-paths and stairs_0.png" width="96" height="160"/>
  </tile>
  <tile id="1872">
   <image source="../tiled/ERW-Grass Land/Props/Atlas-Props-individual sprites/stone-paths and stairs_1.png" width="160" height="128"/>
  </tile>
  <tile id="1873">
   <image source="../tiled/ERW-Grass Land/Props/Atlas-Props-individual sprites/stone-paths and stairs_2.png" width="160" height="96"/>
  </tile>
  <tile id="1874">
   <image source="../tiled/ERW-Grass Land/Props/Atlas-Props-individual sprites/stone-paths and stairs_3.png" width="96" height="96"/>
  </tile>
  <tile id="1875">
   <image source="../tiled/ERW-Grass Land/Props/Atlas-Props-individual sprites/stone-paths and stairs_4.png" width="96" height="96"/>
  </tile>
  <tile id="1876">
   <image source="../tiled/ERW-Grass Land/Props/Atlas-Props-individual sprites/stone-paths and stairs_5.png" width="96" height="96"/>
  </tile>
  <tile id="1877">
   <image source="../tiled/ERW-Grass Land/Props/Atlas-Props-individual sprites/stone-paths and stairs_6.png" width="160" height="96"/>
  </tile>
  <tile id="1878">
   <image source="../tiled/ERW-Grass Land/Props/Atlas-Props-individual sprites/Trees - whole and trunks_0.png" width="96" height="192"/>
  </tile>
  <tile id="1879">
   <image source="../tiled/ERW-Grass Land/Props/Atlas-Props-individual sprites/Trees - whole and trunks_1.png" width="96" height="192"/>
  </tile>
  <tile id="1880">
   <image source="../tiled/ERW-Grass Land/Props/Atlas-Props-individual sprites/Trees - whole and trunks_2.png" width="96" height="64"/>
  </tile>
  <tile id="1881">
   <image source="../tiled/ERW-Grass Land/Props/Atlas-Props-individual sprites/Trees - whole and trunks_3.png" width="96" height="64"/>
  </tile>
  <tile id="1882">
   <image source="../tiled/ERW-Grass Land/Props/Atlas-Props-individual sprites/Trees - whole and trunks_4.png" width="96" height="64"/>
  </tile>
  <tile id="1883">
   <image source="../tiled/ERW-Grass Land/Props/Atlas-Props-individual sprites/Trees - whole and trunks_5.png" width="96" height="64"/>
  </tile>
  <tile id="1884">
   <image source="../tiled/ERW-Grass Land/Props/Atlas-Props-individual sprites/Trees - whole and trunks_6.png" width="96" height="64"/>
  </tile>
  <tile id="1885">
   <image source="../tiled/ERW-Grass Land/Props/Atlas-Props-individual sprites/Trees - whole and trunks_7.png" width="96" height="64"/>
  </tile>
  <tile id="1886">
   <image source="../tiled/ERW-Grass Land/Props/Atlas-Props-individual sprites/trunks_0.png" width="64" height="64"/>
  </tile>
  <tile id="1887">
   <image source="../tiled/ERW-Grass Land/Props/Atlas-Props-individual sprites/trunks_1.png" width="64" height="64"/>
  </tile>
  <tile id="1888">
   <image source="../tiled/ERW-Grass Land/Props/Atlas-Props-individual sprites/trunks_2.png" width="64" height="64"/>
  </tile>
  <tile id="1889">
   <image source="../tiled/ERW-Grass Land/Props/Atlas-Props-individual sprites/trunks_3.png" width="64" height="64"/>
  </tile>
  <tile id="1890">
   <image source="../tiled/ERW-Grass Land/Props/Atlas-Props-individual sprites/trunks_4.png" width="64" height="64"/>
  </tile>
  <tile id="1891">
   <image source="../tiled/ERW-Grass Land/Props/Atlas-Props-individual sprites/trunks2__0.png" width="64" height="32"/>
  </tile>
  <tile id="1892">
   <image source="../tiled/ERW-Grass Land/Props/Atlas-Props-individual sprites/trunks2__1.png" width="64" height="32"/>
  </tile>
  <tile id="1893">
   <image source="../tiled/ERW-Grass Land/Props/Atlas-Props-individual sprites/trunks2__2.png" width="64" height="32"/>
  </tile>
  <tile id="1894">
   <image source="../tiled/ERW-Grass Land/Props/Atlas-Props-individual sprites/trunks2__3.png" width="64" height="32"/>
  </tile>
  <tile id="1895">
   <image source="../tiled/ERW-Grass Land/Props/Atlas-Props-individual sprites/trunks2__4.png" width="64" height="32"/>
  </tile>
  <tile id="1896">
   <image source="../tiled/ERW-Grass Land/Props/Atlas-Props-individual sprites/trunks2__6.png" width="64" height="64"/>
  </tile>
  <tile id="1897">
   <image source="../tiled/ERW-Grass Land/Props/Atlas-Props-individual sprites/trunks2__7.png" width="64" height="64"/>
  </tile>
  <tile id="1898">
   <image source="../tiled/ERW-Grass Land/Props/Atlas-Props-individual sprites/trunks2__9.png" width="64" height="64"/>
  </tile>
  <tile id="1899">
   <image source="../tiled/ERW-Grass Land/Props/Atlas-Props-individual sprites/trunks2__10.png" width="64" height="64"/>
  </tile>
  <tile id="1900">
   <image source="../tiled/ERW-Grass Land/Props/Atlas-Props-individual sprites/trunks2__11.png" width="64" height="64"/>
  </tile>
  <tile id="1901">
   <image source="../tiled/ERW-Grass Land/Props/Atlas-Props-individual sprites/trunks2__12.png" width="64" height="64"/>
  </tile>
  <tile id="1902">
   <image source="../tiled/ERW-Grass Land/Props/Atlas-Props-individual sprites/trunks2__13.png" width="64" height="64"/>
  </tile>
  <tile id="1903">
   <image source="../tiled/ERW-Grass Land/Props/Atlas-Props-individual sprites/trunks2__14.png" width="64" height="64"/>
  </tile>
  <tile id="1904">
   <image source="../tiled/ERW-Grass Land/Props/Atlas-Props-individual sprites/trunks2__15.png" width="64" height="64"/>
  </tile>
  <tile id="1905">
   <image source="../tiled/ERW-Grass Land/Props/Atlas-Props-individual sprites/trunks2__16.png" width="64" height="64"/>
  </tile>
  <tile id="1906">
   <image source="../tiled/ERW-Grass Land/Props/Atlas-Props-individual sprites/trunks2__17.png" width="64" height="64"/>
  </tile>
  <tile id="1907">
   <image source="../tiled/ERW-Grass Land/Props/Atlas-Props-individual sprites/trunks2__18.png" width="64" height="64"/>
  </tile>
  <tile id="1908">
   <image source="../tiled/ERW-Grass Land/Props/Atlas-Props-individual sprites/trunks2__19.png" width="64" height="64"/>
  </tile>
  <tile id="1909">
   <image source="../tiled/ERW-Grass Land/Props/Atlas-Props-individual sprites/trunks2__20.png" width="64" height="64"/>
  </tile>
  <tile id="1910">
   <image source="../tiled/ERW-Grass Land/Props/Atlas-Props-individual sprites/trunks2__21.png" width="64" height="64"/>
  </tile>
  <tile id="1911">
   <image source="../tiled/ERW-Grass Land/Props/Atlas-Props-individual sprites/trunks5__5.png" width="64" height="32"/>
  </tile>
  <tile id="1912">
   <image source="../tiled/ERW-Grass Land/Props/Atlas-Props-individual sprites/trunks8__8.png" width="64" height="64"/>
  </tile>
  <tile id="1913">
   <image source="../tiled/ERW-Grass Land/Props/Atlas-Props-individual sprites/waterwell_0.png" width="96" height="128"/>
  </tile>
  <tile id="1914">
   <image source="../tiled/ERW-Grass Land/Props/Atlas-Props-individual sprites/waterwell_1.png" width="96" height="128"/>
  </tile>
  <tile id="1915">
   <image source="../tiled/ERW-Grass Land/Props/Atlas-Props-individual sprites/Animated Tree1_frame1.png" width="128" height="192"/>
   <animation>
    <frame tileid="1915" duration="100"/>
    <frame tileid="1916" duration="100"/>
    <frame tileid="1917" duration="100"/>
    <frame tileid="1918" duration="100"/>
    <frame tileid="1919" duration="100"/>
    <frame tileid="1920" duration="100"/>
    <frame tileid="1921" duration="100"/>
    <frame tileid="1922" duration="100"/>
   </animation>
  </tile>
  <tile id="1916">
   <image source="../tiled/ERW-Grass Land/Props/Atlas-Props-individual sprites/Animated Tree1_frame2.png" width="128" height="192"/>
  </tile>
  <tile id="1917">
   <image source="../tiled/ERW-Grass Land/Props/Atlas-Props-individual sprites/Animated Tree1_frame3.png" width="128" height="192"/>
  </tile>
  <tile id="1918">
   <image source="../tiled/ERW-Grass Land/Props/Atlas-Props-individual sprites/Animated Tree1_frame4.png" width="128" height="192"/>
  </tile>
  <tile id="1919">
   <image source="../tiled/ERW-Grass Land/Props/Atlas-Props-individual sprites/Animated Tree1_frame5.png" width="128" height="192"/>
  </tile>
  <tile id="1920">
   <image source="../tiled/ERW-Grass Land/Props/Atlas-Props-individual sprites/Animated Tree1_frame6.png" width="128" height="192"/>
  </tile>
  <tile id="1921">
   <image source="../tiled/ERW-Grass Land/Props/Atlas-Props-individual sprites/Animated Tree1_frame7.png" width="128" height="192"/>
  </tile>
  <tile id="1922">
   <image source="../tiled/ERW-Grass Land/Props/Atlas-Props-individual sprites/Animated Tree1_frame8.png" width="128" height="192"/>
  </tile>
  <tile id="1923">
   <image source="../tiled/ERW-Grass Land/Props/Atlas-Props-individual sprites/Animated Tree2_frame1.png" width="128" height="192"/>
   <animation>
    <frame tileid="1923" duration="100"/>
    <frame tileid="1924" duration="100"/>
    <frame tileid="1925" duration="100"/>
    <frame tileid="1926" duration="100"/>
    <frame tileid="1927" duration="100"/>
    <frame tileid="1928" duration="100"/>
    <frame tileid="1929" duration="100"/>
    <frame tileid="1930" duration="100"/>
   </animation>
  </tile>
  <tile id="1924">
   <image source="../tiled/ERW-Grass Land/Props/Atlas-Props-individual sprites/Animated Tree2_frame2.png" width="128" height="192"/>
  </tile>
  <tile id="1925">
   <image source="../tiled/ERW-Grass Land/Props/Atlas-Props-individual sprites/Animated Tree2_frame3.png" width="128" height="192"/>
  </tile>
  <tile id="1926">
   <image source="../tiled/ERW-Grass Land/Props/Atlas-Props-individual sprites/Animated Tree2_frame4.png" width="128" height="192"/>
  </tile>
  <tile id="1927">
   <image source="../tiled/ERW-Grass Land/Props/Atlas-Props-individual sprites/Animated Tree2_frame5.png" width="128" height="192"/>
  </tile>
  <tile id="1928">
   <image source="../tiled/ERW-Grass Land/Props/Atlas-Props-individual sprites/Animated Tree2_frame6.png" width="128" height="192"/>
  </tile>
  <tile id="1929">
   <image source="../tiled/ERW-Grass Land/Props/Atlas-Props-individual sprites/Animated Tree2_frame7.png" width="128" height="192"/>
  </tile>
  <tile id="1930">
   <image source="../tiled/ERW-Grass Land/Props/Atlas-Props-individual sprites/Animated Tree2_frame8.png" width="128" height="192"/>
  </tile>
  <tile id="1931">
   <image source="../tiled/ERW-Grass Land/Props/Atlas-Props-individual sprites/anvil-shine_frame1.png" width="64" height="64"/>
   <animation>
    <frame tileid="1931" duration="100"/>
    <frame tileid="1932" duration="100"/>
    <frame tileid="1933" duration="100"/>
    <frame tileid="1934" duration="100"/>
    <frame tileid="1935" duration="100"/>
    <frame tileid="1936" duration="100"/>
   </animation>
  </tile>
  <tile id="1932">
   <image source="../tiled/ERW-Grass Land/Props/Atlas-Props-individual sprites/anvil-shine_frame2.png" width="64" height="64"/>
  </tile>
  <tile id="1933">
   <image source="../tiled/ERW-Grass Land/Props/Atlas-Props-individual sprites/anvil-shine_frame3.png" width="64" height="64"/>
  </tile>
  <tile id="1934">
   <image source="../tiled/ERW-Grass Land/Props/Atlas-Props-individual sprites/anvil-shine_frame4.png" width="64" height="64"/>
  </tile>
  <tile id="1935">
   <image source="../tiled/ERW-Grass Land/Props/Atlas-Props-individual sprites/anvil-shine_frame5.png" width="64" height="64"/>
  </tile>
  <tile id="1936">
   <image source="../tiled/ERW-Grass Land/Props/Atlas-Props-individual sprites/anvil-shine_frame6.png" width="64" height="64"/>
  </tile>
  <tile id="1937">
   <image source="../tiled/ERW-Grass Land/Props/Atlas-Props-individual sprites/blacksmith sign_frame1.png" width="32" height="36"/>
   <animation>
    <frame tileid="1937" duration="100"/>
    <frame tileid="1938" duration="100"/>
    <frame tileid="1939" duration="100"/>
    <frame tileid="1940" duration="100"/>
    <frame tileid="1941" duration="100"/>
    <frame tileid="1942" duration="100"/>
    <frame tileid="1943" duration="100"/>
    <frame tileid="1944" duration="100"/>
    <frame tileid="1945" duration="100"/>
    <frame tileid="1946" duration="100"/>
    <frame tileid="1947" duration="100"/>
    <frame tileid="1948" duration="100"/>
    <frame tileid="1949" duration="100"/>
    <frame tileid="1950" duration="100"/>
    <frame tileid="1951" duration="100"/>
    <frame tileid="1952" duration="100"/>
   </animation>
  </tile>
  <tile id="1938">
   <image source="../tiled/ERW-Grass Land/Props/Atlas-Props-individual sprites/blacksmith sign_frame2.png" width="32" height="36"/>
  </tile>
  <tile id="1939">
   <image source="../tiled/ERW-Grass Land/Props/Atlas-Props-individual sprites/blacksmith sign_frame3.png" width="32" height="36"/>
  </tile>
  <tile id="1940">
   <image source="../tiled/ERW-Grass Land/Props/Atlas-Props-individual sprites/blacksmith sign_frame4.png" width="32" height="36"/>
  </tile>
  <tile id="1941">
   <image source="../tiled/ERW-Grass Land/Props/Atlas-Props-individual sprites/blacksmith sign_frame5.png" width="32" height="36"/>
  </tile>
  <tile id="1942">
   <image source="../tiled/ERW-Grass Land/Props/Atlas-Props-individual sprites/blacksmith sign_frame6.png" width="32" height="36"/>
  </tile>
  <tile id="1943">
   <image source="../tiled/ERW-Grass Land/Props/Atlas-Props-individual sprites/blacksmith sign_frame7.png" width="32" height="36"/>
  </tile>
  <tile id="1944">
   <image source="../tiled/ERW-Grass Land/Props/Atlas-Props-individual sprites/blacksmith sign_frame8.png" width="32" height="36"/>
  </tile>
  <tile id="1945">
   <image source="../tiled/ERW-Grass Land/Props/Atlas-Props-individual sprites/blacksmith sign_frame9.png" width="32" height="36"/>
  </tile>
  <tile id="1946">
   <image source="../tiled/ERW-Grass Land/Props/Atlas-Props-individual sprites/blacksmith sign_frame10.png" width="32" height="36"/>
  </tile>
  <tile id="1947">
   <image source="../tiled/ERW-Grass Land/Props/Atlas-Props-individual sprites/blacksmith sign_frame11.png" width="32" height="36"/>
  </tile>
  <tile id="1948">
   <image source="../tiled/ERW-Grass Land/Props/Atlas-Props-individual sprites/blacksmith sign_frame12.png" width="32" height="36"/>
  </tile>
  <tile id="1949">
   <image source="../tiled/ERW-Grass Land/Props/Atlas-Props-individual sprites/blacksmith sign_frame13.png" width="32" height="36"/>
  </tile>
  <tile id="1950">
   <image source="../tiled/ERW-Grass Land/Props/Atlas-Props-individual sprites/blacksmith sign_frame14.png" width="32" height="36"/>
  </tile>
  <tile id="1951">
   <image source="../tiled/ERW-Grass Land/Props/Atlas-Props-individual sprites/blacksmith sign_frame15.png" width="32" height="36"/>
  </tile>
  <tile id="1952">
   <image source="../tiled/ERW-Grass Land/Props/Atlas-Props-individual sprites/blacksmith sign_frame16.png" width="32" height="36"/>
  </tile>
  <tile id="1953">
   <image source="../tiled/ERW-Grass Land/Props/Atlas-Props-individual sprites/campfire1_frame1.png" width="128" height="128"/>
   <animation>
    <frame tileid="1953" duration="100"/>
    <frame tileid="1954" duration="100"/>
    <frame tileid="1955" duration="100"/>
    <frame tileid="1956" duration="100"/>
    <frame tileid="1957" duration="100"/>
    <frame tileid="1958" duration="100"/>
    <frame tileid="1959" duration="100"/>
    <frame tileid="1960" duration="100"/>
   </animation>
  </tile>
  <tile id="1954">
   <image source="../tiled/ERW-Grass Land/Props/Atlas-Props-individual sprites/campfire1_frame2.png" width="128" height="128"/>
  </tile>
  <tile id="1955">
   <image source="../tiled/ERW-Grass Land/Props/Atlas-Props-individual sprites/campfire1_frame3.png" width="128" height="128"/>
  </tile>
  <tile id="1956">
   <image source="../tiled/ERW-Grass Land/Props/Atlas-Props-individual sprites/campfire1_frame4.png" width="128" height="128"/>
  </tile>
  <tile id="1957">
   <image source="../tiled/ERW-Grass Land/Props/Atlas-Props-individual sprites/campfire1_frame5.png" width="128" height="128"/>
  </tile>
  <tile id="1958">
   <image source="../tiled/ERW-Grass Land/Props/Atlas-Props-individual sprites/campfire1_frame6.png" width="128" height="128"/>
  </tile>
  <tile id="1959">
   <image source="../tiled/ERW-Grass Land/Props/Atlas-Props-individual sprites/campfire1_frame7.png" width="128" height="128"/>
  </tile>
  <tile id="1960">
   <image source="../tiled/ERW-Grass Land/Props/Atlas-Props-individual sprites/campfire1_frame8.png" width="128" height="128"/>
  </tile>
  <tile id="1961">
   <image source="../tiled/ERW-Grass Land/Props/Atlas-Props-individual sprites/campfire2_frame1.png" width="128" height="128"/>
   <animation>
    <frame tileid="1961" duration="100"/>
    <frame tileid="1962" duration="100"/>
    <frame tileid="1963" duration="100"/>
    <frame tileid="1964" duration="100"/>
    <frame tileid="1965" duration="100"/>
    <frame tileid="1966" duration="100"/>
    <frame tileid="1967" duration="100"/>
    <frame tileid="1968" duration="100"/>
   </animation>
  </tile>
  <tile id="1962">
   <image source="../tiled/ERW-Grass Land/Props/Atlas-Props-individual sprites/campfire2_frame2.png" width="128" height="128"/>
  </tile>
  <tile id="1963">
   <image source="../tiled/ERW-Grass Land/Props/Atlas-Props-individual sprites/campfire2_frame3.png" width="128" height="128"/>
  </tile>
  <tile id="1964">
   <image source="../tiled/ERW-Grass Land/Props/Atlas-Props-individual sprites/campfire2_frame4.png" width="128" height="128"/>
  </tile>
  <tile id="1965">
   <image source="../tiled/ERW-Grass Land/Props/Atlas-Props-individual sprites/campfire2_frame5.png" width="128" height="128"/>
  </tile>
  <tile id="1966">
   <image source="../tiled/ERW-Grass Land/Props/Atlas-Props-individual sprites/campfire2_frame6.png" width="128" height="128"/>
  </tile>
  <tile id="1967">
   <image source="../tiled/ERW-Grass Land/Props/Atlas-Props-individual sprites/campfire2_frame7.png" width="128" height="128"/>
  </tile>
  <tile id="1968">
   <image source="../tiled/ERW-Grass Land/Props/Atlas-Props-individual sprites/campfire2_frame8.png" width="128" height="128"/>
  </tile>
  <tile id="1969">
   <image source="../tiled/ERW-Grass Land/Props/Atlas-Props-individual sprites/chest-closing_frame1.png" width="64" height="64"/>
   <animation>
    <frame tileid="1969" duration="100"/>
    <frame tileid="1970" duration="100"/>
    <frame tileid="1971" duration="100"/>
    <frame tileid="1972" duration="100"/>
    <frame tileid="1973" duration="100"/>
    <frame tileid="1974" duration="100"/>
    <frame tileid="1975" duration="100"/>
    <frame tileid="1976" duration="100"/>
    <frame tileid="1977" duration="100"/>
    <frame tileid="1978" duration="100"/>
    <frame tileid="1979" duration="100"/>
   </animation>
  </tile>
  <tile id="1970">
   <image source="../tiled/ERW-Grass Land/Props/Atlas-Props-individual sprites/chest-closing_frame2.png" width="64" height="64"/>
  </tile>
  <tile id="1971">
   <image source="../tiled/ERW-Grass Land/Props/Atlas-Props-individual sprites/chest-closing_frame3.png" width="64" height="64"/>
  </tile>
  <tile id="1972">
   <image source="../tiled/ERW-Grass Land/Props/Atlas-Props-individual sprites/chest-closing_frame4.png" width="64" height="64"/>
  </tile>
  <tile id="1973">
   <image source="../tiled/ERW-Grass Land/Props/Atlas-Props-individual sprites/chest-closing_frame5.png" width="64" height="64"/>
  </tile>
  <tile id="1974">
   <image source="../tiled/ERW-Grass Land/Props/Atlas-Props-individual sprites/chest-closing_frame6.png" width="64" height="64"/>
  </tile>
  <tile id="1975">
   <image source="../tiled/ERW-Grass Land/Props/Atlas-Props-individual sprites/chest-closing_frame7.png" width="64" height="64"/>
  </tile>
  <tile id="1976">
   <image source="../tiled/ERW-Grass Land/Props/Atlas-Props-individual sprites/chest-closing_frame8.png" width="64" height="64"/>
  </tile>
  <tile id="1977">
   <image source="../tiled/ERW-Grass Land/Props/Atlas-Props-individual sprites/chest-closing_frame9.png" width="64" height="64"/>
  </tile>
  <tile id="1978">
   <image source="../tiled/ERW-Grass Land/Props/Atlas-Props-individual sprites/chest-closing_frame10.png" width="64" height="64"/>
  </tile>
  <tile id="1979">
   <image source="../tiled/ERW-Grass Land/Props/Atlas-Props-individual sprites/chest-closing_frame11.png" width="64" height="64"/>
  </tile>
  <tile id="1980">
   <image source="../tiled/ERW-Grass Land/Props/Atlas-Props-individual sprites/chest-opening1_frame1.png" width="64" height="64"/>
   <animation>
    <frame tileid="1980" duration="100"/>
    <frame tileid="1981" duration="100"/>
    <frame tileid="1982" duration="100"/>
    <frame tileid="1983" duration="100"/>
    <frame tileid="1984" duration="100"/>
    <frame tileid="1985" duration="100"/>
    <frame tileid="1986" duration="100"/>
    <frame tileid="1987" duration="100"/>
    <frame tileid="1988" duration="100"/>
    <frame tileid="1989" duration="100"/>
    <frame tileid="1990" duration="100"/>
    <frame tileid="1991" duration="100"/>
    <frame tileid="1992" duration="100"/>
   </animation>
  </tile>
  <tile id="1981">
   <image source="../tiled/ERW-Grass Land/Props/Atlas-Props-individual sprites/chest-opening1_frame2.png" width="64" height="64"/>
  </tile>
  <tile id="1982">
   <image source="../tiled/ERW-Grass Land/Props/Atlas-Props-individual sprites/chest-opening1_frame3.png" width="64" height="64"/>
  </tile>
  <tile id="1983">
   <image source="../tiled/ERW-Grass Land/Props/Atlas-Props-individual sprites/chest-opening1_frame4.png" width="64" height="64"/>
  </tile>
  <tile id="1984">
   <image source="../tiled/ERW-Grass Land/Props/Atlas-Props-individual sprites/chest-opening1_frame5.png" width="64" height="64"/>
  </tile>
  <tile id="1985">
   <image source="../tiled/ERW-Grass Land/Props/Atlas-Props-individual sprites/chest-opening1_frame6.png" width="64" height="64"/>
  </tile>
  <tile id="1986">
   <image source="../tiled/ERW-Grass Land/Props/Atlas-Props-individual sprites/chest-opening1_frame7.png" width="64" height="64"/>
  </tile>
  <tile id="1987">
   <image source="../tiled/ERW-Grass Land/Props/Atlas-Props-individual sprites/chest-opening1_frame8.png" width="64" height="64"/>
  </tile>
  <tile id="1988">
   <image source="../tiled/ERW-Grass Land/Props/Atlas-Props-individual sprites/chest-opening1_frame9.png" width="64" height="64"/>
  </tile>
  <tile id="1989">
   <image source="../tiled/ERW-Grass Land/Props/Atlas-Props-individual sprites/chest-opening1_frame10.png" width="64" height="64"/>
  </tile>
  <tile id="1990">
   <image source="../tiled/ERW-Grass Land/Props/Atlas-Props-individual sprites/chest-opening1_frame11.png" width="64" height="64"/>
  </tile>
  <tile id="1991">
   <image source="../tiled/ERW-Grass Land/Props/Atlas-Props-individual sprites/chest-opening1_frame12.png" width="64" height="64"/>
  </tile>
  <tile id="1992">
   <image source="../tiled/ERW-Grass Land/Props/Atlas-Props-individual sprites/chest-opening1_frame13.png" width="64" height="64"/>
  </tile>
  <tile id="1993">
   <image source="../tiled/ERW-Grass Land/Props/Atlas-Props-individual sprites/chest-opening2_frame1.png" width="64" height="64"/>
   <animation>
    <frame tileid="1993" duration="100"/>
    <frame tileid="1994" duration="100"/>
    <frame tileid="1995" duration="100"/>
    <frame tileid="1996" duration="100"/>
    <frame tileid="1997" duration="100"/>
    <frame tileid="1998" duration="100"/>
    <frame tileid="1999" duration="100"/>
    <frame tileid="2000" duration="100"/>
    <frame tileid="2001" duration="100"/>
    <frame tileid="2002" duration="100"/>
    <frame tileid="2003" duration="100"/>
    <frame tileid="2004" duration="100"/>
    <frame tileid="2005" duration="100"/>
    <frame tileid="2006" duration="100"/>
   </animation>
  </tile>
  <tile id="1994">
   <image source="../tiled/ERW-Grass Land/Props/Atlas-Props-individual sprites/chest-opening2_frame2.png" width="64" height="64"/>
  </tile>
  <tile id="1995">
   <image source="../tiled/ERW-Grass Land/Props/Atlas-Props-individual sprites/chest-opening2_frame3.png" width="64" height="64"/>
  </tile>
  <tile id="1996">
   <image source="../tiled/ERW-Grass Land/Props/Atlas-Props-individual sprites/chest-opening2_frame4.png" width="64" height="64"/>
  </tile>
  <tile id="1997">
   <image source="../tiled/ERW-Grass Land/Props/Atlas-Props-individual sprites/chest-opening2_frame5.png" width="64" height="64"/>
  </tile>
  <tile id="1998">
   <image source="../tiled/ERW-Grass Land/Props/Atlas-Props-individual sprites/chest-opening2_frame6.png" width="64" height="64"/>
  </tile>
  <tile id="1999">
   <image source="../tiled/ERW-Grass Land/Props/Atlas-Props-individual sprites/chest-opening2_frame7.png" width="64" height="64"/>
  </tile>
  <tile id="2000">
   <image source="../tiled/ERW-Grass Land/Props/Atlas-Props-individual sprites/chest-opening2_frame8.png" width="64" height="64"/>
  </tile>
  <tile id="2001">
   <image source="../tiled/ERW-Grass Land/Props/Atlas-Props-individual sprites/chest-opening2_frame9.png" width="64" height="64"/>
  </tile>
  <tile id="2002">
   <image source="../tiled/ERW-Grass Land/Props/Atlas-Props-individual sprites/chest-opening2_frame10.png" width="64" height="64"/>
  </tile>
  <tile id="2003">
   <image source="../tiled/ERW-Grass Land/Props/Atlas-Props-individual sprites/chest-opening2_frame11.png" width="64" height="64"/>
  </tile>
  <tile id="2004">
   <image source="../tiled/ERW-Grass Land/Props/Atlas-Props-individual sprites/chest-opening2_frame12.png" width="64" height="64"/>
  </tile>
  <tile id="2005">
   <image source="../tiled/ERW-Grass Land/Props/Atlas-Props-individual sprites/chest-opening2_frame13.png" width="64" height="64"/>
  </tile>
  <tile id="2006">
   <image source="../tiled/ERW-Grass Land/Props/Atlas-Props-individual sprites/chest-opening2_frame14.png" width="64" height="64"/>
  </tile>
  <tile id="2007">
   <image source="../tiled/ERW-Grass Land/Props/Atlas-Props-individual sprites/door1-opening_frame1.png" width="96" height="96"/>
   <animation>
    <frame tileid="2007" duration="100"/>
    <frame tileid="2008" duration="100"/>
    <frame tileid="2009" duration="100"/>
    <frame tileid="2010" duration="100"/>
    <frame tileid="2011" duration="100"/>
    <frame tileid="2012" duration="100"/>
    <frame tileid="2013" duration="100"/>
    <frame tileid="2014" duration="100"/>
    <frame tileid="2015" duration="100"/>
    <frame tileid="2016" duration="100"/>
    <frame tileid="2017" duration="100"/>
    <frame tileid="2018" duration="100"/>
   </animation>
  </tile>
  <tile id="2008">
   <image source="../tiled/ERW-Grass Land/Props/Atlas-Props-individual sprites/door1-opening_frame2.png" width="96" height="96"/>
  </tile>
  <tile id="2009">
   <image source="../tiled/ERW-Grass Land/Props/Atlas-Props-individual sprites/door1-opening_frame3.png" width="96" height="96"/>
  </tile>
  <tile id="2010">
   <image source="../tiled/ERW-Grass Land/Props/Atlas-Props-individual sprites/door1-opening_frame4.png" width="96" height="96"/>
  </tile>
  <tile id="2011">
   <image source="../tiled/ERW-Grass Land/Props/Atlas-Props-individual sprites/door1-opening_frame5.png" width="96" height="96"/>
  </tile>
  <tile id="2012">
   <image source="../tiled/ERW-Grass Land/Props/Atlas-Props-individual sprites/door1-opening_frame6.png" width="96" height="96"/>
  </tile>
  <tile id="2013">
   <image source="../tiled/ERW-Grass Land/Props/Atlas-Props-individual sprites/door1-opening_frame7.png" width="96" height="96"/>
  </tile>
  <tile id="2014">
   <image source="../tiled/ERW-Grass Land/Props/Atlas-Props-individual sprites/door1-opening_frame8.png" width="96" height="96"/>
  </tile>
  <tile id="2015">
   <image source="../tiled/ERW-Grass Land/Props/Atlas-Props-individual sprites/door1-opening_frame9.png" width="96" height="96"/>
  </tile>
  <tile id="2016">
   <image source="../tiled/ERW-Grass Land/Props/Atlas-Props-individual sprites/door1-opening_frame10.png" width="96" height="96"/>
  </tile>
  <tile id="2017">
   <image source="../tiled/ERW-Grass Land/Props/Atlas-Props-individual sprites/door1-opening_frame11.png" width="96" height="96"/>
  </tile>
  <tile id="2018">
   <image source="../tiled/ERW-Grass Land/Props/Atlas-Props-individual sprites/door1-opening_frame12.png" width="96" height="96"/>
  </tile>
  <tile id="2019">
   <image source="../tiled/ERW-Grass Land/Props/Atlas-Props-individual sprites/door2-opening_frame1.png" width="96" height="96"/>
   <animation>
    <frame tileid="2019" duration="100"/>
    <frame tileid="2020" duration="100"/>
    <frame tileid="2021" duration="100"/>
    <frame tileid="2022" duration="100"/>
    <frame tileid="2023" duration="100"/>
    <frame tileid="2024" duration="100"/>
    <frame tileid="2025" duration="100"/>
    <frame tileid="2026" duration="100"/>
    <frame tileid="2027" duration="100"/>
    <frame tileid="2028" duration="100"/>
    <frame tileid="2029" duration="100"/>
    <frame tileid="2030" duration="100"/>
    <frame tileid="2031" duration="100"/>
   </animation>
  </tile>
  <tile id="2020">
   <image source="../tiled/ERW-Grass Land/Props/Atlas-Props-individual sprites/door2-opening_frame2.png" width="96" height="96"/>
  </tile>
  <tile id="2021">
   <image source="../tiled/ERW-Grass Land/Props/Atlas-Props-individual sprites/door2-opening_frame3.png" width="96" height="96"/>
  </tile>
  <tile id="2022">
   <image source="../tiled/ERW-Grass Land/Props/Atlas-Props-individual sprites/door2-opening_frame4.png" width="96" height="96"/>
  </tile>
  <tile id="2023">
   <image source="../tiled/ERW-Grass Land/Props/Atlas-Props-individual sprites/door2-opening_frame5.png" width="96" height="96"/>
  </tile>
  <tile id="2024">
   <image source="../tiled/ERW-Grass Land/Props/Atlas-Props-individual sprites/door2-opening_frame6.png" width="96" height="96"/>
  </tile>
  <tile id="2025">
   <image source="../tiled/ERW-Grass Land/Props/Atlas-Props-individual sprites/door2-opening_frame7.png" width="96" height="96"/>
  </tile>
  <tile id="2026">
   <image source="../tiled/ERW-Grass Land/Props/Atlas-Props-individual sprites/door2-opening_frame8.png" width="96" height="96"/>
  </tile>
  <tile id="2027">
   <image source="../tiled/ERW-Grass Land/Props/Atlas-Props-individual sprites/door2-opening_frame9.png" width="96" height="96"/>
  </tile>
  <tile id="2028">
   <image source="../tiled/ERW-Grass Land/Props/Atlas-Props-individual sprites/door2-opening_frame10.png" width="96" height="96"/>
  </tile>
  <tile id="2029">
   <image source="../tiled/ERW-Grass Land/Props/Atlas-Props-individual sprites/door2-opening_frame11.png" width="96" height="96"/>
  </tile>
  <tile id="2030">
   <image source="../tiled/ERW-Grass Land/Props/Atlas-Props-individual sprites/door2-opening_frame12.png" width="96" height="96"/>
  </tile>
  <tile id="2031">
   <image source="../tiled/ERW-Grass Land/Props/Atlas-Props-individual sprites/door2-opening_frame13.png" width="96" height="96"/>
  </tile>
  <tile id="2032">
   <image source="../tiled/ERW-Grass Land/Props/Atlas-Props-individual sprites/forge chimney-smoke1_frame1.png" width="64" height="82"/>
   <animation>
    <frame tileid="2032" duration="100"/>
    <frame tileid="2033" duration="100"/>
    <frame tileid="2034" duration="100"/>
    <frame tileid="2035" duration="100"/>
    <frame tileid="2036" duration="100"/>
    <frame tileid="2037" duration="100"/>
    <frame tileid="2038" duration="100"/>
    <frame tileid="2039" duration="100"/>
    <frame tileid="2040" duration="100"/>
    <frame tileid="2041" duration="100"/>
    <frame tileid="2042" duration="100"/>
    <frame tileid="2043" duration="100"/>
    <frame tileid="2044" duration="100"/>
    <frame tileid="2045" duration="100"/>
    <frame tileid="2046" duration="100"/>
    <frame tileid="2047" duration="100"/>
   </animation>
  </tile>
  <tile id="2033">
   <image source="../tiled/ERW-Grass Land/Props/Atlas-Props-individual sprites/forge chimney-smoke1_frame2.png" width="64" height="82"/>
  </tile>
  <tile id="2034">
   <image source="../tiled/ERW-Grass Land/Props/Atlas-Props-individual sprites/forge chimney-smoke1_frame3.png" width="64" height="82"/>
  </tile>
  <tile id="2035">
   <image source="../tiled/ERW-Grass Land/Props/Atlas-Props-individual sprites/forge chimney-smoke1_frame4.png" width="64" height="82"/>
  </tile>
  <tile id="2036">
   <image source="../tiled/ERW-Grass Land/Props/Atlas-Props-individual sprites/forge chimney-smoke1_frame5.png" width="64" height="82"/>
  </tile>
  <tile id="2037">
   <image source="../tiled/ERW-Grass Land/Props/Atlas-Props-individual sprites/forge chimney-smoke1_frame6.png" width="64" height="82"/>
  </tile>
  <tile id="2038">
   <image source="../tiled/ERW-Grass Land/Props/Atlas-Props-individual sprites/forge chimney-smoke1_frame7.png" width="64" height="82"/>
  </tile>
  <tile id="2039">
   <image source="../tiled/ERW-Grass Land/Props/Atlas-Props-individual sprites/forge chimney-smoke1_frame8.png" width="64" height="82"/>
  </tile>
  <tile id="2040">
   <image source="../tiled/ERW-Grass Land/Props/Atlas-Props-individual sprites/forge chimney-smoke1_frame9.png" width="64" height="82"/>
  </tile>
  <tile id="2041">
   <image source="../tiled/ERW-Grass Land/Props/Atlas-Props-individual sprites/forge chimney-smoke1_frame10.png" width="64" height="82"/>
  </tile>
  <tile id="2042">
   <image source="../tiled/ERW-Grass Land/Props/Atlas-Props-individual sprites/forge chimney-smoke1_frame11.png" width="64" height="82"/>
  </tile>
  <tile id="2043">
   <image source="../tiled/ERW-Grass Land/Props/Atlas-Props-individual sprites/forge chimney-smoke1_frame12.png" width="64" height="82"/>
  </tile>
  <tile id="2044">
   <image source="../tiled/ERW-Grass Land/Props/Atlas-Props-individual sprites/forge chimney-smoke1_frame13.png" width="64" height="82"/>
  </tile>
  <tile id="2045">
   <image source="../tiled/ERW-Grass Land/Props/Atlas-Props-individual sprites/forge chimney-smoke1_frame14.png" width="64" height="82"/>
  </tile>
  <tile id="2046">
   <image source="../tiled/ERW-Grass Land/Props/Atlas-Props-individual sprites/forge chimney-smoke1_frame15.png" width="64" height="82"/>
  </tile>
  <tile id="2047">
   <image source="../tiled/ERW-Grass Land/Props/Atlas-Props-individual sprites/forge chimney-smoke1_frame16.png" width="64" height="82"/>
  </tile>
  <tile id="2048">
   <image source="../tiled/ERW-Grass Land/Props/Atlas-Props-individual sprites/forge chimney-smoke2_frame1.png" width="64" height="82"/>
   <animation>
    <frame tileid="2048" duration="100"/>
    <frame tileid="2049" duration="100"/>
    <frame tileid="2050" duration="100"/>
    <frame tileid="2051" duration="100"/>
    <frame tileid="2052" duration="100"/>
    <frame tileid="2053" duration="100"/>
    <frame tileid="2054" duration="100"/>
    <frame tileid="2055" duration="100"/>
    <frame tileid="2056" duration="100"/>
    <frame tileid="2057" duration="100"/>
    <frame tileid="2058" duration="100"/>
    <frame tileid="2059" duration="100"/>
    <frame tileid="2060" duration="100"/>
    <frame tileid="2061" duration="100"/>
    <frame tileid="2062" duration="100"/>
    <frame tileid="2063" duration="100"/>
    <frame tileid="2064" duration="100"/>
    <frame tileid="2065" duration="100"/>
    <frame tileid="2066" duration="100"/>
    <frame tileid="2067" duration="100"/>
    <frame tileid="2068" duration="100"/>
   </animation>
  </tile>
  <tile id="2049">
   <image source="../tiled/ERW-Grass Land/Props/Atlas-Props-individual sprites/forge chimney-smoke2_frame2.png" width="64" height="82"/>
  </tile>
  <tile id="2050">
   <image source="../tiled/ERW-Grass Land/Props/Atlas-Props-individual sprites/forge chimney-smoke2_frame3.png" width="64" height="82"/>
  </tile>
  <tile id="2051">
   <image source="../tiled/ERW-Grass Land/Props/Atlas-Props-individual sprites/forge chimney-smoke2_frame4.png" width="64" height="82"/>
  </tile>
  <tile id="2052">
   <image source="../tiled/ERW-Grass Land/Props/Atlas-Props-individual sprites/forge chimney-smoke2_frame5.png" width="64" height="82"/>
  </tile>
  <tile id="2053">
   <image source="../tiled/ERW-Grass Land/Props/Atlas-Props-individual sprites/forge chimney-smoke2_frame6.png" width="64" height="82"/>
  </tile>
  <tile id="2054">
   <image source="../tiled/ERW-Grass Land/Props/Atlas-Props-individual sprites/forge chimney-smoke2_frame7.png" width="64" height="82"/>
  </tile>
  <tile id="2055">
   <image source="../tiled/ERW-Grass Land/Props/Atlas-Props-individual sprites/forge chimney-smoke2_frame8.png" width="64" height="82"/>
  </tile>
  <tile id="2056">
   <image source="../tiled/ERW-Grass Land/Props/Atlas-Props-individual sprites/forge chimney-smoke2_frame9.png" width="64" height="82"/>
  </tile>
  <tile id="2057">
   <image source="../tiled/ERW-Grass Land/Props/Atlas-Props-individual sprites/forge chimney-smoke2_frame10.png" width="64" height="82"/>
  </tile>
  <tile id="2058">
   <image source="../tiled/ERW-Grass Land/Props/Atlas-Props-individual sprites/forge chimney-smoke2_frame11.png" width="64" height="82"/>
  </tile>
  <tile id="2059">
   <image source="../tiled/ERW-Grass Land/Props/Atlas-Props-individual sprites/forge chimney-smoke2_frame12.png" width="64" height="82"/>
  </tile>
  <tile id="2060">
   <image source="../tiled/ERW-Grass Land/Props/Atlas-Props-individual sprites/forge chimney-smoke2_frame13.png" width="64" height="82"/>
  </tile>
  <tile id="2061">
   <image source="../tiled/ERW-Grass Land/Props/Atlas-Props-individual sprites/forge chimney-smoke2_frame14.png" width="64" height="82"/>
  </tile>
  <tile id="2062">
   <image source="../tiled/ERW-Grass Land/Props/Atlas-Props-individual sprites/forge chimney-smoke2_frame15.png" width="64" height="82"/>
  </tile>
  <tile id="2063">
   <image source="../tiled/ERW-Grass Land/Props/Atlas-Props-individual sprites/forge chimney-smoke2_frame16.png" width="64" height="82"/>
  </tile>
  <tile id="2064">
   <image source="../tiled/ERW-Grass Land/Props/Atlas-Props-individual sprites/forge chimney-smoke2_frame17.png" width="64" height="82"/>
  </tile>
  <tile id="2065">
   <image source="../tiled/ERW-Grass Land/Props/Atlas-Props-individual sprites/forge chimney-smoke2_frame18.png" width="64" height="82"/>
  </tile>
  <tile id="2066">
   <image source="../tiled/ERW-Grass Land/Props/Atlas-Props-individual sprites/forge chimney-smoke2_frame19.png" width="64" height="82"/>
  </tile>
  <tile id="2067">
   <image source="../tiled/ERW-Grass Land/Props/Atlas-Props-individual sprites/forge chimney-smoke2_frame20.png" width="64" height="82"/>
  </tile>
  <tile id="2068">
   <image source="../tiled/ERW-Grass Land/Props/Atlas-Props-individual sprites/forge chimney-smoke2_frame21.png" width="64" height="82"/>
  </tile>
  <tile id="2069">
   <image source="../tiled/ERW-Grass Land/Props/Atlas-Props-individual sprites/forge1-anim1_frame1.png" width="64" height="96"/>
   <animation>
    <frame tileid="2069" duration="100"/>
    <frame tileid="2070" duration="100"/>
    <frame tileid="2071" duration="100"/>
    <frame tileid="2072" duration="100"/>
    <frame tileid="2073" duration="100"/>
    <frame tileid="2074" duration="100"/>
    <frame tileid="2075" duration="100"/>
    <frame tileid="2076" duration="100"/>
   </animation>
  </tile>
  <tile id="2070">
   <image source="../tiled/ERW-Grass Land/Props/Atlas-Props-individual sprites/forge1-anim1_frame2.png" width="64" height="96"/>
  </tile>
  <tile id="2071">
   <image source="../tiled/ERW-Grass Land/Props/Atlas-Props-individual sprites/forge1-anim1_frame3.png" width="64" height="96"/>
  </tile>
  <tile id="2072">
   <image source="../tiled/ERW-Grass Land/Props/Atlas-Props-individual sprites/forge1-anim1_frame4.png" width="64" height="96"/>
  </tile>
  <tile id="2073">
   <image source="../tiled/ERW-Grass Land/Props/Atlas-Props-individual sprites/forge1-anim1_frame5.png" width="64" height="96"/>
  </tile>
  <tile id="2074">
   <image source="../tiled/ERW-Grass Land/Props/Atlas-Props-individual sprites/forge1-anim1_frame6.png" width="64" height="96"/>
  </tile>
  <tile id="2075">
   <image source="../tiled/ERW-Grass Land/Props/Atlas-Props-individual sprites/forge1-anim1_frame7.png" width="64" height="96"/>
  </tile>
  <tile id="2076">
   <image source="../tiled/ERW-Grass Land/Props/Atlas-Props-individual sprites/forge1-anim1_frame8.png" width="64" height="96"/>
  </tile>
  <tile id="2077">
   <image source="../tiled/ERW-Grass Land/Props/Atlas-Props-individual sprites/forge1-anim2_frame1.png" width="64" height="96"/>
   <animation>
    <frame tileid="2077" duration="100"/>
    <frame tileid="2078" duration="100"/>
    <frame tileid="2079" duration="100"/>
    <frame tileid="2080" duration="100"/>
    <frame tileid="2081" duration="100"/>
    <frame tileid="2082" duration="100"/>
    <frame tileid="2083" duration="100"/>
    <frame tileid="2084" duration="100"/>
   </animation>
  </tile>
  <tile id="2078">
   <image source="../tiled/ERW-Grass Land/Props/Atlas-Props-individual sprites/forge1-anim2_frame2.png" width="64" height="96"/>
  </tile>
  <tile id="2079">
   <image source="../tiled/ERW-Grass Land/Props/Atlas-Props-individual sprites/forge1-anim2_frame3.png" width="64" height="96"/>
  </tile>
  <tile id="2080">
   <image source="../tiled/ERW-Grass Land/Props/Atlas-Props-individual sprites/forge1-anim2_frame4.png" width="64" height="96"/>
  </tile>
  <tile id="2081">
   <image source="../tiled/ERW-Grass Land/Props/Atlas-Props-individual sprites/forge1-anim2_frame5.png" width="64" height="96"/>
  </tile>
  <tile id="2082">
   <image source="../tiled/ERW-Grass Land/Props/Atlas-Props-individual sprites/forge1-anim2_frame6.png" width="64" height="96"/>
  </tile>
  <tile id="2083">
   <image source="../tiled/ERW-Grass Land/Props/Atlas-Props-individual sprites/forge1-anim2_frame7.png" width="64" height="96"/>
  </tile>
  <tile id="2084">
   <image source="../tiled/ERW-Grass Land/Props/Atlas-Props-individual sprites/forge1-anim2_frame8.png" width="64" height="96"/>
  </tile>
  <tile id="2085">
   <image source="../tiled/ERW-Grass Land/Props/Atlas-Props-individual sprites/forge2-anim1_frame1.png" width="64" height="96"/>
   <animation>
    <frame tileid="2085" duration="100"/>
    <frame tileid="2086" duration="100"/>
    <frame tileid="2087" duration="100"/>
    <frame tileid="2088" duration="100"/>
    <frame tileid="2089" duration="100"/>
    <frame tileid="2090" duration="100"/>
    <frame tileid="2091" duration="100"/>
    <frame tileid="2092" duration="100"/>
   </animation>
  </tile>
  <tile id="2086">
   <image source="../tiled/ERW-Grass Land/Props/Atlas-Props-individual sprites/forge2-anim1_frame2.png" width="64" height="96"/>
  </tile>
  <tile id="2087">
   <image source="../tiled/ERW-Grass Land/Props/Atlas-Props-individual sprites/forge2-anim1_frame3.png" width="64" height="96"/>
  </tile>
  <tile id="2088">
   <image source="../tiled/ERW-Grass Land/Props/Atlas-Props-individual sprites/forge2-anim1_frame4.png" width="64" height="96"/>
  </tile>
  <tile id="2089">
   <image source="../tiled/ERW-Grass Land/Props/Atlas-Props-individual sprites/forge2-anim1_frame5.png" width="64" height="96"/>
  </tile>
  <tile id="2090">
   <image source="../tiled/ERW-Grass Land/Props/Atlas-Props-individual sprites/forge2-anim1_frame6.png" width="64" height="96"/>
  </tile>
  <tile id="2091">
   <image source="../tiled/ERW-Grass Land/Props/Atlas-Props-individual sprites/forge2-anim1_frame7.png" width="64" height="96"/>
  </tile>
  <tile id="2092">
   <image source="../tiled/ERW-Grass Land/Props/Atlas-Props-individual sprites/forge2-anim1_frame8.png" width="64" height="96"/>
  </tile>
  <tile id="2093">
   <image source="../tiled/ERW-Grass Land/Props/Atlas-Props-individual sprites/forge2-anim2_frame1.png" width="64" height="96"/>
   <animation>
    <frame tileid="2093" duration="100"/>
    <frame tileid="2094" duration="100"/>
    <frame tileid="2095" duration="100"/>
    <frame tileid="2096" duration="100"/>
    <frame tileid="2097" duration="100"/>
    <frame tileid="2098" duration="100"/>
    <frame tileid="2099" duration="100"/>
    <frame tileid="2100" duration="100"/>
   </animation>
  </tile>
  <tile id="2094">
   <image source="../tiled/ERW-Grass Land/Props/Atlas-Props-individual sprites/forge2-anim2_frame2.png" width="64" height="96"/>
  </tile>
  <tile id="2095">
   <image source="../tiled/ERW-Grass Land/Props/Atlas-Props-individual sprites/forge2-anim2_frame3.png" width="64" height="96"/>
  </tile>
  <tile id="2096">
   <image source="../tiled/ERW-Grass Land/Props/Atlas-Props-individual sprites/forge2-anim2_frame4.png" width="64" height="96"/>
  </tile>
  <tile id="2097">
   <image source="../tiled/ERW-Grass Land/Props/Atlas-Props-individual sprites/forge2-anim2_frame5.png" width="64" height="96"/>
  </tile>
  <tile id="2098">
   <image source="../tiled/ERW-Grass Land/Props/Atlas-Props-individual sprites/forge2-anim2_frame6.png" width="64" height="96"/>
  </tile>
  <tile id="2099">
   <image source="../tiled/ERW-Grass Land/Props/Atlas-Props-individual sprites/forge2-anim2_frame7.png" width="64" height="96"/>
  </tile>
  <tile id="2100">
   <image source="../tiled/ERW-Grass Land/Props/Atlas-Props-individual sprites/forge2-anim2_frame8.png" width="64" height="96"/>
  </tile>
  <tile id="2101">
   <image source="../tiled/ERW-Grass Land/Props/Atlas-Props-individual sprites/shrines-activating_frame1.png" width="64" height="99"/>
   <animation>
    <frame tileid="2101" duration="100"/>
    <frame tileid="2102" duration="100"/>
    <frame tileid="2103" duration="100"/>
    <frame tileid="2104" duration="100"/>
    <frame tileid="2105" duration="100"/>
    <frame tileid="2106" duration="100"/>
    <frame tileid="2107" duration="100"/>
    <frame tileid="2108" duration="100"/>
    <frame tileid="2109" duration="100"/>
    <frame tileid="2110" duration="100"/>
    <frame tileid="2111" duration="100"/>
    <frame tileid="2112" duration="100"/>
    <frame tileid="2113" duration="100"/>
    <frame tileid="2114" duration="100"/>
   </animation>
  </tile>
  <tile id="2102">
   <image source="../tiled/ERW-Grass Land/Props/Atlas-Props-individual sprites/shrines-activating_frame2.png" width="64" height="99"/>
  </tile>
  <tile id="2103">
   <image source="../tiled/ERW-Grass Land/Props/Atlas-Props-individual sprites/shrines-activating_frame3.png" width="64" height="99"/>
  </tile>
  <tile id="2104">
   <image source="../tiled/ERW-Grass Land/Props/Atlas-Props-individual sprites/shrines-activating_frame4.png" width="64" height="99"/>
  </tile>
  <tile id="2105">
   <image source="../tiled/ERW-Grass Land/Props/Atlas-Props-individual sprites/shrines-activating_frame5.png" width="64" height="99"/>
  </tile>
  <tile id="2106">
   <image source="../tiled/ERW-Grass Land/Props/Atlas-Props-individual sprites/shrines-activating_frame6.png" width="64" height="99"/>
  </tile>
  <tile id="2107">
   <image source="../tiled/ERW-Grass Land/Props/Atlas-Props-individual sprites/shrines-activating_frame7.png" width="64" height="99"/>
  </tile>
  <tile id="2108">
   <image source="../tiled/ERW-Grass Land/Props/Atlas-Props-individual sprites/shrines-activating_frame8.png" width="64" height="99"/>
  </tile>
  <tile id="2109">
   <image source="../tiled/ERW-Grass Land/Props/Atlas-Props-individual sprites/shrines-activating_frame9.png" width="64" height="99"/>
  </tile>
  <tile id="2110">
   <image source="../tiled/ERW-Grass Land/Props/Atlas-Props-individual sprites/shrines-activating_frame10.png" width="64" height="99"/>
  </tile>
  <tile id="2111">
   <image source="../tiled/ERW-Grass Land/Props/Atlas-Props-individual sprites/shrines-activating_frame11.png" width="64" height="99"/>
  </tile>
  <tile id="2112">
   <image source="../tiled/ERW-Grass Land/Props/Atlas-Props-individual sprites/shrines-activating_frame12.png" width="64" height="99"/>
  </tile>
  <tile id="2113">
   <image source="../tiled/ERW-Grass Land/Props/Atlas-Props-individual sprites/shrines-activating_frame13.png" width="64" height="99"/>
  </tile>
  <tile id="2114">
   <image source="../tiled/ERW-Grass Land/Props/Atlas-Props-individual sprites/shrines-activating_frame14.png" width="64" height="99"/>
  </tile>
  <tile id="2115">
   <image source="../tiled/ERW-Grass Land/Props/Atlas-Props-individual sprites/shrines-available_frame1.png" width="64" height="99"/>
   <animation>
    <frame tileid="2115" duration="100"/>
    <frame tileid="2116" duration="100"/>
    <frame tileid="2117" duration="100"/>
    <frame tileid="2118" duration="100"/>
    <frame tileid="2119" duration="100"/>
    <frame tileid="2120" duration="100"/>
    <frame tileid="2121" duration="100"/>
    <frame tileid="2122" duration="100"/>
    <frame tileid="2123" duration="100"/>
    <frame tileid="2124" duration="100"/>
    <frame tileid="2125" duration="100"/>
    <frame tileid="2126" duration="100"/>
    <frame tileid="2127" duration="100"/>
    <frame tileid="2128" duration="100"/>
   </animation>
  </tile>
  <tile id="2116">
   <image source="../tiled/ERW-Grass Land/Props/Atlas-Props-individual sprites/shrines-available_frame2.png" width="64" height="99"/>
  </tile>
  <tile id="2117">
   <image source="../tiled/ERW-Grass Land/Props/Atlas-Props-individual sprites/shrines-available_frame3.png" width="64" height="99"/>
  </tile>
  <tile id="2118">
   <image source="../tiled/ERW-Grass Land/Props/Atlas-Props-individual sprites/shrines-available_frame4.png" width="64" height="99"/>
  </tile>
  <tile id="2119">
   <image source="../tiled/ERW-Grass Land/Props/Atlas-Props-individual sprites/shrines-available_frame5.png" width="64" height="99"/>
  </tile>
  <tile id="2120">
   <image source="../tiled/ERW-Grass Land/Props/Atlas-Props-individual sprites/shrines-available_frame6.png" width="64" height="99"/>
  </tile>
  <tile id="2121">
   <image source="../tiled/ERW-Grass Land/Props/Atlas-Props-individual sprites/shrines-available_frame7.png" width="64" height="99"/>
  </tile>
  <tile id="2122">
   <image source="../tiled/ERW-Grass Land/Props/Atlas-Props-individual sprites/shrines-available_frame8.png" width="64" height="99"/>
  </tile>
  <tile id="2123">
   <image source="../tiled/ERW-Grass Land/Props/Atlas-Props-individual sprites/shrines-available_frame9.png" width="64" height="99"/>
  </tile>
  <tile id="2124">
   <image source="../tiled/ERW-Grass Land/Props/Atlas-Props-individual sprites/shrines-available_frame10.png" width="64" height="99"/>
  </tile>
  <tile id="2125">
   <image source="../tiled/ERW-Grass Land/Props/Atlas-Props-individual sprites/shrines-available_frame11.png" width="64" height="99"/>
  </tile>
  <tile id="2126">
   <image source="../tiled/ERW-Grass Land/Props/Atlas-Props-individual sprites/shrines-available_frame12.png" width="64" height="99"/>
  </tile>
  <tile id="2127">
   <image source="../tiled/ERW-Grass Land/Props/Atlas-Props-individual sprites/shrines-available_frame13.png" width="64" height="99"/>
  </tile>
  <tile id="2128">
   <image source="../tiled/ERW-Grass Land/Props/Atlas-Props-individual sprites/shrines-available_frame14.png" width="64" height="99"/>
  </tile>
  <tile id="2129">
   <image source="../tiled/ERW-Grass Land/Props/Atlas-Props-individual sprites/sword sharpener_frame1.png" width="64" height="32"/>
   <animation>
    <frame tileid="2129" duration="100"/>
    <frame tileid="2130" duration="100"/>
    <frame tileid="2131" duration="100"/>
    <frame tileid="2132" duration="100"/>
   </animation>
  </tile>
  <tile id="2130">
   <image source="../tiled/ERW-Grass Land/Props/Atlas-Props-individual sprites/sword sharpener_frame2.png" width="64" height="32"/>
  </tile>
  <tile id="2131">
   <image source="../tiled/ERW-Grass Land/Props/Atlas-Props-individual sprites/sword sharpener_frame3.png" width="64" height="32"/>
  </tile>
  <tile id="2132">
   <image source="../tiled/ERW-Grass Land/Props/Atlas-Props-individual sprites/sword sharpener_frame4.png" width="64" height="32"/>
  </tile>
  <tile id="2133">
   <image source="../tiled/ERW-Grass Land/Props/Atlas-Props-individual sprites/water deposit_frame1.png" width="64" height="32"/>
   <animation>
    <frame tileid="2133" duration="100"/>
    <frame tileid="2134" duration="100"/>
    <frame tileid="2135" duration="100"/>
    <frame tileid="2136" duration="100"/>
    <frame tileid="2137" duration="100"/>
    <frame tileid="2138" duration="100"/>
    <frame tileid="2139" duration="100"/>
    <frame tileid="2140" duration="100"/>
   </animation>
  </tile>
  <tile id="2134">
   <image source="../tiled/ERW-Grass Land/Props/Atlas-Props-individual sprites/water deposit_frame2.png" width="64" height="32"/>
  </tile>
  <tile id="2135">
   <image source="../tiled/ERW-Grass Land/Props/Atlas-Props-individual sprites/water deposit_frame3.png" width="64" height="32"/>
  </tile>
  <tile id="2136">
   <image source="../tiled/ERW-Grass Land/Props/Atlas-Props-individual sprites/water deposit_frame4.png" width="64" height="32"/>
  </tile>
  <tile id="2137">
   <image source="../tiled/ERW-Grass Land/Props/Atlas-Props-individual sprites/water deposit_frame5.png" width="64" height="32"/>
  </tile>
  <tile id="2138">
   <image source="../tiled/ERW-Grass Land/Props/Atlas-Props-individual sprites/water deposit_frame6.png" width="64" height="32"/>
  </tile>
  <tile id="2139">
   <image source="../tiled/ERW-Grass Land/Props/Atlas-Props-individual sprites/water deposit_frame7.png" width="64" height="32"/>
  </tile>
  <tile id="2140">
   <image source="../tiled/ERW-Grass Land/Props/Atlas-Props-individual sprites/water deposit_frame8.png" width="64" height="32"/>
  </tile>
  <tile id="2141">
   <image source="../tiled/ERW-Grass Land/Props/Atlas-Props-individual sprites/water well_empty_frame1.png" width="128" height="160"/>
   <animation>
    <frame tileid="2141" duration="100"/>
    <frame tileid="2142" duration="100"/>
    <frame tileid="2143" duration="100"/>
    <frame tileid="2144" duration="100"/>
    <frame tileid="2145" duration="100"/>
    <frame tileid="2146" duration="100"/>
    <frame tileid="2147" duration="100"/>
    <frame tileid="2148" duration="100"/>
    <frame tileid="2149" duration="100"/>
    <frame tileid="2150" duration="100"/>
    <frame tileid="2151" duration="100"/>
    <frame tileid="2152" duration="100"/>
    <frame tileid="2153" duration="100"/>
    <frame tileid="2154" duration="100"/>
    <frame tileid="2155" duration="100"/>
    <frame tileid="2156" duration="100"/>
    <frame tileid="2157" duration="100"/>
    <frame tileid="2158" duration="100"/>
    <frame tileid="2159" duration="100"/>
    <frame tileid="2160" duration="100"/>
    <frame tileid="2161" duration="100"/>
    <frame tileid="2162" duration="100"/>
    <frame tileid="2163" duration="100"/>
    <frame tileid="2164" duration="100"/>
    <frame tileid="2165" duration="100"/>
    <frame tileid="2166" duration="100"/>
    <frame tileid="2167" duration="100"/>
    <frame tileid="2168" duration="100"/>
    <frame tileid="2169" duration="100"/>
   </animation>
  </tile>
  <tile id="2142">
   <image source="../tiled/ERW-Grass Land/Props/Atlas-Props-individual sprites/water well_empty_frame2.png" width="128" height="160"/>
  </tile>
  <tile id="2143">
   <image source="../tiled/ERW-Grass Land/Props/Atlas-Props-individual sprites/water well_empty_frame3.png" width="128" height="160"/>
  </tile>
  <tile id="2144">
   <image source="../tiled/ERW-Grass Land/Props/Atlas-Props-individual sprites/water well_empty_frame4.png" width="128" height="160"/>
  </tile>
  <tile id="2145">
   <image source="../tiled/ERW-Grass Land/Props/Atlas-Props-individual sprites/water well_empty_frame5.png" width="128" height="160"/>
  </tile>
  <tile id="2146">
   <image source="../tiled/ERW-Grass Land/Props/Atlas-Props-individual sprites/water well_empty_frame6.png" width="128" height="160"/>
  </tile>
  <tile id="2147">
   <image source="../tiled/ERW-Grass Land/Props/Atlas-Props-individual sprites/water well_empty_frame7.png" width="128" height="160"/>
  </tile>
  <tile id="2148">
   <image source="../tiled/ERW-Grass Land/Props/Atlas-Props-individual sprites/water well_empty_frame8.png" width="128" height="160"/>
  </tile>
  <tile id="2149">
   <image source="../tiled/ERW-Grass Land/Props/Atlas-Props-individual sprites/water well_empty_frame9.png" width="128" height="160"/>
  </tile>
  <tile id="2150">
   <image source="../tiled/ERW-Grass Land/Props/Atlas-Props-individual sprites/water well_empty_frame10.png" width="128" height="160"/>
  </tile>
  <tile id="2151">
   <image source="../tiled/ERW-Grass Land/Props/Atlas-Props-individual sprites/water well_empty_frame11.png" width="128" height="160"/>
  </tile>
  <tile id="2152">
   <image source="../tiled/ERW-Grass Land/Props/Atlas-Props-individual sprites/water well_empty_frame12.png" width="128" height="160"/>
  </tile>
  <tile id="2153">
   <image source="../tiled/ERW-Grass Land/Props/Atlas-Props-individual sprites/water well_empty_frame13.png" width="128" height="160"/>
  </tile>
  <tile id="2154">
   <image source="../tiled/ERW-Grass Land/Props/Atlas-Props-individual sprites/water well_empty_frame14.png" width="128" height="160"/>
  </tile>
  <tile id="2155">
   <image source="../tiled/ERW-Grass Land/Props/Atlas-Props-individual sprites/water well_empty_frame15.png" width="128" height="160"/>
  </tile>
  <tile id="2156">
   <image source="../tiled/ERW-Grass Land/Props/Atlas-Props-individual sprites/water well_empty_frame16.png" width="128" height="160"/>
  </tile>
  <tile id="2157">
   <image source="../tiled/ERW-Grass Land/Props/Atlas-Props-individual sprites/water well_empty_frame17.png" width="128" height="160"/>
  </tile>
  <tile id="2158">
   <image source="../tiled/ERW-Grass Land/Props/Atlas-Props-individual sprites/water well_empty_frame18.png" width="128" height="160"/>
  </tile>
  <tile id="2159">
   <image source="../tiled/ERW-Grass Land/Props/Atlas-Props-individual sprites/water well_empty_frame19.png" width="128" height="160"/>
  </tile>
  <tile id="2160">
   <image source="../tiled/ERW-Grass Land/Props/Atlas-Props-individual sprites/water well_empty_frame20.png" width="128" height="160"/>
  </tile>
  <tile id="2161">
   <image source="../tiled/ERW-Grass Land/Props/Atlas-Props-individual sprites/water well_empty_frame21.png" width="128" height="160"/>
  </tile>
  <tile id="2162">
   <image source="../tiled/ERW-Grass Land/Props/Atlas-Props-individual sprites/water well_empty_frame22.png" width="128" height="160"/>
  </tile>
  <tile id="2163">
   <image source="../tiled/ERW-Grass Land/Props/Atlas-Props-individual sprites/water well_empty_frame23.png" width="128" height="160"/>
  </tile>
  <tile id="2164">
   <image source="../tiled/ERW-Grass Land/Props/Atlas-Props-individual sprites/water well_empty_frame24.png" width="128" height="160"/>
  </tile>
  <tile id="2165">
   <image source="../tiled/ERW-Grass Land/Props/Atlas-Props-individual sprites/water well_empty_frame25.png" width="128" height="160"/>
  </tile>
  <tile id="2166">
   <image source="../tiled/ERW-Grass Land/Props/Atlas-Props-individual sprites/water well_empty_frame26.png" width="128" height="160"/>
  </tile>
  <tile id="2167">
   <image source="../tiled/ERW-Grass Land/Props/Atlas-Props-individual sprites/water well_empty_frame27.png" width="128" height="160"/>
  </tile>
  <tile id="2168">
   <image source="../tiled/ERW-Grass Land/Props/Atlas-Props-individual sprites/water well_empty_frame28.png" width="128" height="160"/>
  </tile>
  <tile id="2169">
   <image source="../tiled/ERW-Grass Land/Props/Atlas-Props-individual sprites/water well_empty_frame29.png" width="128" height="160"/>
  </tile>
  <tile id="2170">
   <image source="../tiled/ERW-Grass Land/Props/Atlas-Props-individual sprites/water well_empty_frame30.png" width="128" height="160"/>
   <animation>
    <frame tileid="2170" duration="100"/>
    <frame tileid="2171" duration="100"/>
    <frame tileid="2172" duration="100"/>
    <frame tileid="2173" duration="100"/>
    <frame tileid="2174" duration="100"/>
    <frame tileid="2175" duration="100"/>
    <frame tileid="2176" duration="100"/>
    <frame tileid="2177" duration="100"/>
    <frame tileid="2178" duration="100"/>
    <frame tileid="2179" duration="100"/>
    <frame tileid="2180" duration="100"/>
    <frame tileid="2181" duration="100"/>
    <frame tileid="2182" duration="100"/>
    <frame tileid="2183" duration="100"/>
    <frame tileid="2184" duration="100"/>
    <frame tileid="2185" duration="100"/>
    <frame tileid="2186" duration="100"/>
    <frame tileid="2187" duration="100"/>
    <frame tileid="2188" duration="100"/>
    <frame tileid="2189" duration="100"/>
    <frame tileid="2190" duration="100"/>
    <frame tileid="2191" duration="100"/>
    <frame tileid="2192" duration="100"/>
    <frame tileid="2193" duration="100"/>
    <frame tileid="2194" duration="100"/>
    <frame tileid="2195" duration="100"/>
    <frame tileid="2196" duration="100"/>
    <frame tileid="2197" duration="100"/>
    <frame tileid="2198" duration="100"/>
    <frame tileid="2199" duration="100"/>
   </animation>
  </tile>
  <tile id="2171">
   <image source="../tiled/ERW-Grass Land/Props/Atlas-Props-individual sprites/water well_water_frame1.png" width="128" height="160"/>
  </tile>
  <tile id="2172">
   <image source="../tiled/ERW-Grass Land/Props/Atlas-Props-individual sprites/water well_water_frame2.png" width="128" height="160"/>
  </tile>
  <tile id="2173">
   <image source="../tiled/ERW-Grass Land/Props/Atlas-Props-individual sprites/water well_water_frame3.png" width="128" height="160"/>
  </tile>
  <tile id="2174">
   <image source="../tiled/ERW-Grass Land/Props/Atlas-Props-individual sprites/water well_water_frame4.png" width="128" height="160"/>
  </tile>
  <tile id="2175">
   <image source="../tiled/ERW-Grass Land/Props/Atlas-Props-individual sprites/water well_water_frame5.png" width="128" height="160"/>
  </tile>
  <tile id="2176">
   <image source="../tiled/ERW-Grass Land/Props/Atlas-Props-individual sprites/water well_water_frame6.png" width="128" height="160"/>
  </tile>
  <tile id="2177">
   <image source="../tiled/ERW-Grass Land/Props/Atlas-Props-individual sprites/water well_water_frame7.png" width="128" height="160"/>
  </tile>
  <tile id="2178">
   <image source="../tiled/ERW-Grass Land/Props/Atlas-Props-individual sprites/water well_water_frame8.png" width="128" height="160"/>
  </tile>
  <tile id="2179">
   <image source="../tiled/ERW-Grass Land/Props/Atlas-Props-individual sprites/water well_water_frame9.png" width="128" height="160"/>
  </tile>
  <tile id="2180">
   <image source="../tiled/ERW-Grass Land/Props/Atlas-Props-individual sprites/water well_water_frame10.png" width="128" height="160"/>
  </tile>
  <tile id="2181">
   <image source="../tiled/ERW-Grass Land/Props/Atlas-Props-individual sprites/water well_water_frame11.png" width="128" height="160"/>
  </tile>
  <tile id="2182">
   <image source="../tiled/ERW-Grass Land/Props/Atlas-Props-individual sprites/water well_water_frame12.png" width="128" height="160"/>
  </tile>
  <tile id="2183">
   <image source="../tiled/ERW-Grass Land/Props/Atlas-Props-individual sprites/water well_water_frame13.png" width="128" height="160"/>
  </tile>
  <tile id="2184">
   <image source="../tiled/ERW-Grass Land/Props/Atlas-Props-individual sprites/water well_water_frame14.png" width="128" height="160"/>
  </tile>
  <tile id="2185">
   <image source="../tiled/ERW-Grass Land/Props/Atlas-Props-individual sprites/water well_water_frame15.png" width="128" height="160"/>
  </tile>
  <tile id="2186">
   <image source="../tiled/ERW-Grass Land/Props/Atlas-Props-individual sprites/water well_water_frame16.png" width="128" height="160"/>
  </tile>
  <tile id="2187">
   <image source="../tiled/ERW-Grass Land/Props/Atlas-Props-individual sprites/water well_water_frame17.png" width="128" height="160"/>
  </tile>
  <tile id="2188">
   <image source="../tiled/ERW-Grass Land/Props/Atlas-Props-individual sprites/water well_water_frame18.png" width="128" height="160"/>
  </tile>
  <tile id="2189">
   <image source="../tiled/ERW-Grass Land/Props/Atlas-Props-individual sprites/water well_water_frame19.png" width="128" height="160"/>
  </tile>
  <tile id="2190">
   <image source="../tiled/ERW-Grass Land/Props/Atlas-Props-individual sprites/water well_water_frame20.png" width="128" height="160"/>
  </tile>
  <tile id="2191">
   <image source="../tiled/ERW-Grass Land/Props/Atlas-Props-individual sprites/water well_water_frame21.png" width="128" height="160"/>
  </tile>
  <tile id="2192">
   <image source="../tiled/ERW-Grass Land/Props/Atlas-Props-individual sprites/water well_water_frame22.png" width="128" height="160"/>
  </tile>
  <tile id="2193">
   <image source="../tiled/ERW-Grass Land/Props/Atlas-Props-individual sprites/water well_water_frame23.png" width="128" height="160"/>
  </tile>
  <tile id="2194">
   <image source="../tiled/ERW-Grass Land/Props/Atlas-Props-individual sprites/water well_water_frame24.png" width="128" height="160"/>
  </tile>
  <tile id="2195">
   <image source="../tiled/ERW-Grass Land/Props/Atlas-Props-individual sprites/water well_water_frame25.png" width="128" height="160"/>
  </tile>
  <tile id="2196">
   <image source="../tiled/ERW-Grass Land/Props/Atlas-Props-individual sprites/water well_water_frame26.png" width="128" height="160"/>
  </tile>
  <tile id="2197">
   <image source="../tiled/ERW-Grass Land/Props/Atlas-Props-individual sprites/water well_water_frame27.png" width="128" height="160"/>
  </tile>
  <tile id="2198">
   <image source="../tiled/ERW-Grass Land/Props/Atlas-Props-individual sprites/water well_water_frame28.png" width="128" height="160"/>
  </tile>
  <tile id="2199">
   <image source="../tiled/ERW-Grass Land/Props/Atlas-Props-individual sprites/water well_water_frame29.png" width="128" height="160"/>
  </tile>
 </tileset>
 <tileset firstgid="6343" name="Atlas-Props-sheet1-sprites" tilewidth="192" tileheight="224" tilecount="639" columns="0" objectalignment="bottom">
  <grid orientation="orthogonal" width="1" height="1"/>
  <tile id="0">
   <image source="../tiled/ERW-Grassland 2.0/Props/Static props/sheet1-sprites/3.png" width="32" height="64"/>
  </tile>
  <tile id="1">
   <image source="../tiled/ERW-Grassland 2.0/Props/Static props/sheet1-sprites/barrel 1 - no grass.png" width="32" height="64"/>
  </tile>
  <tile id="2">
   <image source="../tiled/ERW-Grassland 2.0/Props/Static props/sheet1-sprites/barrel 1.png" width="32" height="64"/>
  </tile>
  <tile id="3">
   <image source="../tiled/ERW-Grassland 2.0/Props/Static props/sheet1-sprites/barrel 2 - no grass.png" width="32" height="64"/>
  </tile>
  <tile id="4">
   <image source="../tiled/ERW-Grassland 2.0/Props/Static props/sheet1-sprites/barrel 2.png" width="32" height="64"/>
  </tile>
  <tile id="5">
   <image source="../tiled/ERW-Grassland 2.0/Props/Static props/sheet1-sprites/barrel 3 - no grass.png" width="32" height="64"/>
  </tile>
  <tile id="6">
   <image source="../tiled/ERW-Grassland 2.0/Props/Static props/sheet1-sprites/barrel 3.png" width="32" height="64"/>
  </tile>
  <tile id="7">
   <image source="../tiled/ERW-Grassland 2.0/Props/Static props/sheet1-sprites/barrel 4 - no grass.png" width="32" height="64"/>
  </tile>
  <tile id="8">
   <image source="../tiled/ERW-Grassland 2.0/Props/Static props/sheet1-sprites/barrel 4.png" width="32" height="64"/>
  </tile>
  <tile id="9">
   <image source="../tiled/ERW-Grassland 2.0/Props/Static props/sheet1-sprites/barrel 5 - no grass.png" width="32" height="64"/>
  </tile>
  <tile id="10">
   <image source="../tiled/ERW-Grassland 2.0/Props/Static props/sheet1-sprites/barrel 5.png" width="32" height="64"/>
  </tile>
  <tile id="11">
   <image source="../tiled/ERW-Grassland 2.0/Props/Static props/sheet1-sprites/barrel 6 - no grass.png" width="32" height="64"/>
  </tile>
  <tile id="12">
   <image source="../tiled/ERW-Grassland 2.0/Props/Static props/sheet1-sprites/barrel 6.png" width="32" height="64"/>
  </tile>
  <tile id="13">
   <image source="../tiled/ERW-Grassland 2.0/Props/Static props/sheet1-sprites/barrel 7 - no grass.png" width="32" height="64"/>
  </tile>
  <tile id="14">
   <image source="../tiled/ERW-Grassland 2.0/Props/Static props/sheet1-sprites/barrel 7.png" width="32" height="64"/>
  </tile>
  <tile id="15">
   <image source="../tiled/ERW-Grassland 2.0/Props/Static props/sheet1-sprites/barrel 8 - no grass.png" width="32" height="64"/>
  </tile>
  <tile id="16">
   <image source="../tiled/ERW-Grassland 2.0/Props/Static props/sheet1-sprites/barrel 8.png" width="32" height="64"/>
  </tile>
  <tile id="17">
   <image source="../tiled/ERW-Grassland 2.0/Props/Static props/sheet1-sprites/barrel 9 - no grass.png" width="32" height="64"/>
  </tile>
  <tile id="18">
   <image source="../tiled/ERW-Grassland 2.0/Props/Static props/sheet1-sprites/barrel 9.png" width="32" height="64"/>
  </tile>
  <tile id="19">
   <image source="../tiled/ERW-Grassland 2.0/Props/Static props/sheet1-sprites/barrel 10 - no grass.png" width="32" height="64"/>
  </tile>
  <tile id="20">
   <image source="../tiled/ERW-Grassland 2.0/Props/Static props/sheet1-sprites/barrel 10.png" width="32" height="64"/>
  </tile>
  <tile id="21">
   <image source="../tiled/ERW-Grassland 2.0/Props/Static props/sheet1-sprites/beach detail 1.png" width="32" height="32"/>
  </tile>
  <tile id="22">
   <image source="../tiled/ERW-Grassland 2.0/Props/Static props/sheet1-sprites/beach detail 2.png" width="32" height="32"/>
  </tile>
  <tile id="23">
   <image source="../tiled/ERW-Grassland 2.0/Props/Static props/sheet1-sprites/beach detail 3.png" width="32" height="32"/>
  </tile>
  <tile id="24">
   <image source="../tiled/ERW-Grassland 2.0/Props/Static props/sheet1-sprites/beach detail 4.png" width="32" height="32"/>
  </tile>
  <tile id="25">
   <image source="../tiled/ERW-Grassland 2.0/Props/Static props/sheet1-sprites/beach detail 5.png" width="32" height="32"/>
  </tile>
  <tile id="26">
   <image source="../tiled/ERW-Grassland 2.0/Props/Static props/sheet1-sprites/beach detail 6.png" width="32" height="32"/>
  </tile>
  <tile id="27">
   <image source="../tiled/ERW-Grassland 2.0/Props/Static props/sheet1-sprites/beach detail 7.png" width="32" height="32"/>
  </tile>
  <tile id="28">
   <image source="../tiled/ERW-Grassland 2.0/Props/Static props/sheet1-sprites/beach detail 8.png" width="32" height="32"/>
  </tile>
  <tile id="29">
   <image source="../tiled/ERW-Grassland 2.0/Props/Static props/sheet1-sprites/beach detail 9.png" width="32" height="32"/>
  </tile>
  <tile id="30">
   <image source="../tiled/ERW-Grassland 2.0/Props/Static props/sheet1-sprites/beach detail 10.png" width="32" height="32"/>
  </tile>
  <tile id="31">
   <image source="../tiled/ERW-Grassland 2.0/Props/Static props/sheet1-sprites/beach detail 11.png" width="32" height="32"/>
  </tile>
  <tile id="32">
   <image source="../tiled/ERW-Grassland 2.0/Props/Static props/sheet1-sprites/beach detail 12.png" width="32" height="32"/>
  </tile>
  <tile id="33">
   <image source="../tiled/ERW-Grassland 2.0/Props/Static props/sheet1-sprites/beach detail 13.png" width="32" height="32"/>
  </tile>
  <tile id="34">
   <image source="../tiled/ERW-Grassland 2.0/Props/Static props/sheet1-sprites/beach detail 14.png" width="32" height="32"/>
  </tile>
  <tile id="35">
   <image source="../tiled/ERW-Grassland 2.0/Props/Static props/sheet1-sprites/beach detail 15.png" width="32" height="32"/>
  </tile>
  <tile id="36">
   <image source="../tiled/ERW-Grassland 2.0/Props/Static props/sheet1-sprites/beach detail 16.png" width="32" height="32"/>
  </tile>
  <tile id="37">
   <image source="../tiled/ERW-Grassland 2.0/Props/Static props/sheet1-sprites/beach detail 17.png" width="32" height="32"/>
  </tile>
  <tile id="38">
   <image source="../tiled/ERW-Grassland 2.0/Props/Static props/sheet1-sprites/beach detail 18.png" width="32" height="32"/>
  </tile>
  <tile id="39">
   <image source="../tiled/ERW-Grassland 2.0/Props/Static props/sheet1-sprites/beach detail 19.png" width="32" height="32"/>
  </tile>
  <tile id="40">
   <image source="../tiled/ERW-Grassland 2.0/Props/Static props/sheet1-sprites/beach detail 20.png" width="32" height="32"/>
  </tile>
  <tile id="41">
   <image source="../tiled/ERW-Grassland 2.0/Props/Static props/sheet1-sprites/beach detail 21.png" width="32" height="32"/>
  </tile>
  <tile id="42">
   <image source="../tiled/ERW-Grassland 2.0/Props/Static props/sheet1-sprites/beach detail 22.png" width="32" height="32"/>
  </tile>
  <tile id="43">
   <image source="../tiled/ERW-Grassland 2.0/Props/Static props/sheet1-sprites/beach detail 23.png" width="32" height="32"/>
  </tile>
  <tile id="44">
   <image source="../tiled/ERW-Grassland 2.0/Props/Static props/sheet1-sprites/beach detail 24.png" width="32" height="32"/>
  </tile>
  <tile id="45">
   <image source="../tiled/ERW-Grassland 2.0/Props/Static props/sheet1-sprites/beach detail 25.png" width="32" height="32"/>
  </tile>
  <tile id="46">
   <image source="../tiled/ERW-Grassland 2.0/Props/Static props/sheet1-sprites/beach detail 26.png" width="32" height="32"/>
  </tile>
  <tile id="47">
   <image source="../tiled/ERW-Grassland 2.0/Props/Static props/sheet1-sprites/beach detail 27.png" width="32" height="32"/>
  </tile>
  <tile id="48">
   <image source="../tiled/ERW-Grassland 2.0/Props/Static props/sheet1-sprites/beach detail 28.png" width="32" height="32"/>
  </tile>
  <tile id="49">
   <image source="../tiled/ERW-Grassland 2.0/Props/Static props/sheet1-sprites/bucket - smaller - 1.png" width="32" height="32"/>
  </tile>
  <tile id="50">
   <image source="../tiled/ERW-Grassland 2.0/Props/Static props/sheet1-sprites/bucket - smaller - 2.png" width="32" height="32"/>
  </tile>
  <tile id="51">
   <image source="../tiled/ERW-Grassland 2.0/Props/Static props/sheet1-sprites/bucket - smaller - 3.png" width="32" height="32"/>
  </tile>
  <tile id="52">
   <image source="../tiled/ERW-Grassland 2.0/Props/Static props/sheet1-sprites/bucket - smaller - 4.png" width="32" height="32"/>
  </tile>
  <tile id="53">
   <image source="../tiled/ERW-Grassland 2.0/Props/Static props/sheet1-sprites/bucket 1 - no grass.png" width="32" height="32"/>
  </tile>
  <tile id="54">
   <image source="../tiled/ERW-Grassland 2.0/Props/Static props/sheet1-sprites/bucket 1.png" width="32" height="32"/>
  </tile>
  <tile id="55">
   <image source="../tiled/ERW-Grassland 2.0/Props/Static props/sheet1-sprites/bucket 2 - no grass.png" width="32" height="32"/>
  </tile>
  <tile id="56">
   <image source="../tiled/ERW-Grassland 2.0/Props/Static props/sheet1-sprites/bucket 2.png" width="32" height="32"/>
  </tile>
  <tile id="57">
   <image source="../tiled/ERW-Grassland 2.0/Props/Static props/sheet1-sprites/bucket 3 - no grass.png" width="32" height="32"/>
  </tile>
  <tile id="58">
   <image source="../tiled/ERW-Grassland 2.0/Props/Static props/sheet1-sprites/bucket 3.png" width="32" height="32"/>
  </tile>
  <tile id="59">
   <image source="../tiled/ERW-Grassland 2.0/Props/Static props/sheet1-sprites/bucket 4 - no grass.png" width="32" height="32"/>
  </tile>
  <tile id="60">
   <image source="../tiled/ERW-Grassland 2.0/Props/Static props/sheet1-sprites/bucket 4.png" width="32" height="32"/>
  </tile>
  <tile id="61">
   <image source="../tiled/ERW-Grassland 2.0/Props/Static props/sheet1-sprites/bucket 5.png" width="32" height="32"/>
  </tile>
  <tile id="62">
   <image source="../tiled/ERW-Grassland 2.0/Props/Static props/sheet1-sprites/bucket 6.png" width="32" height="32"/>
  </tile>
  <tile id="63">
   <image source="../tiled/ERW-Grassland 2.0/Props/Static props/sheet1-sprites/bush 1.png" width="64" height="64"/>
  </tile>
  <tile id="64">
   <image source="../tiled/ERW-Grassland 2.0/Props/Static props/sheet1-sprites/bush 2.png" width="96" height="64"/>
  </tile>
  <tile id="65">
   <image source="../tiled/ERW-Grassland 2.0/Props/Static props/sheet1-sprites/bush 3.png" width="96" height="64"/>
  </tile>
  <tile id="66">
   <image source="../tiled/ERW-Grassland 2.0/Props/Static props/sheet1-sprites/bush 4.png" width="96" height="64"/>
  </tile>
  <tile id="67">
   <image source="../tiled/ERW-Grassland 2.0/Props/Static props/sheet1-sprites/bush 5.png" width="64" height="64"/>
  </tile>
  <tile id="68">
   <image source="../tiled/ERW-Grassland 2.0/Props/Static props/sheet1-sprites/bush 6.png" width="64" height="64"/>
  </tile>
  <tile id="69">
   <image source="../tiled/ERW-Grassland 2.0/Props/Static props/sheet1-sprites/bush 7.png" width="64" height="64"/>
  </tile>
  <tile id="70">
   <image source="../tiled/ERW-Grassland 2.0/Props/Static props/sheet1-sprites/bush 8.png" width="96" height="64"/>
  </tile>
  <tile id="71">
   <image source="../tiled/ERW-Grassland 2.0/Props/Static props/sheet1-sprites/bush 9.png" width="96" height="64"/>
  </tile>
  <tile id="72">
   <image source="../tiled/ERW-Grassland 2.0/Props/Static props/sheet1-sprites/bush 10.png" width="96" height="64"/>
  </tile>
  <tile id="73">
   <image source="../tiled/ERW-Grassland 2.0/Props/Static props/sheet1-sprites/bush 11.png" width="64" height="64"/>
  </tile>
  <tile id="74">
   <image source="../tiled/ERW-Grassland 2.0/Props/Static props/sheet1-sprites/bush 12.png" width="64" height="64"/>
  </tile>
  <tile id="75">
   <image source="../tiled/ERW-Grassland 2.0/Props/Static props/sheet1-sprites/bush 13.png" width="96" height="64"/>
  </tile>
  <tile id="76">
   <image source="../tiled/ERW-Grassland 2.0/Props/Static props/sheet1-sprites/bush 14.png" width="96" height="64"/>
  </tile>
  <tile id="77">
   <image source="../tiled/ERW-Grassland 2.0/Props/Static props/sheet1-sprites/bush 15.png" width="96" height="64"/>
  </tile>
  <tile id="78">
   <image source="../tiled/ERW-Grassland 2.0/Props/Static props/sheet1-sprites/bush 16.png" width="96" height="64"/>
  </tile>
  <tile id="79">
   <image source="../tiled/ERW-Grassland 2.0/Props/Static props/sheet1-sprites/bush 17.png" width="64" height="64"/>
  </tile>
  <tile id="80">
   <image source="../tiled/ERW-Grassland 2.0/Props/Static props/sheet1-sprites/bush 18.png" width="64" height="64"/>
  </tile>
  <tile id="81">
   <image source="../tiled/ERW-Grassland 2.0/Props/Static props/sheet1-sprites/bush 19.png" width="96" height="64"/>
  </tile>
  <tile id="82">
   <image source="../tiled/ERW-Grassland 2.0/Props/Static props/sheet1-sprites/bush 20.png" width="96" height="64"/>
  </tile>
  <tile id="83">
   <image source="../tiled/ERW-Grassland 2.0/Props/Static props/sheet1-sprites/bush 21.png" width="96" height="64"/>
  </tile>
  <tile id="84">
   <image source="../tiled/ERW-Grassland 2.0/Props/Static props/sheet1-sprites/bush 22.png" width="96" height="64"/>
  </tile>
  <tile id="85">
   <image source="../tiled/ERW-Grassland 2.0/Props/Static props/sheet1-sprites/bush 23.png" width="64" height="64"/>
  </tile>
  <tile id="86">
   <image source="../tiled/ERW-Grassland 2.0/Props/Static props/sheet1-sprites/bush 24.png" width="64" height="64"/>
  </tile>
  <tile id="87">
   <image source="../tiled/ERW-Grassland 2.0/Props/Static props/sheet1-sprites/bush 25.png" width="96" height="64"/>
  </tile>
  <tile id="88">
   <image source="../tiled/ERW-Grassland 2.0/Props/Static props/sheet1-sprites/campfire 1.png" width="64" height="64"/>
  </tile>
  <tile id="89">
   <image source="../tiled/ERW-Grassland 2.0/Props/Static props/sheet1-sprites/campfire 2.png" width="64" height="64"/>
  </tile>
  <tile id="90">
   <image source="../tiled/ERW-Grassland 2.0/Props/Static props/sheet1-sprites/campfire 3.png" width="64" height="64"/>
  </tile>
  <tile id="91">
   <image source="../tiled/ERW-Grassland 2.0/Props/Static props/sheet1-sprites/campfire 4.png" width="64" height="64"/>
  </tile>
  <tile id="92">
   <image source="../tiled/ERW-Grassland 2.0/Props/Static props/sheet1-sprites/campfire 5.png" width="64" height="64"/>
  </tile>
  <tile id="93">
   <image source="../tiled/ERW-Grassland 2.0/Props/Static props/sheet1-sprites/campfire 6.png" width="64" height="64"/>
  </tile>
  <tile id="94">
   <image source="../tiled/ERW-Grassland 2.0/Props/Static props/sheet1-sprites/campfire 7.png" width="96" height="96"/>
  </tile>
  <tile id="95">
   <image source="../tiled/ERW-Grassland 2.0/Props/Static props/sheet1-sprites/campfire 8.png" width="96" height="96"/>
  </tile>
  <tile id="96">
   <image source="../tiled/ERW-Grassland 2.0/Props/Static props/sheet1-sprites/campfire 9.png" width="96" height="96"/>
  </tile>
  <tile id="97">
   <image source="../tiled/ERW-Grassland 2.0/Props/Static props/sheet1-sprites/campfire 10.png" width="96" height="96"/>
  </tile>
  <tile id="98">
   <image source="../tiled/ERW-Grassland 2.0/Props/Static props/sheet1-sprites/campfire 11.png" width="96" height="96"/>
  </tile>
  <tile id="99">
   <image source="../tiled/ERW-Grassland 2.0/Props/Static props/sheet1-sprites/campfire 12.png" width="96" height="96"/>
  </tile>
  <tile id="100">
   <image source="../tiled/ERW-Grassland 2.0/Props/Static props/sheet1-sprites/campfire 13.png" width="96" height="96"/>
  </tile>
  <tile id="101">
   <image source="../tiled/ERW-Grassland 2.0/Props/Static props/sheet1-sprites/campfire 14.png" width="96" height="96"/>
  </tile>
  <tile id="102">
   <image source="../tiled/ERW-Grassland 2.0/Props/Static props/sheet1-sprites/campfire 15.png" width="96" height="96"/>
  </tile>
  <tile id="103">
   <image source="../tiled/ERW-Grassland 2.0/Props/Static props/sheet1-sprites/campfire 16.png" width="96" height="96"/>
  </tile>
  <tile id="104">
   <image source="../tiled/ERW-Grassland 2.0/Props/Static props/sheet1-sprites/campfire 17.png" width="96" height="96"/>
  </tile>
  <tile id="105">
   <image source="../tiled/ERW-Grassland 2.0/Props/Static props/sheet1-sprites/campfire 18.png" width="96" height="96"/>
  </tile>
  <tile id="106">
   <image source="../tiled/ERW-Grassland 2.0/Props/Static props/sheet1-sprites/campfire 19.png" width="96" height="96"/>
  </tile>
  <tile id="107">
   <image source="../tiled/ERW-Grassland 2.0/Props/Static props/sheet1-sprites/crate 1 - no grass.png" width="32" height="64"/>
  </tile>
  <tile id="108">
   <image source="../tiled/ERW-Grassland 2.0/Props/Static props/sheet1-sprites/crate 1.png" width="32" height="64"/>
  </tile>
  <tile id="109">
   <image source="../tiled/ERW-Grassland 2.0/Props/Static props/sheet1-sprites/crate 2 - no grass.png" width="32" height="64"/>
  </tile>
  <tile id="110">
   <image source="../tiled/ERW-Grassland 2.0/Props/Static props/sheet1-sprites/crate 2.png" width="32" height="64"/>
  </tile>
  <tile id="111">
   <image source="../tiled/ERW-Grassland 2.0/Props/Static props/sheet1-sprites/crate 3 - no grass.png" width="32" height="64"/>
  </tile>
  <tile id="112">
   <image source="../tiled/ERW-Grassland 2.0/Props/Static props/sheet1-sprites/crate 4 - no grass.png" width="32" height="64"/>
  </tile>
  <tile id="113">
   <image source="../tiled/ERW-Grassland 2.0/Props/Static props/sheet1-sprites/crate 4.png" width="32" height="64"/>
  </tile>
  <tile id="114">
   <image source="../tiled/ERW-Grassland 2.0/Props/Static props/sheet1-sprites/crate 5 - no grass.png" width="32" height="64"/>
  </tile>
  <tile id="115">
   <image source="../tiled/ERW-Grassland 2.0/Props/Static props/sheet1-sprites/crate 5.png" width="32" height="64"/>
  </tile>
  <tile id="116">
   <image source="../tiled/ERW-Grassland 2.0/Props/Static props/sheet1-sprites/crate 6 - no grass.png" width="32" height="64"/>
  </tile>
  <tile id="117">
   <image source="../tiled/ERW-Grassland 2.0/Props/Static props/sheet1-sprites/crate 6.png" width="32" height="64"/>
  </tile>
  <tile id="118">
   <image source="../tiled/ERW-Grassland 2.0/Props/Static props/sheet1-sprites/crate 7 - no grass.png" width="32" height="64"/>
  </tile>
  <tile id="119">
   <image source="../tiled/ERW-Grassland 2.0/Props/Static props/sheet1-sprites/crate 7.png" width="32" height="64"/>
  </tile>
  <tile id="120">
   <image source="../tiled/ERW-Grassland 2.0/Props/Static props/sheet1-sprites/crate 8 - no grass.png" width="32" height="64"/>
  </tile>
  <tile id="121">
   <image source="../tiled/ERW-Grassland 2.0/Props/Static props/sheet1-sprites/crate 8.png" width="32" height="64"/>
  </tile>
  <tile id="122">
   <image source="../tiled/ERW-Grassland 2.0/Props/Static props/sheet1-sprites/crate 9 - no grass.png" width="32" height="64"/>
  </tile>
  <tile id="123">
   <image source="../tiled/ERW-Grassland 2.0/Props/Static props/sheet1-sprites/crate 9.png" width="32" height="64"/>
  </tile>
  <tile id="124">
   <image source="../tiled/ERW-Grassland 2.0/Props/Static props/sheet1-sprites/crate 10 - no grass.png" width="32" height="64"/>
  </tile>
  <tile id="125">
   <image source="../tiled/ERW-Grassland 2.0/Props/Static props/sheet1-sprites/crate 10.png" width="32" height="64"/>
  </tile>
  <tile id="126">
   <image source="../tiled/ERW-Grassland 2.0/Props/Static props/sheet1-sprites/crate 11 - no grass.png" width="32" height="64"/>
  </tile>
  <tile id="127">
   <image source="../tiled/ERW-Grassland 2.0/Props/Static props/sheet1-sprites/crate 11.png" width="32" height="64"/>
  </tile>
  <tile id="128">
   <image source="../tiled/ERW-Grassland 2.0/Props/Static props/sheet1-sprites/crate 12 - no grass.png" width="32" height="64"/>
  </tile>
  <tile id="129">
   <image source="../tiled/ERW-Grassland 2.0/Props/Static props/sheet1-sprites/crate 12.png" width="32" height="64"/>
  </tile>
  <tile id="130">
   <image source="../tiled/ERW-Grassland 2.0/Props/Static props/sheet1-sprites/crate 13 - no grass.png" width="32" height="64"/>
  </tile>
  <tile id="131">
   <image source="../tiled/ERW-Grassland 2.0/Props/Static props/sheet1-sprites/crate 13.png" width="32" height="64"/>
  </tile>
  <tile id="132">
   <image source="../tiled/ERW-Grassland 2.0/Props/Static props/sheet1-sprites/crate 14 - no grass.png" width="32" height="64"/>
  </tile>
  <tile id="133">
   <image source="../tiled/ERW-Grassland 2.0/Props/Static props/sheet1-sprites/crate 14.png" width="32" height="64"/>
  </tile>
  <tile id="134">
   <image source="../tiled/ERW-Grassland 2.0/Props/Static props/sheet1-sprites/crate 15 - no grass.png" width="32" height="64"/>
  </tile>
  <tile id="135">
   <image source="../tiled/ERW-Grassland 2.0/Props/Static props/sheet1-sprites/crate 15.png" width="32" height="64"/>
  </tile>
  <tile id="136">
   <image source="../tiled/ERW-Grassland 2.0/Props/Static props/sheet1-sprites/crate 16 - no grass.png" width="32" height="64"/>
  </tile>
  <tile id="137">
   <image source="../tiled/ERW-Grassland 2.0/Props/Static props/sheet1-sprites/crate 16.png" width="32" height="64"/>
  </tile>
  <tile id="138">
   <image source="../tiled/ERW-Grassland 2.0/Props/Static props/sheet1-sprites/crate 17 - no grass.png" width="32" height="64"/>
  </tile>
  <tile id="139">
   <image source="../tiled/ERW-Grassland 2.0/Props/Static props/sheet1-sprites/crate 17.png" width="32" height="64"/>
  </tile>
  <tile id="140">
   <image source="../tiled/ERW-Grassland 2.0/Props/Static props/sheet1-sprites/crate 18 - no grass.png" width="32" height="64"/>
  </tile>
  <tile id="141">
   <image source="../tiled/ERW-Grassland 2.0/Props/Static props/sheet1-sprites/crate 18.png" width="32" height="64"/>
  </tile>
  <tile id="142">
   <image source="../tiled/ERW-Grassland 2.0/Props/Static props/sheet1-sprites/doorway - entrance - gateway.png" width="128" height="96"/>
  </tile>
  <tile id="143">
   <image source="../tiled/ERW-Grassland 2.0/Props/Static props/sheet1-sprites/fence - gateway - closed - left.png" width="32" height="32"/>
  </tile>
  <tile id="144">
   <image source="../tiled/ERW-Grassland 2.0/Props/Static props/sheet1-sprites/fence - gateway - closed - middle.png" width="32" height="32"/>
  </tile>
  <tile id="145">
   <image source="../tiled/ERW-Grassland 2.0/Props/Static props/sheet1-sprites/fence - gateway - closed - right.png" width="32" height="32"/>
  </tile>
  <tile id="146">
   <image source="../tiled/ERW-Grassland 2.0/Props/Static props/sheet1-sprites/fence - gateway - left.png" width="32" height="64"/>
  </tile>
  <tile id="147">
   <image source="../tiled/ERW-Grassland 2.0/Props/Static props/sheet1-sprites/fence - gateway - right.png" width="32" height="64"/>
  </tile>
  <tile id="148">
   <image source="../tiled/ERW-Grassland 2.0/Props/Static props/sheet1-sprites/fence - gateway2 - left.png" width="32" height="64"/>
  </tile>
  <tile id="149">
   <image source="../tiled/ERW-Grassland 2.0/Props/Static props/sheet1-sprites/fence - gateway2 - right.png" width="32" height="64"/>
  </tile>
  <tile id="150">
   <image source="../tiled/ERW-Grassland 2.0/Props/Static props/sheet1-sprites/fence - left - down - up.png" width="32" height="32"/>
  </tile>
  <tile id="151">
   <image source="../tiled/ERW-Grassland 2.0/Props/Static props/sheet1-sprites/fence - left - down.png" width="32" height="32"/>
  </tile>
  <tile id="152">
   <image source="../tiled/ERW-Grassland 2.0/Props/Static props/sheet1-sprites/fence - left - end - 2.png" width="32" height="32"/>
  </tile>
  <tile id="153">
   <image source="../tiled/ERW-Grassland 2.0/Props/Static props/sheet1-sprites/fence - left - end.png" width="32" height="32"/>
  </tile>
  <tile id="154">
   <image source="../tiled/ERW-Grassland 2.0/Props/Static props/sheet1-sprites/fence - left - right - 1.png" width="32" height="32"/>
  </tile>
  <tile id="155">
   <image source="../tiled/ERW-Grassland 2.0/Props/Static props/sheet1-sprites/fence - left - right - 2.png" width="32" height="32"/>
  </tile>
  <tile id="156">
   <image source="../tiled/ERW-Grassland 2.0/Props/Static props/sheet1-sprites/fence - left - right - 3.png" width="32" height="32"/>
  </tile>
  <tile id="157">
   <image source="../tiled/ERW-Grassland 2.0/Props/Static props/sheet1-sprites/fence - left - right - 4.png" width="32" height="32"/>
  </tile>
  <tile id="158">
   <image source="../tiled/ERW-Grassland 2.0/Props/Static props/sheet1-sprites/fence - left - right - 5.png" width="32" height="32"/>
  </tile>
  <tile id="159">
   <image source="../tiled/ERW-Grassland 2.0/Props/Static props/sheet1-sprites/fence - left - right - 6.png" width="32" height="32"/>
  </tile>
  <tile id="160">
   <image source="../tiled/ERW-Grassland 2.0/Props/Static props/sheet1-sprites/fence - left - right - 7.png" width="32" height="32"/>
  </tile>
  <tile id="161">
   <image source="../tiled/ERW-Grassland 2.0/Props/Static props/sheet1-sprites/fence - left - right - 8.png" width="32" height="32"/>
  </tile>
  <tile id="162">
   <image source="../tiled/ERW-Grassland 2.0/Props/Static props/sheet1-sprites/fence - left - right - 9.png" width="32" height="32"/>
  </tile>
  <tile id="163">
   <image source="../tiled/ERW-Grassland 2.0/Props/Static props/sheet1-sprites/fence - left - right - 10.png" width="32" height="32"/>
  </tile>
  <tile id="164">
   <image source="../tiled/ERW-Grassland 2.0/Props/Static props/sheet1-sprites/fence - left - right - 11.png" width="32" height="32"/>
  </tile>
  <tile id="165">
   <image source="../tiled/ERW-Grassland 2.0/Props/Static props/sheet1-sprites/fence - left - right - 12.png" width="32" height="32"/>
  </tile>
  <tile id="166">
   <image source="../tiled/ERW-Grassland 2.0/Props/Static props/sheet1-sprites/fence - left - right - down - up.png" width="32" height="32"/>
  </tile>
  <tile id="167">
   <image source="../tiled/ERW-Grassland 2.0/Props/Static props/sheet1-sprites/fence - left - up.png" width="32" height="32"/>
  </tile>
  <tile id="168">
   <image source="../tiled/ERW-Grassland 2.0/Props/Static props/sheet1-sprites/fence - left.png" width="32" height="32"/>
  </tile>
  <tile id="169">
   <image source="../tiled/ERW-Grassland 2.0/Props/Static props/sheet1-sprites/fence - right - down - up.png" width="32" height="32"/>
  </tile>
  <tile id="170">
   <image source="../tiled/ERW-Grassland 2.0/Props/Static props/sheet1-sprites/fence - right - down.png" width="32" height="32"/>
  </tile>
  <tile id="171">
   <image source="../tiled/ERW-Grassland 2.0/Props/Static props/sheet1-sprites/fence - right - end - 2.png" width="32" height="32"/>
  </tile>
  <tile id="172">
   <image source="../tiled/ERW-Grassland 2.0/Props/Static props/sheet1-sprites/fence - right - end.png" width="32" height="32"/>
  </tile>
  <tile id="173">
   <image source="../tiled/ERW-Grassland 2.0/Props/Static props/sheet1-sprites/fence - right - up.png" width="32" height="32"/>
  </tile>
  <tile id="174">
   <image source="../tiled/ERW-Grassland 2.0/Props/Static props/sheet1-sprites/fence - right.png" width="32" height="32"/>
  </tile>
  <tile id="175">
   <image source="../tiled/ERW-Grassland 2.0/Props/Static props/sheet1-sprites/fence - up - down.png" width="32" height="32"/>
  </tile>
  <tile id="176">
   <image source="../tiled/ERW-Grassland 2.0/Props/Static props/sheet1-sprites/fence - up.png" width="32" height="32"/>
  </tile>
  <tile id="177">
   <image source="../tiled/ERW-Grassland 2.0/Props/Static props/sheet1-sprites/fence.png" width="32" height="32"/>
  </tile>
  <tile id="178">
   <image source="../tiled/ERW-Grassland 2.0/Props/Static props/sheet1-sprites/fence2 -  up.png" width="32" height="32"/>
  </tile>
  <tile id="179">
   <image source="../tiled/ERW-Grassland 2.0/Props/Static props/sheet1-sprites/fence2 - down - up.png" width="32" height="32"/>
  </tile>
  <tile id="180">
   <image source="../tiled/ERW-Grassland 2.0/Props/Static props/sheet1-sprites/fence2 - gateway - closed - left.png" width="32" height="32"/>
  </tile>
  <tile id="181">
   <image source="../tiled/ERW-Grassland 2.0/Props/Static props/sheet1-sprites/fence2 - gateway - closed - middle.png" width="32" height="32"/>
  </tile>
  <tile id="182">
   <image source="../tiled/ERW-Grassland 2.0/Props/Static props/sheet1-sprites/fence2 - gateway - closed - right.png" width="32" height="32"/>
  </tile>
  <tile id="183">
   <image source="../tiled/ERW-Grassland 2.0/Props/Static props/sheet1-sprites/fence2 - gateway - left.png" width="32" height="64"/>
  </tile>
  <tile id="184">
   <image source="../tiled/ERW-Grassland 2.0/Props/Static props/sheet1-sprites/fence2 - gateway - right.png" width="32" height="64"/>
  </tile>
  <tile id="185">
   <image source="../tiled/ERW-Grassland 2.0/Props/Static props/sheet1-sprites/fence2 - gateway2 - left.png" width="32" height="64"/>
  </tile>
  <tile id="186">
   <image source="../tiled/ERW-Grassland 2.0/Props/Static props/sheet1-sprites/fence2 - gateway2 - right.png" width="32" height="64"/>
  </tile>
  <tile id="187">
   <image source="../tiled/ERW-Grassland 2.0/Props/Static props/sheet1-sprites/fence2 - left - down - up.png" width="32" height="32"/>
  </tile>
  <tile id="188">
   <image source="../tiled/ERW-Grassland 2.0/Props/Static props/sheet1-sprites/fence2 - left - down.png" width="32" height="32"/>
  </tile>
  <tile id="189">
   <image source="../tiled/ERW-Grassland 2.0/Props/Static props/sheet1-sprites/fence2 - left - end - 2.png" width="32" height="32"/>
  </tile>
  <tile id="190">
   <image source="../tiled/ERW-Grassland 2.0/Props/Static props/sheet1-sprites/fence2 - left - end.png" width="32" height="32"/>
  </tile>
  <tile id="191">
   <image source="../tiled/ERW-Grassland 2.0/Props/Static props/sheet1-sprites/fence2 - left - right - 1.png" width="32" height="32"/>
  </tile>
  <tile id="192">
   <image source="../tiled/ERW-Grassland 2.0/Props/Static props/sheet1-sprites/fence2 - left - right - 2.png" width="32" height="32"/>
  </tile>
  <tile id="193">
   <image source="../tiled/ERW-Grassland 2.0/Props/Static props/sheet1-sprites/fence2 - left - right - 3.png" width="32" height="32"/>
  </tile>
  <tile id="194">
   <image source="../tiled/ERW-Grassland 2.0/Props/Static props/sheet1-sprites/fence2 - left - right - 4.png" width="32" height="32"/>
  </tile>
  <tile id="195">
   <image source="../tiled/ERW-Grassland 2.0/Props/Static props/sheet1-sprites/fence2 - left - right - 5.png" width="32" height="32"/>
  </tile>
  <tile id="196">
   <image source="../tiled/ERW-Grassland 2.0/Props/Static props/sheet1-sprites/fence2 - left - right - 6.png" width="32" height="32"/>
  </tile>
  <tile id="197">
   <image source="../tiled/ERW-Grassland 2.0/Props/Static props/sheet1-sprites/fence2 - left - right - 7.png" width="32" height="32"/>
  </tile>
  <tile id="198">
   <image source="../tiled/ERW-Grassland 2.0/Props/Static props/sheet1-sprites/fence2 - left - right - 8.png" width="32" height="32"/>
  </tile>
  <tile id="199">
   <image source="../tiled/ERW-Grassland 2.0/Props/Static props/sheet1-sprites/fence2 - left - right - 9.png" width="32" height="32"/>
  </tile>
  <tile id="200">
   <image source="../tiled/ERW-Grassland 2.0/Props/Static props/sheet1-sprites/fence2 - left - right - 10.png" width="32" height="32"/>
  </tile>
  <tile id="201">
   <image source="../tiled/ERW-Grassland 2.0/Props/Static props/sheet1-sprites/fence2 - left - right - 11.png" width="32" height="32"/>
  </tile>
  <tile id="202">
   <image source="../tiled/ERW-Grassland 2.0/Props/Static props/sheet1-sprites/fence2 - left - right - 12.png" width="32" height="32"/>
  </tile>
  <tile id="203">
   <image source="../tiled/ERW-Grassland 2.0/Props/Static props/sheet1-sprites/fence2 - left - right - down - up.png" width="32" height="32"/>
  </tile>
  <tile id="204">
   <image source="../tiled/ERW-Grassland 2.0/Props/Static props/sheet1-sprites/fence2 - left - up.png" width="32" height="32"/>
  </tile>
  <tile id="205">
   <image source="../tiled/ERW-Grassland 2.0/Props/Static props/sheet1-sprites/fence2 - left.png" width="32" height="32"/>
  </tile>
  <tile id="206">
   <image source="../tiled/ERW-Grassland 2.0/Props/Static props/sheet1-sprites/fence2 - right - down  - up.png" width="32" height="32"/>
  </tile>
  <tile id="207">
   <image source="../tiled/ERW-Grassland 2.0/Props/Static props/sheet1-sprites/fence2 - right - down.png" width="32" height="32"/>
  </tile>
  <tile id="208">
   <image source="../tiled/ERW-Grassland 2.0/Props/Static props/sheet1-sprites/fence2 - right - end - 2.png" width="32" height="32"/>
  </tile>
  <tile id="209">
   <image source="../tiled/ERW-Grassland 2.0/Props/Static props/sheet1-sprites/fence2 - right - end.png" width="32" height="32"/>
  </tile>
  <tile id="210">
   <image source="../tiled/ERW-Grassland 2.0/Props/Static props/sheet1-sprites/fence2 - right - up.png" width="32" height="32"/>
  </tile>
  <tile id="211">
   <image source="../tiled/ERW-Grassland 2.0/Props/Static props/sheet1-sprites/fence2 - right.png" width="32" height="32"/>
  </tile>
  <tile id="212">
   <image source="../tiled/ERW-Grassland 2.0/Props/Static props/sheet1-sprites/lamp post 1 - lamp - no grass.png" width="64" height="96"/>
  </tile>
  <tile id="213">
   <image source="../tiled/ERW-Grassland 2.0/Props/Static props/sheet1-sprites/lamp post 1 - lamp.png" width="64" height="96"/>
  </tile>
  <tile id="214">
   <image source="../tiled/ERW-Grassland 2.0/Props/Static props/sheet1-sprites/lamp post 1 - no lamp - no grass.png" width="64" height="96"/>
  </tile>
  <tile id="215">
   <image source="../tiled/ERW-Grassland 2.0/Props/Static props/sheet1-sprites/lamp post 1 - no lamp.png" width="64" height="96"/>
  </tile>
  <tile id="216">
   <image source="../tiled/ERW-Grassland 2.0/Props/Static props/sheet1-sprites/lamp post 2 - lamp - no grass.png" width="64" height="96"/>
  </tile>
  <tile id="217">
   <image source="../tiled/ERW-Grassland 2.0/Props/Static props/sheet1-sprites/lamp post 2 - lamp.png" width="64" height="96"/>
  </tile>
  <tile id="218">
   <image source="../tiled/ERW-Grassland 2.0/Props/Static props/sheet1-sprites/lamp post 2 - no lamp - no grass.png" width="64" height="96"/>
  </tile>
  <tile id="219">
   <image source="../tiled/ERW-Grassland 2.0/Props/Static props/sheet1-sprites/lamp post 2 - no lamp.png" width="64" height="96"/>
  </tile>
  <tile id="220">
   <image source="../tiled/ERW-Grassland 2.0/Props/Static props/sheet1-sprites/lamp post 3 - lamp - no grass.png" width="64" height="96"/>
  </tile>
  <tile id="221">
   <image source="../tiled/ERW-Grassland 2.0/Props/Static props/sheet1-sprites/lamp post 3 - lamp.png" width="64" height="96"/>
  </tile>
  <tile id="222">
   <image source="../tiled/ERW-Grassland 2.0/Props/Static props/sheet1-sprites/lamp post 3 - no lamp - no grass.png" width="64" height="96"/>
  </tile>
  <tile id="223">
   <image source="../tiled/ERW-Grassland 2.0/Props/Static props/sheet1-sprites/lamp post 3 - no lamp.png" width="64" height="96"/>
  </tile>
  <tile id="224">
   <image source="../tiled/ERW-Grassland 2.0/Props/Static props/sheet1-sprites/lamp post 4 - lamp - no grass.png" width="64" height="96"/>
  </tile>
  <tile id="225">
   <image source="../tiled/ERW-Grassland 2.0/Props/Static props/sheet1-sprites/lamp post 4 - lamp.png" width="64" height="96"/>
  </tile>
  <tile id="226">
   <image source="../tiled/ERW-Grassland 2.0/Props/Static props/sheet1-sprites/lamp post 4 - no lamp - no grass.png" width="64" height="96"/>
  </tile>
  <tile id="227">
   <image source="../tiled/ERW-Grassland 2.0/Props/Static props/sheet1-sprites/lamp post 4 - no lamp.png" width="64" height="96"/>
  </tile>
  <tile id="228">
   <image source="../tiled/ERW-Grassland 2.0/Props/Static props/sheet1-sprites/lamp post 5 - lamp - no grass.png" width="64" height="96"/>
  </tile>
  <tile id="229">
   <image source="../tiled/ERW-Grassland 2.0/Props/Static props/sheet1-sprites/lamp post 5 - lamp.png" width="64" height="96"/>
  </tile>
  <tile id="230">
   <image source="../tiled/ERW-Grassland 2.0/Props/Static props/sheet1-sprites/lamp post 5 - no lamp - no grass.png" width="64" height="96"/>
  </tile>
  <tile id="231">
   <image source="../tiled/ERW-Grassland 2.0/Props/Static props/sheet1-sprites/lamp post 5 - no lamp.png" width="64" height="96"/>
  </tile>
  <tile id="232">
   <image source="../tiled/ERW-Grassland 2.0/Props/Static props/sheet1-sprites/lamp post 6 - lamp - no grass.png" width="64" height="96"/>
  </tile>
  <tile id="233">
   <image source="../tiled/ERW-Grassland 2.0/Props/Static props/sheet1-sprites/lamp post 6 - lamp.png" width="64" height="96"/>
  </tile>
  <tile id="234">
   <image source="../tiled/ERW-Grassland 2.0/Props/Static props/sheet1-sprites/lamp post 6 - no lamp - no grass.png" width="64" height="96"/>
  </tile>
  <tile id="235">
   <image source="../tiled/ERW-Grassland 2.0/Props/Static props/sheet1-sprites/lamp post 6 - no lamp.png" width="64" height="96"/>
  </tile>
  <tile id="236">
   <image source="../tiled/ERW-Grassland 2.0/Props/Static props/sheet1-sprites/lamp post 7 - lamp - no grass.png" width="64" height="96"/>
  </tile>
  <tile id="237">
   <image source="../tiled/ERW-Grassland 2.0/Props/Static props/sheet1-sprites/lamp post 7 - lamp.png" width="64" height="96"/>
  </tile>
  <tile id="238">
   <image source="../tiled/ERW-Grassland 2.0/Props/Static props/sheet1-sprites/lamp post 7 - no lamp - no grass.png" width="64" height="96"/>
  </tile>
  <tile id="239">
   <image source="../tiled/ERW-Grassland 2.0/Props/Static props/sheet1-sprites/lamp post 7 - no lamp.png" width="64" height="96"/>
  </tile>
  <tile id="240">
   <image source="../tiled/ERW-Grassland 2.0/Props/Static props/sheet1-sprites/lamp post 8 - lamp - no grass.png" width="64" height="96"/>
  </tile>
  <tile id="241">
   <image source="../tiled/ERW-Grassland 2.0/Props/Static props/sheet1-sprites/lamp post 8 - lamp.png" width="64" height="96"/>
  </tile>
  <tile id="242">
   <image source="../tiled/ERW-Grassland 2.0/Props/Static props/sheet1-sprites/lamp post 8 - no lamp - no grass.png" width="64" height="96"/>
  </tile>
  <tile id="243">
   <image source="../tiled/ERW-Grassland 2.0/Props/Static props/sheet1-sprites/lamp post 8 - no lamp.png" width="64" height="96"/>
  </tile>
  <tile id="244">
   <image source="../tiled/ERW-Grassland 2.0/Props/Static props/sheet1-sprites/lamp post details 1.png" width="32" height="32"/>
  </tile>
  <tile id="245">
   <image source="../tiled/ERW-Grassland 2.0/Props/Static props/sheet1-sprites/lamp post details 2.png" width="32" height="32"/>
  </tile>
  <tile id="246">
   <image source="../tiled/ERW-Grassland 2.0/Props/Static props/sheet1-sprites/lamp post details 3.png" width="32" height="32"/>
  </tile>
  <tile id="247">
   <image source="../tiled/ERW-Grassland 2.0/Props/Static props/sheet1-sprites/lamp post details 4.png" width="32" height="32"/>
  </tile>
  <tile id="248">
   <image source="../tiled/ERW-Grassland 2.0/Props/Static props/sheet1-sprites/lamp post details 5.png" width="32" height="32"/>
  </tile>
  <tile id="249">
   <image source="../tiled/ERW-Grassland 2.0/Props/Static props/sheet1-sprites/lamp post details 6.png" width="32" height="32"/>
  </tile>
  <tile id="250">
   <image source="../tiled/ERW-Grassland 2.0/Props/Static props/sheet1-sprites/lamp post details 7.png" width="32" height="32"/>
  </tile>
  <tile id="251">
   <image source="../tiled/ERW-Grassland 2.0/Props/Static props/sheet1-sprites/lamp post details 8.png" width="32" height="32"/>
  </tile>
  <tile id="252">
   <image source="../tiled/ERW-Grassland 2.0/Props/Static props/sheet1-sprites/palm tree 1 - base only.png" width="64" height="32"/>
  </tile>
  <tile id="253">
   <image source="../tiled/ERW-Grassland 2.0/Props/Static props/sheet1-sprites/palm tree 1 - on grass.png" width="96" height="160"/>
  </tile>
  <tile id="254">
   <image source="../tiled/ERW-Grassland 2.0/Props/Static props/sheet1-sprites/palm tree 1 - on sand.png" width="96" height="160"/>
  </tile>
  <tile id="255">
   <image source="../tiled/ERW-Grassland 2.0/Props/Static props/sheet1-sprites/palm tree 1 - only foliage - with coconuts.png" width="96" height="64"/>
  </tile>
  <tile id="256">
   <image source="../tiled/ERW-Grassland 2.0/Props/Static props/sheet1-sprites/palm tree 1 - only foliage.png" width="96" height="64"/>
  </tile>
  <tile id="257">
   <image source="../tiled/ERW-Grassland 2.0/Props/Static props/sheet1-sprites/palm tree 1 - only trunk.png" width="64" height="96"/>
  </tile>
  <tile id="258">
   <image source="../tiled/ERW-Grassland 2.0/Props/Static props/sheet1-sprites/palm tree 2 - base only.png" width="32" height="32"/>
  </tile>
  <tile id="259">
   <image source="../tiled/ERW-Grassland 2.0/Props/Static props/sheet1-sprites/palm tree 2 - on grass.png" width="96" height="160"/>
  </tile>
  <tile id="260">
   <image source="../tiled/ERW-Grassland 2.0/Props/Static props/sheet1-sprites/palm tree 2 - on sand.png" width="96" height="160"/>
  </tile>
  <tile id="261">
   <image source="../tiled/ERW-Grassland 2.0/Props/Static props/sheet1-sprites/palm tree 2 - only foliage - with coconuts.png" width="96" height="64"/>
  </tile>
  <tile id="262">
   <image source="../tiled/ERW-Grassland 2.0/Props/Static props/sheet1-sprites/palm tree 2 - only foliage.png" width="96" height="64"/>
  </tile>
  <tile id="263">
   <image source="../tiled/ERW-Grassland 2.0/Props/Static props/sheet1-sprites/palm tree 2 - only trunk.png" width="32" height="96"/>
  </tile>
  <tile id="264">
   <image source="../tiled/ERW-Grassland 2.0/Props/Static props/sheet1-sprites/palm tree 3 - base only.png" width="64" height="32"/>
  </tile>
  <tile id="265">
   <image source="../tiled/ERW-Grassland 2.0/Props/Static props/sheet1-sprites/palm tree 3 - on grass.png" width="160" height="192"/>
  </tile>
  <tile id="266">
   <image source="../tiled/ERW-Grassland 2.0/Props/Static props/sheet1-sprites/palm tree 3 - on sand.png" width="160" height="192"/>
  </tile>
  <tile id="267">
   <image source="../tiled/ERW-Grassland 2.0/Props/Static props/sheet1-sprites/palm tree 3 - only foliage - with coconuts.png" width="96" height="96"/>
  </tile>
  <tile id="268">
   <image source="../tiled/ERW-Grassland 2.0/Props/Static props/sheet1-sprites/palm tree 3 - only foliage.png" width="96" height="96"/>
  </tile>
  <tile id="269">
   <image source="../tiled/ERW-Grassland 2.0/Props/Static props/sheet1-sprites/palm tree 3 - only trunk.png" width="96" height="128"/>
  </tile>
  <tile id="270">
   <image source="../tiled/ERW-Grassland 2.0/Props/Static props/sheet1-sprites/palm tree 4 - base only.png" width="32" height="32"/>
  </tile>
  <tile id="271">
   <image source="../tiled/ERW-Grassland 2.0/Props/Static props/sheet1-sprites/palm tree 4 - on grass.png" width="128" height="160"/>
  </tile>
  <tile id="272">
   <image source="../tiled/ERW-Grassland 2.0/Props/Static props/sheet1-sprites/palm tree 4 - on sand.png" width="128" height="192"/>
  </tile>
  <tile id="273">
   <image source="../tiled/ERW-Grassland 2.0/Props/Static props/sheet1-sprites/palm tree 4 - only foliage - with coconuts.png" width="96" height="64"/>
  </tile>
  <tile id="274">
   <image source="../tiled/ERW-Grassland 2.0/Props/Static props/sheet1-sprites/palm tree 4 - only foliage.png" width="96" height="64"/>
  </tile>
  <tile id="275">
   <image source="../tiled/ERW-Grassland 2.0/Props/Static props/sheet1-sprites/palm tree 4 - only trunk.png" width="96" height="96"/>
  </tile>
  <tile id="276">
   <image source="../tiled/ERW-Grassland 2.0/Props/Static props/sheet1-sprites/palm tree 5 - base only.png" width="64" height="32"/>
  </tile>
  <tile id="277">
   <image source="../tiled/ERW-Grassland 2.0/Props/Static props/sheet1-sprites/palm tree 5 - on grass.png" width="96" height="160"/>
  </tile>
  <tile id="278">
   <image source="../tiled/ERW-Grassland 2.0/Props/Static props/sheet1-sprites/palm tree 5 - on sand.png" width="96" height="192"/>
  </tile>
  <tile id="279">
   <image source="../tiled/ERW-Grassland 2.0/Props/Static props/sheet1-sprites/palm tree 5 - only foliage - with coconuts.png" width="64" height="64"/>
  </tile>
  <tile id="280">
   <image source="../tiled/ERW-Grassland 2.0/Props/Static props/sheet1-sprites/palm tree 5 - only foliage.png" width="64" height="64"/>
  </tile>
  <tile id="281">
   <image source="../tiled/ERW-Grassland 2.0/Props/Static props/sheet1-sprites/palm tree 5 - only trunk.png" width="64" height="128"/>
  </tile>
  <tile id="282">
   <image source="../tiled/ERW-Grassland 2.0/Props/Static props/sheet1-sprites/palm tree 6 - base only.png" width="32" height="32"/>
  </tile>
  <tile id="283">
   <image source="../tiled/ERW-Grassland 2.0/Props/Static props/sheet1-sprites/palm tree 6 - on grass.png" width="96" height="192"/>
  </tile>
  <tile id="284">
   <image source="../tiled/ERW-Grassland 2.0/Props/Static props/sheet1-sprites/palm tree 6 - on sand.png" width="96" height="192"/>
  </tile>
  <tile id="285">
   <image source="../tiled/ERW-Grassland 2.0/Props/Static props/sheet1-sprites/palm tree 6 - only foliage - with coconuts.png" width="96" height="96"/>
  </tile>
  <tile id="286">
   <image source="../tiled/ERW-Grassland 2.0/Props/Static props/sheet1-sprites/palm tree 6 - only foliage.png" width="96" height="96"/>
  </tile>
  <tile id="287">
   <image source="../tiled/ERW-Grassland 2.0/Props/Static props/sheet1-sprites/palm tree 6 - only trunk.png" width="64" height="128"/>
  </tile>
  <tile id="288">
   <image source="../tiled/ERW-Grassland 2.0/Props/Static props/sheet1-sprites/rocks - color scheme 1 - 1.png" width="96" height="64"/>
  </tile>
  <tile id="289">
   <image source="../tiled/ERW-Grassland 2.0/Props/Static props/sheet1-sprites/rocks - color scheme 1 - 2.png" width="64" height="64"/>
  </tile>
  <tile id="290">
   <image source="../tiled/ERW-Grassland 2.0/Props/Static props/sheet1-sprites/rocks - color scheme 1 - 3.png" width="96" height="64"/>
  </tile>
  <tile id="291">
   <image source="../tiled/ERW-Grassland 2.0/Props/Static props/sheet1-sprites/rocks - color scheme 1 - 4.png" width="96" height="64"/>
  </tile>
  <tile id="292">
   <image source="../tiled/ERW-Grassland 2.0/Props/Static props/sheet1-sprites/rocks - color scheme 1 - 5.png" width="64" height="64"/>
  </tile>
  <tile id="293">
   <image source="../tiled/ERW-Grassland 2.0/Props/Static props/sheet1-sprites/rocks - color scheme 1 - 6.png" width="64" height="64"/>
  </tile>
  <tile id="294">
   <image source="../tiled/ERW-Grassland 2.0/Props/Static props/sheet1-sprites/rocks - color scheme 1 - 7.png" width="64" height="32"/>
  </tile>
  <tile id="295">
   <image source="../tiled/ERW-Grassland 2.0/Props/Static props/sheet1-sprites/rocks - color scheme 1 - 8.png" width="64" height="32"/>
  </tile>
  <tile id="296">
   <image source="../tiled/ERW-Grassland 2.0/Props/Static props/sheet1-sprites/rocks - color scheme 1 - 9.png" width="32" height="32"/>
  </tile>
  <tile id="297">
   <image source="../tiled/ERW-Grassland 2.0/Props/Static props/sheet1-sprites/rocks - color scheme 1 - 10.png" width="32" height="32"/>
  </tile>
  <tile id="298">
   <image source="../tiled/ERW-Grassland 2.0/Props/Static props/sheet1-sprites/rocks - color scheme 1 - 11.png" width="32" height="32"/>
  </tile>
  <tile id="299">
   <image source="../tiled/ERW-Grassland 2.0/Props/Static props/sheet1-sprites/rocks - color scheme 1 - 12.png" width="32" height="32"/>
  </tile>
  <tile id="300">
   <image source="../tiled/ERW-Grassland 2.0/Props/Static props/sheet1-sprites/rocks - color scheme 1 - 13.png" width="32" height="32"/>
  </tile>
  <tile id="301">
   <image source="../tiled/ERW-Grassland 2.0/Props/Static props/sheet1-sprites/rocks - color scheme 1 - 14.png" width="64" height="32"/>
  </tile>
  <tile id="302">
   <image source="../tiled/ERW-Grassland 2.0/Props/Static props/sheet1-sprites/rocks - color scheme 1 - 15.png" width="32" height="32"/>
  </tile>
  <tile id="303">
   <image source="../tiled/ERW-Grassland 2.0/Props/Static props/sheet1-sprites/rocks - color scheme 1 - 16.png" width="32" height="32"/>
  </tile>
  <tile id="304">
   <image source="../tiled/ERW-Grassland 2.0/Props/Static props/sheet1-sprites/rocks - color scheme 1 - 17.png" width="32" height="32"/>
  </tile>
  <tile id="305">
   <image source="../tiled/ERW-Grassland 2.0/Props/Static props/sheet1-sprites/rocks - color scheme 1 - 18.png" width="32" height="32"/>
  </tile>
  <tile id="306">
   <image source="../tiled/ERW-Grassland 2.0/Props/Static props/sheet1-sprites/rocks - color scheme 1 - 19.png" width="32" height="32"/>
  </tile>
  <tile id="307">
   <image source="../tiled/ERW-Grassland 2.0/Props/Static props/sheet1-sprites/rocks - color scheme 1 - 20.png" width="32" height="32"/>
  </tile>
  <tile id="308">
   <image source="../tiled/ERW-Grassland 2.0/Props/Static props/sheet1-sprites/rocks - color scheme 1 - 21.png" width="32" height="32"/>
  </tile>
  <tile id="309">
   <image source="../tiled/ERW-Grassland 2.0/Props/Static props/sheet1-sprites/rocks - color scheme 1 - 22.png" width="32" height="32"/>
  </tile>
  <tile id="310">
   <image source="../tiled/ERW-Grassland 2.0/Props/Static props/sheet1-sprites/rocks - color scheme 1 - 23.png" width="32" height="32"/>
  </tile>
  <tile id="311">
   <image source="../tiled/ERW-Grassland 2.0/Props/Static props/sheet1-sprites/rocks - color scheme 1 - 24.png" width="32" height="32"/>
  </tile>
  <tile id="312">
   <image source="../tiled/ERW-Grassland 2.0/Props/Static props/sheet1-sprites/rocks - color scheme 1 - 25.png" width="32" height="32"/>
  </tile>
  <tile id="313">
   <image source="../tiled/ERW-Grassland 2.0/Props/Static props/sheet1-sprites/rocks - color scheme 1 - 26.png" width="32" height="32"/>
  </tile>
  <tile id="314">
   <image source="../tiled/ERW-Grassland 2.0/Props/Static props/sheet1-sprites/rocks - color scheme 1 - 27.png" width="32" height="32"/>
  </tile>
  <tile id="315">
   <image source="../tiled/ERW-Grassland 2.0/Props/Static props/sheet1-sprites/rocks - color scheme 1 - 28.png" width="32" height="32"/>
  </tile>
  <tile id="316">
   <image source="../tiled/ERW-Grassland 2.0/Props/Static props/sheet1-sprites/rocks - color scheme 1 - 29.png" width="32" height="32"/>
  </tile>
  <tile id="317">
   <image source="../tiled/ERW-Grassland 2.0/Props/Static props/sheet1-sprites/rocks - color scheme 1 - 30.png" width="32" height="32"/>
  </tile>
  <tile id="318">
   <image source="../tiled/ERW-Grassland 2.0/Props/Static props/sheet1-sprites/rocks - color scheme 1 - 31.png" width="32" height="32"/>
  </tile>
  <tile id="319">
   <image source="../tiled/ERW-Grassland 2.0/Props/Static props/sheet1-sprites/rocks - color scheme 1 - 32.png" width="32" height="32"/>
  </tile>
  <tile id="320">
   <image source="../tiled/ERW-Grassland 2.0/Props/Static props/sheet1-sprites/rocks - color scheme 2 - 1.png" width="96" height="64"/>
  </tile>
  <tile id="321">
   <image source="../tiled/ERW-Grassland 2.0/Props/Static props/sheet1-sprites/rocks - color scheme 2 - 2.png" width="64" height="64"/>
  </tile>
  <tile id="322">
   <image source="../tiled/ERW-Grassland 2.0/Props/Static props/sheet1-sprites/rocks - color scheme 2 - 3.png" width="96" height="64"/>
  </tile>
  <tile id="323">
   <image source="../tiled/ERW-Grassland 2.0/Props/Static props/sheet1-sprites/rocks - color scheme 2 - 4.png" width="96" height="64"/>
  </tile>
  <tile id="324">
   <image source="../tiled/ERW-Grassland 2.0/Props/Static props/sheet1-sprites/rocks - color scheme 2 - 5.png" width="64" height="64"/>
  </tile>
  <tile id="325">
   <image source="../tiled/ERW-Grassland 2.0/Props/Static props/sheet1-sprites/rocks - color scheme 2 - 6.png" width="64" height="64"/>
  </tile>
  <tile id="326">
   <image source="../tiled/ERW-Grassland 2.0/Props/Static props/sheet1-sprites/rocks - color scheme 2 - 7.png" width="64" height="32"/>
  </tile>
  <tile id="327">
   <image source="../tiled/ERW-Grassland 2.0/Props/Static props/sheet1-sprites/rocks - color scheme 2 - 8.png" width="64" height="32"/>
  </tile>
  <tile id="328">
   <image source="../tiled/ERW-Grassland 2.0/Props/Static props/sheet1-sprites/rocks - color scheme 2 - 9.png" width="32" height="32"/>
  </tile>
  <tile id="329">
   <image source="../tiled/ERW-Grassland 2.0/Props/Static props/sheet1-sprites/rocks - color scheme 2 - 10.png" width="32" height="32"/>
  </tile>
  <tile id="330">
   <image source="../tiled/ERW-Grassland 2.0/Props/Static props/sheet1-sprites/rocks - color scheme 2 - 11.png" width="32" height="32"/>
  </tile>
  <tile id="331">
   <image source="../tiled/ERW-Grassland 2.0/Props/Static props/sheet1-sprites/rocks - color scheme 2 - 12.png" width="32" height="32"/>
  </tile>
  <tile id="332">
   <image source="../tiled/ERW-Grassland 2.0/Props/Static props/sheet1-sprites/rocks - color scheme 2 - 13.png" width="32" height="32"/>
  </tile>
  <tile id="333">
   <image source="../tiled/ERW-Grassland 2.0/Props/Static props/sheet1-sprites/rocks - color scheme 2 - 14.png" width="64" height="32"/>
  </tile>
  <tile id="334">
   <image source="../tiled/ERW-Grassland 2.0/Props/Static props/sheet1-sprites/rocks - color scheme 2 - 15.png" width="32" height="32"/>
  </tile>
  <tile id="335">
   <image source="../tiled/ERW-Grassland 2.0/Props/Static props/sheet1-sprites/rocks - color scheme 2 - 16.png" width="32" height="32"/>
  </tile>
  <tile id="336">
   <image source="../tiled/ERW-Grassland 2.0/Props/Static props/sheet1-sprites/rocks - color scheme 2 - 17.png" width="32" height="32"/>
  </tile>
  <tile id="337">
   <image source="../tiled/ERW-Grassland 2.0/Props/Static props/sheet1-sprites/rocks - color scheme 2 - 18.png" width="32" height="32"/>
  </tile>
  <tile id="338">
   <image source="../tiled/ERW-Grassland 2.0/Props/Static props/sheet1-sprites/rocks - color scheme 2 - 19.png" width="32" height="32"/>
  </tile>
  <tile id="339">
   <image source="../tiled/ERW-Grassland 2.0/Props/Static props/sheet1-sprites/rocks - color scheme 2 - 20.png" width="32" height="32"/>
  </tile>
  <tile id="340">
   <image source="../tiled/ERW-Grassland 2.0/Props/Static props/sheet1-sprites/rocks - color scheme 2 - 21.png" width="32" height="32"/>
  </tile>
  <tile id="341">
   <image source="../tiled/ERW-Grassland 2.0/Props/Static props/sheet1-sprites/rocks - color scheme 2 - 22.png" width="32" height="32"/>
  </tile>
  <tile id="342">
   <image source="../tiled/ERW-Grassland 2.0/Props/Static props/sheet1-sprites/rocks - color scheme 2 - 23.png" width="32" height="32"/>
  </tile>
  <tile id="343">
   <image source="../tiled/ERW-Grassland 2.0/Props/Static props/sheet1-sprites/rocks - color scheme 2 - 24.png" width="32" height="32"/>
  </tile>
  <tile id="344">
   <image source="../tiled/ERW-Grassland 2.0/Props/Static props/sheet1-sprites/rocks - color scheme 2 - 25.png" width="32" height="32"/>
  </tile>
  <tile id="345">
   <image source="../tiled/ERW-Grassland 2.0/Props/Static props/sheet1-sprites/rocks - color scheme 2 - 26.png" width="32" height="32"/>
  </tile>
  <tile id="346">
   <image source="../tiled/ERW-Grassland 2.0/Props/Static props/sheet1-sprites/rocks - color scheme 2 - 27.png" width="32" height="32"/>
  </tile>
  <tile id="347">
   <image source="../tiled/ERW-Grassland 2.0/Props/Static props/sheet1-sprites/rocks - color scheme 2 - 28.png" width="32" height="32"/>
  </tile>
  <tile id="348">
   <image source="../tiled/ERW-Grassland 2.0/Props/Static props/sheet1-sprites/rocks - color scheme 2 - 29.png" width="32" height="32"/>
  </tile>
  <tile id="349">
   <image source="../tiled/ERW-Grassland 2.0/Props/Static props/sheet1-sprites/rocks - color scheme 2 - 30.png" width="32" height="32"/>
  </tile>
  <tile id="350">
   <image source="../tiled/ERW-Grassland 2.0/Props/Static props/sheet1-sprites/rocks - color scheme 2 - 31.png" width="32" height="32"/>
  </tile>
  <tile id="351">
   <image source="../tiled/ERW-Grassland 2.0/Props/Static props/sheet1-sprites/rocks - color scheme 2 - 32.png" width="32" height="32"/>
  </tile>
  <tile id="352">
   <image source="../tiled/ERW-Grassland 2.0/Props/Static props/sheet1-sprites/rocks on grass - color scheme 1 - 1.png" width="96" height="64"/>
  </tile>
  <tile id="353">
   <image source="../tiled/ERW-Grassland 2.0/Props/Static props/sheet1-sprites/rocks on grass - color scheme 1 - 2.png" width="64" height="64"/>
  </tile>
  <tile id="354">
   <image source="../tiled/ERW-Grassland 2.0/Props/Static props/sheet1-sprites/rocks on grass - color scheme 1 - 3.png" width="96" height="64"/>
  </tile>
  <tile id="355">
   <image source="../tiled/ERW-Grassland 2.0/Props/Static props/sheet1-sprites/rocks on grass - color scheme 1 - 4.png" width="96" height="64"/>
  </tile>
  <tile id="356">
   <image source="../tiled/ERW-Grassland 2.0/Props/Static props/sheet1-sprites/rocks on grass - color scheme 1 - 5.png" width="64" height="64"/>
  </tile>
  <tile id="357">
   <image source="../tiled/ERW-Grassland 2.0/Props/Static props/sheet1-sprites/rocks on grass - color scheme 1 - 6.png" width="64" height="64"/>
  </tile>
  <tile id="358">
   <image source="../tiled/ERW-Grassland 2.0/Props/Static props/sheet1-sprites/rocks on grass - color scheme 1 - 7.png" width="64" height="32"/>
  </tile>
  <tile id="359">
   <image source="../tiled/ERW-Grassland 2.0/Props/Static props/sheet1-sprites/rocks on grass - color scheme 1 - 8.png" width="64" height="32"/>
  </tile>
  <tile id="360">
   <image source="../tiled/ERW-Grassland 2.0/Props/Static props/sheet1-sprites/rocks on grass - color scheme 1 - 9.png" width="32" height="32"/>
  </tile>
  <tile id="361">
   <image source="../tiled/ERW-Grassland 2.0/Props/Static props/sheet1-sprites/rocks on grass - color scheme 1 - 10.png" width="32" height="32"/>
  </tile>
  <tile id="362">
   <image source="../tiled/ERW-Grassland 2.0/Props/Static props/sheet1-sprites/rocks on grass - color scheme 1 - 11.png" width="32" height="32"/>
  </tile>
  <tile id="363">
   <image source="../tiled/ERW-Grassland 2.0/Props/Static props/sheet1-sprites/rocks on grass - color scheme 1 - 12.png" width="32" height="32"/>
  </tile>
  <tile id="364">
   <image source="../tiled/ERW-Grassland 2.0/Props/Static props/sheet1-sprites/rocks on grass - color scheme 1 - 13.png" width="32" height="32"/>
  </tile>
  <tile id="365">
   <image source="../tiled/ERW-Grassland 2.0/Props/Static props/sheet1-sprites/rocks on grass - color scheme 1 - 14.png" width="64" height="32"/>
  </tile>
  <tile id="366">
   <image source="../tiled/ERW-Grassland 2.0/Props/Static props/sheet1-sprites/rocks on grass - color scheme 1 - 15.png" width="32" height="32"/>
  </tile>
  <tile id="367">
   <image source="../tiled/ERW-Grassland 2.0/Props/Static props/sheet1-sprites/rocks on grass - color scheme 1 - 16.png" width="32" height="32"/>
  </tile>
  <tile id="368">
   <image source="../tiled/ERW-Grassland 2.0/Props/Static props/sheet1-sprites/rocks on grass - color scheme 1 - 17.png" width="32" height="32"/>
  </tile>
  <tile id="369">
   <image source="../tiled/ERW-Grassland 2.0/Props/Static props/sheet1-sprites/rocks on grass - color scheme 1 - 18.png" width="32" height="32"/>
  </tile>
  <tile id="370">
   <image source="../tiled/ERW-Grassland 2.0/Props/Static props/sheet1-sprites/rocks on grass - color scheme 1 - 19.png" width="32" height="32"/>
  </tile>
  <tile id="371">
   <image source="../tiled/ERW-Grassland 2.0/Props/Static props/sheet1-sprites/rocks on grass - color scheme 1 - 20.png" width="32" height="32"/>
  </tile>
  <tile id="372">
   <image source="../tiled/ERW-Grassland 2.0/Props/Static props/sheet1-sprites/rocks on grass - color scheme 1 - 21.png" width="32" height="32"/>
  </tile>
  <tile id="373">
   <image source="../tiled/ERW-Grassland 2.0/Props/Static props/sheet1-sprites/rocks on grass - color scheme 1 - 22.png" width="32" height="32"/>
  </tile>
  <tile id="374">
   <image source="../tiled/ERW-Grassland 2.0/Props/Static props/sheet1-sprites/rocks on grass - color scheme 1 - 23.png" width="32" height="32"/>
  </tile>
  <tile id="375">
   <image source="../tiled/ERW-Grassland 2.0/Props/Static props/sheet1-sprites/rocks on grass - color scheme 1 - 24.png" width="32" height="32"/>
  </tile>
  <tile id="376">
   <image source="../tiled/ERW-Grassland 2.0/Props/Static props/sheet1-sprites/rocks on grass - color scheme 1 - 25.png" width="32" height="32"/>
  </tile>
  <tile id="377">
   <image source="../tiled/ERW-Grassland 2.0/Props/Static props/sheet1-sprites/rocks on grass - color scheme 1 - 26.png" width="32" height="32"/>
  </tile>
  <tile id="378">
   <image source="../tiled/ERW-Grassland 2.0/Props/Static props/sheet1-sprites/rocks on grass - color scheme 1 - 27.png" width="32" height="32"/>
  </tile>
  <tile id="379">
   <image source="../tiled/ERW-Grassland 2.0/Props/Static props/sheet1-sprites/rocks on grass - color scheme 1 - 28.png" width="32" height="32"/>
  </tile>
  <tile id="380">
   <image source="../tiled/ERW-Grassland 2.0/Props/Static props/sheet1-sprites/rocks on grass - color scheme 1 - 29.png" width="32" height="32"/>
  </tile>
  <tile id="381">
   <image source="../tiled/ERW-Grassland 2.0/Props/Static props/sheet1-sprites/rocks on grass - color scheme 1 - 30.png" width="32" height="32"/>
  </tile>
  <tile id="382">
   <image source="../tiled/ERW-Grassland 2.0/Props/Static props/sheet1-sprites/rocks on grass - color scheme 1 - 31.png" width="32" height="32"/>
  </tile>
  <tile id="383">
   <image source="../tiled/ERW-Grassland 2.0/Props/Static props/sheet1-sprites/rocks on grass - color scheme 1 - 32.png" width="32" height="32"/>
  </tile>
  <tile id="384">
   <image source="../tiled/ERW-Grassland 2.0/Props/Static props/sheet1-sprites/rocks on grass - color scheme 2 - 1.png" width="96" height="64"/>
  </tile>
  <tile id="385">
   <image source="../tiled/ERW-Grassland 2.0/Props/Static props/sheet1-sprites/rocks on grass - color scheme 2 - 2.png" width="64" height="64"/>
  </tile>
  <tile id="386">
   <image source="../tiled/ERW-Grassland 2.0/Props/Static props/sheet1-sprites/rocks on grass - color scheme 2 - 3.png" width="96" height="64"/>
  </tile>
  <tile id="387">
   <image source="../tiled/ERW-Grassland 2.0/Props/Static props/sheet1-sprites/rocks on grass - color scheme 2 - 4.png" width="96" height="64"/>
  </tile>
  <tile id="388">
   <image source="../tiled/ERW-Grassland 2.0/Props/Static props/sheet1-sprites/rocks on grass - color scheme 2 - 5.png" width="64" height="64"/>
  </tile>
  <tile id="389">
   <image source="../tiled/ERW-Grassland 2.0/Props/Static props/sheet1-sprites/rocks on grass - color scheme 2 - 6.png" width="64" height="64"/>
  </tile>
  <tile id="390">
   <image source="../tiled/ERW-Grassland 2.0/Props/Static props/sheet1-sprites/rocks on grass - color scheme 2 - 7.png" width="64" height="32"/>
  </tile>
  <tile id="391">
   <image source="../tiled/ERW-Grassland 2.0/Props/Static props/sheet1-sprites/rocks on grass - color scheme 2 - 8.png" width="64" height="32"/>
  </tile>
  <tile id="392">
   <image source="../tiled/ERW-Grassland 2.0/Props/Static props/sheet1-sprites/rocks on grass - color scheme 2 - 9.png" width="32" height="32"/>
  </tile>
  <tile id="393">
   <image source="../tiled/ERW-Grassland 2.0/Props/Static props/sheet1-sprites/rocks on grass - color scheme 2 - 10.png" width="32" height="32"/>
  </tile>
  <tile id="394">
   <image source="../tiled/ERW-Grassland 2.0/Props/Static props/sheet1-sprites/rocks on grass - color scheme 2 - 11.png" width="32" height="32"/>
  </tile>
  <tile id="395">
   <image source="../tiled/ERW-Grassland 2.0/Props/Static props/sheet1-sprites/rocks on grass - color scheme 2 - 12.png" width="32" height="32"/>
  </tile>
  <tile id="396">
   <image source="../tiled/ERW-Grassland 2.0/Props/Static props/sheet1-sprites/rocks on grass - color scheme 2 - 13.png" width="32" height="32"/>
  </tile>
  <tile id="397">
   <image source="../tiled/ERW-Grassland 2.0/Props/Static props/sheet1-sprites/rocks on grass - color scheme 2 - 14.png" width="64" height="32"/>
  </tile>
  <tile id="398">
   <image source="../tiled/ERW-Grassland 2.0/Props/Static props/sheet1-sprites/rocks on grass - color scheme 2 - 15.png" width="32" height="32"/>
  </tile>
  <tile id="399">
   <image source="../tiled/ERW-Grassland 2.0/Props/Static props/sheet1-sprites/rocks on grass - color scheme 2 - 16.png" width="32" height="32"/>
  </tile>
  <tile id="400">
   <image source="../tiled/ERW-Grassland 2.0/Props/Static props/sheet1-sprites/rocks on grass - color scheme 2 - 17.png" width="32" height="32"/>
  </tile>
  <tile id="401">
   <image source="../tiled/ERW-Grassland 2.0/Props/Static props/sheet1-sprites/rocks on grass - color scheme 2 - 18.png" width="32" height="32"/>
  </tile>
  <tile id="402">
   <image source="../tiled/ERW-Grassland 2.0/Props/Static props/sheet1-sprites/rocks on grass - color scheme 2 - 19.png" width="32" height="32"/>
  </tile>
  <tile id="403">
   <image source="../tiled/ERW-Grassland 2.0/Props/Static props/sheet1-sprites/rocks on grass - color scheme 2 - 20.png" width="32" height="32"/>
  </tile>
  <tile id="404">
   <image source="../tiled/ERW-Grassland 2.0/Props/Static props/sheet1-sprites/rocks on grass - color scheme 2 - 21.png" width="32" height="32"/>
  </tile>
  <tile id="405">
   <image source="../tiled/ERW-Grassland 2.0/Props/Static props/sheet1-sprites/rocks on grass - color scheme 2 - 22.png" width="32" height="32"/>
  </tile>
  <tile id="406">
   <image source="../tiled/ERW-Grassland 2.0/Props/Static props/sheet1-sprites/rocks on grass - color scheme 2 - 23.png" width="32" height="32"/>
  </tile>
  <tile id="407">
   <image source="../tiled/ERW-Grassland 2.0/Props/Static props/sheet1-sprites/rocks on grass - color scheme 2 - 24.png" width="32" height="32"/>
  </tile>
  <tile id="408">
   <image source="../tiled/ERW-Grassland 2.0/Props/Static props/sheet1-sprites/rocks on grass - color scheme 2 - 25.png" width="32" height="32"/>
  </tile>
  <tile id="409">
   <image source="../tiled/ERW-Grassland 2.0/Props/Static props/sheet1-sprites/rocks on grass - color scheme 2 - 26.png" width="32" height="32"/>
  </tile>
  <tile id="410">
   <image source="../tiled/ERW-Grassland 2.0/Props/Static props/sheet1-sprites/rocks on grass - color scheme 2 - 27.png" width="32" height="32"/>
  </tile>
  <tile id="411">
   <image source="../tiled/ERW-Grassland 2.0/Props/Static props/sheet1-sprites/rocks on grass - color scheme 2 - 28.png" width="32" height="32"/>
  </tile>
  <tile id="412">
   <image source="../tiled/ERW-Grassland 2.0/Props/Static props/sheet1-sprites/rocks on grass - color scheme 2 - 29.png" width="32" height="32"/>
  </tile>
  <tile id="413">
   <image source="../tiled/ERW-Grassland 2.0/Props/Static props/sheet1-sprites/rocks on grass - color scheme 2 - 30.png" width="32" height="32"/>
  </tile>
  <tile id="414">
   <image source="../tiled/ERW-Grassland 2.0/Props/Static props/sheet1-sprites/rocks on grass - color scheme 2 - 31.png" width="32" height="32"/>
  </tile>
  <tile id="415">
   <image source="../tiled/ERW-Grassland 2.0/Props/Static props/sheet1-sprites/rocks on grass - color scheme 2 - 32.png" width="32" height="32"/>
  </tile>
  <tile id="416">
   <image source="../tiled/ERW-Grassland 2.0/Props/Static props/sheet1-sprites/rocks on grass - color scheme 3 - 1.png" width="96" height="64"/>
  </tile>
  <tile id="417">
   <image source="../tiled/ERW-Grassland 2.0/Props/Static props/sheet1-sprites/rocks on grass - color scheme 3 - 2.png" width="64" height="64"/>
  </tile>
  <tile id="418">
   <image source="../tiled/ERW-Grassland 2.0/Props/Static props/sheet1-sprites/rocks on grass - color scheme 3 - 3.png" width="96" height="64"/>
  </tile>
  <tile id="419">
   <image source="../tiled/ERW-Grassland 2.0/Props/Static props/sheet1-sprites/rocks on grass - color scheme 3 - 4.png" width="96" height="64"/>
  </tile>
  <tile id="420">
   <image source="../tiled/ERW-Grassland 2.0/Props/Static props/sheet1-sprites/rocks on grass - color scheme 3 - 5.png" width="64" height="64"/>
  </tile>
  <tile id="421">
   <image source="../tiled/ERW-Grassland 2.0/Props/Static props/sheet1-sprites/rocks on grass - color scheme 3 - 6.png" width="64" height="64"/>
  </tile>
  <tile id="422">
   <image source="../tiled/ERW-Grassland 2.0/Props/Static props/sheet1-sprites/rocks on grass - color scheme 3 - 7.png" width="64" height="32"/>
  </tile>
  <tile id="423">
   <image source="../tiled/ERW-Grassland 2.0/Props/Static props/sheet1-sprites/rocks on grass - color scheme 3 - 8.png" width="64" height="32"/>
  </tile>
  <tile id="424">
   <image source="../tiled/ERW-Grassland 2.0/Props/Static props/sheet1-sprites/rocks on grass - color scheme 3 - 9.png" width="32" height="32"/>
  </tile>
  <tile id="425">
   <image source="../tiled/ERW-Grassland 2.0/Props/Static props/sheet1-sprites/rocks on grass - color scheme 3 - 10.png" width="32" height="32"/>
  </tile>
  <tile id="426">
   <image source="../tiled/ERW-Grassland 2.0/Props/Static props/sheet1-sprites/rocks on grass - color scheme 3 - 11.png" width="32" height="32"/>
  </tile>
  <tile id="427">
   <image source="../tiled/ERW-Grassland 2.0/Props/Static props/sheet1-sprites/rocks on grass - color scheme 3 - 12.png" width="32" height="32"/>
  </tile>
  <tile id="428">
   <image source="../tiled/ERW-Grassland 2.0/Props/Static props/sheet1-sprites/rocks on grass - color scheme 3 - 13.png" width="32" height="32"/>
  </tile>
  <tile id="429">
   <image source="../tiled/ERW-Grassland 2.0/Props/Static props/sheet1-sprites/rocks on grass - color scheme 3 - 14.png" width="64" height="32"/>
  </tile>
  <tile id="430">
   <image source="../tiled/ERW-Grassland 2.0/Props/Static props/sheet1-sprites/rocks on grass - color scheme 3 - 15.png" width="32" height="32"/>
  </tile>
  <tile id="431">
   <image source="../tiled/ERW-Grassland 2.0/Props/Static props/sheet1-sprites/rocks on grass - color scheme 3 - 16.png" width="32" height="32"/>
  </tile>
  <tile id="432">
   <image source="../tiled/ERW-Grassland 2.0/Props/Static props/sheet1-sprites/rocks on grass - color scheme 3 - 17.png" width="32" height="32"/>
  </tile>
  <tile id="433">
   <image source="../tiled/ERW-Grassland 2.0/Props/Static props/sheet1-sprites/rocks on grass - color scheme 3 - 18.png" width="32" height="32"/>
  </tile>
  <tile id="434">
   <image source="../tiled/ERW-Grassland 2.0/Props/Static props/sheet1-sprites/rocks on grass - color scheme 3 - 19.png" width="32" height="32"/>
  </tile>
  <tile id="435">
   <image source="../tiled/ERW-Grassland 2.0/Props/Static props/sheet1-sprites/rocks on grass - color scheme 3 - 20.png" width="32" height="32"/>
  </tile>
  <tile id="436">
   <image source="../tiled/ERW-Grassland 2.0/Props/Static props/sheet1-sprites/rocks on grass - color scheme 3 - 21.png" width="32" height="32"/>
  </tile>
  <tile id="437">
   <image source="../tiled/ERW-Grassland 2.0/Props/Static props/sheet1-sprites/rocks on grass - color scheme 3 - 22.png" width="32" height="32"/>
  </tile>
  <tile id="438">
   <image source="../tiled/ERW-Grassland 2.0/Props/Static props/sheet1-sprites/rocks on grass - color scheme 3 - 23.png" width="32" height="32"/>
  </tile>
  <tile id="439">
   <image source="../tiled/ERW-Grassland 2.0/Props/Static props/sheet1-sprites/rocks on grass - color scheme 3 - 24.png" width="32" height="32"/>
  </tile>
  <tile id="440">
   <image source="../tiled/ERW-Grassland 2.0/Props/Static props/sheet1-sprites/rocks on grass - color scheme 3 - 25.png" width="32" height="32"/>
  </tile>
  <tile id="441">
   <image source="../tiled/ERW-Grassland 2.0/Props/Static props/sheet1-sprites/rocks on grass - color scheme 3 - 26.png" width="32" height="32"/>
  </tile>
  <tile id="442">
   <image source="../tiled/ERW-Grassland 2.0/Props/Static props/sheet1-sprites/rocks on grass - color scheme 3 - 27.png" width="32" height="32"/>
  </tile>
  <tile id="443">
   <image source="../tiled/ERW-Grassland 2.0/Props/Static props/sheet1-sprites/rocks on grass - color scheme 3 - 28.png" width="32" height="32"/>
  </tile>
  <tile id="444">
   <image source="../tiled/ERW-Grassland 2.0/Props/Static props/sheet1-sprites/rocks on grass - color scheme 3 - 29.png" width="32" height="32"/>
  </tile>
  <tile id="445">
   <image source="../tiled/ERW-Grassland 2.0/Props/Static props/sheet1-sprites/rocks on grass - color scheme 3 - 30.png" width="32" height="32"/>
  </tile>
  <tile id="446">
   <image source="../tiled/ERW-Grassland 2.0/Props/Static props/sheet1-sprites/rocks on grass - color scheme 3 - 31.png" width="32" height="32"/>
  </tile>
  <tile id="447">
   <image source="../tiled/ERW-Grassland 2.0/Props/Static props/sheet1-sprites/rocks on grass - color scheme 3 - 32.png" width="32" height="32"/>
  </tile>
  <tile id="448">
   <image source="../tiled/ERW-Grassland 2.0/Props/Static props/sheet1-sprites/rocks on sand - color scheme 2 - 1.png" width="96" height="64"/>
  </tile>
  <tile id="449">
   <image source="../tiled/ERW-Grassland 2.0/Props/Static props/sheet1-sprites/rocks on sand - color scheme 2 - 2.png" width="64" height="64"/>
  </tile>
  <tile id="450">
   <image source="../tiled/ERW-Grassland 2.0/Props/Static props/sheet1-sprites/rocks on sand - color scheme 2 - 3.png" width="96" height="64"/>
  </tile>
  <tile id="451">
   <image source="../tiled/ERW-Grassland 2.0/Props/Static props/sheet1-sprites/rocks on sand - color scheme 2 - 4.png" width="96" height="64"/>
  </tile>
  <tile id="452">
   <image source="../tiled/ERW-Grassland 2.0/Props/Static props/sheet1-sprites/rocks on sand - color scheme 2 - 5.png" width="64" height="64"/>
  </tile>
  <tile id="453">
   <image source="../tiled/ERW-Grassland 2.0/Props/Static props/sheet1-sprites/rocks on sand - color scheme 2 - 6.png" width="64" height="64"/>
  </tile>
  <tile id="454">
   <image source="../tiled/ERW-Grassland 2.0/Props/Static props/sheet1-sprites/rocks on sand - color scheme 2 - 7.png" width="64" height="64"/>
  </tile>
  <tile id="455">
   <image source="../tiled/ERW-Grassland 2.0/Props/Static props/sheet1-sprites/rocks on sand - color scheme 2 - 8.png" width="64" height="32"/>
  </tile>
  <tile id="456">
   <image source="../tiled/ERW-Grassland 2.0/Props/Static props/sheet1-sprites/rocks on sand - color scheme 2 - 9.png" width="32" height="32"/>
  </tile>
  <tile id="457">
   <image source="../tiled/ERW-Grassland 2.0/Props/Static props/sheet1-sprites/rocks on sand - color scheme 2 - 10.png" width="32" height="32"/>
  </tile>
  <tile id="458">
   <image source="../tiled/ERW-Grassland 2.0/Props/Static props/sheet1-sprites/rocks on sand - color scheme 2 - 11.png" width="32" height="32"/>
  </tile>
  <tile id="459">
   <image source="../tiled/ERW-Grassland 2.0/Props/Static props/sheet1-sprites/rocks on sand - color scheme 2 - 12.png" width="32" height="32"/>
  </tile>
  <tile id="460">
   <image source="../tiled/ERW-Grassland 2.0/Props/Static props/sheet1-sprites/rocks on sand - color scheme 2 - 13.png" width="32" height="32"/>
  </tile>
  <tile id="461">
   <image source="../tiled/ERW-Grassland 2.0/Props/Static props/sheet1-sprites/rocks on sand - color scheme 2 - 14.png" width="64" height="32"/>
  </tile>
  <tile id="462">
   <image source="../tiled/ERW-Grassland 2.0/Props/Static props/sheet1-sprites/rocks on sand - color scheme 2 - 15.png" width="32" height="32"/>
  </tile>
  <tile id="463">
   <image source="../tiled/ERW-Grassland 2.0/Props/Static props/sheet1-sprites/rocks on sand - color scheme 2 - 16.png" width="32" height="32"/>
  </tile>
  <tile id="464">
   <image source="../tiled/ERW-Grassland 2.0/Props/Static props/sheet1-sprites/rocks on sand - color scheme 2 - 17.png" width="32" height="32"/>
  </tile>
  <tile id="465">
   <image source="../tiled/ERW-Grassland 2.0/Props/Static props/sheet1-sprites/rocks on sand - color scheme 2 - 18.png" width="32" height="32"/>
  </tile>
  <tile id="466">
   <image source="../tiled/ERW-Grassland 2.0/Props/Static props/sheet1-sprites/rocks on sand - color scheme 2 - 19.png" width="32" height="32"/>
  </tile>
  <tile id="467">
   <image source="../tiled/ERW-Grassland 2.0/Props/Static props/sheet1-sprites/rocks on sand - color scheme 2 - 20.png" width="32" height="32"/>
  </tile>
  <tile id="468">
   <image source="../tiled/ERW-Grassland 2.0/Props/Static props/sheet1-sprites/rocks on sand - color scheme 2 - 21.png" width="32" height="32"/>
  </tile>
  <tile id="469">
   <image source="../tiled/ERW-Grassland 2.0/Props/Static props/sheet1-sprites/rocks on sand - color scheme 2 - 22.png" width="32" height="32"/>
  </tile>
  <tile id="470">
   <image source="../tiled/ERW-Grassland 2.0/Props/Static props/sheet1-sprites/rocks on sand - color scheme 2 - 23.png" width="32" height="32"/>
  </tile>
  <tile id="471">
   <image source="../tiled/ERW-Grassland 2.0/Props/Static props/sheet1-sprites/rocks on sand - color scheme 2 - 24.png" width="32" height="32"/>
  </tile>
  <tile id="472">
   <image source="../tiled/ERW-Grassland 2.0/Props/Static props/sheet1-sprites/rocks on sand - color scheme 2 - 25.png" width="32" height="32"/>
  </tile>
  <tile id="473">
   <image source="../tiled/ERW-Grassland 2.0/Props/Static props/sheet1-sprites/rocks on sand - color scheme 2 - 26.png" width="32" height="32"/>
  </tile>
  <tile id="474">
   <image source="../tiled/ERW-Grassland 2.0/Props/Static props/sheet1-sprites/rocks on sand - color scheme 2 - 27.png" width="32" height="32"/>
  </tile>
  <tile id="475">
   <image source="../tiled/ERW-Grassland 2.0/Props/Static props/sheet1-sprites/rocks on sand - color scheme 2 - 28.png" width="32" height="32"/>
  </tile>
  <tile id="476">
   <image source="../tiled/ERW-Grassland 2.0/Props/Static props/sheet1-sprites/rocks on sand - color scheme 2 - 29.png" width="32" height="32"/>
  </tile>
  <tile id="477">
   <image source="../tiled/ERW-Grassland 2.0/Props/Static props/sheet1-sprites/rocks on sand - color scheme 2 - 30.png" width="32" height="32"/>
  </tile>
  <tile id="478">
   <image source="../tiled/ERW-Grassland 2.0/Props/Static props/sheet1-sprites/rocks on sand - color scheme 2 - 31.png" width="32" height="32"/>
  </tile>
  <tile id="479">
   <image source="../tiled/ERW-Grassland 2.0/Props/Static props/sheet1-sprites/rocks on sand - color scheme 2 - 32.png" width="32" height="32"/>
  </tile>
  <tile id="480">
   <image source="../tiled/ERW-Grassland 2.0/Props/Static props/sheet1-sprites/sign 1.png" width="32" height="32"/>
  </tile>
  <tile id="481">
   <image source="../tiled/ERW-Grassland 2.0/Props/Static props/sheet1-sprites/sign 2.png" width="32" height="32"/>
  </tile>
  <tile id="482">
   <image source="../tiled/ERW-Grassland 2.0/Props/Static props/sheet1-sprites/sign 3.png" width="32" height="32"/>
  </tile>
  <tile id="483">
   <image source="../tiled/ERW-Grassland 2.0/Props/Static props/sheet1-sprites/sign 4 - no grass.png" width="32" height="32"/>
  </tile>
  <tile id="484">
   <image source="../tiled/ERW-Grassland 2.0/Props/Static props/sheet1-sprites/sign 4.png" width="32" height="32"/>
  </tile>
  <tile id="485">
   <image source="../tiled/ERW-Grassland 2.0/Props/Static props/sheet1-sprites/sign 5 - no grass.png" width="32" height="32"/>
  </tile>
  <tile id="486">
   <image source="../tiled/ERW-Grassland 2.0/Props/Static props/sheet1-sprites/sign 5.png" width="32" height="32"/>
  </tile>
  <tile id="487">
   <image source="../tiled/ERW-Grassland 2.0/Props/Static props/sheet1-sprites/sign 6 - no grass.png" width="32" height="32"/>
  </tile>
  <tile id="488">
   <image source="../tiled/ERW-Grassland 2.0/Props/Static props/sheet1-sprites/sign 6.png" width="32" height="32"/>
  </tile>
  <tile id="489">
   <image source="../tiled/ERW-Grassland 2.0/Props/Static props/sheet1-sprites/sign 7 - no grass.png" width="32" height="32"/>
  </tile>
  <tile id="490">
   <image source="../tiled/ERW-Grassland 2.0/Props/Static props/sheet1-sprites/sign 7.png" width="32" height="32"/>
  </tile>
  <tile id="491">
   <image source="../tiled/ERW-Grassland 2.0/Props/Static props/sheet1-sprites/sign 8 - no grass.png" width="32" height="32"/>
  </tile>
  <tile id="492">
   <image source="../tiled/ERW-Grassland 2.0/Props/Static props/sheet1-sprites/sign 8.png" width="32" height="32"/>
  </tile>
  <tile id="493">
   <image source="../tiled/ERW-Grassland 2.0/Props/Static props/sheet1-sprites/sign 9 - no grass.png" width="32" height="32"/>
  </tile>
  <tile id="494">
   <image source="../tiled/ERW-Grassland 2.0/Props/Static props/sheet1-sprites/sign 9.png" width="32" height="32"/>
  </tile>
  <tile id="495">
   <image source="../tiled/ERW-Grassland 2.0/Props/Static props/sheet1-sprites/sign 10 - no grass.png" width="32" height="32"/>
  </tile>
  <tile id="496">
   <image source="../tiled/ERW-Grassland 2.0/Props/Static props/sheet1-sprites/sign 10.png" width="32" height="32"/>
  </tile>
  <tile id="497">
   <image source="../tiled/ERW-Grassland 2.0/Props/Static props/sheet1-sprites/sign 11 - no grass.png" width="32" height="32"/>
  </tile>
  <tile id="498">
   <image source="../tiled/ERW-Grassland 2.0/Props/Static props/sheet1-sprites/sign 11.png" width="32" height="32"/>
  </tile>
  <tile id="499">
   <image source="../tiled/ERW-Grassland 2.0/Props/Static props/sheet1-sprites/sign detail 1.png" width="32" height="32"/>
  </tile>
  <tile id="500">
   <image source="../tiled/ERW-Grassland 2.0/Props/Static props/sheet1-sprites/sign detail 2.png" width="32" height="32"/>
  </tile>
  <tile id="501">
   <image source="../tiled/ERW-Grassland 2.0/Props/Static props/sheet1-sprites/sign detail 3.png" width="32" height="32"/>
  </tile>
  <tile id="502">
   <image source="../tiled/ERW-Grassland 2.0/Props/Static props/sheet1-sprites/sign detail 4.png" width="32" height="32"/>
  </tile>
  <tile id="503">
   <image source="../tiled/ERW-Grassland 2.0/Props/Static props/sheet1-sprites/sign detail 5.png" width="32" height="32"/>
  </tile>
  <tile id="504">
   <image source="../tiled/ERW-Grassland 2.0/Props/Static props/sheet1-sprites/sign post.png" width="64" height="96"/>
  </tile>
  <tile id="505">
   <image source="../tiled/ERW-Grassland 2.0/Props/Static props/sheet1-sprites/Slice 76.png" width="32" height="32"/>
  </tile>
  <tile id="506">
   <image source="../tiled/ERW-Grassland 2.0/Props/Static props/sheet1-sprites/small woodplanks 1 - no grass.png" width="32" height="32"/>
  </tile>
  <tile id="507">
   <image source="../tiled/ERW-Grassland 2.0/Props/Static props/sheet1-sprites/small woodplanks 1.png" width="32" height="32"/>
  </tile>
  <tile id="508">
   <image source="../tiled/ERW-Grassland 2.0/Props/Static props/sheet1-sprites/small woodplanks 2 - no grass.png" width="32" height="32"/>
  </tile>
  <tile id="509">
   <image source="../tiled/ERW-Grassland 2.0/Props/Static props/sheet1-sprites/small woodplanks 2.png" width="32" height="32"/>
  </tile>
  <tile id="510">
   <image source="../tiled/ERW-Grassland 2.0/Props/Static props/sheet1-sprites/small woodplanks 3 - no grass.png" width="32" height="32"/>
  </tile>
  <tile id="511">
   <image source="../tiled/ERW-Grassland 2.0/Props/Static props/sheet1-sprites/small woodplanks 3.png" width="32" height="32"/>
  </tile>
  <tile id="512">
   <image source="../tiled/ERW-Grassland 2.0/Props/Static props/sheet1-sprites/small woodplanks 4 - no grass.png" width="32" height="32"/>
  </tile>
  <tile id="513">
   <image source="../tiled/ERW-Grassland 2.0/Props/Static props/sheet1-sprites/small woodplanks 4.png" width="32" height="32"/>
  </tile>
  <tile id="514">
   <image source="../tiled/ERW-Grassland 2.0/Props/Static props/sheet1-sprites/small woodplanks 5 - no grass.png" width="32" height="32"/>
  </tile>
  <tile id="515">
   <image source="../tiled/ERW-Grassland 2.0/Props/Static props/sheet1-sprites/small woodplanks 5.png" width="32" height="32"/>
  </tile>
  <tile id="516">
   <image source="../tiled/ERW-Grassland 2.0/Props/Static props/sheet1-sprites/small woodplanks 6 - no grass.png" width="32" height="32"/>
  </tile>
  <tile id="517">
   <image source="../tiled/ERW-Grassland 2.0/Props/Static props/sheet1-sprites/small woodplanks 6.png" width="32" height="32"/>
  </tile>
  <tile id="518">
   <image source="../tiled/ERW-Grassland 2.0/Props/Static props/sheet1-sprites/tree - color scheme 1 - 1.png" width="192" height="192"/>
  </tile>
  <tile id="519">
   <image source="../tiled/ERW-Grassland 2.0/Props/Static props/sheet1-sprites/tree - color scheme 1 - 2.png" width="128" height="224"/>
  </tile>
  <tile id="520">
   <image source="../tiled/ERW-Grassland 2.0/Props/Static props/sheet1-sprites/tree - color scheme 1 - 3.png" width="128" height="224"/>
  </tile>
  <tile id="521">
   <image source="../tiled/ERW-Grassland 2.0/Props/Static props/sheet1-sprites/tree - color scheme 2 - 1.png" width="192" height="160"/>
  </tile>
  <tile id="522">
   <image source="../tiled/ERW-Grassland 2.0/Props/Static props/sheet1-sprites/tree - color scheme 2 - 2.png" width="128" height="224"/>
  </tile>
  <tile id="523">
   <image source="../tiled/ERW-Grassland 2.0/Props/Static props/sheet1-sprites/tree - color scheme 2 - 3.png" width="128" height="224"/>
  </tile>
  <tile id="524">
   <image source="../tiled/ERW-Grassland 2.0/Props/Static props/sheet1-sprites/tree - color scheme 3 - 1.png" width="192" height="160"/>
  </tile>
  <tile id="525">
   <image source="../tiled/ERW-Grassland 2.0/Props/Static props/sheet1-sprites/tree - color scheme 3 - 2.png" width="128" height="224"/>
  </tile>
  <tile id="526">
   <image source="../tiled/ERW-Grassland 2.0/Props/Static props/sheet1-sprites/tree - color scheme 3 - 3.png" width="128" height="224"/>
  </tile>
  <tile id="527">
   <image source="../tiled/ERW-Grassland 2.0/Props/Static props/sheet1-sprites/tree - color scheme 4 - 1.png" width="192" height="160"/>
  </tile>
  <tile id="528">
   <image source="../tiled/ERW-Grassland 2.0/Props/Static props/sheet1-sprites/tree - color scheme 4 - 2.png" width="128" height="224"/>
  </tile>
  <tile id="529">
   <image source="../tiled/ERW-Grassland 2.0/Props/Static props/sheet1-sprites/tree - color scheme 4 - 3.png" width="128" height="224"/>
  </tile>
  <tile id="530">
   <image source="../tiled/ERW-Grassland 2.0/Props/Static props/sheet1-sprites/tree - color scheme 5 - 1.png" width="192" height="160"/>
  </tile>
  <tile id="531">
   <image source="../tiled/ERW-Grassland 2.0/Props/Static props/sheet1-sprites/tree - color scheme 5 - 2.png" width="128" height="224"/>
  </tile>
  <tile id="532">
   <image source="../tiled/ERW-Grassland 2.0/Props/Static props/sheet1-sprites/tree - color scheme 5 - 3.png" width="128" height="224"/>
  </tile>
  <tile id="533">
   <image source="../tiled/ERW-Grassland 2.0/Props/Static props/sheet1-sprites/tree - naked - shadow 1.png" width="96" height="64"/>
  </tile>
  <tile id="534">
   <image source="../tiled/ERW-Grassland 2.0/Props/Static props/sheet1-sprites/tree - naked - shadow 2.png" width="96" height="64"/>
  </tile>
  <tile id="535">
   <image source="../tiled/ERW-Grassland 2.0/Props/Static props/sheet1-sprites/tree - naked - shadow 3.png" width="96" height="64"/>
  </tile>
  <tile id="536">
   <image source="../tiled/ERW-Grassland 2.0/Props/Static props/sheet1-sprites/tree - naked - small - no shadow and grass 1.png" width="64" height="96"/>
  </tile>
  <tile id="537">
   <image source="../tiled/ERW-Grassland 2.0/Props/Static props/sheet1-sprites/tree - naked - small - no shadow and grass 2.png" width="96" height="96"/>
  </tile>
  <tile id="538">
   <image source="../tiled/ERW-Grassland 2.0/Props/Static props/sheet1-sprites/tree - naked - small - no shadow and grass 3.png" width="64" height="96"/>
  </tile>
  <tile id="539">
   <image source="../tiled/ERW-Grassland 2.0/Props/Static props/sheet1-sprites/tree - naked - small - no shadow and grass 4.png" width="64" height="96"/>
  </tile>
  <tile id="540">
   <image source="../tiled/ERW-Grassland 2.0/Props/Static props/sheet1-sprites/tree - naked - small 1.png" width="64" height="96"/>
  </tile>
  <tile id="541">
   <image source="../tiled/ERW-Grassland 2.0/Props/Static props/sheet1-sprites/tree - naked - small 2.png" width="96" height="128"/>
  </tile>
  <tile id="542">
   <image source="../tiled/ERW-Grassland 2.0/Props/Static props/sheet1-sprites/tree - naked - small 3.png" width="64" height="128"/>
  </tile>
  <tile id="543">
   <image source="../tiled/ERW-Grassland 2.0/Props/Static props/sheet1-sprites/tree - naked - small 4.png" width="64" height="96"/>
  </tile>
  <tile id="544">
   <image source="../tiled/ERW-Grassland 2.0/Props/Static props/sheet1-sprites/tree - naked 1.png" width="160" height="160"/>
  </tile>
  <tile id="545">
   <image source="../tiled/ERW-Grassland 2.0/Props/Static props/sheet1-sprites/tree - naked 2.png" width="96" height="160"/>
  </tile>
  <tile id="546">
   <image source="../tiled/ERW-Grassland 2.0/Props/Static props/sheet1-sprites/tree - naked 3.png" width="96" height="160"/>
  </tile>
  <tile id="547">
   <image source="../tiled/ERW-Grassland 2.0/Props/Static props/sheet1-sprites/tree - shadow - 1.png" width="192" height="96"/>
  </tile>
  <tile id="548">
   <image source="../tiled/ERW-Grassland 2.0/Props/Static props/sheet1-sprites/tree - shadow - 2.png" width="128" height="64"/>
  </tile>
  <tile id="549">
   <image source="../tiled/ERW-Grassland 2.0/Props/Static props/sheet1-sprites/tree - shadow - 3.png" width="128" height="64"/>
  </tile>
  <tile id="550">
   <image source="../tiled/ERW-Grassland 2.0/Props/Static props/sheet1-sprites/tree - trunk 1.png" width="96" height="32"/>
  </tile>
  <tile id="551">
   <image source="../tiled/ERW-Grassland 2.0/Props/Static props/sheet1-sprites/tree - trunk 2.png" width="32" height="32"/>
  </tile>
  <tile id="552">
   <image source="../tiled/ERW-Grassland 2.0/Props/Static props/sheet1-sprites/tree - trunk 3.png" width="32" height="32"/>
  </tile>
  <tile id="553">
   <image source="../tiled/ERW-Grassland 2.0/Props/Static props/sheet1-sprites/trunk 1.png" width="64" height="64"/>
  </tile>
  <tile id="554">
   <image source="../tiled/ERW-Grassland 2.0/Props/Static props/sheet1-sprites/trunk 2.png" width="32" height="64"/>
  </tile>
  <tile id="555">
   <image source="../tiled/ERW-Grassland 2.0/Props/Static props/sheet1-sprites/trunk 3.png" width="32" height="32"/>
  </tile>
  <tile id="556">
   <image source="../tiled/ERW-Grassland 2.0/Props/Static props/sheet1-sprites/trunk 4.png" width="32" height="32"/>
  </tile>
  <tile id="557">
   <image source="../tiled/ERW-Grassland 2.0/Props/Static props/sheet1-sprites/trunk 5.png" width="32" height="32"/>
  </tile>
  <tile id="558">
   <image source="../tiled/ERW-Grassland 2.0/Props/Static props/sheet1-sprites/trunk 6.png" width="64" height="64"/>
  </tile>
  <tile id="559">
   <image source="../tiled/ERW-Grassland 2.0/Props/Static props/sheet1-sprites/trunk 7.png" width="64" height="64"/>
  </tile>
  <tile id="560">
   <image source="../tiled/ERW-Grassland 2.0/Props/Static props/sheet1-sprites/trunk 8.png" width="32" height="32"/>
  </tile>
  <tile id="561">
   <image source="../tiled/ERW-Grassland 2.0/Props/Static props/sheet1-sprites/trunk 9.png" width="32" height="32"/>
  </tile>
  <tile id="562">
   <image source="../tiled/ERW-Grassland 2.0/Props/Static props/sheet1-sprites/trunk 10.png" width="32" height="32"/>
  </tile>
  <tile id="563">
   <image source="../tiled/ERW-Grassland 2.0/Props/Static props/sheet1-sprites/vegetation 1.png" width="64" height="64"/>
  </tile>
  <tile id="564">
   <image source="../tiled/ERW-Grassland 2.0/Props/Static props/sheet1-sprites/vegetation 2.png" width="64" height="64"/>
  </tile>
  <tile id="565">
   <image source="../tiled/ERW-Grassland 2.0/Props/Static props/sheet1-sprites/vegetation 3.png" width="64" height="64"/>
  </tile>
  <tile id="566">
   <image source="../tiled/ERW-Grassland 2.0/Props/Static props/sheet1-sprites/vegetation 4.png" width="64" height="64"/>
  </tile>
  <tile id="567">
   <image source="../tiled/ERW-Grassland 2.0/Props/Static props/sheet1-sprites/vegetation 5.png" width="64" height="64"/>
  </tile>
  <tile id="568">
   <image source="../tiled/ERW-Grassland 2.0/Props/Static props/sheet1-sprites/vegetation 6.png" width="64" height="64"/>
  </tile>
  <tile id="569">
   <image source="../tiled/ERW-Grassland 2.0/Props/Static props/sheet1-sprites/vegetation 7.png" width="64" height="64"/>
  </tile>
  <tile id="570">
   <image source="../tiled/ERW-Grassland 2.0/Props/Static props/sheet1-sprites/vegetation 8.png" width="64" height="64"/>
  </tile>
  <tile id="571">
   <image source="../tiled/ERW-Grassland 2.0/Props/Static props/sheet1-sprites/vegetation 9.png" width="64" height="64"/>
  </tile>
  <tile id="572">
   <image source="../tiled/ERW-Grassland 2.0/Props/Static props/sheet1-sprites/waterwell - broken - no grass - no grass.png" width="96" height="128"/>
  </tile>
  <tile id="573">
   <image source="../tiled/ERW-Grassland 2.0/Props/Static props/sheet1-sprites/waterwell - broken.png" width="96" height="96"/>
  </tile>
  <tile id="574">
   <image source="../tiled/ERW-Grassland 2.0/Props/Static props/sheet1-sprites/waterwell - no rope - to place the roof - no grass.png" width="96" height="128"/>
  </tile>
  <tile id="575">
   <image source="../tiled/ERW-Grassland 2.0/Props/Static props/sheet1-sprites/waterwell - no rope - to place the roof.png" width="96" height="128"/>
  </tile>
  <tile id="576">
   <image source="../tiled/ERW-Grassland 2.0/Props/Static props/sheet1-sprites/waterwell - no support - no grass.png" width="96" height="64"/>
  </tile>
  <tile id="577">
   <image source="../tiled/ERW-Grassland 2.0/Props/Static props/sheet1-sprites/waterwell - no support.png" width="96" height="64"/>
  </tile>
  <tile id="578">
   <image source="../tiled/ERW-Grassland 2.0/Props/Static props/sheet1-sprites/waterwell - roof.png" width="96" height="96"/>
  </tile>
  <tile id="579">
   <image source="../tiled/ERW-Grassland 2.0/Props/Static props/sheet1-sprites/waterwell - roof2.png" width="96" height="96"/>
  </tile>
  <tile id="580">
   <image source="../tiled/ERW-Grassland 2.0/Props/Static props/sheet1-sprites/waterwell - rope - no grass.png" width="96" height="128"/>
  </tile>
  <tile id="581">
   <image source="../tiled/ERW-Grassland 2.0/Props/Static props/sheet1-sprites/waterwell - rope - to place the roof - no grass.png" width="96" height="128"/>
  </tile>
  <tile id="582">
   <image source="../tiled/ERW-Grassland 2.0/Props/Static props/sheet1-sprites/waterwell - rope - to place the roof.png" width="96" height="128"/>
  </tile>
  <tile id="583">
   <image source="../tiled/ERW-Grassland 2.0/Props/Static props/sheet1-sprites/waterwell - rope.png" width="96" height="96"/>
  </tile>
  <tile id="584">
   <image source="../tiled/ERW-Grassland 2.0/Props/Static props/sheet1-sprites/waterwell 2 - broken - no grass.png" width="96" height="64"/>
  </tile>
  <tile id="585">
   <image source="../tiled/ERW-Grassland 2.0/Props/Static props/sheet1-sprites/waterwell 2 - broken.png" width="96" height="64"/>
  </tile>
  <tile id="586">
   <image source="../tiled/ERW-Grassland 2.0/Props/Static props/sheet1-sprites/waterwell 2 - no rope - no grass.png" width="96" height="64"/>
  </tile>
  <tile id="587">
   <image source="../tiled/ERW-Grassland 2.0/Props/Static props/sheet1-sprites/waterwell 2 - no rope.png" width="96" height="64"/>
  </tile>
  <tile id="588">
   <image source="../tiled/ERW-Grassland 2.0/Props/Static props/sheet1-sprites/waterwell 2 - no support - no grass.png" width="96" height="64"/>
  </tile>
  <tile id="589">
   <image source="../tiled/ERW-Grassland 2.0/Props/Static props/sheet1-sprites/waterwell 2 - no support.png" width="96" height="64"/>
  </tile>
  <tile id="590">
   <image source="../tiled/ERW-Grassland 2.0/Props/Static props/sheet1-sprites/waterwell 2 - rope - no grass.png" width="96" height="64"/>
  </tile>
  <tile id="591">
   <image source="../tiled/ERW-Grassland 2.0/Props/Static props/sheet1-sprites/waterwell 2 - rope.png" width="96" height="64"/>
  </tile>
  <tile id="592">
   <image source="../tiled/ERW-Grassland 2.0/Props/Static props/sheet1-sprites/wood log 1.png" width="64" height="32"/>
  </tile>
  <tile id="593">
   <image source="../tiled/ERW-Grassland 2.0/Props/Static props/sheet1-sprites/wood log 2.png" width="64" height="32"/>
  </tile>
  <tile id="594">
   <image source="../tiled/ERW-Grassland 2.0/Props/Static props/sheet1-sprites/wood log 3.png" width="32" height="64"/>
  </tile>
  <tile id="595">
   <image source="../tiled/ERW-Grassland 2.0/Props/Static props/sheet1-sprites/wood log 4.png" width="32" height="64"/>
  </tile>
  <tile id="596">
   <image source="../tiled/ERW-Grassland 2.0/Props/Static props/sheet1-sprites/wood log 5.png" width="64" height="64"/>
  </tile>
  <tile id="597">
   <image source="../tiled/ERW-Grassland 2.0/Props/Static props/sheet1-sprites/wood log 6.png" width="64" height="64"/>
  </tile>
  <tile id="598">
   <image source="../tiled/ERW-Grassland 2.0/Props/Static props/sheet1-sprites/wood log 7.png" width="64" height="32"/>
  </tile>
  <tile id="599">
   <image source="../tiled/ERW-Grassland 2.0/Props/Static props/sheet1-sprites/wood log 8.png" width="64" height="32"/>
  </tile>
  <tile id="600">
   <image source="../tiled/ERW-Grassland 2.0/Props/Static props/sheet1-sprites/wood log 9.png" width="32" height="64"/>
  </tile>
  <tile id="601">
   <image source="../tiled/ERW-Grassland 2.0/Props/Static props/sheet1-sprites/wood log 10.png" width="32" height="64"/>
  </tile>
  <tile id="602">
   <image source="../tiled/ERW-Grassland 2.0/Props/Static props/sheet1-sprites/wood log 11.png" width="64" height="64"/>
  </tile>
  <tile id="603">
   <image source="../tiled/ERW-Grassland 2.0/Props/Static props/sheet1-sprites/wood log 12.png" width="64" height="64"/>
  </tile>
  <tile id="604">
   <image source="../tiled/ERW-Grassland 2.0/Props/Static props/sheet1-sprites/wood log 13.png" width="64" height="32"/>
  </tile>
  <tile id="605">
   <image source="../tiled/ERW-Grassland 2.0/Props/Static props/sheet1-sprites/wood log 14.png" width="64" height="32"/>
  </tile>
  <tile id="606">
   <image source="../tiled/ERW-Grassland 2.0/Props/Static props/sheet1-sprites/wood log 15.png" width="32" height="64"/>
  </tile>
  <tile id="607">
   <image source="../tiled/ERW-Grassland 2.0/Props/Static props/sheet1-sprites/wood log 16.png" width="32" height="64"/>
  </tile>
  <tile id="608">
   <image source="../tiled/ERW-Grassland 2.0/Props/Static props/sheet1-sprites/wood log 17.png" width="64" height="64"/>
  </tile>
  <tile id="609">
   <image source="../tiled/ERW-Grassland 2.0/Props/Static props/sheet1-sprites/wood log 18.png" width="64" height="64"/>
  </tile>
  <tile id="610">
   <image source="../tiled/ERW-Grassland 2.0/Props/Static props/sheet1-sprites/wood log 19.png" width="64" height="64"/>
  </tile>
  <tile id="611">
   <image source="../tiled/ERW-Grassland 2.0/Props/Static props/sheet1-sprites/wood log 20.png" width="64" height="64"/>
  </tile>
  <tile id="612">
   <image source="../tiled/ERW-Grassland 2.0/Props/Static props/sheet1-sprites/wood log 21.png" width="64" height="64"/>
  </tile>
  <tile id="613">
   <image source="../tiled/ERW-Grassland 2.0/Props/Static props/sheet1-sprites/wood log 22.png" width="32" height="64"/>
  </tile>
  <tile id="614">
   <image source="../tiled/ERW-Grassland 2.0/Props/Static props/sheet1-sprites/wood log 23.png" width="32" height="64"/>
  </tile>
  <tile id="615">
   <image source="../tiled/ERW-Grassland 2.0/Props/Static props/sheet1-sprites/wood log 24.png" width="64" height="64"/>
  </tile>
  <tile id="616">
   <image source="../tiled/ERW-Grassland 2.0/Props/Static props/sheet1-sprites/wood log 25.png" width="64" height="64"/>
  </tile>
  <tile id="617">
   <image source="../tiled/ERW-Grassland 2.0/Props/Static props/sheet1-sprites/wood log 26.png" width="64" height="64"/>
  </tile>
  <tile id="618">
   <image source="../tiled/ERW-Grassland 2.0/Props/Static props/sheet1-sprites/wood log 27.png" width="96" height="64"/>
  </tile>
  <tile id="619">
   <image source="../tiled/ERW-Grassland 2.0/Props/Static props/sheet1-sprites/wood log 28.png" width="96" height="64"/>
  </tile>
  <tile id="620">
   <image source="../tiled/ERW-Grassland 2.0/Props/Static props/sheet1-sprites/wood log 29.png" width="64" height="32"/>
  </tile>
  <tile id="621">
   <image source="../tiled/ERW-Grassland 2.0/Props/Static props/sheet1-sprites/wood log 30.png" width="96" height="32"/>
  </tile>
  <tile id="622">
   <image source="../tiled/ERW-Grassland 2.0/Props/Static props/sheet1-sprites/wood log 31.png" width="32" height="32"/>
  </tile>
  <tile id="623">
   <image source="../tiled/ERW-Grassland 2.0/Props/Static props/sheet1-sprites/wood log 32.png" width="32" height="32"/>
  </tile>
  <tile id="624">
   <image source="../tiled/ERW-Grassland 2.0/Props/Static props/sheet1-sprites/wood log 33.png" width="32" height="32"/>
  </tile>
  <tile id="625">
   <image source="../tiled/ERW-Grassland 2.0/Props/Static props/sheet1-sprites/wood log 34.png" width="32" height="32"/>
  </tile>
  <tile id="626">
   <image source="../tiled/ERW-Grassland 2.0/Props/Static props/sheet1-sprites/wood log 35.png" width="32" height="32"/>
  </tile>
  <tile id="627">
   <image source="../tiled/ERW-Grassland 2.0/Props/Static props/sheet1-sprites/wood log 36.png" width="32" height="32"/>
  </tile>
  <tile id="628">
   <image source="../tiled/ERW-Grassland 2.0/Props/Static props/sheet1-sprites/wood log 37.png" width="32" height="32"/>
  </tile>
  <tile id="629">
   <image source="../tiled/ERW-Grassland 2.0/Props/Static props/sheet1-sprites/wood log 38.png" width="32" height="32"/>
  </tile>
  <tile id="630">
   <image source="../tiled/ERW-Grassland 2.0/Props/Static props/sheet1-sprites/woodplank.png" width="64" height="32"/>
  </tile>
  <tile id="631">
   <image source="../tiled/ERW-Grassland 2.0/Props/Static props/sheet1-sprites/woodplank2.png" width="64" height="32"/>
  </tile>
  <tile id="632">
   <image source="../tiled/ERW-Grassland 2.0/Props/Static props/sheet1-sprites/woodplank3.png" width="32" height="32"/>
  </tile>
  <tile id="633">
   <image source="../tiled/ERW-Grassland 2.0/Props/Static props/sheet1-sprites/woodplank4.png" width="32" height="32"/>
  </tile>
  <tile id="634">
   <image source="../tiled/ERW-Grassland 2.0/Props/Static props/sheet1-sprites/woodplank5.png" width="32" height="32"/>
  </tile>
  <tile id="635">
   <image source="../tiled/ERW-Grassland 2.0/Props/Static props/sheet1-sprites/woodplank6.png" width="32" height="32"/>
  </tile>
  <tile id="636">
   <image source="../tiled/ERW-Grassland 2.0/Props/Static props/sheet1-sprites/woodplank7.png" width="32" height="32"/>
  </tile>
  <tile id="637">
   <image source="../tiled/ERW-Grassland 2.0/Props/Static props/sheet1-sprites/woodplank8.png" width="64" height="32"/>
  </tile>
  <tile id="638">
   <image source="../tiled/ERW-Grassland 2.0/Props/Static props/sheet1-sprites/woodplank9.png" width="32" height="32"/>
  </tile>
 </tileset>
 <tileset firstgid="6982" name="Atlas-Props-sheet2-sprites" tilewidth="352" tileheight="288" tilecount="297" columns="0">
  <grid orientation="orthogonal" width="1" height="1"/>
  <tile id="0">
   <image source="../tiled/ERW-Grassland 2.0/Props/Static props/sheet2-sprites/altar - neutral.png" width="288" height="224"/>
  </tile>
  <tile id="1">
   <image source="../tiled/ERW-Grassland 2.0/Props/Static props/sheet2-sprites/altar - on grass - complete.png" width="288" height="256"/>
  </tile>
  <tile id="2">
   <image source="../tiled/ERW-Grassland 2.0/Props/Static props/sheet2-sprites/altar - only stones.png" width="224" height="128"/>
  </tile>
  <tile id="3">
   <image source="../tiled/ERW-Grassland 2.0/Props/Static props/sheet2-sprites/barricade - 1.png" width="64" height="64"/>
  </tile>
  <tile id="4">
   <image source="../tiled/ERW-Grassland 2.0/Props/Static props/sheet2-sprites/barricade - 2.png" width="64" height="64"/>
  </tile>
  <tile id="5">
   <image source="../tiled/ERW-Grassland 2.0/Props/Static props/sheet2-sprites/barricade - 3.png" width="64" height="64"/>
  </tile>
  <tile id="6">
   <image source="../tiled/ERW-Grassland 2.0/Props/Static props/sheet2-sprites/barricade - 4.png" width="64" height="64"/>
  </tile>
  <tile id="7">
   <image source="../tiled/ERW-Grassland 2.0/Props/Static props/sheet2-sprites/barricade - 5.png" width="64" height="64"/>
  </tile>
  <tile id="8">
   <image source="../tiled/ERW-Grassland 2.0/Props/Static props/sheet2-sprites/barricade - 6.png" width="64" height="64"/>
  </tile>
  <tile id="9">
   <image source="../tiled/ERW-Grassland 2.0/Props/Static props/sheet2-sprites/barricade - 8.png" width="64" height="32"/>
  </tile>
  <tile id="10">
   <image source="../tiled/ERW-Grassland 2.0/Props/Static props/sheet2-sprites/barricade - 9.png" width="64" height="32"/>
  </tile>
  <tile id="11">
   <image source="../tiled/ERW-Grassland 2.0/Props/Static props/sheet2-sprites/barricade - 10.png" width="32" height="64"/>
  </tile>
  <tile id="12">
   <image source="../tiled/ERW-Grassland 2.0/Props/Static props/sheet2-sprites/barricade - 11.png" width="32" height="64"/>
  </tile>
  <tile id="13">
   <image source="../tiled/ERW-Grassland 2.0/Props/Static props/sheet2-sprites/barricade - spikes - 1.png" width="96" height="64"/>
  </tile>
  <tile id="14">
   <image source="../tiled/ERW-Grassland 2.0/Props/Static props/sheet2-sprites/barricade - spikes - 2.png" width="96" height="64"/>
  </tile>
  <tile id="15">
   <image source="../tiled/ERW-Grassland 2.0/Props/Static props/sheet2-sprites/barricade - spikes - 3.png" width="64" height="96"/>
  </tile>
  <tile id="16">
   <image source="../tiled/ERW-Grassland 2.0/Props/Static props/sheet2-sprites/barricade - spikes - 4.png" width="64" height="96"/>
  </tile>
  <tile id="17">
   <image source="../tiled/ERW-Grassland 2.0/Props/Static props/sheet2-sprites/bone - big - 1.png" width="64" height="128"/>
  </tile>
  <tile id="18">
   <image source="../tiled/ERW-Grassland 2.0/Props/Static props/sheet2-sprites/bone - big - 2.png" width="64" height="128"/>
  </tile>
  <tile id="19">
   <image source="../tiled/ERW-Grassland 2.0/Props/Static props/sheet2-sprites/bone - big - 3.png" width="64" height="128"/>
  </tile>
  <tile id="20">
   <image source="../tiled/ERW-Grassland 2.0/Props/Static props/sheet2-sprites/bone - big - 4.png" width="64" height="128"/>
  </tile>
  <tile id="21">
   <image source="../tiled/ERW-Grassland 2.0/Props/Static props/sheet2-sprites/bone - big - 5.png" width="64" height="96"/>
  </tile>
  <tile id="22">
   <image source="../tiled/ERW-Grassland 2.0/Props/Static props/sheet2-sprites/bone - big - 6.png" width="64" height="96"/>
  </tile>
  <tile id="23">
   <image source="../tiled/ERW-Grassland 2.0/Props/Static props/sheet2-sprites/bone - small - 1.png" width="32" height="32"/>
  </tile>
  <tile id="24">
   <image source="../tiled/ERW-Grassland 2.0/Props/Static props/sheet2-sprites/bone - small - 2.png" width="32" height="32"/>
  </tile>
  <tile id="25">
   <image source="../tiled/ERW-Grassland 2.0/Props/Static props/sheet2-sprites/bone - small - 3.png" width="32" height="32"/>
  </tile>
  <tile id="26">
   <image source="../tiled/ERW-Grassland 2.0/Props/Static props/sheet2-sprites/bone - small - 4.png" width="32" height="32"/>
  </tile>
  <tile id="27">
   <image source="../tiled/ERW-Grassland 2.0/Props/Static props/sheet2-sprites/bone - small - 5.png" width="32" height="32"/>
  </tile>
  <tile id="28">
   <image source="../tiled/ERW-Grassland 2.0/Props/Static props/sheet2-sprites/bone - small - 6.png" width="32" height="32"/>
  </tile>
  <tile id="29">
   <image source="../tiled/ERW-Grassland 2.0/Props/Static props/sheet2-sprites/bone - small - 7.png" width="64" height="32"/>
  </tile>
  <tile id="30">
   <image source="../tiled/ERW-Grassland 2.0/Props/Static props/sheet2-sprites/bone - small - 8.png" width="32" height="32"/>
  </tile>
  <tile id="31">
   <image source="../tiled/ERW-Grassland 2.0/Props/Static props/sheet2-sprites/bone - small - 9.png" width="32" height="32"/>
  </tile>
  <tile id="32">
   <image source="../tiled/ERW-Grassland 2.0/Props/Static props/sheet2-sprites/bone - small - 10.png" width="32" height="32"/>
  </tile>
  <tile id="33">
   <image source="../tiled/ERW-Grassland 2.0/Props/Static props/sheet2-sprites/bone - small - 11.png" width="32" height="32"/>
  </tile>
  <tile id="34">
   <image source="../tiled/ERW-Grassland 2.0/Props/Static props/sheet2-sprites/bone - small - 12.png" width="32" height="32"/>
  </tile>
  <tile id="35">
   <image source="../tiled/ERW-Grassland 2.0/Props/Static props/sheet2-sprites/bone - small - 13.png" width="32" height="32"/>
  </tile>
  <tile id="36">
   <image source="../tiled/ERW-Grassland 2.0/Props/Static props/sheet2-sprites/bone - small - 14.png" width="64" height="32"/>
  </tile>
  <tile id="37">
   <image source="../tiled/ERW-Grassland 2.0/Props/Static props/sheet2-sprites/cabin interior - bear carpet.png" width="64" height="96"/>
  </tile>
  <tile id="38">
   <image source="../tiled/ERW-Grassland 2.0/Props/Static props/sheet2-sprites/cabin interior - bed - pillow.png" width="64" height="96"/>
  </tile>
  <tile id="39">
   <image source="../tiled/ERW-Grassland 2.0/Props/Static props/sheet2-sprites/cabin interior - bed.png" width="64" height="96"/>
  </tile>
  <tile id="40">
   <image source="../tiled/ERW-Grassland 2.0/Props/Static props/sheet2-sprites/cabin interior - bench.png" width="32" height="32"/>
  </tile>
  <tile id="41">
   <image source="../tiled/ERW-Grassland 2.0/Props/Static props/sheet2-sprites/cabin interior - cabin interior - light.png" width="192" height="128"/>
  </tile>
  <tile id="42">
   <image source="../tiled/ERW-Grassland 2.0/Props/Static props/sheet2-sprites/cabin interior - carpet.png" width="32" height="64"/>
  </tile>
  <tile id="43">
   <image source="../tiled/ERW-Grassland 2.0/Props/Static props/sheet2-sprites/cabin interior - chest tissue.png" width="64" height="32"/>
  </tile>
  <tile id="44">
   <image source="../tiled/ERW-Grassland 2.0/Props/Static props/sheet2-sprites/cabin interior - light2.png" width="224" height="128"/>
  </tile>
  <tile id="45">
   <image source="../tiled/ERW-Grassland 2.0/Props/Static props/sheet2-sprites/cabin interior - pan 1.png" width="32" height="32"/>
  </tile>
  <tile id="46">
   <image source="../tiled/ERW-Grassland 2.0/Props/Static props/sheet2-sprites/cabin interior - pan 2.png" width="32" height="32"/>
  </tile>
  <tile id="47">
   <image source="../tiled/ERW-Grassland 2.0/Props/Static props/sheet2-sprites/cabin interior - pans.png" width="32" height="32"/>
  </tile>
  <tile id="48">
   <image source="../tiled/ERW-Grassland 2.0/Props/Static props/sheet2-sprites/cabin interior - pilow.png" width="64" height="32"/>
  </tile>
  <tile id="49">
   <image source="../tiled/ERW-Grassland 2.0/Props/Static props/sheet2-sprites/cabin interior - side table.png" width="32" height="96"/>
  </tile>
  <tile id="50">
   <image source="../tiled/ERW-Grassland 2.0/Props/Static props/sheet2-sprites/cabin interior - wooden chest 1 - tissue.png" width="64" height="32"/>
  </tile>
  <tile id="51">
   <image source="../tiled/ERW-Grassland 2.0/Props/Static props/sheet2-sprites/cabin interior - wooden chest 1.png" width="64" height="32"/>
  </tile>
  <tile id="52">
   <image source="../tiled/ERW-Grassland 2.0/Props/Static props/sheet2-sprites/cabin interior - wooden chest 2 - tissue.png" width="64" height="32"/>
  </tile>
  <tile id="53">
   <image source="../tiled/ERW-Grassland 2.0/Props/Static props/sheet2-sprites/cabin interior - wooden chest 2.png" width="64" height="32"/>
  </tile>
  <tile id="54">
   <image source="../tiled/ERW-Grassland 2.0/Props/Static props/sheet2-sprites/cabin interior - wooden chest 3 - tissue.png" width="64" height="32"/>
  </tile>
  <tile id="55">
   <image source="../tiled/ERW-Grassland 2.0/Props/Static props/sheet2-sprites/cabin interior - wooden chest 3.png" width="64" height="32"/>
  </tile>
  <tile id="56">
   <image source="../tiled/ERW-Grassland 2.0/Props/Static props/sheet2-sprites/carriage - broken.png" width="160" height="160"/>
  </tile>
  <tile id="57">
   <image source="../tiled/ERW-Grassland 2.0/Props/Static props/sheet2-sprites/carriage - complete - on grass.png" width="160" height="160"/>
  </tile>
  <tile id="58">
   <image source="../tiled/ERW-Grassland 2.0/Props/Static props/sheet2-sprites/carriage - complete.png" width="160" height="160"/>
  </tile>
  <tile id="59">
   <image source="../tiled/ERW-Grassland 2.0/Props/Static props/sheet2-sprites/carriage - no tent - on grass.png" width="160" height="160"/>
  </tile>
  <tile id="60">
   <image source="../tiled/ERW-Grassland 2.0/Props/Static props/sheet2-sprites/carriage - no tent.png" width="160" height="160"/>
  </tile>
  <tile id="61">
   <image source="../tiled/ERW-Grassland 2.0/Props/Static props/sheet2-sprites/carriage - no tent1.png" width="160" height="160"/>
  </tile>
  <tile id="62">
   <image source="../tiled/ERW-Grassland 2.0/Props/Static props/sheet2-sprites/carriage - no tent2 - on grass.png" width="160" height="160"/>
  </tile>
  <tile id="63">
   <image source="../tiled/ERW-Grassland 2.0/Props/Static props/sheet2-sprites/carriage - on grass - broken.png" width="160" height="160"/>
  </tile>
  <tile id="64">
   <image source="../tiled/ERW-Grassland 2.0/Props/Static props/sheet2-sprites/carriage - tent support - 1.png" width="32" height="64"/>
  </tile>
  <tile id="65">
   <image source="../tiled/ERW-Grassland 2.0/Props/Static props/sheet2-sprites/carriage - tent support - 2.png" width="32" height="64"/>
  </tile>
  <tile id="66">
   <image source="../tiled/ERW-Grassland 2.0/Props/Static props/sheet2-sprites/carriage - tent support - 3.png" width="32" height="32"/>
  </tile>
  <tile id="67">
   <image source="../tiled/ERW-Grassland 2.0/Props/Static props/sheet2-sprites/carriage - tent support - 4.png" width="32" height="32"/>
  </tile>
  <tile id="68">
   <image source="../tiled/ERW-Grassland 2.0/Props/Static props/sheet2-sprites/carriage - tent support - 5.png" width="32" height="32"/>
  </tile>
  <tile id="69">
   <image source="../tiled/ERW-Grassland 2.0/Props/Static props/sheet2-sprites/carriage - tent support - 6.png" width="32" height="32"/>
  </tile>
  <tile id="70">
   <image source="../tiled/ERW-Grassland 2.0/Props/Static props/sheet2-sprites/grass tufts 1.png" width="64" height="32"/>
  </tile>
  <tile id="71">
   <image source="../tiled/ERW-Grassland 2.0/Props/Static props/sheet2-sprites/grass tufts 2.png" width="64" height="32"/>
  </tile>
  <tile id="72">
   <image source="../tiled/ERW-Grassland 2.0/Props/Static props/sheet2-sprites/grass tufts 3.png" width="32" height="32"/>
  </tile>
  <tile id="73">
   <image source="../tiled/ERW-Grassland 2.0/Props/Static props/sheet2-sprites/grass tufts 4.png" width="96" height="32"/>
  </tile>
  <tile id="74">
   <image source="../tiled/ERW-Grassland 2.0/Props/Static props/sheet2-sprites/grass tufts 5.png" width="32" height="32"/>
  </tile>
  <tile id="75">
   <image source="../tiled/ERW-Grassland 2.0/Props/Static props/sheet2-sprites/grass tufts 6.png" width="32" height="32"/>
  </tile>
  <tile id="76">
   <image source="../tiled/ERW-Grassland 2.0/Props/Static props/sheet2-sprites/grass tufts 7.png" width="32" height="32"/>
  </tile>
  <tile id="77">
   <image source="../tiled/ERW-Grassland 2.0/Props/Static props/sheet2-sprites/grass tufts 8.png" width="32" height="32"/>
  </tile>
  <tile id="78">
   <image source="../tiled/ERW-Grassland 2.0/Props/Static props/sheet2-sprites/grass tufts 9.png" width="32" height="32"/>
  </tile>
  <tile id="79">
   <image source="../tiled/ERW-Grassland 2.0/Props/Static props/sheet2-sprites/grass tufts 10.png" width="32" height="32"/>
  </tile>
  <tile id="80">
   <image source="../tiled/ERW-Grassland 2.0/Props/Static props/sheet2-sprites/grass tufts 11.png" width="32" height="32"/>
  </tile>
  <tile id="81">
   <image source="../tiled/ERW-Grassland 2.0/Props/Static props/sheet2-sprites/grass tufts 12.png" width="32" height="32"/>
  </tile>
  <tile id="82">
   <image source="../tiled/ERW-Grassland 2.0/Props/Static props/sheet2-sprites/grass tufts 13.png" width="32" height="32"/>
  </tile>
  <tile id="83">
   <image source="../tiled/ERW-Grassland 2.0/Props/Static props/sheet2-sprites/grass tufts 14.png" width="32" height="32"/>
  </tile>
  <tile id="84">
   <image source="../tiled/ERW-Grassland 2.0/Props/Static props/sheet2-sprites/grass tufts 15.png" width="32" height="32"/>
  </tile>
  <tile id="85">
   <image source="../tiled/ERW-Grassland 2.0/Props/Static props/sheet2-sprites/grass tufts 16.png" width="32" height="32"/>
  </tile>
  <tile id="86">
   <image source="../tiled/ERW-Grassland 2.0/Props/Static props/sheet2-sprites/grass tufts 17.png" width="32" height="32"/>
  </tile>
  <tile id="87">
   <image source="../tiled/ERW-Grassland 2.0/Props/Static props/sheet2-sprites/grass tufts 18.png" width="32" height="32"/>
  </tile>
  <tile id="88">
   <image source="../tiled/ERW-Grassland 2.0/Props/Static props/sheet2-sprites/grass tufts 19.png" width="64" height="32"/>
  </tile>
  <tile id="89">
   <image source="../tiled/ERW-Grassland 2.0/Props/Static props/sheet2-sprites/grass tufts 20.png" width="64" height="32"/>
  </tile>
  <tile id="90">
   <image source="../tiled/ERW-Grassland 2.0/Props/Static props/sheet2-sprites/grass tufts 21.png" width="64" height="32"/>
  </tile>
  <tile id="91">
   <image source="../tiled/ERW-Grassland 2.0/Props/Static props/sheet2-sprites/grass tufts 22.png" width="352" height="32"/>
  </tile>
  <tile id="92">
   <image source="../tiled/ERW-Grassland 2.0/Props/Static props/sheet2-sprites/grass tufts 23.png" width="32" height="32"/>
  </tile>
  <tile id="93">
   <image source="../tiled/ERW-Grassland 2.0/Props/Static props/sheet2-sprites/grass tufts 24.png" width="32" height="32"/>
  </tile>
  <tile id="94">
   <image source="../tiled/ERW-Grassland 2.0/Props/Static props/sheet2-sprites/grass tufts 25.png" width="32" height="32"/>
  </tile>
  <tile id="95">
   <image source="../tiled/ERW-Grassland 2.0/Props/Static props/sheet2-sprites/grass tufts 26.png" width="32" height="32"/>
  </tile>
  <tile id="96">
   <image source="../tiled/ERW-Grassland 2.0/Props/Static props/sheet2-sprites/grass tufts 27.png" width="32" height="32"/>
  </tile>
  <tile id="97">
   <image source="../tiled/ERW-Grassland 2.0/Props/Static props/sheet2-sprites/grass tufts 28.png" width="32" height="32"/>
  </tile>
  <tile id="98">
   <image source="../tiled/ERW-Grassland 2.0/Props/Static props/sheet2-sprites/grass tufts 29.png" width="32" height="32"/>
  </tile>
  <tile id="99">
   <image source="../tiled/ERW-Grassland 2.0/Props/Static props/sheet2-sprites/grass tufts 30.png" width="32" height="32"/>
  </tile>
  <tile id="100">
   <image source="../tiled/ERW-Grassland 2.0/Props/Static props/sheet2-sprites/grass tufts 31.png" width="32" height="32"/>
  </tile>
  <tile id="101">
   <image source="../tiled/ERW-Grassland 2.0/Props/Static props/sheet2-sprites/grass tufts 32.png" width="32" height="32"/>
  </tile>
  <tile id="102">
   <image source="../tiled/ERW-Grassland 2.0/Props/Static props/sheet2-sprites/shrine 1 - bowl 1.png" width="32" height="32"/>
  </tile>
  <tile id="103">
   <image source="../tiled/ERW-Grassland 2.0/Props/Static props/sheet2-sprites/shrine 1 - bowl 2.png" width="32" height="32"/>
  </tile>
  <tile id="104">
   <image source="../tiled/ERW-Grassland 2.0/Props/Static props/sheet2-sprites/shrine 1 - only support1.png" width="64" height="64"/>
  </tile>
  <tile id="105">
   <image source="../tiled/ERW-Grassland 2.0/Props/Static props/sheet2-sprites/shrine 1 - only support2 .png" width="64" height="64"/>
  </tile>
  <tile id="106">
   <image source="../tiled/ERW-Grassland 2.0/Props/Static props/sheet2-sprites/shrine 1 - support 1 - on grass.png" width="64" height="64"/>
  </tile>
  <tile id="107">
   <image source="../tiled/ERW-Grassland 2.0/Props/Static props/sheet2-sprites/shrine 1 - support 2 - on grass.png" width="64" height="64"/>
  </tile>
  <tile id="108">
   <image source="../tiled/ERW-Grassland 2.0/Props/Static props/sheet2-sprites/shrine 1 - support 2.png" width="64" height="64"/>
  </tile>
  <tile id="109">
   <image source="../tiled/ERW-Grassland 2.0/Props/Static props/sheet2-sprites/shrine 1 - support 3 - on grass.png" width="64" height="64"/>
  </tile>
  <tile id="110">
   <image source="../tiled/ERW-Grassland 2.0/Props/Static props/sheet2-sprites/shrine 1 - support 3.png" width="64" height="64"/>
  </tile>
  <tile id="111">
   <image source="../tiled/ERW-Grassland 2.0/Props/Static props/sheet2-sprites/shrine 1 - support 4 - 1 - on grass.png" width="64" height="64"/>
  </tile>
  <tile id="112">
   <image source="../tiled/ERW-Grassland 2.0/Props/Static props/sheet2-sprites/shrine 1 - support 4 - 1.png" width="64" height="64"/>
  </tile>
  <tile id="113">
   <image source="../tiled/ERW-Grassland 2.0/Props/Static props/sheet2-sprites/shrine 1 - support 4 - on grass.png" width="64" height="64"/>
  </tile>
  <tile id="114">
   <image source="../tiled/ERW-Grassland 2.0/Props/Static props/sheet2-sprites/shrine 1 - support 4.png" width="64" height="64"/>
  </tile>
  <tile id="115">
   <image source="../tiled/ERW-Grassland 2.0/Props/Static props/sheet2-sprites/shrine 1.png" width="64" height="64"/>
  </tile>
  <tile id="116">
   <image source="../tiled/ERW-Grassland 2.0/Props/Static props/sheet2-sprites/shrine 2 - base - on grass.png" width="192" height="128"/>
  </tile>
  <tile id="117">
   <image source="../tiled/ERW-Grassland 2.0/Props/Static props/sheet2-sprites/shrine 2 - base.png" width="192" height="128"/>
  </tile>
  <tile id="118">
   <image source="../tiled/ERW-Grassland 2.0/Props/Static props/sheet2-sprites/shrine 2 - pilar - on grass.png" width="64" height="128"/>
  </tile>
  <tile id="119">
   <image source="../tiled/ERW-Grassland 2.0/Props/Static props/sheet2-sprites/shrine 2 - pilar.png" width="64" height="128"/>
  </tile>
  <tile id="120">
   <image source="../tiled/ERW-Grassland 2.0/Props/Static props/sheet2-sprites/shrine 2 - smaller pilar - on grass.png" width="64" height="128"/>
  </tile>
  <tile id="121">
   <image source="../tiled/ERW-Grassland 2.0/Props/Static props/sheet2-sprites/shrine 2 - smaller pilar.png" width="64" height="128"/>
  </tile>
  <tile id="122">
   <image source="../tiled/ERW-Grassland 2.0/Props/Static props/sheet2-sprites/spikes 1.png" width="64" height="32"/>
  </tile>
  <tile id="123">
   <image source="../tiled/ERW-Grassland 2.0/Props/Static props/sheet2-sprites/spikes 2.png" width="64" height="64"/>
  </tile>
  <tile id="124">
   <image source="../tiled/ERW-Grassland 2.0/Props/Static props/sheet2-sprites/spikes 3.png" width="32" height="64"/>
  </tile>
  <tile id="125">
   <image source="../tiled/ERW-Grassland 2.0/Props/Static props/sheet2-sprites/spikes 4.png" width="32" height="64"/>
  </tile>
  <tile id="126">
   <image source="../tiled/ERW-Grassland 2.0/Props/Static props/sheet2-sprites/spikes 5.png" width="32" height="32"/>
  </tile>
  <tile id="127">
   <image source="../tiled/ERW-Grassland 2.0/Props/Static props/sheet2-sprites/spikes 6.png" width="32" height="32"/>
  </tile>
  <tile id="128">
   <image source="../tiled/ERW-Grassland 2.0/Props/Static props/sheet2-sprites/spikes 7.png" width="32" height="32"/>
  </tile>
  <tile id="129">
   <image source="../tiled/ERW-Grassland 2.0/Props/Static props/sheet2-sprites/standard - flag.png" width="96" height="128"/>
  </tile>
  <tile id="130">
   <image source="../tiled/ERW-Grassland 2.0/Props/Static props/sheet2-sprites/standard - only flag.png" width="64" height="96"/>
  </tile>
  <tile id="131">
   <image source="../tiled/ERW-Grassland 2.0/Props/Static props/sheet2-sprites/standard - only gravel portion.png" width="96" height="64"/>
  </tile>
  <tile id="132">
   <image source="../tiled/ERW-Grassland 2.0/Props/Static props/sheet2-sprites/standard 2.png" width="96" height="96"/>
  </tile>
  <tile id="133">
   <image source="../tiled/ERW-Grassland 2.0/Props/Static props/sheet2-sprites/standard.png" width="96" height="128"/>
  </tile>
  <tile id="134">
   <image source="../tiled/ERW-Grassland 2.0/Props/Static props/sheet2-sprites/stronghold - embranchment section - down - for z ordering.png" width="128" height="64"/>
  </tile>
  <tile id="135">
   <image source="../tiled/ERW-Grassland 2.0/Props/Static props/sheet2-sprites/stronghold - embranchment section - down - on grass.png" width="128" height="96"/>
  </tile>
  <tile id="136">
   <image source="../tiled/ERW-Grassland 2.0/Props/Static props/sheet2-sprites/stronghold - embranchment section - down.png" width="128" height="96"/>
  </tile>
  <tile id="137">
   <image source="../tiled/ERW-Grassland 2.0/Props/Static props/sheet2-sprites/stronghold - embranchment section - for z ordering.png" width="192" height="96"/>
  </tile>
  <tile id="138">
   <image source="../tiled/ERW-Grassland 2.0/Props/Static props/sheet2-sprites/stronghold - embranchment section - left - for z ordering.png" width="32" height="64"/>
  </tile>
  <tile id="139">
   <image source="../tiled/ERW-Grassland 2.0/Props/Static props/sheet2-sprites/stronghold - embranchment section - left - on grass.png" width="64" height="192"/>
  </tile>
  <tile id="140">
   <image source="../tiled/ERW-Grassland 2.0/Props/Static props/sheet2-sprites/stronghold - embranchment section - left.png" width="32" height="160"/>
  </tile>
  <tile id="141">
   <image source="../tiled/ERW-Grassland 2.0/Props/Static props/sheet2-sprites/stronghold - embranchment section - on grass.png" width="192" height="256"/>
  </tile>
  <tile id="142">
   <image source="../tiled/ERW-Grassland 2.0/Props/Static props/sheet2-sprites/stronghold - embranchment section - right - for z ordering.png" width="32" height="64"/>
  </tile>
  <tile id="143">
   <image source="../tiled/ERW-Grassland 2.0/Props/Static props/sheet2-sprites/stronghold - embranchment section - right - on grass.png" width="64" height="192"/>
  </tile>
  <tile id="144">
   <image source="../tiled/ERW-Grassland 2.0/Props/Static props/sheet2-sprites/stronghold - embranchment section - right.png" width="32" height="160"/>
  </tile>
  <tile id="145">
   <image source="../tiled/ERW-Grassland 2.0/Props/Static props/sheet2-sprites/stronghold - embranchment section - up - on grass.png" width="128" height="64"/>
  </tile>
  <tile id="146">
   <image source="../tiled/ERW-Grassland 2.0/Props/Static props/sheet2-sprites/stronghold - embranchment section.png" width="192" height="224"/>
  </tile>
  <tile id="147">
   <image source="../tiled/ERW-Grassland 2.0/Props/Static props/sheet2-sprites/stronghold - gate - left section - for z ordering.png" width="32" height="32"/>
  </tile>
  <tile id="148">
   <image source="../tiled/ERW-Grassland 2.0/Props/Static props/sheet2-sprites/stronghold - gate - left section - on grass.png" width="64" height="224"/>
  </tile>
  <tile id="149">
   <image source="../tiled/ERW-Grassland 2.0/Props/Static props/sheet2-sprites/stronghold - gate - right section - for z ordering.png" width="32" height="32"/>
  </tile>
  <tile id="150">
   <image source="../tiled/ERW-Grassland 2.0/Props/Static props/sheet2-sprites/stronghold - gate - right section - on grass.png" width="64" height="224"/>
  </tile>
  <tile id="151">
   <image source="../tiled/ERW-Grassland 2.0/Props/Static props/sheet2-sprites/stronghold - horizontal - end - on grass.png" width="64" height="160"/>
  </tile>
  <tile id="152">
   <image source="../tiled/ERW-Grassland 2.0/Props/Static props/sheet2-sprites/stronghold - horizontal - end.png" width="64" height="160"/>
  </tile>
  <tile id="153">
   <image source="../tiled/ERW-Grassland 2.0/Props/Static props/sheet2-sprites/stronghold - horizontal - entrance - on grass.png" width="160" height="192"/>
  </tile>
  <tile id="154">
   <image source="../tiled/ERW-Grassland 2.0/Props/Static props/sheet2-sprites/stronghold - horizontal - entrance.png" width="160" height="192"/>
  </tile>
  <tile id="155">
   <image source="../tiled/ERW-Grassland 2.0/Props/Static props/sheet2-sprites/stronghold - horizontal - for z ordering.png" width="96" height="64"/>
  </tile>
  <tile id="156">
   <image source="../tiled/ERW-Grassland 2.0/Props/Static props/sheet2-sprites/stronghold - horizontal - on grass.png" width="96" height="160"/>
  </tile>
  <tile id="157">
   <image source="../tiled/ERW-Grassland 2.0/Props/Static props/sheet2-sprites/stronghold - horizontal.png" width="96" height="160"/>
  </tile>
  <tile id="158">
   <image source="../tiled/ERW-Grassland 2.0/Props/Static props/sheet2-sprites/stronghold - horizontal2 - for z ordering.png" width="128" height="64"/>
  </tile>
  <tile id="159">
   <image source="../tiled/ERW-Grassland 2.0/Props/Static props/sheet2-sprites/stronghold - horizontal2 - on grass.png" width="128" height="160"/>
  </tile>
  <tile id="160">
   <image source="../tiled/ERW-Grassland 2.0/Props/Static props/sheet2-sprites/stronghold - horizontal2.png" width="128" height="160"/>
  </tile>
  <tile id="161">
   <image source="../tiled/ERW-Grassland 2.0/Props/Static props/sheet2-sprites/stronghold - vertical - end.png" width="64" height="64"/>
  </tile>
  <tile id="162">
   <image source="../tiled/ERW-Grassland 2.0/Props/Static props/sheet2-sprites/stronghold - vertical - end2 - on grass.png" width="128" height="128"/>
  </tile>
  <tile id="163">
   <image source="../tiled/ERW-Grassland 2.0/Props/Static props/sheet2-sprites/stronghold - vertical - end2.png" width="128" height="128"/>
  </tile>
  <tile id="164">
   <image source="../tiled/ERW-Grassland 2.0/Props/Static props/sheet2-sprites/stronghold - vertical - on grass.png" width="128" height="128"/>
  </tile>
  <tile id="165">
   <image source="../tiled/ERW-Grassland 2.0/Props/Static props/sheet2-sprites/stronghold - vertical2 - on grass.png" width="128" height="96"/>
  </tile>
  <tile id="166">
   <image source="../tiled/ERW-Grassland 2.0/Props/Static props/sheet2-sprites/tent 1 - on grass.png" width="320" height="288"/>
  </tile>
  <tile id="167">
   <image source="../tiled/ERW-Grassland 2.0/Props/Static props/sheet2-sprites/tent 1 - small - on grass.png" width="160" height="160"/>
  </tile>
  <tile id="168">
   <image source="../tiled/ERW-Grassland 2.0/Props/Static props/sheet2-sprites/tent 1 - small.png" width="160" height="160"/>
  </tile>
  <tile id="169">
   <image source="../tiled/ERW-Grassland 2.0/Props/Static props/sheet2-sprites/tent 1.png" width="320" height="288"/>
  </tile>
  <tile id="170">
   <image source="../tiled/ERW-Grassland 2.0/Props/Static props/sheet2-sprites/tent 2 - on grass.png" width="320" height="288"/>
  </tile>
  <tile id="171">
   <image source="../tiled/ERW-Grassland 2.0/Props/Static props/sheet2-sprites/tent 2 - small - on grass.png" width="160" height="160"/>
  </tile>
  <tile id="172">
   <image source="../tiled/ERW-Grassland 2.0/Props/Static props/sheet2-sprites/tent 2 - small .png" width="160" height="160"/>
  </tile>
  <tile id="173">
   <image source="../tiled/ERW-Grassland 2.0/Props/Static props/sheet2-sprites/tent 2.png" width="320" height="288"/>
  </tile>
  <tile id="174">
   <image source="../tiled/ERW-Grassland 2.0/Props/Static props/sheet2-sprites/throne - on grass.png" width="192" height="128"/>
  </tile>
  <tile id="175">
   <image source="../tiled/ERW-Grassland 2.0/Props/Static props/sheet2-sprites/throne.png" width="192" height="128"/>
  </tile>
  <tile id="176">
   <image source="../tiled/ERW-Grassland 2.0/Props/Static props/sheet2-sprites/vendor - bench.png" width="32" height="32"/>
  </tile>
  <tile id="177">
   <image source="../tiled/ERW-Grassland 2.0/Props/Static props/sheet2-sprites/vendor - crate 1.png" width="64" height="64"/>
  </tile>
  <tile id="178">
   <image source="../tiled/ERW-Grassland 2.0/Props/Static props/sheet2-sprites/vendor - crate 2.png" width="64" height="64"/>
  </tile>
  <tile id="179">
   <image source="../tiled/ERW-Grassland 2.0/Props/Static props/sheet2-sprites/vendor - crate 3.png" width="64" height="64"/>
  </tile>
  <tile id="180">
   <image source="../tiled/ERW-Grassland 2.0/Props/Static props/sheet2-sprites/vendor - potion 1.png" width="32" height="32"/>
  </tile>
  <tile id="181">
   <image source="../tiled/ERW-Grassland 2.0/Props/Static props/sheet2-sprites/vendor - potion 2.png" width="32" height="32"/>
  </tile>
  <tile id="182">
   <image source="../tiled/ERW-Grassland 2.0/Props/Static props/sheet2-sprites/vendor - potion 3.png" width="32" height="32"/>
  </tile>
  <tile id="183">
   <image source="../tiled/ERW-Grassland 2.0/Props/Static props/sheet2-sprites/vendor - potion 4.png" width="32" height="32"/>
  </tile>
  <tile id="184">
   <image source="../tiled/ERW-Grassland 2.0/Props/Static props/sheet2-sprites/vendor - pouch - 1.png" width="32" height="32"/>
  </tile>
  <tile id="185">
   <image source="../tiled/ERW-Grassland 2.0/Props/Static props/sheet2-sprites/vendor - pouch - 2.png" width="32" height="32"/>
  </tile>
  <tile id="186">
   <image source="../tiled/ERW-Grassland 2.0/Props/Static props/sheet2-sprites/vendor - pouch - 3.png" width="32" height="32"/>
  </tile>
  <tile id="187">
   <image source="../tiled/ERW-Grassland 2.0/Props/Static props/sheet2-sprites/vendor - scroll paper - 1.png" width="32" height="32"/>
  </tile>
  <tile id="188">
   <image source="../tiled/ERW-Grassland 2.0/Props/Static props/sheet2-sprites/vendor - scroll paper - 2.png" width="32" height="32"/>
  </tile>
  <tile id="189">
   <image source="../tiled/ERW-Grassland 2.0/Props/Static props/sheet2-sprites/vendor - vase - 1.png" width="32" height="32"/>
  </tile>
  <tile id="190">
   <image source="../tiled/ERW-Grassland 2.0/Props/Static props/sheet2-sprites/vendor - vase - 2.png" width="32" height="32"/>
  </tile>
  <tile id="191">
   <image source="../tiled/ERW-Grassland 2.0/Props/Static props/sheet2-sprites/vendor - vase - 3.png" width="32" height="32"/>
  </tile>
  <tile id="192">
   <image source="../tiled/ERW-Grassland 2.0/Props/Static props/sheet2-sprites/vendor - vase - 4.png" width="32" height="32"/>
  </tile>
  <tile id="193">
   <image source="../tiled/ERW-Grassland 2.0/Props/Static props/sheet2-sprites/vendor - vase - 5.png" width="32" height="32"/>
  </tile>
  <tile id="194">
   <image source="../tiled/ERW-Grassland 2.0/Props/Static props/sheet2-sprites/vendor - vase - 6.png" width="32" height="32"/>
  </tile>
  <tile id="195">
   <image source="../tiled/ERW-Grassland 2.0/Props/Static props/sheet2-sprites/vendor structure - complete - on grass.png" width="288" height="192"/>
  </tile>
  <tile id="196">
   <image source="../tiled/ERW-Grassland 2.0/Props/Static props/sheet2-sprites/vendor structure - complete.png" width="256" height="192"/>
  </tile>
  <tile id="197">
   <image source="../tiled/ERW-Grassland 2.0/Props/Static props/sheet2-sprites/vendor structure - naked.png" width="256" height="160"/>
  </tile>
  <tile id="198">
   <image source="../tiled/ERW-Grassland 2.0/Props/Static props/sheet2-sprites/vendor structure - tissue on top.png" width="160" height="64"/>
  </tile>
  <tile id="199">
   <image source="../tiled/ERW-Grassland 2.0/Props/Static props/sheet2-sprites/vendor structure - wheel.png" width="64" height="64"/>
  </tile>
  <tile id="200">
   <image source="../tiled/ERW-Grassland 2.0/Props/Static props/sheet2-sprites/watchtower - back  - base section with neutral shadow.png" width="128" height="64"/>
  </tile>
  <tile id="201">
   <image source="../tiled/ERW-Grassland 2.0/Props/Static props/sheet2-sprites/watchtower - back.png" width="128" height="224"/>
  </tile>
  <tile id="202">
   <image source="../tiled/ERW-Grassland 2.0/Props/Static props/sheet2-sprites/watchtower - flag.png" width="64" height="64"/>
  </tile>
  <tile id="203">
   <image source="../tiled/ERW-Grassland 2.0/Props/Static props/sheet2-sprites/watchtower - front  - base section with neutral shadow.png" width="128" height="64"/>
  </tile>
  <tile id="204">
   <image source="../tiled/ERW-Grassland 2.0/Props/Static props/sheet2-sprites/watchtower - front.png" width="128" height="224"/>
  </tile>
  <tile id="205">
   <image source="../tiled/ERW-Grassland 2.0/Props/Static props/sheet2-sprites/watchtower - stairs - size 1 - back.png" width="32" height="128"/>
  </tile>
  <tile id="206">
   <image source="../tiled/ERW-Grassland 2.0/Props/Static props/sheet2-sprites/watchtower - stairs - size 1 - front.png" width="32" height="128"/>
  </tile>
  <tile id="207">
   <image source="../tiled/ERW-Grassland 2.0/Props/Static props/sheet2-sprites/watchtower - stairs - size 2 - back.png" width="32" height="96"/>
  </tile>
  <tile id="208">
   <image source="../tiled/ERW-Grassland 2.0/Props/Static props/sheet2-sprites/watchtower - stairs - size 2 - front.png" width="32" height="96"/>
  </tile>
  <tile id="209">
   <image source="../tiled/ERW-Grassland 2.0/Props/Static props/sheet2-sprites/watchtower - stairs - size 3 - back.png" width="32" height="64"/>
  </tile>
  <tile id="210">
   <image source="../tiled/ERW-Grassland 2.0/Props/Static props/sheet2-sprites/watchtower - stairs - size 3 - front.png" width="32" height="64"/>
  </tile>
  <tile id="211">
   <image source="../tiled/ERW-Grassland 2.0/Props/Static props/sheet2-sprites/weapon support - where the weapons hang.png" width="256" height="160"/>
  </tile>
  <tile id="212">
   <image source="../tiled/ERW-Grassland 2.0/Props/Static props/sheet2-sprites/weapons - big axe.png" width="32" height="32"/>
  </tile>
  <tile id="213">
   <image source="../tiled/ERW-Grassland 2.0/Props/Static props/sheet2-sprites/weapons - hammer.png" width="32" height="64"/>
  </tile>
  <tile id="214">
   <image source="../tiled/ERW-Grassland 2.0/Props/Static props/sheet2-sprites/weapons - knife on the table.png" width="32" height="32"/>
  </tile>
  <tile id="215">
   <image source="../tiled/ERW-Grassland 2.0/Props/Static props/sheet2-sprites/weapons - machete.png" width="32" height="64"/>
  </tile>
  <tile id="216">
   <image source="../tiled/ERW-Grassland 2.0/Props/Static props/sheet2-sprites/weapons - scythe ish.png" width="32" height="64"/>
  </tile>
  <tile id="217">
   <image source="../tiled/ERW-Grassland 2.0/Props/Static props/sheet2-sprites/weapons - small axe.png" width="32" height="32"/>
  </tile>
  <tile id="218">
   <image source="../tiled/ERW-Grassland 2.0/Props/Static props/sheet2-sprites/weapons - spear.png" width="32" height="64"/>
  </tile>
  <tile id="219">
   <image source="../tiled/ERW-Grassland 2.0/Props/Static props/sheet2-sprites/weapons - sword on any floor 1.png" width="64" height="32"/>
  </tile>
  <tile id="220">
   <image source="../tiled/ERW-Grassland 2.0/Props/Static props/sheet2-sprites/weapons - sword on any floor 2.png" width="32" height="64"/>
  </tile>
  <tile id="221">
   <image source="../tiled/ERW-Grassland 2.0/Props/Static props/sheet2-sprites/weapons - sword on grass 2.png" width="64" height="32"/>
  </tile>
  <tile id="222">
   <image source="../tiled/ERW-Grassland 2.0/Props/Static props/sheet2-sprites/weapons - sword on grass 3.png" width="32" height="64"/>
  </tile>
  <tile id="223">
   <image source="../tiled/ERW-Grassland 2.0/Props/Static props/sheet2-sprites/weapons - sword on grass.png" width="64" height="32"/>
  </tile>
  <tile id="224">
   <image source="../tiled/ERW-Grassland 2.0/Props/Static props/sheet2-sprites/weapons - sword.png" width="32" height="64"/>
  </tile>
  <tile id="225">
   <image source="../tiled/ERW-Grassland 2.0/Props/Static props/sheet2-sprites/wood log - big - no rope - 1.png" width="32" height="96"/>
  </tile>
  <tile id="226">
   <image source="../tiled/ERW-Grassland 2.0/Props/Static props/sheet2-sprites/wood log - big - no rope - 2.png" width="32" height="96"/>
  </tile>
  <tile id="227">
   <image source="../tiled/ERW-Grassland 2.0/Props/Static props/sheet2-sprites/wood log - big - no rope - 3.png" width="32" height="96"/>
  </tile>
  <tile id="228">
   <image source="../tiled/ERW-Grassland 2.0/Props/Static props/sheet2-sprites/wood log - big - no rope - 4.png" width="32" height="96"/>
  </tile>
  <tile id="229">
   <image source="../tiled/ERW-Grassland 2.0/Props/Static props/sheet2-sprites/wood log - big - no rope - 5.png" width="32" height="96"/>
  </tile>
  <tile id="230">
   <image source="../tiled/ERW-Grassland 2.0/Props/Static props/sheet2-sprites/wood log - big - no rope - 6.png" width="32" height="96"/>
  </tile>
  <tile id="231">
   <image source="../tiled/ERW-Grassland 2.0/Props/Static props/sheet2-sprites/wood log - big - no rope - 7.png" width="32" height="96"/>
  </tile>
  <tile id="232">
   <image source="../tiled/ERW-Grassland 2.0/Props/Static props/sheet2-sprites/wood log - big - no rope - 8.png" width="32" height="96"/>
  </tile>
  <tile id="233">
   <image source="../tiled/ERW-Grassland 2.0/Props/Static props/sheet2-sprites/wood log - big - no rope - 9.png" width="32" height="96"/>
  </tile>
  <tile id="234">
   <image source="../tiled/ERW-Grassland 2.0/Props/Static props/sheet2-sprites/wood log - big - no rope - 10.png" width="32" height="96"/>
  </tile>
  <tile id="235">
   <image source="../tiled/ERW-Grassland 2.0/Props/Static props/sheet2-sprites/wood log - big - no rope - 11.png" width="32" height="96"/>
  </tile>
  <tile id="236">
   <image source="../tiled/ERW-Grassland 2.0/Props/Static props/sheet2-sprites/wood log - big - no rope - 12.png" width="32" height="96"/>
  </tile>
  <tile id="237">
   <image source="../tiled/ERW-Grassland 2.0/Props/Static props/sheet2-sprites/wood log - big - rope - 1.png" width="32" height="96"/>
  </tile>
  <tile id="238">
   <image source="../tiled/ERW-Grassland 2.0/Props/Static props/sheet2-sprites/wood log - big - rope - 2.png" width="32" height="96"/>
  </tile>
  <tile id="239">
   <image source="../tiled/ERW-Grassland 2.0/Props/Static props/sheet2-sprites/wood log - big - rope - 3.png" width="32" height="96"/>
  </tile>
  <tile id="240">
   <image source="../tiled/ERW-Grassland 2.0/Props/Static props/sheet2-sprites/wood log - big - rope - 4.png" width="32" height="96"/>
  </tile>
  <tile id="241">
   <image source="../tiled/ERW-Grassland 2.0/Props/Static props/sheet2-sprites/wood log - big - rope - 5.png" width="32" height="96"/>
  </tile>
  <tile id="242">
   <image source="../tiled/ERW-Grassland 2.0/Props/Static props/sheet2-sprites/wood log - big - rope - 6.png" width="32" height="96"/>
  </tile>
  <tile id="243">
   <image source="../tiled/ERW-Grassland 2.0/Props/Static props/sheet2-sprites/wood log - big - rope - 7.png" width="32" height="96"/>
  </tile>
  <tile id="244">
   <image source="../tiled/ERW-Grassland 2.0/Props/Static props/sheet2-sprites/wood log - big - rope - 8.png" width="32" height="96"/>
  </tile>
  <tile id="245">
   <image source="../tiled/ERW-Grassland 2.0/Props/Static props/sheet2-sprites/wood log - big - rope - 9.png" width="32" height="96"/>
  </tile>
  <tile id="246">
   <image source="../tiled/ERW-Grassland 2.0/Props/Static props/sheet2-sprites/wood log - big - rope - 10.png" width="32" height="96"/>
  </tile>
  <tile id="247">
   <image source="../tiled/ERW-Grassland 2.0/Props/Static props/sheet2-sprites/wood log - big - rope - 11.png" width="32" height="96"/>
  </tile>
  <tile id="248">
   <image source="../tiled/ERW-Grassland 2.0/Props/Static props/sheet2-sprites/wood log - big - rope - 12.png" width="32" height="96"/>
  </tile>
  <tile id="249">
   <image source="../tiled/ERW-Grassland 2.0/Props/Static props/sheet2-sprites/wood log - big - thiner - 1.png" width="32" height="96"/>
  </tile>
  <tile id="250">
   <image source="../tiled/ERW-Grassland 2.0/Props/Static props/sheet2-sprites/wood log - big - thiner - 2.png" width="32" height="96"/>
  </tile>
  <tile id="251">
   <image source="../tiled/ERW-Grassland 2.0/Props/Static props/sheet2-sprites/wood log - big - thiner - 3.png" width="32" height="96"/>
  </tile>
  <tile id="252">
   <image source="../tiled/ERW-Grassland 2.0/Props/Static props/sheet2-sprites/wood log - big - thiner - 4.png" width="32" height="96"/>
  </tile>
  <tile id="253">
   <image source="../tiled/ERW-Grassland 2.0/Props/Static props/sheet2-sprites/wood log - big - thiner - 5.png" width="32" height="96"/>
  </tile>
  <tile id="254">
   <image source="../tiled/ERW-Grassland 2.0/Props/Static props/sheet2-sprites/wood log - intermediate - no rope - 1.png" width="32" height="96"/>
  </tile>
  <tile id="255">
   <image source="../tiled/ERW-Grassland 2.0/Props/Static props/sheet2-sprites/wood log - intermediate - no rope - 2.png" width="32" height="96"/>
  </tile>
  <tile id="256">
   <image source="../tiled/ERW-Grassland 2.0/Props/Static props/sheet2-sprites/wood log - intermediate - no rope - 3.png" width="32" height="96"/>
  </tile>
  <tile id="257">
   <image source="../tiled/ERW-Grassland 2.0/Props/Static props/sheet2-sprites/wood log - intermediate - no rope - 4.png" width="32" height="96"/>
  </tile>
  <tile id="258">
   <image source="../tiled/ERW-Grassland 2.0/Props/Static props/sheet2-sprites/wood log - intermediate - no rope - 5.png" width="32" height="96"/>
  </tile>
  <tile id="259">
   <image source="../tiled/ERW-Grassland 2.0/Props/Static props/sheet2-sprites/wood log - intermediate - no rope - 6.png" width="32" height="96"/>
  </tile>
  <tile id="260">
   <image source="../tiled/ERW-Grassland 2.0/Props/Static props/sheet2-sprites/wood log - intermediate - no rope - 7.png" width="32" height="96"/>
  </tile>
  <tile id="261">
   <image source="../tiled/ERW-Grassland 2.0/Props/Static props/sheet2-sprites/wood log - intermediate - no rope - 8.png" width="32" height="96"/>
  </tile>
  <tile id="262">
   <image source="../tiled/ERW-Grassland 2.0/Props/Static props/sheet2-sprites/wood log - intermediate - no rope - 9.png" width="32" height="96"/>
  </tile>
  <tile id="263">
   <image source="../tiled/ERW-Grassland 2.0/Props/Static props/sheet2-sprites/wood log - intermediate - no rope - 10.png" width="32" height="96"/>
  </tile>
  <tile id="264">
   <image source="../tiled/ERW-Grassland 2.0/Props/Static props/sheet2-sprites/wood log - intermediate - no rope - 11.png" width="32" height="96"/>
  </tile>
  <tile id="265">
   <image source="../tiled/ERW-Grassland 2.0/Props/Static props/sheet2-sprites/wood log - intermediate - no rope - 12.png" width="32" height="96"/>
  </tile>
  <tile id="266">
   <image source="../tiled/ERW-Grassland 2.0/Props/Static props/sheet2-sprites/wood log - intermediate - rope - 1.png" width="32" height="96"/>
  </tile>
  <tile id="267">
   <image source="../tiled/ERW-Grassland 2.0/Props/Static props/sheet2-sprites/wood log - intermediate - rope - 2.png" width="32" height="96"/>
  </tile>
  <tile id="268">
   <image source="../tiled/ERW-Grassland 2.0/Props/Static props/sheet2-sprites/wood log - intermediate - rope - 3.png" width="32" height="96"/>
  </tile>
  <tile id="269">
   <image source="../tiled/ERW-Grassland 2.0/Props/Static props/sheet2-sprites/wood log - intermediate - rope - 4.png" width="32" height="96"/>
  </tile>
  <tile id="270">
   <image source="../tiled/ERW-Grassland 2.0/Props/Static props/sheet2-sprites/wood log - intermediate - rope - 5.png" width="32" height="96"/>
  </tile>
  <tile id="271">
   <image source="../tiled/ERW-Grassland 2.0/Props/Static props/sheet2-sprites/wood log - intermediate - rope - 6.png" width="32" height="96"/>
  </tile>
  <tile id="272">
   <image source="../tiled/ERW-Grassland 2.0/Props/Static props/sheet2-sprites/wood log - intermediate - rope - 7.png" width="32" height="96"/>
  </tile>
  <tile id="273">
   <image source="../tiled/ERW-Grassland 2.0/Props/Static props/sheet2-sprites/wood log - intermediate - rope - 8.png" width="32" height="96"/>
  </tile>
  <tile id="274">
   <image source="../tiled/ERW-Grassland 2.0/Props/Static props/sheet2-sprites/wood log - intermediate - rope - 9.png" width="32" height="96"/>
  </tile>
  <tile id="275">
   <image source="../tiled/ERW-Grassland 2.0/Props/Static props/sheet2-sprites/wood log - intermediate - rope - 10.png" width="32" height="96"/>
  </tile>
  <tile id="276">
   <image source="../tiled/ERW-Grassland 2.0/Props/Static props/sheet2-sprites/wood log - intermediate - rope - 11.png" width="32" height="96"/>
  </tile>
  <tile id="277">
   <image source="../tiled/ERW-Grassland 2.0/Props/Static props/sheet2-sprites/wood log - intermediate - rope - 12.png" width="32" height="96"/>
  </tile>
  <tile id="278">
   <image source="../tiled/ERW-Grassland 2.0/Props/Static props/sheet2-sprites/wood log - small - thiner - 1.png" width="32" height="64"/>
  </tile>
  <tile id="279">
   <image source="../tiled/ERW-Grassland 2.0/Props/Static props/sheet2-sprites/wood log - small - thiner - 2.png" width="32" height="64"/>
  </tile>
  <tile id="280">
   <image source="../tiled/ERW-Grassland 2.0/Props/Static props/sheet2-sprites/wood log - small - thiner - 3.png" width="32" height="64"/>
  </tile>
  <tile id="281">
   <image source="../tiled/ERW-Grassland 2.0/Props/Static props/sheet2-sprites/wood log - small - thiner - 4.png" width="32" height="64"/>
  </tile>
  <tile id="282">
   <image source="../tiled/ERW-Grassland 2.0/Props/Static props/sheet2-sprites/wood log - small - thiner - 5.png" width="32" height="64"/>
  </tile>
  <tile id="283">
   <image source="../tiled/ERW-Grassland 2.0/Props/Static props/sheet2-sprites/wood log - small - thiner - 6.png" width="32" height="64"/>
  </tile>
  <tile id="284">
   <image source="../tiled/ERW-Grassland 2.0/Props/Static props/sheet2-sprites/wood log - small - thiner - 7.png" width="32" height="64"/>
  </tile>
  <tile id="285">
   <image source="../tiled/ERW-Grassland 2.0/Props/Static props/sheet2-sprites/wood log - small - thiner - 8.png" width="32" height="64"/>
  </tile>
  <tile id="286">
   <image source="../tiled/ERW-Grassland 2.0/Props/Static props/sheet2-sprites/wood log - small - thiner - 9.png" width="32" height="64"/>
  </tile>
  <tile id="287">
   <image source="../tiled/ERW-Grassland 2.0/Props/Static props/sheet2-sprites/wood log - small - thiner - 10.png" width="32" height="64"/>
  </tile>
  <tile id="288">
   <image source="../tiled/ERW-Grassland 2.0/Props/Static props/sheet2-sprites/wood log wall pack - intermediate - 1.png" width="256" height="96"/>
  </tile>
  <tile id="289">
   <image source="../tiled/ERW-Grassland 2.0/Props/Static props/sheet2-sprites/wood log wall pack - intermediate - 2.png" width="96" height="96"/>
  </tile>
  <tile id="290">
   <image source="../tiled/ERW-Grassland 2.0/Props/Static props/sheet2-sprites/wood log wall pack - intermediate - 3.png" width="96" height="96"/>
  </tile>
  <tile id="291">
   <image source="../tiled/ERW-Grassland 2.0/Props/Static props/sheet2-sprites/wood log wall pack - intermediate - 4.png" width="96" height="96"/>
  </tile>
  <tile id="292">
   <image source="../tiled/ERW-Grassland 2.0/Props/Static props/sheet2-sprites/wood log wall pack - intermediate - no grass - 1.png" width="256" height="96"/>
  </tile>
  <tile id="293">
   <image source="../tiled/ERW-Grassland 2.0/Props/Static props/sheet2-sprites/wood log wall pack - intermediate - no grass - 2.png" width="96" height="96"/>
  </tile>
  <tile id="294">
   <image source="../tiled/ERW-Grassland 2.0/Props/Static props/sheet2-sprites/wood log wall pack - intermediate - no grass - 3.png" width="96" height="96"/>
  </tile>
  <tile id="295">
   <image source="../tiled/ERW-Grassland 2.0/Props/Static props/sheet2-sprites/wood log wall pack - intermediate - no grass - 4.png" width="96" height="96"/>
  </tile>
  <tile id="296">
   <image source="../tiled/ERW-Grassland 2.0/Props/Static props/sheet2-sprites/wooden table - rustic - on grass.png" width="128" height="64"/>
  </tile>
 </tileset>
 <layer id="1" name="base grass" width="75" height="75" locked="1">
  <data encoding="csv">
42,43,41,42,43,41,42,43,41,42,43,41,42,43,41,42,43,41,42,43,41,42,43,41,42,43,41,42,43,41,42,43,41,42,43,41,42,43,41,42,43,41,42,43,41,42,43,41,42,43,41,42,43,41,42,43,41,42,43,41,42,43,41,42,43,41,42,43,41,42,43,41,42,43,41,
68,69,67,68,69,67,68,69,67,68,69,67,68,69,67,68,69,67,68,69,67,68,69,67,68,69,67,68,69,67,68,69,67,68,69,67,68,69,67,68,69,67,68,69,67,68,69,67,68,69,67,68,69,67,68,69,67,68,69,67,68,69,67,68,69,67,68,69,67,68,69,67,68,69,67,
42,43,41,42,43,41,42,43,41,42,43,41,42,43,41,42,43,41,42,43,41,42,43,41,42,43,41,42,43,41,42,43,41,42,43,41,42,43,41,42,43,41,42,43,41,42,43,41,42,43,41,42,43,41,42,43,41,42,43,41,42,43,41,42,43,41,42,43,41,42,43,41,42,43,41,
68,69,67,68,69,67,68,69,67,68,69,67,68,69,67,68,69,67,68,69,67,68,69,67,68,69,67,68,69,67,68,69,67,68,69,67,68,69,67,68,69,67,68,69,67,68,69,67,68,69,67,68,69,67,68,69,67,68,69,67,68,69,67,68,69,67,68,69,67,68,69,67,68,69,67,
42,43,41,42,43,41,42,43,41,42,43,41,42,43,41,42,43,41,42,43,41,42,43,41,42,43,41,42,43,41,42,43,41,42,43,41,42,43,41,42,43,41,42,43,41,42,43,41,42,43,41,42,43,41,42,43,41,42,43,41,42,43,41,42,43,41,42,43,41,42,43,41,42,43,41,
68,69,67,68,69,67,68,69,67,68,69,67,68,69,67,68,69,67,68,69,67,68,69,67,68,69,67,68,69,67,68,69,67,68,69,67,68,69,67,68,69,67,68,69,67,68,69,67,68,69,67,68,69,67,68,69,67,68,69,67,68,69,67,68,69,67,68,69,67,68,69,67,68,69,67,
42,43,41,42,43,41,42,43,41,42,43,41,42,43,41,42,43,41,42,43,41,42,43,41,42,43,41,42,43,41,42,43,41,42,43,41,42,43,41,42,43,41,42,43,41,42,43,41,42,43,41,42,43,41,42,43,41,42,43,41,42,43,41,42,43,41,42,43,41,42,43,41,42,43,41,
68,69,67,68,69,67,68,69,67,68,69,67,68,69,67,68,69,67,68,69,67,68,69,67,68,69,67,68,69,67,68,69,67,68,69,67,68,69,67,68,69,67,68,69,67,68,69,67,68,69,67,68,69,67,68,69,67,68,69,67,68,69,67,68,69,67,68,69,67,68,69,67,68,69,67,
42,43,41,42,43,41,42,43,41,42,43,41,42,43,41,42,43,41,42,43,41,42,43,41,42,43,41,42,43,41,42,43,41,42,43,41,42,43,41,42,43,41,42,43,41,42,43,41,42,43,41,42,43,41,42,43,41,42,43,41,42,43,41,42,43,41,42,43,41,42,43,41,42,43,41,
68,69,67,68,69,67,68,69,67,68,69,67,68,69,67,68,69,67,68,69,67,68,69,67,68,69,67,68,69,67,68,69,67,68,69,67,68,69,67,68,69,67,68,69,67,68,69,67,68,69,67,68,69,67,68,69,67,68,69,67,68,69,67,68,69,67,68,69,67,68,69,67,68,69,67,
42,43,41,42,43,41,42,43,41,42,43,41,42,43,41,42,43,41,42,43,41,42,43,41,42,43,41,42,43,41,42,43,41,42,43,41,42,43,41,42,43,41,42,43,41,42,43,41,42,43,41,42,43,41,42,43,41,42,43,41,42,43,41,42,43,41,42,43,41,42,43,41,42,43,41,
68,69,67,68,69,67,68,69,67,68,69,67,68,69,67,68,69,67,68,69,67,68,69,67,68,69,67,68,69,67,68,69,67,68,69,67,68,69,67,68,69,67,68,69,67,68,69,67,68,69,67,68,69,67,68,69,67,68,69,67,68,69,67,68,69,67,68,69,67,68,69,67,68,69,67,
42,43,41,42,43,41,42,43,41,42,43,41,42,43,41,42,43,41,42,43,41,42,43,41,42,43,41,42,43,41,42,43,41,42,43,41,42,43,41,42,43,41,42,43,41,42,43,41,42,43,41,42,43,41,42,43,41,42,43,41,42,43,41,42,43,41,42,43,41,42,43,41,42,43,41,
68,69,67,68,69,67,68,69,67,68,69,67,68,69,67,68,69,67,68,69,67,68,69,67,68,69,67,68,69,67,68,69,67,68,69,67,68,69,67,68,69,67,68,69,67,68,69,67,68,69,67,68,69,67,68,69,67,68,69,67,68,69,67,68,69,67,68,69,67,68,69,67,68,69,67,
42,43,41,42,43,41,42,43,41,42,43,41,42,43,41,42,43,41,42,43,41,42,43,41,42,43,41,42,43,41,42,43,41,42,43,41,42,43,41,42,43,41,42,43,41,42,43,41,42,43,41,42,43,41,42,43,41,42,43,41,42,43,41,42,43,41,42,43,41,42,43,41,42,43,41,
68,69,67,68,69,67,68,69,67,68,69,67,68,69,67,68,69,67,68,69,67,68,69,67,68,69,67,68,69,67,68,69,67,68,69,67,68,69,67,68,69,67,68,69,67,68,69,67,68,69,67,68,69,67,68,69,67,68,69,67,68,69,67,68,69,67,68,69,67,68,69,67,68,69,67,
42,43,41,42,43,41,42,43,41,42,43,41,42,43,41,42,43,41,42,43,41,42,43,41,42,43,41,42,43,41,42,43,41,42,43,41,42,43,41,42,43,41,42,43,41,42,43,41,42,43,41,42,43,41,42,43,41,42,43,41,42,43,41,42,43,41,42,43,41,42,43,41,42,43,41,
68,69,67,68,69,67,68,69,67,68,69,67,68,69,67,68,69,67,68,69,67,68,69,67,68,69,67,68,69,67,68,69,67,68,69,67,68,69,67,68,69,67,68,69,67,68,69,67,68,69,67,68,69,67,68,69,67,68,69,67,68,69,67,68,69,67,68,69,67,68,69,67,68,69,67,
42,43,41,42,43,41,42,43,41,42,43,41,42,43,41,42,43,41,42,43,41,42,43,41,42,43,41,42,43,41,42,43,41,42,43,41,42,43,4142,81,41,42,43,41,42,43,41,42,43,41,42,43,41,42,43,41,42,43,41,42,43,41,42,43,41,42,43,41,42,43,41,42,43,41,68,
69,67,68,69,67,68,69,67,68,69,67,68,69,67,68,69,67,68,69,67,68,69,67,68,69,67,68,69,67,68,69,67,68,69,67,68,69,67,68,69,81,68,69,67,68,69,67,68,69,67,68,69,67,68,69,67,68,69,67,68,69,67,68,69,67,68,69,67,68,69,67,68,69,67,42,
43,41,42,43,41,42,43,41,42,43,41,42,43,41,42,43,41,42,43,41,42,43,41,42,43,41,42,43,41,42,43,41,42,43,41,42,43,41,42,43,41,42,43,41,42,43,41,42,43,41,42,43,41,42,43,41,42,43,41,42,43,41,42,43,41,42,43,41,42,43,41,42,43,41,68,
69,67,68,69,67,68,69,67,68,69,67,68,69,67,68,69,67,68,69,67,68,69,67,68,69,67,68,69,67,68,69,67,68,69,67,68,69,67,68,69,67,68,69,67,68,69,67,68,69,67,68,69,67,68,69,67,68,69,67,68,69,67,68,69,67,68,69,67,68,69,67,68,69,67,42,
43,41,42,43,41,42,43,41,42,43,41,42,43,41,42,43,41,42,43,41,42,43,41,42,43,41,42,43,41,42,43,41,42,43,41,42,43,41,42,43,41,42,43,41,42,43,41,42,43,41,42,43,41,42,43,41,42,43,41,42,43,41,42,43,41,42,43,41,42,43,41,42,43,41,68,
69,67,68,69,67,68,69,67,68,69,67,68,69,67,68,69,67,68,69,67,68,69,67,68,69,67,68,69,67,68,69,67,68,69,67,68,69,67,68,69,67,68,69,67,68,69,67,68,69,67,68,69,67,68,69,67,68,69,67,68,69,67,68,69,67,68,69,67,68,69,67,68,69,67,42,
43,41,42,43,41,42,43,41,42,43,41,42,43,41,42,43,41,42,43,41,42,43,41,42,43,41,42,43,41,42,43,41,42,43,41,42,43,41,42,43,41,42,43,41,42,43,41,42,43,41,42,43,41,42,43,41,42,43,41,42,43,41,42,43,41,42,43,41,42,43,41,42,43,41,68,
69,67,68,69,67,68,69,67,68,69,67,68,69,67,68,69,67,68,69,67,68,69,67,68,69,67,68,69,67,68,69,67,68,69,67,68,69,67,68,69,67,68,69,67,68,69,67,68,69,67,68,69,67,68,69,67,68,69,67,68,69,67,68,69,67,68,69,67,68,69,67,68,69,67,42,
43,41,42,43,41,42,43,41,42,43,41,42,43,41,42,43,41,42,43,41,42,43,41,42,43,41,42,43,41,42,43,41,42,43,41,42,43,41,42,43,41,42,43,41,42,43,41,42,43,41,42,43,41,42,43,41,42,43,41,42,43,41,42,43,41,42,43,41,42,43,41,42,43,41,68,
69,67,68,69,67,68,69,67,68,69,67,68,69,67,68,69,67,68,69,67,68,69,67,68,69,67,68,69,67,68,69,67,68,69,67,68,69,67,68,69,67,68,69,67,68,69,67,68,69,67,68,69,67,68,69,67,68,69,67,68,69,67,68,69,67,68,69,67,68,69,67,68,69,67,42,
43,41,42,43,41,42,43,41,42,43,41,42,43,41,42,43,41,42,43,41,42,43,41,42,43,41,42,43,41,42,43,41,42,43,41,42,43,41,42,43,41,42,43,41,42,43,41,42,43,41,42,43,41,42,43,41,42,43,41,42,43,41,42,43,41,42,43,41,42,43,41,42,43,41,68,
69,67,68,69,67,68,69,67,68,69,67,68,69,67,68,69,67,68,69,67,68,69,67,68,69,67,68,69,67,68,69,67,68,69,67,68,69,67,68,69,67,68,69,67,68,69,67,68,69,67,68,69,67,68,69,67,68,69,67,68,69,67,68,69,67,68,69,67,68,69,67,68,69,67,42,
43,41,42,43,41,42,43,41,42,43,41,42,43,41,42,43,41,42,43,41,42,43,41,42,43,41,42,43,41,42,43,41,42,43,41,42,43,41,42,43,41,42,43,41,42,43,41,42,43,41,42,43,41,42,43,41,42,43,41,42,43,41,42,43,41,42,43,41,42,43,41,42,43,41,68,
69,67,68,69,67,68,69,67,68,69,67,68,69,67,68,69,67,68,69,67,68,69,67,68,69,67,68,69,67,68,69,67,68,69,67,68,69,67,68,69,67,68,69,67,68,69,67,68,69,67,68,69,67,68,69,67,68,69,67,68,69,67,68,69,67,68,69,67,68,69,67,68,69,67,42,
43,41,42,43,41,42,43,41,42,43,41,42,43,41,42,43,41,42,43,41,42,43,41,42,43,41,42,43,41,42,43,41,42,43,41,42,43,41,42,43,41,42,43,41,42,43,41,42,43,41,42,43,41,42,43,41,42,43,41,42,43,41,42,43,41,42,43,41,42,43,41,42,43,41,68,
69,67,68,69,67,68,69,67,68,69,67,68,69,67,68,69,67,68,69,67,68,69,67,68,69,67,68,69,67,68,69,67,68,69,67,68,69,67,68,69,67,68,69,67,68,69,67,68,69,67,68,69,67,68,69,67,68,69,67,68,69,67,68,69,67,68,69,67,68,69,67,68,69,67,42,
43,41,42,43,41,42,43,41,42,43,41,42,43,41,42,43,41,42,43,41,42,43,41,42,43,41,42,43,41,42,43,41,42,43,41,42,43,41,42,43,41,42,43,41,42,43,41,42,43,41,42,43,41,42,43,41,42,43,41,42,43,41,42,43,41,42,43,41,42,43,41,42,43,41,68,
69,67,68,69,67,68,69,67,68,69,67,68,69,67,68,69,67,68,69,67,68,69,67,68,69,67,68,69,67,68,69,67,68,69,67,68,69,67,68,69,67,68,69,67,68,69,67,68,69,67,68,69,67,68,69,67,68,69,67,68,69,67,68,69,67,68,69,67,68,69,67,68,69,67,42,
43,41,42,43,41,42,43,41,42,43,41,42,43,41,42,43,41,42,43,41,42,43,41,42,43,41,42,43,41,42,43,41,42,43,41,42,43,41,42,43,41,42,43,41,42,43,41,42,43,41,42,43,41,42,43,41,42,43,41,42,43,41,42,43,41,42,43,41,42,43,41,42,43,41,68,
69,67,68,69,67,68,69,67,68,69,67,68,69,67,68,69,67,68,69,67,68,69,67,68,69,67,68,69,67,68,69,67,68,69,67,68,69,67,68,69,67,68,69,67,68,69,67,68,69,67,68,69,67,68,69,67,68,69,67,68,69,67,68,69,67,68,69,67,68,69,67,68,69,67,42,
43,41,42,43,41,42,43,41,42,43,41,42,43,41,42,43,41,42,43,41,42,43,41,42,43,41,42,43,41,42,43,41,42,43,41,42,43,41,42,43,41,42,43,41,42,43,41,42,43,41,42,43,41,42,43,41,42,43,41,42,43,41,42,43,41,42,43,41,42,43,41,42,43,41,68,
69,67,68,69,67,68,69,67,68,69,67,68,69,67,68,69,67,68,69,67,68,69,67,68,69,67,68,69,67,68,69,67,68,69,67,68,69,67,68,69,67,68,69,67,68,69,67,68,69,67,68,69,67,68,69,67,68,69,67,68,69,67,68,69,67,68,69,67,68,69,67,68,69,67,42,
43,41,42,43,41,42,43,41,42,43,41,42,43,41,42,43,41,42,43,41,42,43,41,42,43,41,42,43,41,42,43,41,42,43,41,42,43,41,42,43,41,42,43,41,42,43,41,42,43,41,42,43,41,42,43,41,42,43,41,42,43,41,42,43,41,42,43,41,42,43,41,42,43,41,68,
69,67,68,69,67,68,69,67,68,69,67,68,69,67,68,69,67,68,69,67,68,69,67,68,69,67,68,69,67,68,69,67,68,69,67,68,69,67,68,69,67,68,69,67,68,69,67,68,69,67,68,69,67,68,69,67,68,69,67,68,69,67,68,69,67,68,69,67,68,69,67,68,69,67,42,
43,41,42,43,41,42,43,41,42,43,41,42,43,41,42,43,41,42,43,41,42,43,41,42,43,41,42,43,41,42,43,41,42,43,41,42,43,41,42,43,41,42,43,41,42,43,41,42,43,41,42,43,41,42,43,41,42,43,41,42,43,41,42,43,41,42,43,41,42,43,41,42,43,41,68,
69,67,68,69,67,68,69,67,68,69,67,68,69,67,68,69,67,68,69,67,68,69,67,68,69,67,68,69,67,68,69,67,68,69,67,68,69,67,68,69,67,68,69,67,68,69,67,68,69,67,68,69,67,68,69,67,68,69,67,68,69,67,68,69,67,68,69,67,68,69,67,68,69,67,42,
43,41,42,43,41,42,43,41,42,43,41,42,43,41,42,43,41,42,43,41,42,43,41,42,43,41,42,43,41,42,43,41,42,43,41,42,43,41,42,43,41,42,43,41,42,43,41,42,43,41,42,43,41,42,43,41,42,43,41,42,43,41,42,43,41,42,43,41,42,43,41,42,43,41,68,
69,67,68,69,67,68,69,67,68,69,67,68,69,67,68,69,67,68,69,67,68,69,67,68,69,67,68,69,67,68,69,67,68,69,67,68,69,67,68,69,67,68,69,67,68,69,67,68,69,67,68,69,67,68,69,67,68,69,67,68,69,67,68,69,67,68,69,67,68,69,67,68,69,67,42,
43,41,42,43,41,42,43,41,42,43,41,42,43,41,42,43,41,42,43,41,42,43,41,42,43,41,42,43,41,42,43,41,42,43,41,42,43,41,42,43,41,42,43,41,42,43,41,42,43,41,42,43,41,42,43,41,42,43,41,42,43,41,42,43,41,42,43,41,42,43,41,42,43,41,68,
69,67,68,69,67,68,69,67,68,69,67,68,69,67,68,69,67,68,69,67,68,69,67,68,69,67,68,69,67,68,69,67,68,69,67,68,69,67,68,69,67,68,69,67,68,69,67,68,69,67,68,69,67,68,69,67,68,69,67,68,69,67,68,69,67,68,69,67,68,69,67,68,69,67,42,
43,41,42,43,41,42,43,41,42,43,41,42,43,41,42,43,41,42,43,41,42,43,41,42,43,41,42,43,41,42,43,41,42,43,41,42,43,41,42,43,41,42,43,41,42,43,41,42,43,41,42,43,41,42,43,41,42,43,41,42,43,41,42,43,41,42,43,41,42,43,41,42,43,41,68,
69,67,68,69,67,68,69,67,68,69,67,68,69,67,68,69,67,68,69,67,68,69,67,68,69,67,68,69,67,68,69,67,68,69,67,68,69,67,68,69,67,68,69,67,68,69,67,68,69,67,68,69,67,68,69,67,68,69,67,68,69,67,68,69,67,68,69,67,68,69,67,68,69,67,42,
43,41,42,43,41,42,43,41,42,43,41,42,43,41,42,43,41,42,43,41,42,43,41,42,43,41,42,43,41,42,43,41,42,43,41,42,43,41,42,43,41,42,43,41,42,43,41,42,43,41,42,43,41,42,43,41,42,43,41,42,43,41,42,43,41,42,43,41,42,43,41,42,43,41,68,
69,67,68,69,67,68,69,67,68,69,67,68,69,67,68,69,67,68,69,67,68,69,67,68,69,67,68,69,67,68,69,67,68,69,67,68,69,67,68,69,67,68,69,67,68,69,67,68,69,67,68,69,67,68,69,67,68,69,67,68,69,67,68,69,67,68,69,67,68,69,67,68,69,67,42,
43,41,42,43,41,42,43,41,42,43,41,42,43,41,42,43,41,42,43,41,42,43,41,42,43,41,42,43,41,42,43,41,42,43,41,42,43,41,42,43,41,4,2,43,41,42,43,41,42,43,41,42,43,41,42,43,41,42,43,41,42,43,41,42,43,41,42,43,41,42,43,41,42,43,41,
68,69,67,68,69,67,68,69,67,68,69,67,68,69,67,68,69,67,68,69,67,68,69,67,68,69,67,68,69,67,68,69,67,68,69,67,68,69,67,68,69,67,68,69,67,68,69,67,68,69,67,68,69,67,68,69,67,68,69,67,68,69,67,68,69,67,68,69,67,68,69,67,68,69,67,
42,43,41,42,43,41,42,43,41,42,43,41,42,43,41,42,43,41,42,43,41,42,43,41,42,43,41,42,43,41,42,43,41,42,43,41,42,43,41,42,43,41,42,43,41,42,43,41,42,43,41,42,43,41,42,43,41,42,43,41,42,43,41,42,43,41,42,43,41,42,43,41,42,43,41,
68,69,67,68,69,67,68,69,67,68,69,67,68,69,67,68,69,67,68,69,67,68,69,67,68,69,67,68,69,67,68,69,67,68,69,67,68,69,67,68,69,67,68,69,67,68,69,67,68,69,67,68,69,67,68,69,67,68,69,67,68,69,67,68,69,67,68,69,67,68,69,67,68,69,67,
42,43,41,42,43,41,42,43,41,42,43,41,42,43,41,42,43,41,42,43,41,42,43,41,42,43,41,42,43,41,42,43,41,42,43,41,42,43,41,42,43,41,42,43,41,42,43,41,42,43,41,42,43,41,42,43,41,42,43,41,42,43,41,42,43,41,42,43,41,42,43,41,42,43,41,
68,69,67,68,69,67,68,69,67,68,69,67,68,69,67,68,69,67,68,69,67,68,69,67,68,69,67,68,69,67,68,69,67,68,69,67,68,69,67,68,69,67,68,69,67,68,69,67,68,69,67,68,69,67,68,69,67,68,69,67,68,69,67,68,69,67,68,69,67,68,69,67,68,69,67,
42,43,41,42,43,41,42,43,41,42,43,41,42,43,41,42,43,41,42,43,41,42,43,41,42,43,41,42,43,41,42,43,41,42,43,41,42,43,41,42,43,41,42,43,41,42,43,41,42,43,41,42,43,41,42,43,41,42,43,41,42,43,41,42,43,41,42,43,41,42,43,41,42,43,41,
68,69,67,68,69,67,68,69,67,68,69,67,68,69,67,68,69,67,68,69,67,68,69,67,68,69,67,68,69,67,68,69,67,68,69,67,68,69,67,68,69,67,68,69,67,68,69,67,68,69,67,68,69,67,68,69,67,68,69,67,68,69,67,68,69,67,68,69,67,68,69,67,68,69,67,
42,43,41,42,43,41,42,43,41,42,43,41,42,43,41,42,43,41,42,43,41,42,43,41,42,43,41,42,43,41,42,43,41,42,43,41,42,43,41,42,43,41,42,43,41,42,43,41,42,43,41,42,43,41,42,43,41,42,43,41,42,43,41,42,43,41,42,43,41,42,43,41,42,43,41,
68,69,67,68,69,67,68,69,67,68,69,67,68,69,67,68,69,67,68,69,67,68,69,67,68,69,67,68,69,67,68,69,67,68,69,67,68,69,67,68,69,67,68,69,67,68,69,67,68,69,67,68,69,67,68,69,67,68,69,67,68,69,67,68,69,67,68,69,67,68,69,67,68,69,67,
42,43,41,42,43,41,42,43,41,42,43,41,42,43,41,42,43,41,42,43,41,42,43,41,42,43,41,42,43,41,42,43,41,42,43,41,42,43,41,42,43,41,42,43,41,42,43,41,42,43,41,42,43,41,42,43,41,42,43,41,42,43,41,42,43,41,42,43,41,42,43,41,42,43,41,
68,69,67,68,69,67,68,69,67,68,69,67,68,69,67,68,69,67,68,69,67,68,69,67,68,69,67,68,69,67,68,69,67,68,69,67,68,69,67,68,69,67,68,69,67,68,69,67,68,69,67,68,69,67,68,69,67,68,69,67,68,69,67,68,69,67,68,69,67,68,69,67,68,69,67,
42,43,41,42,43,41,42,43,41,42,43,41,42,43,41,42,43,41,42,43,41,42,43,41,42,43,41,42,43,41,42,43,41,42,43,41,42,43,41,42,43,41,42,43,41,42,43,41,42,43,41,42,43,41,42,43,41,42,43,41,42,43,41,42,43,41,42,43,41,42,43,41,42,43,41,
68,69,67,68,69,67,68,69,67,68,69,67,68,69,67,68,69,67,68,69,67,68,69,67,68,69,67,68,69,67,68,69,67,68,69,67,68,69,67,68,69,67,68,69,67,68,69,67,68,69,67,68,69,67,68,69,67,68,69,67,68,69,67,68,69,67,68,69,67,68,69,67,68,69,67,
42,43,41,42,43,41,42,43,41,42,43,41,42,43,41,42,43,41,42,43,41,42,43,41,42,43,41,42,43,41,42,43,41,42,43,41,42,43,41,42,43,41,42,43,41,42,43,41,42,43,41,42,43,41,42,43,41,42,43,41,42,43,41,42,43,41,42,43,41,42,43,41,42,43,41,
68,69,67,68,69,67,68,69,67,68,69,67,68,69,67,68,69,67,68,69,67,68,69,67,68,69,67,68,69,67,68,69,67,68,69,67,68,69,67,68,69,67,68,69,67,68,69,67,68,69,67,68,69,67,68,69,67,68,69,67,68,69,67,68,69,67,68,69,67,68,69,67,68,69,67,
42,43,41,42,43,41,42,43,41,42,43,41,42,43,41,42,43,41,42,43,41,42,43,41,42,43,41,42,43,41,42,43,41,42,43,41,42,43,41,42,43,41,42,43,41,42,43,41,42,43,41,42,43,41,42,43,41,42,43,41,42,43,41,42,43,41,42,43,41,42,43,41,42,43,41,
68,69,67,68,69,67,68,69,67,68,69,67,68,69,67,68,69,67,68,69,67,68,69,67,68,69,67,68,69,67,68,69,67,68,69,67,68,69,67,68,69,67,68,69,67,68,69,67,68,69,67,68,69,67,68,69,67,68,69,67,68,69,67,68,69,67,68,69,67,68,69,67,68,69,67,
42,43,41,42,43,41,42,43,41,42,43,41,42,43,41,42,43,41,42,43,41,42,43,41,42,43,41,42,43,41,42,43,41,42,43,41,42,43,41,42,43,41,42,43,41,42,43,41,42,43,41,42,43,41,42,43,41,42,43,41,42,43,41,42,43,41,42,43,41,42,43,41,42,43,41,
68,69,67,68,69,67,68,69,67,68,69,67,68,69,67,68,69,67,68,69,67,68,69,67,68,69,67,68,69,67,68,69,67,68,69,67,68,69,67,68,69,67,68,69,67,68,69,67,68,69,67,68,69,67,68,69,67,68,69,67,68,69,67,68,69,67,68,69,67,68,69,67,68,69,67,
42,43,41,42,43,41,42,43,41,42,43,41,42,43,41,42,43,41,42,43,41,42,43,41,42,43,41,42,43,41,42,43,41,42,43,41,42,43,41,42,43,41,42,43,41,42,43,41,42,43,41,42,43,41,42,43,41,42,43,41,42,43,41,42,43,41,42,43,41,42,43,41,42,43,41,
68,69,67,68,69,67,68,69,67,68,69,67,68,69,67,68,69,67,68,69,67,68,69,67,68,69,67,68,69,67,68,69,67,68,69,67,68,69,67,68,69,67,68,69,67,68,69,67,68,69,67,68,69,67,68,69,67,68,69,67,68,69,67,68,69,67,68,69,67,68,69,67,68,69,67,
42,43,41,42,43,41,42,43,41,42,43,41,42,43,41,42,43,41,42,43,41,42,43,41,42,43,41,42,43,41,42,43,41,42,43,41,42,43,41,42,43,41,42,43,41,42,43,41,42,43,41,42,43,41,42,43,41,42,43,41,42,43,41,42,43,41,42,43,41,42,43,41,42,43,41
</data>
 </layer>
 <layer id="3" name="extra shade grass" width="75" height="75" locked="1">
  <data encoding="csv">
0,0,0,0,0,0,0,0,0,0,0,0,0,0,0,0,0,0,0,0,0,0,0,0,0,0,0,0,0,0,0,0,0,0,0,0,0,0,0,0,0,0,0,0,0,0,0,0,0,0,0,0,0,0,0,0,0,0,0,0,0,0,0,0,0,0,0,0,0,0,0,0,0,0,0,
0,0,0,0,0,0,0,0,0,0,0,0,0,0,0,0,0,0,0,0,0,0,0,0,0,0,0,0,0,0,0,0,0,0,0,0,0,0,0,0,0,0,0,0,0,0,0,0,0,0,0,0,0,0,0,0,0,0,0,0,0,0,0,0,0,0,0,0,0,0,0,0,0,0,0,
0,0,0,0,0,0,0,0,0,0,0,0,0,0,0,0,0,0,0,0,0,0,0,0,0,0,0,0,0,0,0,0,0,0,0,0,0,0,0,0,0,0,0,0,0,0,0,0,0,0,0,0,0,0,0,0,0,0,0,0,0,0,0,0,0,0,0,0,0,0,0,0,0,0,0,
0,0,0,0,0,0,0,0,0,0,0,0,0,0,0,0,0,0,0,0,0,0,0,0,0,0,0,0,0,0,0,0,0,0,0,0,0,0,0,0,0,0,0,0,0,0,0,0,0,0,0,0,0,0,0,0,0,0,0,0,0,0,0,0,0,0,0,0,0,0,0,0,0,0,0,
0,0,0,0,0,0,0,0,0,0,0,0,0,0,0,0,0,0,0,0,0,0,0,0,0,0,0,0,0,0,0,0,0,0,0,0,0,0,0,0,0,0,0,0,0,0,0,0,0,0,0,0,0,0,0,0,0,0,0,0,0,0,0,0,0,0,0,0,0,0,0,0,0,0,0,
0,0,0,0,0,0,0,0,0,0,0,0,0,0,0,0,0,0,0,0,0,0,0,0,0,0,0,0,0,0,0,0,0,0,0,0,0,0,0,0,0,0,0,0,0,0,0,0,0,0,0,0,0,0,0,0,0,0,0,0,0,0,0,0,0,0,0,0,0,0,0,0,0,0,0,
0,0,0,0,0,0,0,0,0,0,0,0,0,0,0,0,0,0,0,0,0,0,0,0,0,0,0,0,0,0,0,0,0,0,0,0,0,0,0,0,0,0,0,0,0,0,0,0,0,0,0,0,0,0,0,0,0,0,0,0,0,0,0,0,0,0,0,0,0,0,0,0,0,0,0,
0,0,0,0,0,0,0,0,0,0,0,0,0,0,0,0,0,0,0,0,0,0,0,0,0,0,0,0,0,0,0,0,0,0,0,0,0,0,0,0,0,0,0,0,0,0,0,0,0,0,0,0,0,0,0,0,0,0,0,0,0,0,0,0,0,0,0,0,0,0,0,0,0,0,0,
0,0,0,0,0,0,0,0,0,0,0,0,0,0,0,0,0,0,0,0,0,0,0,0,0,0,0,0,0,0,0,0,0,0,0,0,0,0,0,0,0,0,0,0,0,0,0,0,0,0,0,0,0,0,0,0,0,0,0,0,0,0,0,0,0,0,0,0,0,0,0,0,0,0,0,
0,0,0,0,0,0,0,0,0,0,0,0,0,0,0,0,0,0,0,0,0,0,0,0,0,0,0,0,0,0,0,0,0,0,0,0,0,0,0,0,0,0,0,0,0,0,0,0,0,0,0,0,0,0,0,0,0,0,0,0,0,0,0,0,0,0,0,0,0,0,0,0,0,0,0,
0,0,0,0,0,0,0,0,0,0,0,0,0,0,0,0,0,0,0,0,0,0,0,0,0,0,0,0,0,0,0,0,0,0,0,0,0,0,0,0,0,0,0,0,0,0,0,0,0,0,0,0,0,0,0,0,0,0,0,0,0,0,0,0,0,0,0,0,0,0,0,0,0,0,0,
0,0,0,0,0,0,0,0,0,0,0,0,0,0,0,0,0,0,0,0,0,0,0,0,0,0,0,0,0,0,0,0,0,0,0,0,0,0,0,0,0,0,0,0,0,0,0,0,0,0,0,0,0,0,0,0,0,0,0,0,0,0,0,0,0,0,0,0,0,0,0,0,0,0,0,
0,0,0,0,0,0,0,0,0,0,0,0,0,0,0,0,0,0,0,0,0,0,0,0,0,0,0,0,0,0,0,0,0,0,0,0,0,0,0,0,0,0,0,0,0,0,0,0,0,0,0,0,0,0,0,0,0,0,0,0,0,0,0,0,0,0,0,0,0,0,0,0,0,0,0,
0,0,0,0,0,0,0,0,0,0,0,0,0,0,0,0,0,0,0,0,0,0,0,0,0,0,0,0,0,0,0,0,0,0,0,0,0,0,0,0,0,0,0,0,0,0,0,0,0,0,0,0,0,0,0,0,0,0,0,0,0,0,0,0,0,0,0,0,0,0,0,0,0,0,0,
0,0,0,0,0,0,0,0,0,0,0,0,0,0,0,0,0,0,0,0,0,0,0,0,0,0,0,0,0,0,0,0,0,0,0,0,0,0,0,0,0,0,0,0,0,0,0,0,0,0,0,0,0,0,0,0,0,0,0,0,0,0,0,0,0,0,0,0,0,0,0,0,0,0,0,
0,0,0,0,0,0,0,0,0,0,0,0,0,0,0,0,0,0,0,0,0,0,0,0,0,0,0,0,0,0,0,0,0,0,0,0,0,0,0,0,0,0,0,0,0,0,0,0,0,0,0,0,0,0,0,0,0,0,0,0,0,0,0,0,0,0,0,0,0,0,0,0,0,0,0,
0,0,0,0,0,0,0,0,0,0,0,0,0,0,0,0,0,0,0,0,0,0,0,0,0,0,0,0,0,0,0,0,0,0,0,0,0,0,0,0,0,0,0,0,0,0,0,0,0,0,0,0,0,0,0,0,0,0,0,0,0,0,0,0,0,0,0,0,0,0,0,0,0,0,0,
0,0,0,0,0,0,0,0,0,0,0,0,0,0,0,0,0,0,0,0,0,0,0,0,0,0,0,0,0,0,0,0,0,0,0,0,0,0,0,0,0,0,0,0,0,0,0,0,0,0,0,0,0,0,0,0,0,0,0,0,0,0,0,0,0,0,0,0,0,0,0,0,0,0,0,
0,0,0,0,0,0,0,0,0,0,0,0,0,0,0,0,0,0,0,0,0,0,0,0,0,0,0,0,0,0,0,0,0,0,0,0,0,0,0,0,0,0,0,0,0,0,0,0,0,0,0,0,0,0,0,0,0,0,0,0,0,0,0,0,0,0,0,0,0,0,0,0,0,0,0,
0,0,0,0,0,0,0,0,0,0,0,0,0,0,0,0,0,0,0,0,0,0,0,0,0,0,0,0,0,0,0,0,0,0,0,0,0,0,0,0,0,0,0,0,0,0,0,0,0,0,0,0,0,0,0,0,0,0,0,0,0,0,0,0,0,0,0,0,0,0,0,0,0,0,0,
0,0,0,0,0,0,0,0,0,0,0,0,0,0,0,0,0,0,0,0,0,0,0,0,0,0,0,0,0,0,0,0,0,0,0,0,0,0,0,0,0,0,0,0,0,0,0,0,0,0,0,0,0,0,0,0,0,0,0,0,0,0,0,0,0,0,0,0,0,0,0,0,0,0,0,
0,0,0,0,0,0,0,0,0,0,0,0,0,0,0,0,0,0,0,0,0,0,0,0,0,0,0,0,0,0,0,0,0,0,0,0,0,0,0,0,0,0,0,0,0,0,0,0,0,0,0,0,0,0,0,0,0,0,0,0,0,0,0,0,0,0,0,0,0,0,0,0,0,0,0,
0,0,0,0,0,0,0,0,0,0,0,0,0,0,0,0,0,0,0,0,0,0,0,0,0,0,0,0,0,0,0,0,0,0,0,0,0,0,0,0,0,0,0,0,0,0,0,0,0,0,0,0,0,0,0,0,0,0,0,0,0,0,0,0,0,0,0,0,0,0,0,0,0,0,0,
0,0,0,0,0,0,0,0,0,0,0,0,0,0,0,0,0,0,0,0,0,0,0,0,0,0,0,0,0,0,0,0,0,0,0,0,0,0,0,0,0,0,0,0,0,0,0,0,0,0,0,0,0,0,0,0,0,0,0,0,0,0,0,0,0,0,0,0,0,0,0,0,0,0,0,
0,0,0,0,0,0,0,0,0,0,0,0,0,0,0,0,0,0,0,0,0,0,0,0,0,0,0,0,0,0,0,0,0,0,0,0,0,0,0,0,0,0,0,0,0,0,0,0,0,0,0,0,0,0,0,0,0,0,0,0,0,0,0,0,0,0,0,0,0,0,0,0,0,0,0,
0,0,0,0,0,0,0,0,0,0,0,0,0,0,0,0,0,0,0,0,0,0,0,0,0,0,0,0,0,0,0,0,0,0,0,0,0,0,0,0,0,0,0,0,0,0,0,0,0,0,0,0,0,0,0,0,0,0,0,0,0,0,0,0,0,0,0,0,0,0,0,0,0,0,0,
0,0,0,0,0,0,0,0,0,0,0,0,0,0,0,0,0,0,0,0,0,0,0,0,0,0,0,0,0,0,0,0,0,0,0,0,0,0,0,0,0,0,0,0,0,0,47,48,48,48,76,0,0,0,0,0,0,0,0,0,0,0,0,0,0,0,0,0,0,0,0,0,0,0,0,
0,0,0,0,0,0,0,0,0,0,0,0,0,0,0,0,0,0,0,0,0,0,0,0,0,0,0,0,0,0,0,0,0,0,0,0,0,0,0,0,0,0,0,0,0,149,151,126,127,125,75,49,0,0,0,0,0,0,0,0,0,0,0,0,0,0,0,0,0,0,0,0,0,0,0,
0,0,0,0,0,0,0,0,0,0,0,0,0,0,0,0,0,0,0,0,0,0,0,0,0,0,0,0,0,0,0,0,0,0,0,0,0,0,0,0,0,0,0,0,0,47,73,126,75,73,101,102,0,0,0,0,0,0,0,0,0,0,0,0,0,0,0,0,0,0,0,0,0,0,0,
0,0,0,0,0,0,0,0,0,0,0,0,0,0,0,0,0,0,0,0,0,0,0,0,0,0,0,0,0,0,0,0,0,0,0,0,0,0,0,0,0,0,0,0,47,73,74,100,100,126,127,153,0,0,0,0,0,0,0,0,0,0,0,0,0,0,0,0,0,0,0,0,0,0,0,
0,0,0,0,0,0,0,0,0,0,0,0,0,0,0,0,0,0,0,0,0,0,0,0,0,0,0,0,0,0,0,0,0,0,0,0,0,0,0,0,0,0,0,0,98,100,101,74,127,125,75,48,49,0,0,0,0,0,0,0,0,0,0,0,0,0,0,0,0,0,0,0,0,0,0,
0,0,0,0,0,0,0,0,0,0,0,0,0,0,0,0,0,0,0,0,0,0,0,0,0,0,72,49,0,0,0,0,0,0,0,0,0,0,0,0,0,0,0,0,98,100,101,127,50,73,126,99,102,0,0,0,0,0,0,0,0,0,0,0,0,0,0,0,0,0,0,0,0,0,0,
0,0,0,0,0,0,0,0,0,0,0,0,0,0,0,0,0,0,0,0,0,0,0,0,0,72,73,102,0,0,0,0,47,48,150,49,0,0,0,0,0,0,72,49,98,74,126,75,73,127,125,126,102,0,0,0,0,0,0,0,0,0,0,0,0,0,0,0,0,0,0,0,0,0,0,
0,0,0,0,0,0,0,0,0,0,0,0,0,0,0,0,0,0,0,0,0,0,47,150,48,73,127,50,48,48,48,150,73,127,125,75,76,0,0,0,0,0,154,180,154,101,126,101,101,180,98,126,102,0,0,0,0,0,0,0,0,0,0,0,0,0,0,0,0,0,0,0,0,0,0,
0,0,0,0,0,0,0,0,0,0,0,0,0,0,0,0,0,0,0,0,0,0,151,125,126,127,128,124,152,176,176,176,152,153,151,125,75,49,0,0,47,76,154,75,73,74,127,125,74,75,73,99,102,0,0,0,0,0,0,0,0,0,0,0,0,0,0,0,0,0,0,0,0,0,0,
0,0,0,0,0,0,0,0,0,0,0,0,0,0,0,0,0,0,0,0,0,0,0,151,125,102,0,0,0,0,0,0,0,0,0,151,152,128,0,47,73,102,124,125,74,127,128,154,100,126,99,126,102,0,0,0,0,0,0,0,0,0,0,0,0,0,0,0,0,0,0,0,0,0,0,
0,0,0,0,0,0,0,0,0,0,0,0,0,0,0,0,0,0,0,0,0,0,0,0,151,153,0,0,0,0,0,0,0,0,0,0,0,0,0,98,127,128,0,151,152,153,0,98,100,100,101,127,128,0,0,0,0,0,0,0,0,0,0,0,0,0,0,0,0,0,0,0,0,0,0,
0,0,0,0,0,0,0,0,0,0,0,0,0,0,0,0,0,0,0,0,0,0,0,0,0,0,0,0,0,0,0,0,0,0,0,0,0,0,72,73,102,0,0,0,0,0,0,151,125,126,127,128,0,0,0,0,0,0,0,0,0,0,0,0,0,0,0,0,0,0,0,0,0,0,0,
0,0,0,0,0,0,0,0,0,0,0,0,0,0,0,0,0,0,0,0,0,0,0,0,0,0,0,0,0,0,0,0,0,0,0,0,0,0,98,127,128,0,0,0,0,0,0,0,124,176,97,101,0,0,0,0,0,0,0,0,0,0,0,0,0,0,0,0,0,0,0,0,0,0,0,
0,0,0,0,0,0,0,0,0,0,0,0,0,0,0,0,0,0,0,0,0,0,0,0,0,72,48,49,0,0,0,0,0,0,0,0,0,0,154,102,0,0,0,0,0,0,0,0,0,0,151,125,0,0,0,0,0,0,0,0,0,0,0,0,0,0,0,0,0,0,0,0,0,0,0,
0,0,0,0,0,0,0,0,0,0,0,0,0,0,0,0,0,0,0,0,0,0,0,0,0,98,100,75,150,49,0,0,0,0,0,0,0,0,98,102,0,0,0,0,0,0,0,0,0,0,0,154,0,0,0,0,0,0,0,0,0,0,0,0,0,0,0,0,0,0,0,0,0,0,0,
0,0,0,0,0,0,0,0,0,0,0,0,0,0,0,0,0,0,0,0,0,0,0,0,0,154,126,101,99,75,76,0,0,0,0,0,0,0,151,128,0,0,0,0,0,0,0,0,0,0,0,151,0,0,0,0,0,0,0,0,0,0,0,0,0,0,0,0,0,0,0,0,0,0,0,
0,0,0,0,0,0,0,0,0,0,0,0,0,0,0,0,0,0,0,0,0,0,0,0,72,73,126,101,100,100,75,76,0,0,72,48,76,0,0,0,0,0,0,47,150,76,0,0,0,0,0,0,0,0,0,0,0,0,0,0,0,0,0,0,0,0,0,0,0,0,0,0,0,0,0,
0,0,0,0,0,0,0,0,0,0,0,0,0,0,0,0,0,0,0,0,0,0,0,0,124,176,125,100,74,126,126,75,49,0,151,125,102,0,0,0,0,0,0,154,127,128,0,0,0,0,0,0,0,0,0,0,0,0,0,0,0,0,0,0,0,0,0,0,0,0,0,0,0,0,0,
0,0,0,0,0,0,0,0,0,0,0,0,0,0,0,0,0,0,0,0,0,0,47,76,0,0,151,176,125,127,176,125,75,49,0,124,128,0,0,0,97,72,48,73,75,76,0,0,0,0,0,0,0,0,0,0,0,0,0,0,0,0,0,0,0,0,0,0,0,0,0,0,0,0,0,
0,0,0,0,0,0,0,0,0,0,0,0,0,0,0,0,0,0,0,0,0,0,154,75,49,0,0,0,151,128,0,124,152,153,0,0,0,0,0,0,97,97,176,176,176,153,0,0,0,0,0,0,0,0,0,0,0,0,0,0,0,0,0,0,0,0,0,0,0,0,0,0,0,0,0,
0,0,0,0,0,0,0,0,0,0,0,0,0,0,0,0,0,0,0,0,0,0,154,74,180,0,0,149,149,149,149,0,0,0,0,0,0,0,0,0,0,0,0,0,0,0,0,0,0,0,0,0,0,0,0,0,0,0,0,0,0,0,0,0,0,0,0,0,0,0,0,0,0,0,0,
0,0,0,0,0,0,0,0,0,0,0,0,0,0,0,0,0,0,0,0,0,0,151,152,153,0,0,0,0,0,0,0,0,0,0,0,0,0,0,0,0,0,0,0,0,0,0,0,0,0,0,0,0,0,0,0,0,0,0,0,0,0,0,0,0,0,0,0,0,0,0,0,0,0,0,
0,0,0,0,0,0,0,0,0,0,0,0,0,0,0,0,0,0,0,0,0,0,0,0,0,0,0,0,0,0,0,0,0,0,0,0,0,0,0,0,0,0,0,0,0,0,0,0,0,0,0,0,0,0,0,0,0,0,0,0,0,0,0,0,0,0,0,0,0,0,0,0,0,0,0,
0,0,0,0,0,0,0,0,0,0,0,0,0,0,0,0,0,0,0,0,0,0,0,0,0,0,0,0,0,0,0,0,0,0,0,0,0,0,0,0,0,0,0,0,0,0,0,0,0,0,0,0,0,0,0,0,0,0,0,0,0,0,0,0,0,0,0,0,0,0,0,0,0,0,0,
0,0,0,0,0,0,0,0,0,0,0,0,0,0,0,0,0,0,0,0,0,0,0,0,0,0,0,0,0,0,0,0,0,0,0,0,0,0,0,0,0,0,0,0,0,0,0,0,0,0,0,0,0,0,0,0,0,0,0,0,0,0,0,0,0,0,0,0,0,0,0,0,0,0,0,
0,0,0,0,0,0,0,0,0,0,0,0,0,0,0,0,0,0,0,0,0,0,0,0,0,0,0,0,0,0,0,0,0,0,0,0,0,0,0,0,0,0,0,0,0,0,0,0,0,0,0,0,0,0,0,0,0,0,0,0,0,0,0,0,0,0,0,0,0,0,0,0,0,0,0,
0,0,0,0,0,0,0,0,0,0,0,0,0,0,0,0,0,0,0,0,0,0,0,0,0,0,0,0,0,0,0,0,0,0,0,0,0,0,0,0,0,0,0,0,0,0,0,0,0,0,0,0,0,0,0,0,0,0,0,0,0,0,0,0,0,0,0,0,0,0,0,0,0,0,0,
0,0,0,0,0,0,0,0,0,0,0,0,0,0,0,0,0,0,0,0,0,0,0,0,0,0,0,0,0,0,0,0,0,0,0,0,0,0,0,0,0,0,0,0,0,0,0,0,0,0,0,0,0,0,0,0,0,0,0,0,0,0,0,0,0,0,0,0,0,0,0,0,0,0,0,
0,0,0,0,0,0,0,0,0,0,0,0,0,0,0,0,0,0,0,0,0,0,0,0,0,0,0,0,0,0,0,0,0,0,0,0,0,0,0,0,0,0,0,0,0,0,0,0,0,0,0,0,0,0,0,0,0,0,0,0,0,0,0,0,0,0,0,0,0,0,0,0,0,0,0,
0,0,0,0,0,0,0,0,0,0,0,0,0,0,0,0,0,0,0,0,0,0,0,0,0,0,0,0,0,0,0,0,0,0,0,0,0,0,0,0,0,0,0,0,0,0,0,0,0,0,0,0,0,0,0,0,0,0,0,0,0,0,0,0,0,0,0,0,0,0,0,0,0,0,0,
0,0,0,0,0,0,0,0,0,0,0,0,0,0,0,0,0,0,0,0,0,0,0,0,0,0,0,0,0,0,0,0,0,0,0,0,0,0,0,0,0,0,0,0,0,0,0,0,0,0,0,0,0,0,0,0,0,0,0,0,0,0,0,0,0,0,0,0,0,0,0,0,0,0,0,
0,0,0,0,0,0,0,0,0,0,0,0,0,0,0,0,0,0,0,0,0,0,0,0,0,0,0,0,0,0,0,0,0,0,0,0,0,0,0,0,0,0,0,0,173,173,0,0,0,0,0,0,0,0,0,0,0,0,0,0,0,0,0,47,48,48,76,0,0,0,0,0,0,0,0,
0,0,0,0,0,0,0,0,0,0,0,0,0,0,0,0,0,0,0,0,0,0,0,0,0,0,0,0,0,0,0,0,0,0,0,0,0,0,0,0,0,173,173,173,173,0,0,0,0,0,0,0,0,47,48,48,48,48,48,76,0,0,0,98,100,100,102,0,0,0,0,0,0,0,0,
0,0,0,0,0,0,0,0,0,0,0,0,0,0,0,0,0,0,0,0,0,0,0,0,0,0,0,0,0,0,0,0,0,0,0,0,0,0,0,0,0,173,0,0,0,0,0,0,0,0,0,0,0,151,152,152,152,125,100,102,47,48,48,73,100,100,102,0,0,0,0,0,0,0,0,
0,0,0,0,0,0,0,0,0,0,0,0,0,0,0,0,0,0,0,0,0,0,0,0,0,0,0,0,0,0,0,0,0,0,0,0,0,0,0,0,0,0,0,0,0,0,0,0,0,0,0,0,0,0,0,0,72,73,100,75,73,100,100,127,152,152,153,0,0,0,0,0,0,0,0,
0,0,0,0,0,0,0,0,0,0,0,0,0,0,0,0,0,0,0,0,0,0,0,0,0,0,0,0,0,0,0,0,0,0,0,0,0,0,0,0,0,0,0,0,0,0,0,0,0,0,0,0,0,0,0,0,98,127,152,152,125,100,100,75,48,48,76,0,0,0,0,0,0,0,0,
0,0,0,0,0,0,0,0,0,0,0,0,0,0,0,0,0,0,0,0,0,0,0,0,0,0,0,0,0,0,0,0,0,0,0,0,0,0,0,0,0,0,0,0,0,0,0,0,0,0,0,0,0,0,0,0,98,102,123,47,73,100,100,100,100,100,75,76,0,0,0,0,0,0,0,
0,0,0,0,0,0,0,0,0,0,0,0,0,0,0,0,0,0,0,0,0,0,0,0,0,0,0,0,0,0,0,0,0,0,0,0,0,0,0,0,0,0,0,0,0,0,0,0,0,0,0,0,0,0,0,0,98,75,48,73,100,100,127,152,125,100,100,75,76,0,0,0,0,0,0,
0,0,0,0,0,0,0,0,0,0,0,0,0,0,0,0,0,0,0,0,0,0,0,0,0,0,0,0,0,0,0,0,0,0,0,0,0,0,0,0,0,0,0,0,0,0,0,0,0,0,0,0,0,0,0,0,98,100,100,100,100,100,75,48,73,100,100,100,75,76,0,0,0,0,0,
0,0,0,0,0,0,0,0,0,0,0,0,0,0,0,0,0,0,0,0,0,0,0,0,0,0,0,0,0,0,0,0,0,0,0,0,0,0,0,0,0,0,0,0,0,0,0,0,0,0,0,0,0,0,0,0,124,152,152,152,152,152,152,125,100,100,100,100,100,75,76,0,0,0,0,
0,0,0,0,0,0,0,0,0,0,0,0,0,0,0,0,0,0,0,0,0,0,0,0,0,0,0,0,0,0,0,0,0,0,0,0,0,0,0,0,0,0,0,0,0,0,0,0,0,0,0,0,0,0,0,0,0,0,0,0,0,0,0,151,152,125,100,100,100,100,102,0,0,0,0,
0,0,0,0,0,0,0,0,0,0,0,0,0,0,0,0,0,0,0,0,0,0,0,0,0,0,0,0,0,0,0,0,0,0,0,0,0,0,0,0,0,0,0,0,0,0,0,0,0,0,0,0,0,0,0,0,0,0,0,0,0,0,0,0,0,98,100,100,100,100,102,0,0,0,0,
0,0,0,0,0,0,0,0,0,0,0,0,0,0,0,0,0,0,0,0,0,0,0,0,0,0,0,0,0,0,0,0,0,0,0,0,0,0,0,0,0,0,0,0,0,0,0,0,0,0,0,0,0,0,0,0,0,0,0,0,0,0,0,0,0,124,125,100,100,127,128,0,0,0,0,
0,0,0,0,0,0,0,0,0,0,0,0,0,0,0,0,0,0,0,0,0,0,0,0,0,0,0,0,0,0,0,0,0,0,0,0,0,0,0,0,0,0,0,0,0,0,0,0,0,0,0,0,0,0,0,0,0,0,0,0,0,0,0,0,0,0,151,152,152,153,0,0,0,0,0,
0,0,0,0,0,0,0,0,0,0,0,0,0,0,0,0,0,0,0,0,0,0,0,0,0,0,0,0,0,0,0,0,0,0,0,0,0,0,0,0,0,0,0,0,0,0,0,0,0,0,0,0,0,0,0,0,0,0,0,0,0,0,0,0,0,0,0,0,0,0,0,0,0,0,0,
0,0,0,0,0,0,0,0,0,0,0,0,0,0,0,0,0,0,0,0,0,0,0,0,0,0,0,0,0,0,0,0,0,0,0,0,0,0,0,0,0,0,0,0,0,0,0,0,0,0,0,0,0,0,0,0,0,0,0,0,0,0,0,0,0,0,0,0,0,0,0,0,0,0,0,
0,0,0,0,0,0,0,0,0,0,0,0,0,0,0,0,0,0,0,0,0,0,0,0,0,0,0,0,0,0,0,0,0,0,0,0,0,0,0,0,0,0,0,0,0,0,0,0,0,0,0,0,0,0,0,0,0,0,0,0,0,0,0,0,0,0,0,0,0,0,0,0,0,0,0,
0,0,0,0,0,0,0,0,0,0,0,0,0,0,0,0,0,0,0,0,0,0,0,0,0,0,0,0,0,0,0,0,0,0,0,0,0,0,0,0,0,0,0,0,0,0,0,0,0,0,0,0,0,0,0,0,0,0,0,0,0,0,0,0,0,0,0,0,0,0,0,0,0,0,0,
0,0,0,0,0,0,0,0,0,0,0,0,0,0,0,0,0,0,0,0,0,0,0,0,0,0,0,0,0,0,0,0,0,0,0,0,0,0,0,0,0,0,0,0,0,0,0,0,0,0,0,0,0,0,0,0,0,0,0,0,0,0,0,0,0,0,0,0,0,0,0,0,0,0,0
</data>
 </layer>
 <layer id="8" name="dirt" width="75" height="75" locked="1">
  <data encoding="csv">
0,0,0,0,0,0,0,0,0,0,0,0,0,0,0,0,0,0,0,0,0,0,0,0,0,0,0,0,0,0,0,0,0,0,0,0,0,0,0,0,0,0,0,0,0,0,0,0,0,0,0,0,0,0,0,0,0,0,0,0,0,0,0,0,0,0,0,0,0,0,0,0,0,0,0,
0,0,0,0,0,0,0,0,0,0,0,0,0,0,0,0,0,0,0,0,0,0,0,0,0,0,0,0,0,0,0,0,0,0,0,0,0,0,0,0,0,0,0,0,0,0,0,0,0,0,0,0,0,0,0,0,0,0,0,0,0,0,0,0,0,0,0,0,0,0,0,0,0,0,0,
0,0,0,0,0,0,0,0,0,0,0,0,0,0,0,0,0,0,0,0,0,0,0,0,0,0,0,0,0,0,0,0,0,0,0,0,0,0,0,0,0,0,0,0,0,0,0,0,0,0,0,0,0,0,0,0,0,0,0,0,0,0,0,0,0,0,0,0,0,0,0,0,0,0,0,
0,0,0,0,0,0,0,0,0,0,0,0,0,0,0,0,0,0,0,0,289,290,290,290,318,0,0,0,0,0,0,0,0,0,0,0,0,0,0,0,0,0,0,0,0,0,0,0,0,0,0,0,0,0,0,0,0,0,0,0,0,0,0,0,0,0,0,0,0,0,0,0,0,0,0,
0,0,0,0,0,0,0,0,0,0,0,0,0,0,0,0,0,0,0,314,315,341,368,368,344,0,0,0,0,0,0,0,0,0,0,0,0,0,0,0,0,0,0,0,0,0,0,0,0,0,0,0,0,0,0,0,0,0,0,0,0,0,289,290,290,290,290,291,0,0,0,0,0,0,0,
0,0,0,0,0,0,0,0,0,0,0,0,0,0,0,0,0,0,289,315,341,342,343,342,344,0,0,0,0,0,0,0,0,0,0,0,0,0,0,0,0,0,0,0,0,0,0,0,0,0,0,0,0,0,0,0,0,0,0,0,0,0,340,368,316,316,341,317,290,318,0,0,0,0,0,
0,0,0,0,0,0,0,0,0,0,0,0,0,0,0,0,0,314,315,368,342,368,343,369,395,0,0,0,0,0,0,0,0,0,0,0,0,0,0,0,0,0,0,0,0,0,0,0,0,0,0,0,0,0,0,0,0,0,0,289,290,290,315,316,316,368,342,343,341,317,290,318,0,0,0,
0,0,0,0,0,0,0,0,0,0,0,0,0,0,0,289,290,315,342,342,368,341,369,370,0,0,0,0,0,0,0,0,0,0,0,0,0,0,0,0,0,0,0,0,0,0,0,0,0,0,0,0,0,0,0,0,0,0,314,315,343,341,343,316,343,343,368,343,316,343,368,317,290,318,0,
0,0,0,0,0,0,0,0,0,0,0,0,0,314,290,315,368,368,368,342,368,369,395,0,0,0,0,0,0,0,0,0,0,0,0,0,0,0,0,0,0,0,0,0,0,0,0,0,0,0,0,0,0,0,0,0,0,0,340,368,343,341,316,368,316,316,341,342,341,342,316,343,316,344,0,
0,0,0,0,0,0,0,0,0,0,0,289,290,315,343,316,368,316,343,369,394,370,0,0,0,0,0,0,0,0,0,0,0,0,0,0,0,0,0,0,0,0,0,0,0,0,0,0,0,0,0,0,0,0,0,0,0,0,340,316,343,342,341,316,343,316,343,342,368,343,316,341,343,344,0,
0,0,0,0,0,0,0,0,0,0,289,315,343,341,368,368,343,316,369,370,0,0,0,0,0,0,0,0,0,0,0,0,0,0,0,0,0,0,0,0,0,0,0,0,0,0,0,0,0,0,0,0,0,0,0,0,0,0,340,342,316,316,368,342,368,368,341,368,343,343,342,343,342,317,318,
0,0,0,0,0,0,0,0,0,289,315,368,368,342,342,342,369,394,370,0,0,0,0,0,0,0,0,0,0,0,0,0,0,0,0,0,0,0,0,0,0,0,0,0,0,0,0,0,0,0,0,0,0,0,0,0,0,0,340,342,341,343,341,316,316,342,341,341,341,316,343,343,341,368,344,
0,0,0,0,0,0,0,0,0,340,316,341,368,368,316,369,370,0,0,0,0,0,0,0,0,0,0,0,0,0,0,0,0,0,0,0,0,0,0,0,0,0,0,0,0,0,0,0,0,0,0,0,0,0,0,0,0,0,340,316,368,343,316,316,343,316,341,368,341,368,342,368,342,341,344,
0,0,0,0,0,0,0,0,0,340,316,368,343,396,394,395,0,0,0,0,0,0,0,0,0,0,0,0,0,0,0,0,0,0,0,0,0,0,0,0,0,0,0,0,0,0,0,0,0,0,0,0,0,0,0,0,0,314,315,316,343,316,368,316,341,316,368,316,341,341,342,316,316,341,344,
0,0,0,0,0,0,0,0,0,340,341,316,343,344,0,0,0,0,0,0,0,0,0,0,0,0,0,0,0,0,0,0,265,264,289,290,290,291,263,263,0,0,0,0,0,0,0,0,0,0,0,0,0,0,314,290,290,315,368,343,341,341,341,316,342,368,316,316,316,341,343,316,368,316,344,
0,0,0,0,0,0,0,0,0,340,343,341,369,370,0,0,0,0,0,0,0,0,0,0,0,0,0,0,0,0,0,0,264,314,315,316,342,317,318,263,0,0,0,0,0,0,0,0,0,0,0,0,0,289,315,343,341,316,316,316,343,341,341,343,316,343,341,342,341,342,368,316,316,369,370,
0,0,0,0,0,0,0,0,0,340,342,341,344,0,0,0,0,0,0,0,0,0,0,0,0,0,0,0,0,0,0,0,314,315,368,341,368,316,317,318,0,0,0,0,0,0,0,0,0,0,0,0,314,315,343,342,368,368,343,368,343,368,316,368,342,342,316,368,368,316,343,343,316,344,0,
0,0,0,0,0,0,0,0,0,340,342,343,344,0,0,0,0,0,0,0,0,0,0,0,0,0,0,0,0,0,0,0,340,343,316,316,316,342,341,344,0,0,0,0,0,0,0,0,0,0,0,314,315,342,316,341,342,368,343,316,341,368,343,341,316,342,342,368,343,343,368,343,343,344,0,
0,0,0,0,0,0,0,0,0,340,316,316,344,0,0,0,0,0,0,0,0,0,0,0,0,0,0,0,0,0,0,0,340,369,394,367,316,316,341,317,291,3,3,0,0,0,0,0,0,0,0,340,316,316,343,341,316,316,316,316,342,341,368,341,343,368,343,368,368,368,341,343,342,344,0,
0,0,0,0,0,0,0,0,0,340,316,368,344,0,0,0,0,0,0,0,0,0,0,0,0,0,0,0,0,0,0,0,393,395,264,393,367,342,342,316,317,318,3,0,0,0,0,0,0,0,314,315,343,341,368,316,343,316,341,368,341,316,368,343,368,343,316,316,342,368,343,368,368,344,0,
0,0,0,0,0,0,0,0,0,340,342,341,344,0,0,0,0,0,0,0,0,0,0,0,0,0,0,0,0,0,0,0,0,0,0,0,340,342,368,343,316,344,264,0,0,0,0,0,0,0,340,341,343,368,343,316,343,368,368,341,343,342,343,316,343,341,368,343,343,368,316,341,343,344,0,
0,0,0,0,0,0,0,0,0,340,316,342,317,291,0,0,0,0,0,0,0,0,0,0,0,0,0,0,0,0,0,0,0,0,0,0,340,343,342,316,341,317,318,0,0,0,0,0,0,0,340,343,368,343,368,368,343,343,343,316,368,342,343,368,342,341,316,341,341,316,341,316,342,344,0,
0,0,0,0,0,0,0,0,0,340,316,343,342,344,0,0,0,0,0,0,0,0,0,0,0,0,0,0,0,0,0,0,0,289,290,290,315,341,316,316,343,343,344,0,0,0,0,0,0,0,340,343,316,316,368,343,316,341,343,341,368,368,316,341,368,316,368,316,343,343,341,316,368,344,0,
0,0,0,0,0,0,0,0,0,340,368,316,341,344,0,0,0,0,0,0,0,0,0,0,0,0,0,0,0,0,0,0,0,340,342,341,343,341,368,368,369,394,395,0,0,0,0,0,0,0,340,316,341,316,343,368,341,368,343,316,341,341,342,341,342,342,342,342,316,368,341,341,369,395,0,
0,0,0,0,0,0,0,0,0,340,368,343,316,344,0,0,0,0,0,0,0,0,0,0,0,0,0,0,0,0,0,0,0,366,394,367,342,368,343,343,344,0,0,0,0,0,0,0,0,0,366,367,341,316,316,341,343,341,341,343,343,368,316,368,341,316,343,343,368,343,368,316,344,0,0,
0,0,0,0,0,0,0,0,0,340,342,343,316,317,318,0,0,0,0,0,0,0,0,0,0,0,0,0,0,0,0,0,0,264,264,340,341,343,316,343,344,0,0,0,0,0,0,0,0,0,0,340,316,368,368,368,341,343,368,341,343,316,316,342,341,343,343,316,316,368,316,369,370,0,0,
0,0,0,0,0,0,0,0,0,366,367,368,343,368,344,0,0,0,0,0,0,289,290,318,0,0,0,289,290,290,291,0,0,264,264,340,343,341,342,368,344,0,0,0,0,0,0,0,0,0,0,340,342,342,368,343,343,341,343,343,343,342,342,342,368,342,341,343,342,368,369,395,0,0,0,
0,0,0,0,0,0,0,0,0,0,340,368,342,342,344,0,0,0,0,0,0,340,368,472,0,0,0,421,342,343,444,291,0,289,290,315,341,341,341,368,470,318,0,0,0,0,0,0,0,0,0,366,367,342,343,341,342,341,368,342,343,342,342,343,341,342,341,341,368,343,344,0,0,0,0,
0,0,0,0,0,0,0,0,0,0,340,343,342,342,344,0,0,0,0,0,0,366,394,395,0,314,290,471,368,368,342,344,0,366,394,367,341,368,316,316,368,420,0,0,0,0,0,0,0,0,0,0,393,394,367,342,341,316,343,341,368,316,342,343,368,342,341,316,316,369,370,0,0,0,0,
0,0,0,0,0,0,0,0,0,0,340,343,341,341,317,318,0,0,0,0,0,0,0,314,290,315,341,342,342,341,316,446,0,0,0,366,394,392,368,341,341,446,0,0,0,0,0,0,0,0,0,0,0,0,393,394,367,316,341,368,343,343,368,343,368,316,368,341,369,370,0,0,0,0,0,
0,0,0,0,0,0,0,0,0,0,393,367,341,341,341,344,0,0,0,0,0,0,314,315,343,368,368,396,394,394,394,370,0,0,0,0,0,366,394,392,343,344,0,0,0,0,0,0,0,0,0,0,0,0,0,0,393,394,367,368,368,316,341,316,343,343,316,369,395,0,0,0,0,0,0,
0,0,0,0,0,0,0,0,0,0,0,340,368,342,341,344,0,0,0,0,0,0,340,343,368,369,394,370,0,0,0,0,0,0,0,0,0,0,0,393,394,370,0,0,0,0,0,0,0,0,0,0,0,0,0,0,0,0,366,394,394,367,343,342,342,316,369,370,0,0,0,0,0,0,0,
0,0,0,0,0,0,0,0,0,0,0,340,368,316,343,344,0,0,0,0,0,0,366,394,394,370,0,0,0,0,0,0,0,0,0,0,0,0,0,0,0,0,0,0,0,0,0,0,0,0,0,0,0,0,0,0,0,0,0,0,0,393,394,394,394,394,395,241,0,0,0,0,0,0,0,
0,0,0,0,0,0,0,0,0,0,0,340,341,368,342,344,0,0,0,0,0,0,0,0,0,0,0,0,0,0,0,0,0,0,0,0,0,0,0,0,0,0,0,0,0,0,0,0,0,0,0,0,0,0,0,0,0,0,0,0,0,0,0,0,0,0,0,0,0,0,0,0,0,0,0,
0,0,0,0,0,0,0,0,0,0,0,340,342,342,341,344,0,0,0,0,0,0,0,0,0,0,0,0,0,0,0,0,0,0,0,0,0,0,0,0,0,0,0,0,0,0,0,0,0,0,0,0,0,0,0,0,0,0,0,0,0,0,0,0,0,0,0,0,0,0,0,0,0,0,0,
0,0,0,0,0,0,0,0,0,0,0,340,368,342,316,344,0,0,0,0,0,0,0,0,0,0,0,0,0,0,0,0,0,0,0,0,0,0,0,0,0,0,0,0,0,0,0,0,0,0,0,0,0,0,0,0,0,0,0,0,0,0,0,0,0,0,0,0,0,0,0,0,0,0,0,
0,0,0,0,0,0,0,0,0,0,0,340,341,342,343,344,0,0,0,0,0,0,0,0,0,0,0,0,0,0,0,0,0,0,0,0,0,0,0,0,0,0,0,0,0,0,0,0,0,0,0,0,0,0,0,0,0,0,0,0,0,0,0,0,0,0,0,0,0,0,0,0,0,0,0,
0,0,0,0,0,0,0,0,0,0,0,340,342,342,368,344,0,0,0,0,0,0,0,0,0,0,0,0,0,0,0,0,0,0,0,0,0,0,0,0,0,0,0,0,0,0,0,0,0,0,0,0,0,0,0,0,0,0,0,0,0,0,0,0,0,0,0,0,0,0,0,0,0,0,0,
0,0,0,0,0,0,0,0,0,0,0,340,316,316,341,344,0,0,0,0,0,0,0,0,0,0,0,0,0,0,0,0,0,0,0,0,0,0,0,0,0,0,0,0,0,0,0,0,0,0,0,289,290,290,290,290,290,290,291,0,0,0,0,0,0,0,0,0,0,0,0,0,0,0,0,
0,0,0,0,0,0,0,0,0,0,0,340,341,342,316,344,0,0,0,0,0,0,0,0,0,0,0,0,0,0,0,0,0,0,0,0,0,0,0,0,0,0,0,0,0,289,318,0,0,0,314,315,342,342,342,342,342,342,317,291,0,0,0,0,0,0,0,0,0,0,0,0,0,0,0,
0,0,0,0,0,0,0,0,0,0,0,340,341,341,341,344,0,0,0,0,0,0,0,0,0,0,0,0,0,0,0,0,0,0,0,0,0,0,0,0,0,0,0,0,0,393,292,318,0,314,419,316,342,342,342,342,342,342,342,317,318,0,0,0,0,0,0,0,0,0,0,0,0,0,0,
0,0,0,0,0,0,0,0,0,0,289,315,368,342,342,344,0,0,0,0,0,0,0,0,0,0,0,0,0,0,0,0,0,289,318,0,0,0,0,0,0,0,0,0,0,0,340,444,290,471,368,396,394,394,394,394,394,392,342,342,344,0,0,0,0,0,0,0,0,0,0,0,0,0,0,
0,0,0,0,0,0,0,0,0,0,340,343,342,368,341,344,0,0,0,0,0,0,0,0,0,0,0,0,0,0,0,0,0,340,444,290,291,0,0,0,0,0,0,0,0,0,366,394,392,316,341,444,290,290,290,290,290,445,342,369,370,0,0,0,0,0,0,0,0,0,0,0,0,0,0,
0,0,0,0,0,0,0,0,0,314,315,342,368,342,342,344,0,0,0,0,0,0,0,0,0,0,0,0,0,0,0,0,0,473,341,341,317,318,0,0,0,0,0,0,0,0,0,0,366,394,392,316,342,342,342,342,368,368,369,370,372,0,0,0,0,0,0,0,0,0,0,0,0,0,0,
0,0,0,0,0,0,0,0,289,315,342,368,316,341,341,344,0,0,0,0,0,0,0,0,0,0,0,0,0,0,0,0,0,340,368,368,396,370,0,0,0,0,0,0,0,0,0,0,0,0,393,392,342,342,342,369,394,394,395,372,372,0,0,0,0,0,0,0,0,0,0,0,0,0,0,
0,0,0,0,0,0,0,0,340,342,342,316,343,368,368,344,0,0,0,0,0,0,0,0,0,0,0,0,0,0,0,0,0,473,343,341,418,290,290,290,318,0,0,0,0,0,0,0,0,0,0,393,394,394,394,395,0,0,0,0,0,0,0,0,0,0,0,0,0,0,0,0,0,0,0,
0,0,0,0,0,0,0,0,340,342,368,342,341,343,368,344,0,0,0,0,0,0,0,0,0,0,0,0,0,0,0,0,289,419,316,343,341,368,341,316,446,0,0,0,0,0,0,0,0,0,0,0,0,0,0,0,0,0,0,0,0,0,0,0,0,0,0,0,0,0,0,0,0,0,0,
0,0,0,0,0,0,0,0,340,316,342,341,343,343,341,344,0,0,0,0,0,0,0,0,0,0,0,0,0,0,0,0,340,341,342,316,341,343,343,341,344,0,0,0,0,0,0,0,0,0,0,0,0,0,0,0,0,0,0,0,0,0,0,0,0,0,0,0,0,0,0,0,0,0,0,
0,0,0,0,0,0,0,0,340,343,342,316,342,316,369,395,0,0,0,0,0,0,0,0,0,0,0,0,0,0,0,0,340,342,368,343,316,368,342,316,317,318,0,0,0,0,0,0,0,0,0,0,0,0,0,0,0,0,0,0,0,0,0,0,0,0,0,0,0,0,0,0,0,0,0,
0,0,0,0,0,0,0,0,340,368,343,342,316,369,395,0,0,0,0,0,0,0,0,0,0,0,0,0,0,0,0,0,340,368,343,341,368,342,341,341,343,344,0,0,0,0,0,0,0,0,0,0,0,0,0,0,0,0,0,0,0,0,0,0,0,0,0,0,0,0,0,0,0,0,0,
0,0,0,0,0,0,0,0,366,367,368,316,369,370,0,0,0,0,0,0,0,0,0,0,0,0,0,0,0,0,0,0,366,367,341,341,341,341,341,341,316,317,318,0,0,0,0,0,0,0,0,0,0,0,0,0,0,0,0,0,0,0,0,0,0,0,0,0,0,0,0,0,0,0,0,
0,0,0,0,0,0,0,0,0,393,394,394,395,0,0,0,0,0,0,0,0,0,0,0,0,0,0,0,0,0,0,0,0,340,343,368,341,341,316,368,342,342,344,0,0,0,0,0,0,0,0,0,0,0,0,0,0,0,0,0,0,0,0,0,0,0,0,0,0,0,0,0,0,0,0,
0,0,0,0,0,0,0,0,0,0,0,0,0,0,0,0,0,0,0,0,0,0,0,0,0,0,0,0,0,289,290,290,290,315,316,342,316,343,341,343,316,343,344,0,0,0,0,0,0,0,0,0,0,0,0,0,0,0,0,0,0,0,0,0,0,0,0,0,0,0,0,0,0,0,0,
0,0,0,0,0,0,0,0,0,0,0,0,0,0,0,0,0,0,0,289,290,290,290,290,290,291,0,289,290,315,316,342,316,341,368,316,343,368,342,368,341,343,317,291,0,0,0,0,0,0,0,0,0,0,0,0,0,0,0,0,0,0,0,0,0,0,0,0,0,0,0,0,0,0,0,
0,0,0,0,0,0,0,0,0,0,0,0,0,0,0,0,0,0,0,340,368,342,342,316,316,317,290,315,343,368,316,342,341,343,343,368,316,316,343,342,342,316,343,317,291,0,0,0,0,0,0,0,0,0,0,0,0,0,0,0,0,0,0,0,0,0,0,0,0,0,0,0,0,0,0,
0,0,0,0,0,0,0,0,0,0,0,0,0,372,0,0,0,372,372,366,367,343,342,316,316,368,316,341,316,368,342,341,368,368,343,341,343,341,341,341,341,341,343,341,317,318,0,0,0,0,0,0,0,0,0,0,0,0,0,0,0,0,0,0,0,0,0,0,0,0,0,0,0,0,0,
0,0,0,0,0,0,0,0,0,0,0,0,0,372,372,372,372,0,372,372,393,394,367,341,342,343,368,368,342,316,342,342,316,342,341,341,368,343,341,343,343,342,316,343,368,317,318,0,0,0,0,0,0,0,0,0,0,0,0,0,0,0,0,0,0,0,0,0,0,0,0,0,0,0,0,
0,0,0,0,0,0,0,0,0,0,0,0,0,0,0,0,372,372,372,372,372,372,393,394,394,367,342,343,343,316,342,316,316,316,316,316,316,343,343,368,341,316,368,368,343,368,344,0,0,0,0,0,0,0,0,0,0,0,0,0,0,0,0,0,0,0,0,0,0,0,0,0,0,0,0,
0,0,0,0,0,0,0,0,0,0,0,0,0,0,0,0,0,0,0,0,372,372,372,372,372,393,394,394,394,394,394,367,368,342,341,368,341,368,343,342,341,341,368,368,368,368,317,291,0,0,0,0,0,0,0,0,0,0,0,0,0,0,0,0,0,0,0,0,0,0,0,0,0,0,0,
0,0,0,0,0,0,0,0,0,0,0,0,0,0,0,0,0,0,0,0,0,0,0,0,0,372,372,372,0,0,0,393,367,341,316,341,368,342,343,343,341,343,342,341,341,343,343,317,318,0,0,0,0,0,0,0,0,0,0,0,0,0,0,0,0,0,0,0,0,0,0,0,0,0,0,
0,0,0,0,0,0,0,0,0,0,0,0,0,0,0,0,0,0,0,0,0,0,0,0,0,0,0,0,0,0,0,0,393,394,394,394,367,341,316,343,343,316,341,342,316,341,343,368,344,0,0,0,0,0,0,0,0,0,0,0,0,0,0,0,0,0,0,0,0,0,0,0,0,0,0,
0,0,0,0,0,0,0,0,0,0,0,0,0,0,0,0,0,0,0,0,0,0,0,0,0,0,0,0,0,0,0,0,0,0,0,0,393,394,394,367,341,342,341,368,343,368,369,394,395,0,0,0,0,0,0,0,0,0,0,0,0,0,0,0,0,0,0,0,0,0,0,0,0,0,0,
0,0,0,289,290,291,0,0,0,0,0,0,0,0,0,0,0,0,0,0,0,0,0,0,0,0,0,0,0,0,0,0,0,0,0,0,0,0,0,393,367,342,342,341,369,394,395,0,0,0,0,0,0,0,0,0,0,0,0,0,0,0,0,0,0,0,0,0,0,0,0,0,0,0,0,
0,0,0,340,343,317,291,0,0,0,0,0,0,0,0,0,0,0,0,0,0,0,0,0,0,0,0,0,0,0,0,0,0,0,0,0,0,0,0,0,340,341,368,316,344,0,0,0,0,0,0,0,0,0,0,0,0,0,0,0,0,0,0,0,0,0,0,0,0,0,0,0,0,0,0,
0,0,0,340,316,368,317,291,0,0,0,0,0,0,0,0,0,0,0,0,0,0,0,0,0,0,0,0,0,0,0,0,0,0,0,0,0,0,0,0,366,394,394,394,370,0,0,0,0,0,0,0,0,0,0,0,0,0,0,0,0,0,0,0,0,0,0,0,0,0,0,0,0,0,0,
0,0,0,340,341,342,368,317,290,290,290,291,0,0,0,0,0,0,0,0,0,0,0,0,0,0,0,0,0,0,0,0,0,0,0,0,0,0,0,0,0,0,0,0,0,0,0,0,0,0,0,0,0,0,0,0,0,0,0,0,0,0,0,0,0,0,0,0,0,0,0,0,0,0,0,
0,0,0,340,316,368,343,316,316,316,316,317,290,290,291,0,0,0,0,0,0,0,0,0,0,0,0,0,0,0,0,0,0,0,0,0,0,0,0,0,0,0,0,0,0,0,0,0,0,0,0,0,0,0,0,0,0,0,0,0,0,0,0,0,0,0,0,0,0,0,0,0,0,0,0,
0,0,0,340,342,342,316,342,341,368,316,368,341,368,317,290,290,290,290,291,0,0,0,0,0,0,0,0,0,0,0,0,0,0,0,0,0,0,0,0,0,0,0,0,0,0,0,0,0,0,0,0,0,0,0,0,0,0,0,0,0,0,0,0,0,0,0,0,0,0,0,0,0,0,0,
0,0,0,340,341,368,342,368,341,341,316,343,341,341,341,342,368,316,368,317,290,290,290,291,0,0,0,0,0,0,0,0,0,0,0,0,0,0,0,0,0,0,0,0,0,0,0,0,0,0,0,0,0,0,0,0,0,0,0,0,0,0,0,0,0,0,0,0,0,0,0,0,0,0,0,
0,0,0,340,341,343,316,341,343,368,341,368,368,316,341,316,341,316,343,342,342,368,316,317,290,290,291,0,0,0,0,0,0,0,0,0,0,0,0,0,0,0,0,0,0,0,0,0,0,0,0,0,0,0,0,0,0,0,0,0,0,0,0,0,0,0,0,0,0,0,0,0,0,0,0,
0,0,0,366,367,368,341,341,368,316,316,343,343,343,316,368,342,316,368,342,368,316,343,341,368,341,317,318,0,0,0,0,0,0,0,0,0,0,0,0,0,0,0,0,0,0,0,0,0,0,0,0,0,0,0,0,0,0,0,0,0,0,0,0,0,0,0,0,0,0,0,0,0,0,0,
0,0,0,0,366,367,368,343,368,368,368,368,341,343,341,368,341,341,342,368,316,342,341,341,341,368,316,344,0,0,0,0,0,0,0,0,0,0,0,0,0,0,0,0,0,0,0,0,0,0,0,0,0,0,0,0,0,0,0,0,0,0,0,0,0,0,0,0,0,0,0,0,0,0,0,
0,0,0,0,0,393,394,367,316,342,316,343,368,316,343,342,368,368,316,342,343,316,342,368,342,342,369,370,0,0,0,0,0,0,0,0,0,0,0,0,0,0,0,0,0,0,0,0,0,0,0,0,0,0,0,0,0,0,0,0,0,0,0,0,0,0,0,0,0,0,0,0,0,0,0,
0,0,0,0,0,0,0,393,394,394,394,394,394,394,394,394,394,394,394,394,394,394,394,394,394,394,395,0,0,0,0,0,0,0,0,0,0,0,0,0,0,0,0,0,0,0,0,0,0,0,0,0,0,0,0,0,0,0,0,0,0,0,0,0,0,0,0,0,0,0,0,0,0,0,0,
0,0,0,0,0,0,0,0,0,0,0,0,0,0,0,0,0,0,0,0,0,0,0,0,0,0,0,0,0,0,0,0,0,0,0,0,0,0,0,0,0,0,0,0,0,0,0,0,0,0,0,0,0,0,0,0,0,0,0,0,0,0,0,0,0,0,0,0,0,0,0,0,0,0,0
</data>
 </layer>
 <layer id="2" name="cliff" width="75" height="75" locked="1">
  <data encoding="csv">
0,0,0,0,0,0,0,0,0,0,0,0,0,0,0,0,0,0,0,0,0,0,0,0,0,0,0,0,0,0,0,0,0,0,0,0,0,0,0,0,0,0,0,0,0,0,0,0,0,0,0,0,0,0,0,0,0,0,0,0,0,0,0,0,0,0,0,0,0,0,0,0,0,0,0,
0,0,0,0,0,0,0,0,0,0,0,0,0,0,0,0,0,0,0,0,0,0,0,0,0,0,0,0,0,0,0,0,0,0,0,0,0,0,0,0,0,0,0,0,0,0,0,0,0,0,0,0,0,0,0,0,0,0,0,0,0,0,0,0,0,0,0,0,0,0,0,0,0,0,0,
0,0,0,0,0,0,0,0,0,0,0,0,0,0,0,0,0,0,0,0,0,0,0,0,0,0,0,0,0,0,0,0,0,0,0,0,0,0,0,0,0,0,0,0,0,0,0,0,0,0,0,0,0,0,0,0,0,0,0,0,0,0,0,0,0,0,0,0,0,0,0,0,0,0,0,
0,0,0,0,0,0,0,0,0,0,0,0,0,0,0,0,0,0,0,0,0,0,0,0,0,0,0,0,0,0,0,0,0,0,0,0,0,0,0,0,0,0,0,0,0,0,0,0,0,0,0,0,0,0,0,0,0,0,0,0,0,0,0,0,0,0,0,0,0,0,0,0,0,0,0,
0,0,0,0,0,0,0,0,0,0,0,0,0,0,0,0,0,0,0,0,0,0,0,0,0,0,0,0,0,0,0,0,0,0,0,0,0,0,0,0,0,0,0,0,0,0,0,0,0,0,0,0,0,0,0,0,0,0,0,0,0,0,0,0,0,0,0,0,0,0,0,0,0,0,0,
0,0,0,0,0,0,0,0,0,0,0,0,0,0,0,0,0,0,0,0,0,0,0,0,0,0,0,0,0,0,0,0,0,0,0,0,0,0,0,0,0,0,0,0,0,0,0,0,0,0,0,0,0,0,0,0,0,0,0,0,0,0,0,0,0,0,0,0,0,0,0,0,0,0,0,
0,0,0,0,0,0,0,0,0,0,0,0,0,0,0,0,0,0,0,0,0,0,0,0,0,0,0,0,0,0,0,0,0,0,0,0,0,0,0,0,0,0,0,0,0,0,0,0,0,0,0,0,0,0,0,0,0,0,0,0,0,0,0,0,0,0,0,0,0,0,0,0,0,0,0,
0,0,0,0,0,0,0,0,0,0,0,0,0,0,0,0,0,0,0,0,0,0,0,0,0,0,0,0,0,0,0,0,0,0,0,0,0,0,0,0,0,0,0,0,0,0,0,0,0,0,0,0,0,0,0,0,0,0,0,0,0,0,0,0,0,0,0,0,0,0,0,0,0,0,0,
0,0,0,0,0,0,0,0,0,0,0,0,0,0,0,0,0,0,0,0,0,0,0,0,0,0,0,0,0,0,0,0,0,0,0,0,0,0,0,0,0,0,0,0,0,0,0,0,0,0,0,0,0,0,0,0,0,0,0,0,0,0,0,0,0,0,0,0,0,0,0,0,0,0,0,
0,0,0,0,0,0,0,0,0,0,0,0,0,0,0,0,0,0,0,0,0,0,0,0,0,0,0,0,0,0,0,0,0,0,0,0,0,0,0,0,0,0,0,0,0,0,0,0,0,0,0,0,0,0,0,0,0,0,0,0,0,0,0,0,0,0,0,0,0,0,0,0,0,0,0,
0,0,0,0,0,0,0,0,0,0,0,0,0,0,0,0,0,0,0,0,0,0,0,0,0,0,0,0,0,0,0,0,0,0,0,0,0,0,0,0,0,0,0,0,0,0,0,0,0,0,0,0,0,0,0,0,0,0,0,0,0,0,0,0,0,0,0,0,0,0,0,0,0,0,0,
0,0,0,0,0,0,0,0,0,0,0,0,0,0,0,0,0,0,0,0,0,0,0,0,0,0,0,0,0,0,0,0,0,0,0,0,0,0,0,0,0,0,0,0,0,0,0,0,0,0,0,0,0,0,0,0,0,0,0,0,0,0,0,0,0,0,0,0,0,0,0,0,0,0,0,
0,0,0,0,0,0,0,0,0,0,0,0,0,0,0,0,0,0,0,0,0,0,0,0,0,0,0,0,0,0,0,0,0,0,0,0,0,0,0,0,0,0,0,0,0,0,0,0,0,0,0,0,0,0,0,0,0,0,0,0,0,0,0,0,0,0,0,0,0,0,0,0,0,0,0,
0,0,0,0,0,0,0,0,0,0,0,0,0,0,0,0,0,0,0,0,0,0,0,0,0,0,0,0,0,0,0,0,0,0,0,0,0,0,0,0,0,0,0,0,0,0,0,0,0,0,0,0,0,0,0,0,0,0,0,0,0,0,0,0,0,0,0,0,0,0,0,0,0,0,0,
0,0,0,0,0,0,0,0,0,0,0,0,0,0,0,0,0,0,0,0,0,0,0,0,0,0,0,0,0,0,0,0,0,0,0,0,0,0,0,0,0,0,0,0,0,0,0,0,0,0,0,0,0,0,0,0,0,0,0,0,0,0,0,0,0,0,0,0,0,0,0,0,0,0,0,
0,0,0,0,0,0,0,0,0,0,0,0,0,0,0,0,0,0,0,0,0,0,0,0,0,0,0,0,0,0,0,0,0,0,0,0,0,0,0,0,0,0,0,0,0,0,0,0,0,0,0,0,0,0,0,0,0,0,0,0,0,0,0,0,0,0,0,0,0,0,0,0,0,0,0,
0,0,0,0,0,0,0,0,0,0,0,0,0,0,0,0,0,0,0,0,0,0,0,0,0,0,0,0,0,0,0,0,0,0,0,0,0,0,0,0,0,0,0,0,0,0,0,0,0,0,0,0,0,0,0,0,0,0,0,0,0,0,0,0,0,0,0,0,0,0,0,0,0,0,0,
0,0,0,0,0,0,0,0,0,0,0,0,0,0,0,0,0,0,0,0,0,0,0,0,0,0,0,0,0,0,0,0,0,0,0,0,0,0,0,0,0,0,0,0,0,0,0,0,0,0,0,0,0,0,0,0,0,0,0,0,0,0,0,0,0,0,0,0,0,0,0,0,0,0,0,
0,0,0,0,0,0,0,0,0,0,0,0,0,0,0,0,0,0,0,0,0,0,0,0,0,0,0,0,0,0,0,0,0,0,0,0,0,0,0,0,0,0,0,0,0,0,0,0,0,0,0,0,0,0,0,0,0,0,0,0,0,0,0,0,0,0,0,0,0,0,0,0,0,0,0,
0,0,0,0,0,0,0,0,0,0,0,0,0,0,0,0,0,0,0,0,0,0,0,0,0,0,0,0,0,0,0,0,0,0,0,0,0,0,0,0,0,0,0,0,0,0,0,0,0,0,0,0,0,0,0,0,0,0,0,0,0,0,0,0,0,0,0,0,0,0,0,0,0,0,0,
0,0,0,0,0,0,0,0,0,0,0,0,0,0,0,0,0,0,0,0,0,0,0,0,0,0,0,0,0,0,0,0,0,0,0,0,0,0,0,0,0,0,0,0,0,0,0,0,0,0,0,0,0,0,0,0,0,0,0,0,0,0,0,0,0,0,0,0,0,0,0,0,0,0,0,
0,0,0,0,0,0,0,0,0,0,0,0,0,0,0,0,0,0,0,0,0,0,0,0,0,0,0,0,0,0,0,0,0,0,0,0,0,0,0,0,0,0,0,0,0,0,0,0,0,0,0,0,0,0,0,0,0,0,0,0,0,0,0,0,0,0,0,0,0,0,0,0,0,0,0,
0,0,0,0,0,0,0,0,0,0,0,0,0,0,0,0,0,0,0,0,0,0,0,0,0,0,0,0,0,0,0,0,0,0,0,0,0,0,0,0,0,0,0,0,0,0,0,0,0,0,0,0,0,0,0,0,0,0,0,0,0,0,0,0,0,0,0,0,0,0,0,0,0,0,0,
0,0,0,0,0,0,0,0,0,0,0,0,0,0,0,0,0,0,0,0,0,0,0,0,0,0,0,0,0,0,0,0,0,0,0,0,0,0,0,0,0,0,0,0,0,0,0,0,0,0,0,0,0,0,0,0,0,0,0,0,0,0,0,0,0,0,0,0,0,0,0,0,0,0,0,
0,0,0,0,0,0,0,0,0,0,0,0,0,0,0,0,0,0,0,0,0,0,0,0,0,0,0,0,0,0,0,0,0,0,0,0,0,0,0,0,0,0,0,0,0,0,0,0,0,0,0,0,0,0,0,0,0,0,0,0,0,0,0,0,0,0,0,0,0,0,0,0,0,0,0,
0,0,0,0,0,0,0,0,0,0,0,0,0,0,0,0,0,0,0,0,0,0,0,0,0,0,0,0,0,0,0,0,0,0,0,0,0,0,0,0,0,0,0,0,0,0,0,0,0,0,0,0,0,0,0,0,0,0,0,0,0,0,0,0,0,0,0,0,0,0,0,0,0,0,0,
0,0,0,0,0,0,0,0,0,0,0,0,0,0,0,0,0,0,0,0,0,0,0,0,0,0,0,0,0,0,0,0,0,0,0,0,0,0,0,0,0,0,0,0,0,0,0,0,0,0,0,0,0,0,0,0,0,0,0,0,0,0,0,0,0,0,0,0,0,0,0,0,0,0,0,
0,0,0,0,0,0,0,0,0,0,0,0,0,0,0,0,0,0,0,0,0,0,0,0,0,0,0,0,0,0,0,0,0,0,0,0,0,0,0,0,0,0,0,0,0,0,0,0,0,0,0,0,0,0,0,0,0,0,0,0,0,0,0,0,0,0,0,0,0,0,0,0,0,0,0,
0,0,0,0,0,0,0,0,0,0,0,0,0,0,0,0,0,0,0,0,0,0,0,0,0,0,0,0,0,0,0,0,0,0,0,0,0,0,0,0,0,0,0,0,0,0,0,0,0,0,0,0,0,0,0,0,0,0,0,0,0,0,0,0,0,0,0,0,0,0,0,0,0,0,0,
0,0,0,0,0,0,0,0,0,0,0,0,0,0,0,0,0,0,0,0,0,0,0,0,0,0,0,0,0,0,0,0,0,0,0,0,0,0,0,0,0,0,0,0,0,0,0,0,0,0,0,0,0,0,0,0,0,0,0,0,0,0,0,0,0,0,0,0,0,0,0,0,0,0,0,
0,0,0,0,0,0,0,0,0,0,0,0,0,0,0,0,0,0,0,0,0,0,0,0,0,0,0,0,0,0,0,0,0,0,0,0,0,0,0,0,0,0,0,0,0,0,0,0,0,0,0,0,0,0,0,0,0,0,0,0,0,0,0,0,0,0,0,0,0,0,0,0,0,0,0,
0,0,0,0,0,0,0,0,0,0,0,0,0,0,0,0,0,0,0,0,0,0,0,0,0,0,0,0,0,0,0,0,0,0,0,0,0,0,0,0,0,0,0,0,0,0,0,0,0,0,0,0,0,0,0,0,0,0,0,0,0,0,0,0,0,0,0,0,0,0,0,0,0,0,0,
0,0,0,0,0,0,0,0,0,0,0,0,0,0,0,0,0,0,0,0,0,0,0,0,0,0,0,0,0,0,0,0,0,0,0,0,0,0,0,0,0,0,0,0,0,0,0,0,0,0,0,0,0,0,0,0,0,0,0,0,0,0,0,0,0,0,0,0,0,0,0,0,0,0,0,
0,0,0,0,0,0,0,0,0,0,0,0,0,0,0,0,0,0,0,0,0,0,0,0,0,0,0,0,0,0,0,0,53,159,29,30,0,0,0,0,0,0,0,0,0,0,0,0,0,0,0,0,0,0,0,0,0,0,0,0,0,0,0,0,0,0,0,0,0,0,0,0,0,0,0,
0,0,0,0,0,0,0,0,0,0,0,0,0,0,0,0,0,0,0,0,0,0,0,0,0,0,0,53,159,29,211,160,54,55,80,56,30,0,0,0,0,0,0,0,0,0,28,160,57,0,0,0,0,0,0,0,0,0,0,0,0,0,0,0,0,0,0,0,0,0,0,0,0,0,0,
0,0,0,0,0,0,0,0,0,0,0,0,0,0,0,0,0,0,0,0,0,0,0,0,0,0,0,157,107,80,107,107,55,55,80,108,134,0,0,0,0,0,0,0,0,0,79,107,158,0,0,0,0,0,0,0,0,0,0,0,0,0,0,0,0,0,0,0,0,0,0,0,0,0,0,
0,0,0,0,0,0,0,0,0,0,0,0,0,0,0,0,0,0,0,0,0,0,0,0,0,0,0,183,81,81,55,55,82,81,55,83,0,0,0,0,53,211,159,30,0,0,132,186,134,0,0,0,0,0,0,0,0,0,0,0,0,0,0,0,0,0,0,0,0,0,0,0,0,0,0,
0,0,0,0,0,0,0,0,0,0,0,0,0,0,0,0,0,0,0,0,0,0,0,0,0,0,0,105,133,133,106,81,136,137,138,158,0,0,0,53,54,81,35,36,37,0,0,0,0,0,0,0,0,0,0,0,0,0,0,0,0,0,0,0,0,0,0,0,0,0,0,0,0,0,0,
0,0,0,0,0,0,0,0,0,0,0,0,0,0,0,0,0,0,0,0,0,0,0,0,0,0,0,0,0,0,132,186,162,163,164,109,0,0,0,79,81,81,61,62,63,0,0,0,0,0,0,0,0,0,0,0,0,0,0,0,0,0,0,0,0,0,0,0,0,0,0,0,0,0,0,
0,0,0,0,0,0,0,0,0,0,0,0,0,0,0,0,0,0,0,0,0,0,0,0,0,0,0,0,0,0,0,0,188,189,190,0,0,0,0,209,107,107,87,88,89,0,0,0,0,0,0,0,0,0,0,0,0,0,0,0,0,0,0,0,0,0,0,0,0,0,0,0,0,0,0,
0,0,0,0,0,0,0,0,0,0,0,0,0,0,0,0,0,0,0,0,0,0,0,0,0,0,0,0,0,0,0,0,0,0,0,0,0,0,28,54,81,55,108,109,0,0,0,0,0,0,0,0,0,0,0,0,0,0,0,0,0,0,0,0,0,0,0,0,0,0,0,0,0,0,0,
0,0,0,0,0,0,0,0,0,0,0,0,0,0,0,0,0,0,0,0,0,0,0,0,0,0,0,0,0,0,0,0,0,0,0,0,0,0,209,82,81,80,184,0,0,0,0,0,0,0,0,0,0,0,0,0,0,0,0,0,0,0,0,0,0,0,0,0,0,0,0,0,0,0,0,
0,0,0,0,0,0,0,0,0,0,0,0,0,0,0,0,0,0,0,0,0,0,0,0,0,0,0,0,0,0,0,0,0,0,0,0,0,0,132,106,108,186,134,0,0,0,0,0,0,0,0,0,0,0,0,0,0,0,0,0,0,0,0,0,0,0,0,0,0,0,0,0,0,0,0,
0,0,0,0,0,0,0,0,0,0,0,0,0,0,0,0,0,0,0,0,0,0,0,0,0,0,0,0,0,0,0,0,0,0,0,0,0,0,0,132,109,0,0,0,0,0,0,0,0,0,0,0,0,0,0,0,0,0,0,0,0,0,0,0,0,0,0,0,0,0,0,0,0,0,0,
0,0,0,0,0,0,0,0,0,0,0,0,0,0,0,0,0,0,0,0,0,0,0,0,0,0,0,0,0,0,0,0,0,0,0,0,0,0,0,0,0,0,0,140,140,28,211,29,30,0,0,0,0,0,0,0,0,0,0,0,0,0,0,0,0,0,0,0,0,0,0,0,0,0,0,
0,0,0,0,0,0,0,0,0,0,0,0,0,0,0,0,0,0,0,0,0,0,0,0,0,0,0,0,0,0,0,0,0,0,0,0,0,0,0,0,0,0,0,140,140,79,107,107,56,57,0,0,0,0,0,0,0,0,0,0,0,0,0,0,0,0,0,0,0,0,0,0,0,0,0,
0,0,0,0,0,0,0,0,0,0,0,0,0,0,0,0,0,0,0,0,0,0,0,0,0,0,0,0,0,0,0,0,0,0,0,0,0,0,0,0,0,0,0,140,32,33,34,80,80,184,0,0,0,0,0,0,0,0,0,0,0,0,0,0,0,0,0,0,0,0,0,0,0,0,0,
0,0,0,0,0,0,0,0,0,0,0,0,0,0,0,0,0,0,0,0,0,0,0,0,0,0,0,0,0,0,0,0,0,0,0,0,0,0,0,0,0,0,0,140,58,59,60,80,81,56,29,29,29,29,30,0,0,0,0,0,0,0,0,0,0,0,0,0,0,0,0,0,0,0,0,
0,0,0,0,0,0,0,0,0,0,0,0,0,0,0,0,0,0,0,0,0,0,0,0,0,0,0,0,0,0,0,0,0,0,0,0,0,0,0,0,0,0,0,140,84,85,86,107,55,55,55,107,55,82,56,29,30,0,0,0,0,0,0,0,0,0,0,0,0,0,0,0,0,0,0,
0,0,0,0,0,0,0,0,0,0,0,0,0,0,0,0,0,0,0,0,0,0,0,0,0,0,0,0,0,0,0,0,0,0,0,0,0,0,0,0,0,0,0,140,140,105,106,55,81,107,107,81,55,80,82,107,56,29,30,0,0,0,0,0,0,0,0,0,0,0,0,0,0,0,0,
0,0,0,0,0,0,0,0,0,0,0,0,0,0,0,0,0,0,0,0,0,0,0,0,0,0,0,0,0,0,0,0,0,0,0,0,0,0,0,0,0,0,0,140,140,140,132,106,55,80,55,80,81,55,80,82,82,55,56,29,30,0,0,0,0,0,0,0,0,0,0,0,0,0,0,
0,0,0,0,0,0,0,0,0,0,0,0,0,0,0,0,0,0,0,0,0,0,0,0,0,0,0,0,0,0,0,0,0,0,0,0,0,0,0,0,0,0,0,0,0,0,0,132,106,80,55,80,107,107,55,81,55,107,81,35,36,37,38,0,0,0,0,0,0,0,0,0,0,0,0,
0,0,0,0,0,0,0,0,0,0,0,0,0,0,0,0,0,0,0,0,0,0,0,0,0,0,0,0,0,0,0,0,0,0,0,0,0,0,0,0,0,0,0,0,0,0,0,0,132,106,55,55,81,81,80,80,82,82,55,61,62,63,64,0,0,0,0,0,0,0,0,0,0,0,0,
0,0,0,0,0,0,0,0,0,0,0,0,0,0,0,0,0,0,0,0,0,0,0,0,0,0,0,0,0,0,0,0,0,0,0,0,0,0,0,0,0,0,0,0,0,0,0,0,0,132,106,81,107,82,82,81,81,80,82,87,88,89,90,0,0,0,0,0,0,0,0,0,0,0,0,
0,0,0,0,0,0,0,0,0,0,0,0,0,0,0,0,0,0,0,0,0,0,0,0,0,0,0,0,0,0,0,0,0,0,0,0,0,0,0,0,0,0,0,0,0,0,0,0,0,0,105,133,106,81,82,80,82,81,108,133,134,0,0,0,0,0,0,0,0,0,0,0,0,0,0,
0,0,0,0,0,0,0,0,0,0,0,0,0,0,0,0,0,0,0,0,0,0,0,0,0,0,0,0,0,0,0,0,0,0,0,0,0,0,0,0,0,0,0,0,0,0,0,0,0,0,0,0,79,80,82,82,108,133,134,0,0,0,0,0,0,0,0,0,0,0,0,0,0,0,0,
0,0,0,0,0,0,0,0,0,0,0,0,0,0,0,0,0,0,0,0,0,0,0,0,0,0,0,0,0,0,0,0,0,0,0,0,0,0,0,0,0,0,0,0,0,0,0,0,0,0,0,0,79,107,108,133,134,0,0,0,0,0,0,0,0,0,0,0,0,0,0,0,0,0,0,
0,0,0,0,0,0,0,0,0,0,0,0,0,0,0,0,0,0,0,0,0,0,0,0,0,0,0,0,0,0,0,0,0,0,0,0,0,0,0,0,0,0,0,0,0,0,0,0,0,0,0,0,105,133,134,0,0,0,0,0,0,0,0,0,0,0,0,0,0,0,0,0,0,0,0,
0,0,0,0,0,0,0,0,0,0,0,0,0,0,0,0,0,0,0,0,0,0,0,0,0,0,0,0,0,0,0,0,0,0,0,0,0,0,0,0,0,0,0,0,0,0,0,0,0,0,0,0,0,0,0,0,0,0,0,0,0,0,0,0,0,0,0,0,0,0,0,0,0,0,0,
0,0,0,0,0,0,0,0,0,0,0,0,0,0,0,0,0,0,0,0,0,0,0,0,0,0,0,0,0,0,0,0,0,0,0,0,0,0,0,0,0,0,0,0,0,0,0,0,0,0,0,0,0,0,0,0,0,0,0,0,0,0,0,0,0,0,0,0,0,0,0,0,0,0,0,
0,0,0,0,0,0,0,0,0,0,0,0,0,0,0,0,0,0,0,0,0,0,0,0,0,0,0,0,0,0,0,0,0,0,0,0,0,0,0,0,0,0,0,0,0,0,0,0,0,0,0,0,0,0,0,0,0,0,0,0,0,0,0,0,0,0,0,0,0,0,0,0,0,0,0,
0,0,0,0,0,0,0,0,0,0,0,0,0,0,0,0,0,0,0,0,0,0,0,0,0,0,0,0,0,0,0,0,0,0,0,0,0,0,0,0,0,0,0,0,0,0,0,0,0,0,0,0,0,0,0,0,0,0,0,0,0,0,0,0,0,0,0,0,0,0,0,0,0,0,0,
0,0,0,0,0,0,0,0,0,0,0,0,0,0,0,0,0,0,0,0,0,0,0,0,0,0,0,0,0,0,0,0,0,0,0,0,0,0,0,0,0,0,0,0,0,0,0,0,0,0,0,0,0,0,0,0,0,0,0,0,0,0,0,0,0,0,0,0,0,0,0,0,0,0,0,
0,0,0,0,0,0,0,0,0,0,0,0,0,0,0,0,0,0,0,0,0,0,0,0,0,0,0,0,0,0,0,0,0,0,0,0,0,0,0,0,0,0,0,0,0,0,0,0,0,0,0,0,0,0,0,0,0,0,0,0,0,0,0,0,0,0,0,0,0,0,0,0,0,0,0,
0,0,0,0,0,0,0,0,0,0,0,0,0,0,0,0,0,0,0,0,0,0,0,0,0,0,0,0,0,0,0,0,0,0,0,0,0,0,0,0,0,0,0,0,0,0,0,0,0,0,0,0,0,0,0,0,0,0,0,0,0,0,0,0,0,0,0,0,0,0,0,0,0,0,0,
0,0,0,0,0,0,0,0,0,0,0,0,0,0,0,0,0,0,0,0,0,0,0,0,0,0,0,0,0,0,0,0,0,0,0,0,0,0,0,0,0,0,0,0,0,0,0,0,0,0,0,0,0,0,0,0,0,0,0,0,0,0,0,0,0,0,0,0,0,0,0,0,0,0,0,
0,0,0,0,0,0,0,0,0,0,0,0,0,0,0,0,0,0,0,0,0,0,0,0,0,0,0,0,0,0,0,0,0,0,0,0,0,0,0,0,0,0,0,0,0,0,0,0,0,0,0,0,0,0,0,0,0,0,0,0,0,0,0,0,0,0,0,0,0,0,0,0,0,0,0,
0,0,0,0,0,0,0,0,0,0,0,0,0,0,0,0,0,0,0,0,0,0,0,0,0,0,0,0,0,0,0,0,0,0,0,0,0,0,0,0,0,0,0,0,0,0,0,0,0,0,0,0,0,0,0,0,0,0,0,0,0,0,0,0,0,0,0,0,0,0,0,0,0,0,0,
0,0,0,0,0,0,0,0,0,0,0,0,0,0,0,0,0,0,0,0,0,0,0,0,0,0,0,0,0,0,0,0,0,0,0,0,0,0,0,0,0,0,0,0,0,0,0,0,0,0,0,0,0,0,0,0,0,0,0,0,0,0,0,0,0,0,0,0,0,0,0,0,0,0,0,
0,0,0,0,0,0,0,0,0,0,0,0,0,0,0,0,0,0,0,0,0,0,0,0,0,0,0,0,0,0,0,0,0,0,0,0,0,0,0,0,0,0,0,0,0,0,0,0,0,0,0,0,0,0,0,0,0,0,0,0,0,0,0,0,0,0,0,0,0,0,0,0,0,0,0,
0,0,0,0,0,0,0,0,0,0,0,0,0,0,0,0,0,0,0,0,0,0,0,0,0,0,0,0,0,0,0,0,0,0,0,0,0,0,0,0,0,0,0,0,0,0,0,0,0,0,0,0,0,0,0,0,0,0,0,0,0,0,0,0,0,0,0,0,0,0,0,0,0,0,0,
0,0,0,0,0,0,0,0,0,0,0,0,0,0,0,0,0,0,0,0,0,0,0,0,0,0,0,0,0,0,0,0,0,0,0,0,0,0,0,0,0,0,0,0,0,0,0,0,0,0,0,0,0,0,0,0,0,0,0,0,0,0,0,0,0,0,0,0,0,0,0,0,0,0,0,
0,0,0,0,0,0,0,0,0,0,0,0,0,0,0,0,0,0,0,0,0,0,0,0,0,0,0,0,0,0,0,0,0,0,0,0,0,0,0,0,0,0,0,0,0,0,0,0,0,0,0,0,0,0,0,0,0,0,0,0,0,0,0,0,0,0,0,0,0,0,0,0,0,0,0,
0,0,0,0,0,0,0,0,0,0,0,0,0,0,0,0,0,0,0,0,0,0,0,0,0,0,0,0,0,0,0,0,0,0,0,0,0,0,0,0,0,0,0,0,0,0,0,0,0,0,0,0,0,0,0,0,0,0,0,0,0,0,0,0,0,0,0,0,0,0,0,0,0,0,0,
0,0,0,0,0,0,0,0,0,0,0,0,0,0,0,0,0,0,0,0,0,0,0,0,0,0,0,0,0,0,0,0,0,0,0,0,0,0,0,0,0,0,0,0,0,0,0,0,0,0,0,0,0,0,0,0,0,0,0,0,0,0,0,0,0,0,0,0,0,0,0,0,0,0,0
</data>
 </layer>
 <layer id="4" name="TRONCO ARVORE 1" width="75" height="75" visible="0" locked="1">
  <data encoding="csv">
0,0,0,0,0,0,0,0,0,0,0,0,0,0,0,0,0,0,0,0,0,0,0,0,0,0,0,0,0,0,0,0,0,0,0,0,0,0,0,0,0,0,0,0,0,0,0,0,0,0,0,0,0,0,0,0,0,0,0,0,0,0,0,0,0,0,0,0,0,0,0,0,0,0,0,
0,0,0,0,0,0,0,0,0,0,0,0,0,0,0,0,0,0,0,269,141,141,141,0,0,0,0,0,0,0,0,0,0,0,0,0,0,0,0,0,0,0,0,0,0,0,0,0,0,0,0,0,0,0,0,0,0,0,0,0,0,0,0,0,0,0,0,0,0,0,0,0,0,0,0,
0,0,0,0,0,0,0,0,0,0,0,0,231,0,0,0,0,0,0,141,141,141,141,0,0,0,0,0,0,0,0,0,0,0,0,358,253,248,356,0,0,0,0,0,0,0,0,0,0,0,0,0,397,398,0,0,0,0,0,0,0,0,0,0,0,0,0,0,0,0,0,0,0,0,0,
0,0,0,0,0,0,0,0,0,0,0,0,0,0,0,0,0,0,0,141,141,141,141,0,0,0,0,0,0,449,450,451,0,0,0,305,0,0,141,141,141,141,0,0,0,397,398,0,0,0,0,0,423,424,0,0,0,0,0,0,0,0,0,0,0,0,0,0,0,0,0,0,397,398,0,
0,0,0,0,0,0,0,0,0,0,0,0,0,0,0,0,0,0,0,141,141,141,141,0,0,0,0,0,0,475,476,477,0,0,0,0,0,0,141,141,141,141,0,0,0,423,424,0,0,0,0,0,0,0,0,0,0,0,0,0,0,0,0,0,0,0,0,0,0,0,0,0,423,424,0,
0,0,0,0,0,0,0,0,334,389,386,0,0,0,0,0,0,0,0,141,141,141,141,0,0,0,0,0,0,0,0,0,0,0,0,0,0,0,141,141,141,141,0,0,0,0,0,0,0,0,0,0,0,0,0,0,0,0,0,0,0,269,141,141,272,0,0,410,411,0,0,0,0,0,0,
0,0,0,0,0,225,331,0,0,0,0,0,0,0,0,0,0,0,0,399,400,401,402,0,0,0,0,0,0,0,0,0,0,0,0,0,0,0,141,141,141,141,0,0,0,0,0,0,0,0,0,449,450,451,0,0,0,0,0,0,0,141,141,141,141,0,0,436,437,0,0,0,0,0,0,
0,0,0,0,276,309,450,451,0,0,0,0,0,0,0,0,0,0,0,425,426,427,428,0,0,0,0,0,0,0,254,0,0,0,0,0,0,0,141,141,141,141,0,0,141,141,141,272,0,0,0,475,476,477,0,0,0,0,0,0,0,141,141,141,141,0,0,0,0,0,0,0,0,0,0,
0,0,0,0,0,475,476,477,0,0,0,0,0,0,0,0,0,0,0,0,0,0,0,0,0,0,0,0,0,0,0,0,0,0,449,450,451,0,399,400,401,402,0,0,141,141,141,141,0,0,0,0,0,0,0,0,0,0,0,0,0,141,141,141,141,0,412,269,141,141,272,0,0,0,0,
0,0,0,0,0,0,0,0,0,0,0,0,0,0,0,0,0,0,0,0,0,0,0,0,0,0,0,0,0,333,0,0,0,334,475,476,477,0,425,426,427,428,0,0,141,141,141,141,0,0,0,0,0,0,0,0,0,0,0,0,141,141,141,141,141,0,0,141,141,141,141,0,0,0,0,
0,0,0,0,0,0,0,0,0,0,0,0,0,0,0,0,0,0,0,0,0,0,0,449,449,450,451,0,0,309,0,0,0,0,0,0,0,0,0,0,0,0,0,0,141,141,141,141,0,0,308,0,0,0,0,0,0,0,0,0,0,399,400,401,402,0,0,141,141,141,141,0,0,0,0,
0,0,0,0,0,0,0,0,0,0,0,0,0,0,0,0,0,0,0,0,0,0,0,475,475,476,477,0,0,0,0,0,309,257,0,0,0,0,0,0,0,0,0,0,141,141,141,141,0,0,306,0,0,0,0,0,0,0,0,0,0,425,426,427,428,0,0,141,141,141,141,0,0,0,0,
0,0,0,0,0,0,0,0,0,0,0,0,0,413,0,0,0,0,0,0,0,0,0,0,0,0,0,0,224,0,0,0,361,0,0,0,0,0,0,0,0,0,0,338,399,400,401,402,0,0,283,0,0,0,0,0,0,0,0,0,0,438,439,0,0,0,306,141,141,141,141,0,0,0,0,
0,0,0,0,397,398,0,0,0,0,0,0,0,0,0,0,0,0,0,0,0,0,0,0,0,0,0,0,233,0,0,397,386,0,0,0,0,0,0,0,0,0,0,277,425,426,427,428,0,0,251,0,0,0,0,0,0,0,0,269,141,141,141,0,0,413,387,399,400,401,413,0,0,0,0,
0,0,0,0,423,424,0,0,0,0,0,0,0,0,0,0,0,0,0,0,0,0,0,0,0,0,356,0,0,0,0,255,276,0,0,0,0,0,0,0,0,0,0,258,0,0,0,0,0,0,0,0,0,0,0,0,0,0,0,141,141,141,141,0,0,0,0,425,426,427,428,0,0,0,0,
0,0,0,0,0,0,0,0,0,0,0,0,0,0,0,0,0,0,0,0,0,0,0,0,0,0,0,0,0,0,0,0,0,0,0,0,0,0,0,0,0,0,0,256,0,0,397,398,0,0,0,0,0,0,0,0,0,0,0,141,141,141,141,0,0,0,0,0,0,311,360,412,0,0,0,
0,0,0,0,0,0,0,0,0,0,0,0,0,0,0,0,0,0,0,397,398,0,0,0,449,450,451,0,0,228,0,0,0,0,0,410,411,0,0,0,0,0,247,256,0,0,423,424,0,0,0,0,0,0,0,0,0,0,0,141,141,141,141,0,0,0,0,0,0,248,0,0,0,0,0,
0,449,450,451,0,0,0,0,0,0,0,0,0,0,141,141,141,141,0,423,424,0,0,0,475,476,477,0,0,0,0,0,0,0,0,436,437,0,0,0,0,0,226,0,0,0,0,0,0,0,0,0,0,0,0,0,0,0,0,141,141,141,141,0,0,0,0,0,0,0,410,411,0,0,0,
0,475,476,477,0,0,0,0,0,0,0,0,0,0,141,141,141,141,0,0,0,0,0,0,0,0,0,0,0,0,0,0,0,0,0,0,0,0,0,0,276,388,0,0,0,255,254,0,0,0,0,0,0,0,0,410,411,0,0,399,400,401,402,332,284,438,439,0,0,0,436,437,0,0,0,
0,0,0,0,0,0,0,0,0,0,413,0,0,0,141,141,141,141,0,0,0,0,0,0,0,0,0,0,0,336,0,0,0,0,0,0,0,0,0,0,0,0,0,0,362,330,0,0,0,0,0,0,0,0,0,436,437,0,0,425,426,427,428,302,0,0,269,141,141,272,0,0,0,0,0,
0,0,0,0,335,0,0,0,0,0,0,0,0,0,141,141,141,141,0,0,0,0,0,0,0,0,0,278,0,359,353,0,0,0,0,0,0,0,0,0,0,0,0,0,381,0,0,0,0,0,0,0,0,0,0,0,0,0,0,278,359,0,0,0,0,0,141,141,141,141,0,0,0,0,0,
0,0,0,0,299,0,0,0,0,0,0,0,0,0,141,141,141,141,0,0,449,450,451,0,0,224,307,0,0,0,0,0,0,0,0,0,0,0,0,0,0,0,0,0,0,0,0,0,0,0,0,0,0,0,0,141,141,141,141,278,0,0,0,0,0,0,141,141,141,141,413,0,0,0,0,
0,0,0,0,252,0,0,0,0,0,0,0,0,0,399,400,401,402,0,0,475,476,477,0,0,0,353,0,0,0,0,0,0,0,0,0,0,0,0,0,0,0,0,0,0,0,0,0,0,0,0,0,0,0,0,141,141,141,141,0,0,0,0,0,0,276,141,141,141,141,0,0,0,0,0,
0,0,0,0,0,0,0,0,0,0,0,0,0,0,425,426,427,428,0,0,0,0,0,0,0,0,0,0,0,0,0,0,0,0,0,0,0,438,439,0,0,0,0,0,0,0,0,0,0,0,0,0,0,0,413,141,141,141,141,0,0,0,141,141,141,272,141,141,141,141,0,0,0,0,0,
0,0,0,274,0,0,0,0,0,0,0,0,0,0,0,0,0,0,0,0,0,0,0,0,0,0,0,0,0,0,449,450,451,0,0,0,0,0,0,0,0,0,0,0,141,141,141,141,0,0,0,0,0,0,0,141,141,141,141,0,438,439,141,141,141,141,399,400,401,402,412,413,0,0,0,
0,0,0,338,0,0,0,0,0,0,0,0,0,0,0,0,0,0,0,0,0,0,0,0,0,0,0,0,0,0,475,476,477,0,0,0,0,0,0,0,0,0,0,0,141,141,141,141,0,0,0,0,0,412,141,141,141,141,141,0,0,0,141,141,141,141,425,426,427,428,0,0,0,0,0,
0,0,0,384,0,0,0,0,0,0,0,0,0,0,0,0,0,0,0,0,0,0,0,0,0,0,0,0,0,0,0,0,0,0,0,0,0,0,0,0,0,0,0,0,141,141,141,141,0,141,141,0,0,0,0,399,400,401,402,0,0,0,141,141,141,141,0,0,0,0,0,0,0,0,0,
0,0,0,0,0,0,0,0,0,0,0,0,413,0,0,0,0,0,0,0,0,0,0,0,0,0,0,0,0,412,0,0,0,0,0,0,0,0,410,411,0,0,0,0,141,141,141,141,141,141,141,141,0,0,0,425,426,427,428,0,0,0,141,141,141,141,0,0,0,0,0,0,0,0,0,
0,0,0,234,0,0,0,0,0,0,0,0,0,0,0,0,0,0,0,0,0,0,0,0,0,0,0,0,0,0,0,0,0,0,0,0,0,0,436,437,0,0,0,141,141,141,141,141,141,141,141,141,0,0,0,0,0,0,0,0,332,0,399,400,401,402,0,0,0,0,0,0,0,0,0,
0,0,0,0,0,0,0,0,0,0,0,0,0,0,0,0,0,0,0,0,0,0,0,0,0,0,0,0,0,0,0,0,0,0,0,0,0,0,0,0,0,0,0,0,399,400,401,402,141,141,141,141,0,0,0,0,0,0,0,0,0,0,425,426,427,428,0,0,0,0,0,0,0,0,0,
0,0,0,0,0,0,0,0,0,0,0,0,410,411,0,0,0,0,0,0,0,0,0,0,0,0,413,0,0,0,0,0,0,0,0,141,141,141,141,0,0,0,0,0,425,426,427,141,141,141,141,141,0,0,0,0,0,0,0,0,0,0,0,0,0,0,0,0,0,0,0,0,0,0,0,
0,0,0,0,0,0,0,0,0,0,0,0,436,437,0,0,0,0,0,0,0,0,0,0,141,141,141,141,0,0,0,0,0,0,0,141,141,141,141,0,0,0,0,0,0,0,0,0,399,400,401,402,0,0,0,0,0,0,0,0,0,0,0,0,0,0,0,0,0,0,0,0,0,0,0,
0,0,0,0,0,0,0,0,0,0,0,0,0,0,0,0,0,141,141,141,141,0,0,0,141,141,141,141,0,0,0,0,0,0,0,141,141,141,141,0,0,397,398,0,0,0,0,0,425,426,269,474,474,0,0,0,0,0,0,0,0,0,0,0,0,0,0,0,0,0,0,0,0,0,0,
0,0,0,0,0,0,0,0,0,0,0,0,0,0,0,0,0,141,141,141,141,0,0,0,141,141,141,141,0,0,0,0,0,0,0,141,141,141,141,0,0,423,424,0,0,0,0,0,0,0,474,474,474,474,0,0,303,0,0,0,0,0,0,0,0,0,0,0,0,248,232,0,0,0,0,
0,0,0,449,450,451,0,0,0,0,0,0,0,438,439,0,0,141,141,141,141,0,0,0,141,141,141,141,0,0,0,0,0,0,141,141,141,141,141,0,0,0,0,0,0,0,0,0,0,0,474,474,474,474,0,0,225,301,280,0,0,0,0,0,0,0,0,0,326,0,275,0,0,0,0,
0,0,0,475,476,477,0,0,0,0,0,0,0,0,0,0,0,141,141,141,141,0,0,0,141,141,141,141,0,0,0,0,0,0,0,399,400,401,402,0,0,0,0,0,0,397,398,0,0,0,474,474,474,474,0,0,0,0,226,352,253,281,0,0,0,0,0,0,258,0,0,249,384,0,0,
0,0,0,397,398,0,0,0,0,389,0,0,0,0,0,0,0,141,141,141,141,0,0,223,399,400,401,402,0,0,0,0,0,0,0,425,426,427,428,0,0,0,0,0,0,423,424,0,0,0,474,474,474,474,0,0,0,0,0,0,0,378,0,0,0,0,0,0,255,0,0,281,306,0,0,
0,0,0,423,424,0,0,0,325,279,0,0,0,0,0,0,0,399,400,401,402,0,0,0,425,426,427,428,141,141,141,0,0,0,0,0,0,222,0,0,0,0,0,0,0,0,0,0,449,450,451,474,474,0,0,0,0,0,0,0,0,0,0,0,0,0,0,0,257,0,0,0,282,0,0,
0,0,0,0,0,0,0,358,358,0,0,0,0,0,0,0,0,425,426,427,428,0,0,0,377,0,273,141,141,141,141,0,0,0,0,0,0,0,0,0,0,0,0,0,0,0,0,0,475,476,477,474,474,0,0,0,0,0,0,0,0,449,450,451,0,0,0,0,0,0,0,0,333,0,0,
0,0,0,0,0,0,247,307,0,0,0,0,0,0,0,0,0,0,0,0,0,0,0,0,301,0,0,141,141,141,141,0,0,0,0,0,0,277,0,0,0,0,0,0,0,0,0,0,0,0,0,0,0,0,0,0,0,0,0,0,0,475,476,477,0,0,0,0,0,0,0,0,382,0,0,
0,0,0,0,0,333,358,0,0,0,0,0,0,0,0,0,0,0,0,0,0,0,0,0,0,0,0,141,141,141,141,0,0,0,354,0,0,0,0,0,0,0,0,0,0,0,329,0,0,0,0,0,0,0,0,0,0,0,0,0,0,0,0,0,0,0,0,0,0,0,0,0,329,0,0,
0,0,0,0,0,283,0,0,0,0,0,0,0,412,0,0,0,0,0,0,397,398,0,0,0,0,0,141,141,141,141,378,277,0,248,0,0,0,0,0,0,0,0,0,0,0,0,0,0,0,0,0,0,0,0,0,0,0,0,0,0,0,0,0,0,0,397,398,0,0,0,0,0,0,0,
0,0,0,0,0,0,0,0,0,0,0,0,0,0,0,0,0,0,0,0,423,424,299,0,0,0,0,399,400,401,402,0,379,0,274,0,0,0,0,0,0,0,0,0,0,0,0,0,0,0,0,0,0,0,0,0,0,0,0,269,141,141,141,0,0,0,423,424,0,0,0,0,227,0,0,
0,0,0,0,0,0,0,0,0,0,141,141,141,141,0,0,0,0,0,449,450,451,248,326,0,0,273,425,426,427,428,0,0,0,0,0,0,0,0,0,0,0,0,0,0,0,0,0,0,0,0,0,0,0,0,0,0,0,0,141,141,141,141,0,0,0,0,0,0,0,0,0,377,280,0,
0,0,0,0,0,0,0,0,0,0,141,141,141,141,0,0,0,0,0,475,476,477,0,269,141,141,272,0,0,0,0,0,0,0,0,0,0,0,0,0,0,0,0,351,0,0,0,0,0,0,0,0,0,0,0,0,0,0,0,141,141,141,141,0,0,0,0,0,0,0,0,0,0,0,0,
0,0,0,449,450,451,0,0,0,0,141,141,141,141,0,0,0,0,0,0,0,0,0,141,141,141,141,251,0,0,0,275,0,0,0,0,0,0,0,0,0,0,0,0,0,0,325,0,141,141,141,141,141,0,0,0,0,0,0,141,141,141,141,386,228,248,0,0,0,0,0,0,0,0,0,
0,0,0,475,476,477,0,0,0,0,141,141,141,141,0,0,0,0,0,0,0,0,0,141,141,141,141,0,0,0,0,0,0,0,0,0,247,0,0,0,0,0,221,0,0,0,225,0,141,141,141,141,141,0,0,0,0,0,0,141,141,141,141,387,274,0,0,0,0,0,0,0,0,0,0,
0,0,0,0,0,397,398,0,0,0,141,141,141,141,0,0,0,0,0,0,0,0,0,141,141,141,141,0,0,0,0,0,0,0,0,413,0,0,0,0,0,0,0,0,0,0,0,0,141,141,141,141,0,0,0,0,0,0,0,399,400,401,402,0,0,0,0,0,0,0,397,398,0,0,0,
0,0,0,0,0,423,424,0,0,0,399,400,401,402,0,0,0,0,225,306,309,248,305,141,141,141,141,0,0,0,0,0,0,0,0,0,0,412,0,0,0,0,0,0,0,0,0,0,141,141,141,141,0,0,0,0,0,0,0,425,426,427,428,0,0,0,0,0,0,0,423,424,0,0,0,
0,0,0,0,0,0,0,0,0,0,425,426,427,428,0,0,0,0,0,0,0,0,275,399,400,401,402,0,0,0,0,0,0,0,0,0,0,0,0,0,0,0,0,0,0,0,0,0,141,141,141,141,358,141,141,141,141,0,0,0,0,0,0,0,0,0,0,0,0,0,0,0,0,0,0,
0,0,0,0,0,0,0,0,0,0,0,0,0,0,0,0,0,0,0,0,0,0,0,425,426,427,428,0,0,0,0,0,0,0,0,0,0,0,0,0,0,0,0,274,0,0,0,0,399,400,401,402,306,141,141,141,141,0,0,0,0,0,0,0,449,450,451,0,0,0,0,0,0,0,0,
0,0,0,0,0,0,0,0,0,0,0,0,0,0,0,0,0,0,0,0,0,0,0,0,0,0,0,0,0,0,0,0,0,0,410,411,0,0,230,0,0,0,0,0,0,0,0,0,425,426,427,384,0,141,141,141,141,0,0,0,0,0,0,0,475,476,477,0,0,0,0,0,0,0,0,
0,0,0,0,269,141,141,272,0,0,0,0,0,0,0,0,0,0,0,0,0,0,0,0,0,0,0,0,0,0,0,0,0,0,436,437,0,0,0,0,0,0,0,0,364,0,0,0,0,306,248,247,0,141,141,141,141,338,0,0,0,0,0,0,0,0,0,0,0,0,0,0,0,0,0,
0,0,0,0,141,141,141,141,0,0,0,0,0,0,0,0,227,0,0,0,0,0,0,0,0,0,0,0,0,0,0,0,0,0,0,0,0,0,0,0,0,0,0,0,231,390,0,0,0,0,0,384,141,141,141,141,141,0,0,0,0,0,0,397,398,0,0,0,0,0,0,0,0,0,0,
0,0,0,0,141,141,141,141,0,0,0,0,0,0,0,379,227,0,0,0,0,0,0,410,411,0,0,0,0,0,0,0,0,0,0,0,0,0,0,413,0,0,0,0,0,222,275,0,0,0,0,0,0,399,400,401,402,361,0,0,0,0,0,423,424,0,0,0,0,0,0,0,0,0,0,
0,0,355,0,141,141,141,141,0,0,0,0,0,0,0,382,0,0,0,0,0,0,0,436,437,0,0,0,0,413,382,357,253,384,0,0,0,0,0,413,0,0,0,0,0,0,231,0,0,0,0,0,0,425,426,427,428,0,0,269,141,141,141,0,0,0,0,0,0,0,0,0,0,0,0,
0,0,303,0,141,141,141,141,0,0,0,0,0,0,0,309,0,0,0,0,0,0,0,0,0,0,0,412,0,0,0,0,0,0,0,0,0,0,308,412,0,0,0,0,0,0,0,231,278,0,0,0,0,0,0,0,0,0,0,141,141,141,141,0,0,0,0,299,0,0,0,0,0,0,0,
0,379,312,386,399,400,401,402,0,0,0,0,0,0,0,359,0,0,0,0,0,0,0,0,0,0,0,0,0,0,0,0,0,410,411,0,0,0,381,0,0,0,0,0,0,0,0,0,0,0,0,0,0,0,0,0,0,0,0,141,141,141,141,0,0,355,308,274,0,0,0,382,0,0,0,
0,381,325,0,425,426,427,428,0,0,449,450,451,0,0,223,0,0,0,0,0,0,0,0,0,0,0,0,0,0,0,0,0,436,437,0,0,0,0,0,0,410,411,0,0,0,0,0,0,0,0,0,0,0,0,0,0,0,0,141,141,141,141,0,0,378,0,0,0,0,312,387,0,0,0,
0,284,0,0,0,0,0,0,0,0,475,476,477,269,141,141,141,0,0,0,0,0,0,0,0,0,0,0,0,0,0,0,0,0,0,0,0,413,0,0,0,436,437,0,0,413,0,0,0,0,0,0,0,0,0,0,0,0,141,141,141,141,141,377,0,0,0,0,0,0,232,0,0,0,0,
0,229,0,0,0,0,0,0,0,0,0,0,0,141,141,141,141,0,0,0,0,0,0,0,0,0,0,0,0,0,0,0,0,0,0,0,0,0,0,0,0,0,0,0,0,0,0,0,0,0,0,0,358,0,0,0,0,0,0,399,400,401,402,0,0,449,450,451,0,0,0,0,0,0,0,
0,384,0,0,0,0,0,0,0,0,0,0,0,141,141,141,141,357,0,0,0,0,225,304,360,352,0,0,0,0,0,0,0,0,0,0,0,0,0,0,0,0,412,0,0,0,0,0,0,0,0,0,335,0,0,0,0,0,0,425,426,427,428,0,0,475,476,477,0,0,0,0,0,0,0,
0,281,0,0,0,0,0,0,0,0,0,0,0,141,141,141,141,385,0,0,0,0,0,0,0,278,378,377,0,0,0,0,0,0,0,0,0,0,0,0,0,0,0,0,0,0,0,0,0,0,0,0,332,274,0,0,0,0,0,0,0,0,0,0,0,0,0,0,0,361,0,0,0,0,0,
0,378,0,0,0,0,0,0,0,0,0,0,0,141,141,141,141,0,254,0,0,0,0,0,0,0,0,361,382,382,269,141,141,272,0,0,0,0,0,0,0,0,0,0,0,0,0,0,0,0,0,0,0,383,0,0,0,0,0,0,0,0,397,398,0,0,0,0,309,221,0,0,0,0,0,
0,0,0,0,0,0,0,0,0,0,0,0,0,399,400,401,402,0,0,300,380,250,0,0,0,0,0,0,0,304,141,141,141,141,0,0,0,0,0,0,0,0,0,0,0,0,0,0,0,0,0,0,0,386,383,0,0,0,0,0,0,0,423,424,0,0,273,356,226,0,0,0,0,0,0,
0,0,0,0,0,0,0,0,0,0,0,0,0,425,426,427,428,0,0,0,0,0,0,0,0,0,0,0,0,0,141,141,141,141,0,0,0,0,0,0,0,0,0,0,0,269,141,141,272,449,450,451,0,0,386,0,0,0,387,0,0,0,0,0,0,282,380,0,0,0,0,0,0,0,0,
0,0,0,0,0,0,0,413,0,0,0,0,0,0,0,0,0,0,0,0,0,0,0,0,0,0,0,0,0,0,141,141,141,141,0,0,0,0,0,0,397,398,0,0,0,141,141,141,141,475,476,477,0,0,0,254,0,0,354,0,0,335,387,247,247,0,0,0,0,0,0,0,0,0,0,
0,0,0,0,0,0,410,411,0,0,0,0,0,0,0,0,0,0,0,0,0,0,0,0,0,0,0,0,0,0,141,141,141,141,330,0,0,0,0,0,423,424,0,0,0,141,141,141,141,0,0,0,0,0,0,303,300,386,254,0,0,0,0,0,0,0,0,0,0,0,0,0,0,0,0,
0,0,0,0,0,413,436,437,0,0,0,0,0,0,0,0,0,0,0,0,0,0,0,0,0,0,0,0,0,0,399,400,401,402,299,377,0,0,0,0,423,424,0,0,0,141,141,141,141,0,0,0,0,0,0,0,358,378,0,0,0,0,0,0,0,0,0,0,0,0,0,0,0,0,0,
0,0,0,0,0,0,0,0,0,0,0,412,0,0,0,413,0,0,0,0,0,0,0,0,0,0,0,0,0,0,425,426,427,428,0,0,0,0,0,0,0,0,0,0,0,141,141,141,141,0,0,0,0,0,361,329,352,387,0,0,0,0,0,0,0,0,0,0,0,0,0,0,0,0,0,
0,0,0,0,0,0,0,0,0,438,439,0,0,0,0,0,0,438,439,0,0,0,0,0,0,0,0,0,0,0,0,0,359,306,0,0,0,0,0,0,0,0,0,0,0,399,400,401,402,333,308,251,277,228,251,0,0,281,377,0,0,0,0,0,0,0,0,0,0,0,0,0,0,0,0,
0,0,0,0,0,0,0,0,0,0,0,0,0,0,412,0,0,0,0,410,411,0,0,0,0,0,412,0,0,0,0,0,0,0,247,357,333,0,0,0,0,0,0,0,0,425,426,427,428,0,0,0,0,0,0,0,0,0,279,307,273,332,221,275,223,327,397,398,0,0,0,0,0,0,0,
0,0,0,0,0,0,0,0,0,0,0,0,0,0,0,0,0,0,0,436,437,0,0,0,0,0,0,0,0,0,0,0,0,0,0,0,325,277,353,273,0,0,0,0,0,0,0,0,0,0,0,0,0,0,0,0,0,0,0,0,0,0,0,0,0,0,423,424,0,0,0,0,0,0,0,
0,0,0,0,0,0,0,0,0,0,0,0,0,0,0,0,0,0,0,0,0,0,0,0,0,0,0,0,0,0,0,0,0,0,0,0,0,0,0,386,281,276,222,231,221,0,0,0,0,0,0,0,0,0,0,0,0,0,0,0,0,0,0,0,0,0,0,0,0,0,0,0,0,0,0,
0,0,0,0,0,0,0,0,0,0,0,0,0,0,0,0,0,0,0,0,0,0,0,0,0,0,0,0,0,0,0,0,0,0,0,0,0,0,0,0,0,0,0,0,0,0,0,0,0,0,0,0,0,0,0,0,0,0,0,0,0,0,0,0,0,0,0,0,0,0,0,0,0,0,0
</data>
 </layer>
 <layer id="9" name="COPA ARVORE 1" width="75" height="75" visible="0" locked="1">
  <properties>
   <property name="above" type="bool" value="true"/>
   <property name="priority" type="int" value="10000"/>
  </properties>
  <data encoding="csv">
0,0,0,0,0,0,0,0,0,0,0,0,0,0,0,0,0,0,0,0,0,0,0,0,0,0,0,0,0,0,0,0,0,0,0,0,0,0,0,0,0,0,0,0,0,0,0,0,0,0,0,0,0,0,0,0,0,0,0,0,0,0,0,0,0,0,0,0,0,0,0,0,0,0,0,
0,0,0,0,0,0,0,0,0,0,0,0,0,0,0,0,0,0,0,269,270,271,272,0,0,0,0,0,0,0,0,0,0,0,0,0,0,0,0,0,0,0,0,0,0,0,0,0,0,0,0,0,0,0,0,0,0,0,0,0,0,0,0,0,0,0,0,0,0,0,0,0,0,0,0,
0,0,0,0,0,0,0,0,0,0,0,0,231,0,0,0,0,0,0,295,296,297,298,0,0,0,0,0,0,0,0,0,0,0,0,358,253,248,356,0,0,0,0,0,0,0,0,0,0,0,0,0,397,398,0,0,0,0,0,0,0,0,0,0,0,0,0,0,0,0,0,0,0,0,0,
0,0,0,0,0,0,0,0,0,0,0,0,0,0,0,0,0,0,0,321,322,323,324,0,0,0,0,0,0,449,450,451,0,0,0,305,0,0,269,270,271,272,0,0,0,397,398,0,0,0,0,0,423,424,0,0,0,0,0,0,0,0,0,0,0,0,0,0,0,0,0,0,397,398,0,
0,0,0,0,0,0,0,0,0,0,0,0,0,0,0,0,0,0,0,347,348,349,350,0,0,0,0,0,0,475,476,477,0,0,0,0,0,0,295,296,297,298,0,0,0,423,424,0,0,0,0,0,0,0,0,0,0,0,0,0,0,0,0,0,0,0,0,0,0,0,0,0,423,424,0,
0,0,0,0,0,0,0,0,334,389,386,0,0,0,0,0,0,0,0,373,374,375,376,0,0,0,0,0,0,0,0,0,0,0,0,0,0,0,321,322,323,324,0,0,0,0,0,0,0,0,0,0,0,0,0,0,0,0,0,0,0,269,270,271,272,0,0,410,411,0,0,0,0,0,0,
0,0,0,0,0,225,331,0,0,0,0,0,0,0,0,0,0,0,0,399,141,141,402,0,0,0,0,0,0,0,0,0,0,0,0,0,0,0,347,348,349,350,0,0,0,0,0,0,0,0,0,449,450,451,0,0,0,0,0,0,0,295,296,297,298,0,0,436,437,0,0,0,0,0,0,
0,0,0,0,276,309,450,451,0,0,0,0,0,0,0,0,0,0,0,425,141,141,428,0,0,0,0,0,0,0,254,0,0,0,0,0,0,0,373,374,375,376,0,0,269,270,271,272,0,0,0,475,476,477,0,0,0,0,0,0,0,321,322,323,324,0,0,0,0,0,0,0,0,0,0,
0,0,0,0,0,475,476,477,0,0,0,0,0,0,0,0,0,0,0,0,0,0,0,0,0,0,0,0,0,0,0,0,0,0,449,450,451,0,399,141,141,402,0,0,295,296,297,298,0,0,0,0,0,0,0,0,0,0,0,0,0,347,348,349,350,0,412,269,270,271,272,0,0,0,0,
0,0,0,0,0,0,0,0,0,0,0,0,0,0,0,0,0,0,0,0,0,0,0,0,0,0,0,0,0,333,0,0,0,334,475,476,477,0,425,141,141,428,0,0,321,322,323,324,0,0,0,0,0,0,0,0,0,0,0,0,0,373,374,375,376,0,0,295,296,297,298,0,0,0,0,
0,0,0,0,0,0,0,0,0,0,0,0,0,0,0,0,0,0,0,0,0,0,0,449,449,450,451,0,0,309,0,0,0,0,0,0,0,0,0,0,0,0,0,0,347,348,349,350,0,0,308,0,0,0,0,0,0,0,0,0,0,399,141,141,402,0,0,321,322,323,324,0,0,0,0,
0,0,0,0,0,0,0,0,0,0,0,0,0,0,0,0,0,0,0,0,0,0,0,475,475,476,477,0,0,0,0,0,309,257,0,0,0,0,0,0,0,0,0,0,373,374,375,376,0,0,306,0,0,0,0,0,0,0,0,0,0,425,141,141,428,0,0,347,348,349,350,0,0,0,0,
0,0,0,0,0,0,0,0,0,0,0,0,0,413,0,0,0,0,0,0,0,0,0,0,0,0,0,0,224,0,0,0,361,0,0,0,0,0,0,0,0,0,0,338,399,141,141,402,0,0,283,0,0,0,0,0,0,0,0,0,0,438,439,0,0,0,306,373,374,375,376,0,0,0,0,
0,0,0,0,397,398,0,0,0,0,0,0,0,0,0,0,0,0,0,0,0,0,0,0,0,0,0,0,233,0,0,397,386,0,0,0,0,0,0,0,0,0,0,277,425,141,141,428,0,0,251,0,0,0,0,0,0,0,0,269,270,271,272,0,0,413,387,399,141,141,413,0,0,0,0,
0,0,0,0,423,424,0,0,0,0,0,0,0,0,0,0,0,0,0,0,0,0,0,0,0,0,356,0,0,0,0,255,276,0,0,0,0,0,0,0,0,0,0,258,0,0,0,0,0,0,0,0,0,0,0,0,0,0,0,295,296,297,298,0,0,0,0,425,141,141,428,0,0,0,0,
0,0,0,0,0,0,0,0,0,0,0,0,0,0,0,0,0,0,0,0,0,0,0,0,0,0,0,0,0,0,0,0,0,0,0,0,0,0,0,0,0,0,0,256,0,0,397,398,0,0,0,0,0,0,0,0,0,0,0,321,322,323,324,0,0,0,0,0,0,311,360,412,0,0,0,
0,0,0,0,0,0,0,0,0,0,0,0,0,0,0,0,0,0,0,397,398,0,0,0,449,450,451,0,0,228,0,0,0,0,0,410,411,0,0,0,0,0,247,256,0,0,423,424,0,0,0,0,0,0,0,0,0,0,0,347,348,349,350,0,0,0,0,0,0,248,0,0,0,0,0,
0,449,450,451,0,0,0,0,0,0,0,0,0,0,269,270,271,272,0,423,424,0,0,0,475,476,477,0,0,0,0,0,0,0,0,436,437,0,0,0,0,0,226,0,0,0,0,0,0,0,0,0,0,0,0,0,0,0,0,373,374,375,376,0,0,0,0,0,0,0,410,411,0,0,0,
0,475,476,477,0,0,0,0,0,0,0,0,0,0,295,296,297,298,0,0,0,0,0,0,0,0,0,0,0,0,0,0,0,0,0,0,0,0,0,0,276,388,0,0,0,255,254,0,0,0,0,0,0,0,0,410,411,0,0,399,141,141,402,332,284,438,439,0,0,0,436,437,0,0,0,
0,0,0,0,0,0,0,0,0,0,413,0,0,0,321,322,323,324,0,0,0,0,0,0,0,0,0,0,0,336,0,0,0,0,0,0,0,0,0,0,0,0,0,0,362,330,0,0,0,0,0,0,0,0,0,436,437,0,0,425,141,141,428,302,0,0,269,270,271,272,0,0,0,0,0,
0,0,0,0,335,0,0,0,0,0,0,0,0,0,347,348,349,350,0,0,0,0,0,0,0,0,0,278,0,359,353,0,0,0,0,0,0,0,0,0,0,0,0,0,381,0,0,0,0,0,0,0,0,0,0,0,0,0,0,278,359,0,0,0,0,0,295,296,297,298,0,0,0,0,0,
0,0,0,0,299,0,0,0,0,0,0,0,0,0,373,374,375,376,0,0,449,450,451,0,0,224,307,0,0,0,0,0,0,0,0,0,0,0,0,0,0,0,0,0,0,0,0,0,0,0,0,0,0,0,0,269,270,271,272,278,0,0,0,0,0,0,321,322,323,324,413,0,0,0,0,
0,0,0,0,252,0,0,0,0,0,0,0,0,0,399,141,141,402,0,0,475,476,477,0,0,0,353,0,0,0,0,0,0,0,0,0,0,0,0,0,0,0,0,0,0,0,0,0,0,0,0,0,0,0,0,295,296,297,298,0,0,0,0,0,0,276,347,348,349,350,0,0,0,0,0,
0,0,0,0,0,0,0,0,0,0,0,0,0,0,425,141,141,428,0,0,0,0,0,0,0,0,0,0,0,0,0,0,0,0,0,0,0,438,439,0,0,0,0,0,0,0,0,0,0,0,0,0,0,0,413,321,322,323,324,0,0,0,269,270,271,272,373,374,375,376,0,0,0,0,0,
0,0,0,274,0,0,0,0,0,0,0,0,0,0,0,0,0,0,0,0,0,0,0,0,0,0,0,0,0,0,449,450,451,0,0,0,0,0,0,0,0,0,0,0,0,270,271,0,0,0,0,0,0,0,0,347,348,349,350,0,438,439,295,296,297,298,399,141,141,402,412,413,0,0,0,
0,0,0,338,0,0,0,0,0,0,0,0,0,0,0,0,0,0,0,0,0,0,0,0,0,0,0,0,0,0,475,476,477,0,0,0,0,0,0,0,0,0,0,0,295,296,297,298,0,0,0,0,0,412,0,373,374,375,376,0,0,0,321,322,323,324,425,141,141,428,0,0,0,0,0,
0,0,0,384,0,0,0,0,0,0,0,0,0,0,0,0,0,0,0,0,0,0,0,0,0,0,0,0,0,0,0,0,0,0,0,0,0,0,0,0,0,0,0,0,321,322,323,324,0,270,271,0,0,0,0,399,141,141,402,0,0,0,347,348,349,350,0,0,0,0,0,0,0,0,0,
0,0,0,0,0,0,0,0,0,0,0,0,413,0,0,0,0,0,0,0,0,0,0,0,0,0,0,0,0,412,0,0,0,0,0,0,0,0,410,411,0,0,0,0,347,348,349,350,295,296,297,298,0,0,0,425,141,141,428,0,0,0,373,374,375,376,0,0,0,0,0,0,0,0,0,
0,0,0,234,0,0,0,0,0,0,0,0,0,0,0,0,0,0,0,0,0,0,0,0,0,0,0,0,0,0,0,0,0,0,0,0,0,0,436,437,0,0,0,0,373,374,375,376,321,322,323,324,0,0,0,0,0,0,0,0,332,0,399,141,141,402,0,0,0,0,0,0,0,0,0,
0,0,0,0,0,0,0,0,0,0,0,0,0,0,0,0,0,0,0,0,0,0,0,0,0,0,0,0,0,0,0,0,0,0,0,0,0,0,0,0,0,0,0,0,399,141,141,402,347,348,349,350,0,0,0,0,0,0,0,0,0,0,425,141,141,428,0,0,0,0,0,0,0,0,0,
0,0,0,0,0,0,0,0,0,0,0,0,410,411,0,0,0,0,0,0,0,0,0,0,0,0,413,0,0,0,0,0,0,0,0,269,270,271,272,0,0,0,0,0,425,141,141,428,373,374,375,376,0,0,0,0,0,0,0,0,0,0,0,0,0,0,0,0,0,0,0,0,0,0,0,
0,0,0,0,0,0,0,0,0,0,0,0,436,437,0,0,0,0,0,0,0,0,0,0,269,270,271,272,0,0,0,0,0,0,0,295,296,297,298,0,0,0,0,0,0,0,0,0,399,141,141,402,0,0,0,0,0,0,0,0,0,0,0,0,0,0,0,0,0,0,0,0,0,0,0,
0,0,0,0,0,0,0,0,0,0,0,0,0,0,0,0,0,269,270,271,272,0,0,0,295,296,297,298,0,0,0,0,0,0,0,321,322,323,324,0,0,397,398,0,0,0,0,0,425,141,141,474,474,0,0,0,0,0,0,0,0,0,0,0,0,0,0,0,0,0,0,0,0,0,0,
0,0,0,0,0,0,0,0,0,0,0,0,0,0,0,0,0,295,296,297,298,0,0,0,321,322,323,324,0,0,0,0,0,0,0,347,348,349,350,0,0,423,424,0,0,0,0,0,0,0,474,474,474,474,0,0,303,0,0,0,0,0,0,0,0,0,0,0,0,248,232,0,0,0,0,
0,0,0,449,450,451,0,0,0,0,0,0,0,438,439,0,0,321,322,323,324,0,0,0,347,348,349,350,0,0,0,0,0,0,0,373,374,375,376,0,0,0,0,0,0,0,0,0,0,0,474,474,474,474,0,0,225,301,280,0,0,0,0,0,0,0,0,0,326,0,275,0,0,0,0,
0,0,0,475,476,477,0,0,0,0,0,0,0,0,0,0,0,347,348,349,350,0,0,0,373,374,375,376,0,0,0,0,0,0,0,399,141,141,402,0,0,0,0,0,0,397,398,0,0,0,474,474,474,474,0,0,0,0,226,352,253,281,0,0,0,0,0,0,258,0,0,249,384,0,0,
0,0,0,397,398,0,0,0,0,389,0,0,0,0,0,0,0,373,374,375,376,0,0,223,399,141,141,402,0,0,0,0,0,0,0,425,141,141,428,0,0,0,0,0,0,423,424,0,0,0,474,474,474,474,0,0,0,0,0,0,0,378,0,0,0,0,0,0,255,0,0,281,306,0,0,
0,0,0,423,424,0,0,0,325,279,0,0,0,0,0,0,0,399,141,141,402,0,0,0,425,141,141,428,270,271,272,0,0,0,0,0,0,222,0,0,0,0,0,0,0,0,0,0,449,450,451,474,474,0,0,0,0,0,0,0,0,0,0,0,0,0,0,0,257,0,0,0,282,0,0,
0,0,0,0,0,0,0,358,358,0,0,0,0,0,0,0,0,425,141,141,428,0,0,0,377,0,273,295,296,297,298,0,0,0,0,0,0,0,0,0,0,0,0,0,0,0,0,0,475,476,477,474,474,0,0,0,0,0,0,0,0,449,450,451,0,0,0,0,0,0,0,0,333,0,0,
0,0,0,0,0,0,247,307,0,0,0,0,0,0,0,0,0,0,0,0,0,0,0,0,301,0,0,321,322,323,324,0,0,0,0,0,0,277,0,0,0,0,0,0,0,0,0,0,0,0,0,0,0,0,0,0,0,0,0,0,0,475,476,477,0,0,0,0,0,0,0,0,382,0,0,
0,0,0,0,0,333,358,0,0,0,0,0,0,0,0,0,0,0,0,0,0,0,0,0,0,0,0,347,348,349,350,0,0,0,354,0,0,0,0,0,0,0,0,0,0,0,329,0,0,0,0,0,0,0,0,0,0,0,0,0,0,0,0,0,0,0,0,0,0,0,0,0,329,0,0,
0,0,0,0,0,283,0,0,0,0,0,0,0,412,0,0,0,0,0,0,397,398,0,0,0,0,0,373,374,375,376,378,277,0,248,0,0,0,0,0,0,0,0,0,0,0,0,0,0,0,0,0,0,0,0,0,0,0,0,0,0,0,0,0,0,0,397,398,0,0,0,0,0,0,0,
0,0,0,0,0,0,0,0,0,0,0,0,0,0,0,0,0,0,0,0,423,424,299,0,0,0,0,399,141,141,402,0,379,0,274,0,0,0,0,0,0,0,0,0,0,0,0,0,0,0,0,0,0,0,0,0,0,0,0,269,270,271,272,0,0,0,423,424,0,0,0,0,227,0,0,
0,0,0,0,0,0,0,0,0,0,269,270,271,272,0,0,0,0,0,449,450,451,248,326,0,0,273,425,141,141,428,0,0,0,0,0,0,0,0,0,0,0,0,0,0,0,0,0,0,0,0,0,0,0,0,0,0,0,0,295,296,297,298,0,0,0,0,0,0,0,0,0,377,280,0,
0,0,0,0,0,0,0,0,0,0,295,296,297,298,0,0,0,0,0,475,476,477,0,269,270,271,272,0,0,0,0,0,0,0,0,0,0,0,0,0,0,0,0,351,0,0,0,0,0,0,0,0,0,0,0,0,0,0,0,321,322,323,324,0,0,0,0,0,0,0,0,0,0,0,0,
0,0,0,449,450,451,0,0,0,0,321,322,323,324,0,0,0,0,0,0,0,0,0,295,296,297,298,251,0,0,0,275,0,0,0,0,0,0,0,0,0,0,0,0,0,0,325,0,269,270,271,272,0,0,0,0,0,0,0,347,348,349,350,386,228,248,0,0,0,0,0,0,0,0,0,
0,0,0,475,476,477,0,0,0,0,347,348,349,350,0,0,0,0,0,0,0,0,0,321,322,323,324,0,0,0,0,0,0,0,0,0,247,0,0,0,0,0,221,0,0,0,225,0,295,296,297,298,0,0,0,0,0,0,0,373,374,375,376,387,274,0,0,0,0,0,0,0,0,0,0,
0,0,0,0,0,397,398,0,0,0,373,374,375,376,0,0,0,0,0,0,0,0,0,347,348,349,350,0,0,0,0,0,0,0,0,413,0,0,0,0,0,0,0,0,0,0,0,0,321,322,323,324,0,0,0,0,0,0,0,399,141,141,402,0,0,0,0,0,0,0,397,398,0,0,0,
0,0,0,0,0,423,424,0,0,0,399,141,141,402,0,0,0,0,225,306,309,248,305,373,374,375,376,0,0,0,0,0,0,0,0,0,0,412,0,0,0,0,0,0,0,0,0,0,347,348,349,350,0,0,0,0,0,0,0,425,141,141,428,0,0,0,0,0,0,0,423,424,0,0,0,
0,0,0,0,0,0,0,0,0,0,425,141,141,428,0,0,0,0,0,0,0,0,275,399,141,141,402,0,0,0,0,0,0,0,0,0,0,0,0,0,0,0,0,0,0,0,0,0,373,374,375,376,358,269,270,271,272,0,0,0,0,0,0,0,0,0,0,0,0,0,0,0,0,0,0,
0,0,0,0,0,0,0,0,0,0,0,0,0,0,0,0,0,0,0,0,0,0,0,425,141,141,428,0,0,0,0,0,0,0,0,0,0,0,0,0,0,0,0,274,0,0,0,0,399,141,141,402,306,295,296,297,298,0,0,0,0,0,0,0,449,450,451,0,0,0,0,0,0,0,0,
0,0,0,0,0,0,0,0,0,0,0,0,0,0,0,0,0,0,0,0,0,0,0,0,0,0,0,0,0,0,0,0,0,0,410,411,0,0,230,0,0,0,0,0,0,0,0,0,425,141,141,384,0,321,322,323,324,0,0,0,0,0,0,0,475,476,477,0,0,0,0,0,0,0,0,
0,0,0,0,269,270,271,272,0,0,0,0,0,0,0,0,0,0,0,0,0,0,0,0,0,0,0,0,0,0,0,0,0,0,436,437,0,0,0,0,0,0,0,0,364,0,0,0,0,306,248,247,0,347,348,349,350,338,0,0,0,0,0,0,0,0,0,0,0,0,0,0,0,0,0,
0,0,0,0,295,296,297,298,0,0,0,0,0,0,0,0,227,0,0,0,0,0,0,0,0,0,0,0,0,0,0,0,0,0,0,0,0,0,0,0,0,0,0,0,231,390,0,0,0,0,0,384,364,373,374,375,376,0,0,0,0,0,0,397,398,0,0,0,0,0,0,0,0,0,0,
0,0,0,0,321,322,323,324,0,0,0,0,0,0,0,379,227,0,0,0,0,0,0,410,411,0,0,0,0,0,0,0,0,0,0,0,0,0,0,413,0,0,0,0,0,222,275,0,0,0,0,0,0,399,141,141,402,361,0,0,0,0,0,423,424,0,0,0,0,0,0,0,0,0,0,
0,0,355,0,347,348,349,350,0,0,0,0,0,0,0,382,0,0,0,0,0,0,0,436,437,0,0,0,0,413,382,357,253,384,0,0,0,0,0,413,0,0,0,0,0,0,231,0,0,0,0,0,0,425,141,141,428,0,0,269,270,271,272,0,0,0,0,0,0,0,0,0,0,0,0,
0,0,303,0,373,374,375,376,0,0,0,0,0,0,0,309,0,0,0,0,0,0,0,0,0,0,0,412,0,0,0,0,0,0,0,0,0,0,308,412,0,0,0,0,0,0,0,231,278,0,0,0,0,0,0,0,0,0,0,295,296,297,298,0,0,0,0,299,0,0,0,0,0,0,0,
0,379,312,386,399,141,141,402,0,0,0,0,0,0,0,359,0,0,0,0,0,0,0,0,0,0,0,0,0,0,0,0,0,410,411,0,0,0,381,0,0,0,0,0,0,0,0,0,0,0,0,0,0,0,0,0,0,0,0,321,322,323,324,0,0,355,308,274,0,0,0,382,0,0,0,
0,381,325,0,425,141,141,428,0,0,449,450,451,0,0,223,0,0,0,0,0,0,0,0,0,0,0,0,0,0,0,0,0,436,437,0,0,0,0,0,0,410,411,0,0,0,0,0,0,0,0,0,0,0,0,0,0,0,0,347,348,349,350,0,0,378,0,0,0,0,312,387,0,0,0,
0,284,0,0,0,0,0,0,0,0,475,476,477,269,270,271,272,0,0,0,0,0,0,0,0,0,0,0,0,0,0,0,0,0,0,0,0,413,0,0,0,436,437,0,0,413,0,0,0,0,0,0,0,0,0,0,0,0,0,373,374,375,376,377,0,0,0,0,0,0,232,0,0,0,0,
0,229,0,0,0,0,0,0,0,0,0,0,0,295,296,297,298,0,0,0,0,0,0,0,0,0,0,0,0,0,0,0,0,0,0,0,0,0,0,0,0,0,0,0,0,0,0,0,0,0,0,0,358,0,0,0,0,0,0,399,141,141,402,0,0,449,450,451,0,0,0,0,0,0,0,
0,384,0,0,0,0,0,0,0,0,0,0,0,321,322,323,324,357,0,0,0,0,225,304,360,352,0,0,0,0,0,0,0,0,0,0,0,0,0,0,0,0,412,0,0,0,0,0,0,0,0,0,335,0,0,0,0,0,0,425,141,141,428,0,0,475,476,477,0,0,0,0,0,0,0,
0,281,0,0,0,0,0,0,0,0,0,0,0,347,348,349,350,385,0,0,0,0,0,0,0,278,378,377,0,0,0,0,0,0,0,0,0,0,0,0,0,0,0,0,0,0,0,0,0,0,0,0,332,274,0,0,0,0,0,0,0,0,0,0,0,0,0,0,0,361,0,0,0,0,0,
0,378,0,0,0,0,0,0,0,0,0,0,0,373,374,375,376,0,254,0,0,0,0,0,0,0,0,361,382,382,269,270,271,272,0,0,0,0,0,0,0,0,0,0,0,0,0,0,0,0,0,0,0,383,0,0,0,0,0,0,0,0,397,398,0,0,0,0,309,221,0,0,0,0,0,
0,0,0,0,0,0,0,0,0,0,0,0,0,399,141,141,402,0,0,300,380,250,0,0,0,0,0,0,0,304,295,296,297,298,0,0,0,0,0,0,0,0,0,0,0,0,0,0,0,0,0,0,0,386,383,0,0,0,0,0,0,0,423,424,0,0,273,356,226,0,0,0,0,0,0,
0,0,0,0,0,0,0,0,0,0,0,0,0,425,141,141,428,0,0,0,0,0,0,0,0,0,0,0,0,0,321,322,323,324,0,0,0,0,0,0,0,0,0,0,0,269,270,271,272,449,450,451,0,0,386,0,0,0,387,0,0,0,0,0,0,282,380,0,0,0,0,0,0,0,0,
0,0,0,0,0,0,0,413,0,0,0,0,0,0,0,0,0,0,0,0,0,0,0,0,0,0,0,0,0,0,347,348,349,350,0,0,0,0,0,0,397,398,0,0,0,295,296,297,298,475,476,477,0,0,0,254,0,0,354,0,0,335,387,247,247,0,0,0,0,0,0,0,0,0,0,
0,0,0,0,0,0,410,411,0,0,0,0,0,0,0,0,0,0,0,0,0,0,0,0,0,0,0,0,0,0,373,374,375,376,330,0,0,0,0,0,423,424,0,0,0,321,322,323,324,0,0,0,0,0,0,303,300,386,254,0,0,0,0,0,0,0,0,0,0,0,0,0,0,0,0,
0,0,0,0,0,413,436,437,0,0,0,0,0,0,0,0,0,0,0,0,0,0,0,0,0,0,0,0,0,0,399,141,141,402,299,377,0,0,0,0,423,424,0,0,0,347,348,349,350,0,0,0,0,0,0,0,358,378,0,0,0,0,0,0,0,0,0,0,0,0,0,0,0,0,0,
0,0,0,0,0,0,0,0,0,0,0,412,0,0,0,413,0,0,0,0,0,0,0,0,0,0,0,0,0,0,425,141,141,428,0,0,0,0,0,0,0,0,0,0,0,373,374,375,376,0,0,0,0,0,361,329,352,387,0,0,0,0,0,0,0,0,0,0,0,0,0,0,0,0,0,
0,0,0,0,0,0,0,0,0,438,439,0,0,0,0,0,0,438,439,0,0,0,0,0,0,0,0,0,0,0,0,0,359,306,0,0,0,0,0,0,0,0,0,0,0,399,141,141,402,333,308,251,277,228,251,0,0,281,377,0,0,0,0,0,0,0,0,0,0,0,0,0,0,0,0,
0,0,0,0,0,0,0,0,0,0,0,0,0,0,412,0,0,0,0,410,411,0,0,0,0,0,412,0,0,0,0,0,0,0,247,357,333,0,0,0,0,0,0,0,0,425,141,141,428,0,0,0,0,0,0,0,0,0,279,307,273,332,221,275,223,327,397,398,0,0,0,0,0,0,0,
0,0,0,0,0,0,0,0,0,0,0,0,0,0,0,0,0,0,0,436,437,0,0,0,0,0,0,0,0,0,0,0,0,0,0,0,325,277,353,273,0,0,0,0,0,0,0,0,0,0,0,0,0,0,0,0,0,0,0,0,0,0,0,0,0,0,423,424,0,0,0,0,0,0,0,
0,0,0,0,0,0,0,0,0,0,0,0,0,0,0,0,0,0,0,0,0,0,0,0,0,0,0,0,0,0,0,0,0,0,0,0,0,0,0,386,281,276,222,231,221,0,0,0,0,0,0,0,0,0,0,0,0,0,0,0,0,0,0,0,0,0,0,0,0,0,0,0,0,0,0,
0,0,0,0,0,0,0,0,0,0,0,0,0,0,0,0,0,0,0,0,0,0,0,0,0,0,0,0,0,0,0,0,0,0,0,0,0,0,0,0,0,0,0,0,0,0,0,0,0,0,0,0,0,0,0,0,0,0,0,0,0,0,0,0,0,0,0,0,0,0,0,0,0,0,0
</data>
 </layer>
 <layer id="5" name="TRONCO ARVORE 2" width="75" height="75" visible="0" locked="1">
  <data encoding="csv">
0,0,0,0,0,0,0,0,0,0,0,0,0,0,0,0,0,0,0,0,0,0,0,0,0,0,0,0,0,0,0,0,0,0,0,0,0,0,0,0,0,0,0,0,0,0,0,0,0,0,0,0,0,0,0,0,0,0,0,0,0,0,0,0,0,0,0,0,0,0,0,0,0,0,0,
0,0,0,0,0,0,0,0,0,0,0,0,0,0,0,0,0,0,0,0,0,2147483789,2147483789,0,0,0,0,0,0,0,0,0,0,0,0,0,0,0,0,0,0,0,0,0,0,0,0,0,0,0,0,0,0,0,0,0,0,0,0,0,0,0,0,0,0,0,0,0,0,0,0,0,0,0,0,
0,0,0,0,0,0,0,0,0,0,0,0,0,0,0,0,0,0,0,0,2147483789,2147483789,2147483789,2147483789,0,0,0,0,0,0,0,0,0,0,0,0,0,0,0,0,0,0,0,0,0,0,0,0,0,0,0,0,0,0,0,0,0,0,0,0,0,0,0,0,0,0,0,0,0,0,0,0,0,0,0,
0,0,0,0,0,0,0,0,0,0,0,0,0,0,0,0,0,0,0,0,2147483789,2147483789,2147483789,2147483789,0,0,0,0,0,0,0,0,0,0,0,0,0,0,0,0,0,0,0,0,0,0,0,0,0,0,0,0,0,0,0,0,0,0,0,0,0,0,0,0,0,0,0,0,0,0,0,0,0,0,0,
0,0,0,0,0,0,0,0,0,0,0,0,0,0,0,0,0,0,0,0,2147483789,2147483789,2147483789,2147483789,0,0,0,0,0,0,0,0,0,0,0,0,0,0,0,0,0,0,0,0,0,0,0,0,0,0,0,0,0,0,0,0,0,0,0,0,0,0,0,0,0,0,0,0,0,0,0,0,0,0,0,
0,0,0,0,0,0,0,0,0,0,0,0,0,0,0,0,0,0,0,0,2147483789,2147483789,2147483789,2147483789,0,0,0,0,0,0,0,0,0,0,0,0,0,0,0,0,0,0,0,0,0,0,0,0,0,0,0,0,0,0,0,0,0,0,0,0,0,0,0,0,0,0,0,0,0,0,0,0,0,0,0,
0,0,0,0,0,0,0,0,0,0,0,0,0,0,0,0,0,0,0,0,2147483789,2147483789,2147483789,2147483789,0,0,0,0,0,0,0,0,0,0,0,0,0,0,0,0,0,0,0,0,0,0,0,0,0,0,0,0,0,0,0,0,0,0,0,0,0,0,2147483789,2147483789,2147483789,2147483789,0,0,0,0,0,0,0,0,0,
0,0,0,0,0,0,0,0,0,0,0,0,0,0,0,0,0,0,0,0,2147484050,2147484049,2147484048,2147484047,0,0,0,0,0,0,0,0,0,0,0,0,0,0,0,0,0,0,0,0,0,0,0,0,0,0,0,0,0,0,0,0,0,0,0,0,0,0,2147483789,2147483789,2147483789,2147483789,0,0,0,0,0,0,0,0,0,
0,0,0,0,0,0,0,0,0,0,0,0,0,0,0,0,0,0,0,0,2147484076,2147484075,2147484074,2147484073,0,0,0,0,0,0,0,0,0,0,0,0,0,0,0,0,0,0,0,0,0,0,0,0,0,0,0,0,0,0,0,0,0,0,0,0,0,0,2147483789,2147483789,2147483789,2147483789,2147483789,0,0,0,0,0,0,0,0,
0,0,0,0,0,0,0,0,0,0,0,0,0,0,0,0,0,0,0,0,0,0,0,0,0,0,0,0,0,0,0,0,0,0,0,0,0,0,0,0,0,0,0,0,0,0,0,0,0,0,0,0,0,0,0,0,0,0,0,0,0,0,2147483789,2147483789,2147483789,2147483789,2147483789,0,0,0,0,0,0,0,0,
0,0,0,0,0,0,0,0,0,0,0,0,0,0,0,0,0,0,0,0,0,0,0,0,0,0,0,0,0,0,0,0,0,0,0,0,0,0,0,0,0,0,0,0,0,0,0,0,0,0,0,0,0,0,0,0,0,0,0,0,0,0,2147483789,2147483789,2147483789,2147483789,2147483789,0,0,0,0,0,0,0,0,
0,0,0,0,0,0,0,0,0,0,0,0,0,0,0,0,0,0,0,0,0,0,0,0,0,0,0,0,0,0,0,0,0,0,0,0,0,0,0,0,0,0,0,0,0,0,0,0,0,0,0,0,0,0,0,0,0,0,0,0,0,0,2147484050,2147484049,2147484048,2147484047,0,0,0,0,0,0,0,0,0,
0,0,0,0,0,0,0,0,0,0,0,0,0,0,0,0,0,0,0,0,0,0,0,0,0,0,0,0,0,0,0,0,0,0,0,0,0,0,0,0,0,0,0,0,0,0,0,0,0,0,0,0,0,0,0,0,0,0,0,0,0,0,2147484076,2147484075,2147484074,2147484073,0,0,0,0,0,0,0,0,0,
0,0,0,0,0,0,0,0,0,0,0,0,0,0,0,0,0,0,0,0,0,0,0,0,0,0,0,0,0,0,0,0,0,0,0,0,0,0,0,0,0,0,0,0,0,0,0,0,0,0,0,0,0,0,0,0,0,0,0,0,0,0,0,0,0,0,0,0,0,0,0,0,0,0,0,
0,0,0,0,0,0,0,0,0,0,0,0,0,0,0,0,0,0,0,0,0,0,0,0,0,0,0,0,0,0,0,0,0,0,0,0,0,0,0,0,0,0,0,0,0,0,0,0,0,0,0,0,0,0,0,0,0,0,0,0,0,0,0,0,0,0,0,0,0,0,0,0,0,0,0,
0,0,0,0,0,0,0,0,0,0,0,0,0,0,0,0,0,0,0,0,0,0,0,0,0,0,0,0,0,0,0,0,0,0,0,0,0,0,0,0,0,0,0,0,0,0,0,0,0,0,0,0,0,0,0,0,0,0,0,0,0,0,0,0,0,0,0,0,0,0,0,0,0,0,0,
0,0,0,0,0,0,0,0,0,0,0,0,0,0,0,0,0,0,0,0,0,0,0,0,0,0,0,0,0,0,0,0,0,0,0,0,0,0,0,0,0,0,0,0,0,0,0,0,0,0,0,0,0,0,0,0,0,0,0,0,0,0,0,0,0,0,0,0,0,0,0,0,0,0,0,
0,0,0,0,0,0,0,0,0,0,0,0,0,0,0,0,0,0,0,0,0,0,0,0,0,0,0,0,0,0,0,0,0,0,0,0,0,0,0,0,0,0,0,0,0,0,0,0,0,0,0,0,0,0,0,0,0,0,0,0,0,0,0,0,0,0,0,0,0,0,0,0,0,0,0,
0,0,0,0,0,0,0,0,0,0,0,0,0,0,0,0,0,0,0,0,0,0,0,0,0,0,0,0,0,0,0,0,0,0,0,0,0,0,0,0,0,0,0,0,0,0,0,0,0,0,0,0,0,0,0,0,0,0,0,0,0,0,0,0,0,0,0,0,0,0,0,0,0,0,0,
0,0,0,0,0,0,0,0,0,0,0,0,0,0,0,0,0,0,0,0,0,0,0,0,0,0,0,0,0,0,0,0,0,0,0,0,0,0,0,0,0,0,0,0,0,0,0,0,0,0,0,0,0,0,0,0,0,0,0,0,0,0,0,0,0,0,0,0,0,0,0,0,0,0,0,
0,0,0,0,0,0,0,0,0,0,0,0,0,0,0,0,0,0,0,0,0,0,0,0,0,0,0,0,0,0,0,0,0,0,0,0,0,0,0,0,0,0,0,0,0,0,0,0,0,0,0,0,0,0,0,0,0,0,0,0,0,0,0,0,0,0,0,0,0,0,0,0,0,0,0,
0,0,0,0,0,0,0,0,0,0,0,0,0,0,0,0,0,0,0,0,0,0,0,0,0,0,0,0,0,0,0,0,0,0,0,0,0,0,0,0,0,0,0,0,0,0,0,0,0,0,0,0,0,0,0,0,0,0,0,0,0,0,0,0,0,0,0,0,0,0,0,0,0,0,0,
0,0,0,0,0,0,0,0,0,0,0,0,0,0,0,0,0,0,0,0,0,0,0,0,0,0,0,0,0,0,0,0,0,0,0,0,0,0,0,0,0,0,0,0,0,0,0,0,0,0,0,0,0,0,0,0,2147483920,2147483789,2147483789,2147483917,0,0,0,0,0,0,0,0,0,0,0,0,0,0,0,
0,0,0,0,0,0,0,0,0,0,0,0,0,0,0,0,0,0,0,0,0,0,0,0,0,0,0,0,0,0,0,0,0,0,0,0,0,0,0,0,0,0,0,0,0,0,0,0,0,0,0,0,0,0,0,0,2147483789,2147483789,2147483789,2147483789,0,0,0,0,0,0,0,0,0,0,0,0,0,0,0,
0,0,0,0,0,0,0,0,0,0,0,0,0,0,0,0,0,0,0,0,0,0,0,0,0,0,0,0,0,0,0,0,0,0,0,0,0,0,0,0,0,0,0,0,0,0,0,0,0,0,0,0,0,0,0,0,2147483789,2147483789,2147483789,2147483789,0,0,0,2147483789,2147483789,2147483789,2147483917,0,0,0,0,0,0,0,0,
0,0,0,0,0,0,0,0,0,0,0,0,0,0,0,0,0,0,0,0,0,0,0,0,0,0,0,0,0,0,0,0,0,0,0,0,0,0,0,0,0,0,0,0,0,0,0,0,0,0,0,0,0,0,0,0,2147483789,2147483789,2147483789,2147483789,0,0,0,2147483789,2147483789,2147483789,2147483789,2147483789,0,0,0,0,0,0,0,
0,0,0,0,0,0,0,0,0,0,0,0,0,0,0,0,0,0,0,0,0,0,0,0,0,0,0,0,0,0,0,0,0,0,0,0,0,0,0,0,0,0,0,0,0,0,0,0,0,0,0,0,0,0,0,0,2147483789,2147483789,2147483789,2147483789,0,0,0,2147483789,2147483789,2147483789,2147483789,2147483789,0,0,0,0,0,0,0,
0,0,0,0,0,0,0,0,0,0,0,0,0,0,0,0,0,0,0,0,0,0,0,0,0,0,0,0,0,0,0,0,0,0,0,0,0,0,0,0,0,0,2147483789,2147483789,2147483789,2147483789,0,0,0,0,0,0,0,0,0,0,2147484050,2147484049,2147484048,2147484047,0,0,0,2147483789,2147483789,2147483789,2147483789,2147483789,0,0,0,0,0,0,0,
0,0,0,0,0,0,0,0,0,0,0,0,0,0,0,0,0,0,0,0,0,0,0,0,0,0,0,0,0,0,0,0,0,0,0,0,0,0,0,0,0,0,2147483789,2147483789,2147483789,2147483789,0,0,0,0,0,0,0,0,0,0,2147484076,2147484075,2147484074,2147484073,0,0,0,2147483789,2147483789,2147483789,2147483789,0,0,0,0,0,0,0,0,
0,0,0,0,0,0,0,0,0,0,0,0,0,0,0,0,0,0,0,0,0,0,0,0,0,0,0,0,0,0,0,0,0,0,0,0,0,0,0,0,0,0,2147483789,2147483789,2147483789,2147483789,269,2147483789,2147483789,2147483789,0,0,0,0,0,0,0,0,0,0,0,0,0,2147484050,2147484049,2147484048,2147484047,0,0,0,0,0,0,0,0,
0,0,0,0,0,0,0,0,0,0,0,0,0,0,0,0,0,0,0,0,0,0,0,0,0,0,0,0,0,0,0,0,0,0,0,0,0,0,0,0,0,0,2147483789,2147483789,2147483789,2147483789,2147483789,2147483789,2147483789,2147483789,0,0,269,2147483789,2147483789,2147483789,0,0,0,0,0,0,0,2147484076,2147484075,2147484074,2147484073,0,0,0,0,0,0,0,0,
0,0,0,0,0,0,0,0,0,0,0,0,0,0,0,0,0,0,0,0,0,0,0,0,0,0,0,0,0,0,0,0,0,0,0,0,0,0,0,0,0,0,2147483789,2147483789,2147483789,2147483789,2147483789,2147483789,2147483789,2147483789,0,0,2147483789,2147483789,2147483789,2147483789,0,0,0,0,0,0,0,0,0,0,0,0,0,0,0,0,0,0,0,
0,0,0,0,0,0,0,0,0,0,0,0,0,0,0,0,0,0,0,0,0,0,0,0,0,0,0,0,0,0,0,0,0,0,0,0,0,0,0,0,0,0,399,400,401,402,2147483789,2147483789,2147483789,2147483789,0,0,2147483789,2147483789,2147483789,2147483789,0,0,0,0,0,0,0,0,0,0,0,0,0,0,0,0,0,0,0,
0,0,0,0,0,0,0,0,0,0,0,0,0,0,0,0,0,0,0,0,0,0,0,0,0,0,0,0,0,0,0,0,0,0,0,0,0,0,0,0,0,0,425,426,427,428,2147483789,2147483789,2147483789,2147483789,0,0,2147483789,2147483789,2147483789,2147483789,0,0,0,0,0,0,0,0,0,0,0,0,0,0,0,0,0,0,0,
0,0,0,0,0,0,0,0,0,0,0,0,0,0,0,0,0,0,0,0,0,0,0,0,0,0,0,0,0,0,0,0,0,0,0,0,0,0,0,0,0,0,0,0,0,0,399,400,401,402,0,0,2147483789,2147483789,2147483789,2147483789,0,0,0,0,0,0,0,0,0,0,0,0,0,0,0,0,0,0,0,
0,0,0,0,0,0,0,0,0,0,0,0,0,0,0,0,0,0,0,0,0,0,0,0,0,0,0,0,0,0,0,0,0,0,0,0,0,0,0,0,0,0,0,0,0,0,425,426,427,428,0,0,399,400,401,402,0,0,0,0,0,0,0,0,0,0,0,0,0,0,0,0,0,0,0,
0,0,0,0,0,0,0,0,0,0,0,0,0,0,0,0,0,0,0,0,0,0,0,397,398,0,0,0,0,0,0,0,0,0,0,0,0,0,0,0,0,0,0,0,0,0,0,0,0,0,0,0,425,426,427,428,0,0,0,0,0,0,0,0,0,0,0,0,0,0,0,0,0,0,0,
0,0,0,0,0,0,0,0,0,0,0,0,0,0,0,0,0,0,0,0,0,0,0,423,424,0,0,0,0,0,0,0,0,0,0,0,0,0,0,0,0,0,0,0,0,0,0,0,0,0,0,0,0,0,0,0,0,0,0,0,0,0,0,0,0,0,0,0,0,0,0,0,0,0,0,
0,0,0,0,0,0,0,0,0,0,0,0,0,0,0,0,0,0,0,0,0,0,0,0,449,450,451,0,0,0,0,0,0,0,0,0,0,0,0,0,0,0,0,0,0,0,0,0,0,0,0,0,0,0,0,0,0,0,0,0,0,0,0,0,0,0,0,0,0,0,0,0,0,0,0,
0,0,0,0,0,0,0,0,0,0,0,0,0,0,0,0,0,0,0,0,0,0,0,0,475,476,477,0,0,0,0,0,0,0,0,0,0,0,0,0,0,0,0,0,0,0,0,0,0,0,0,0,0,0,0,0,0,0,0,0,0,0,0,0,0,0,0,0,0,0,0,0,0,0,0,
0,0,0,0,0,0,0,0,0,0,0,0,0,0,0,0,0,0,0,0,0,0,449,450,451,0,0,0,0,0,0,0,0,0,0,0,0,0,0,0,0,0,0,0,0,0,0,0,0,0,0,0,0,0,0,0,0,0,0,0,0,0,0,0,0,0,0,0,0,0,0,0,0,0,0,
0,0,0,0,0,0,0,0,0,0,0,0,0,0,0,0,0,0,0,0,0,0,475,476,477,0,0,0,0,0,0,0,0,0,0,0,0,0,0,0,0,0,0,0,0,0,0,0,0,0,0,0,0,0,0,0,0,0,0,0,0,0,0,0,0,0,0,0,0,0,0,0,0,0,0,
0,0,0,0,0,0,0,0,0,0,0,0,0,0,0,0,0,0,0,0,0,0,0,0,0,0,0,0,0,397,398,0,0,0,0,0,0,0,0,0,0,0,0,0,0,0,0,0,0,0,0,0,0,0,0,0,0,0,0,0,0,0,0,0,0,0,0,0,0,0,0,0,0,0,0,
0,0,0,0,0,0,0,0,0,0,0,0,0,0,0,0,0,0,0,0,0,0,0,0,0,0,0,0,0,423,424,0,0,0,0,0,0,0,0,0,0,0,0,0,0,0,0,0,0,0,0,0,0,0,0,0,0,0,0,0,0,0,0,0,0,0,0,0,0,0,0,0,0,0,0,
0,0,0,0,0,0,0,0,0,0,0,0,0,0,0,0,0,0,0,0,0,0,0,0,0,0,0,0,0,0,0,0,0,0,0,0,0,0,0,0,0,0,0,0,0,0,0,0,0,0,0,0,0,0,0,0,0,0,0,0,0,0,0,0,0,0,0,0,0,0,0,0,0,0,0,
0,0,0,0,0,0,0,0,0,0,0,0,0,0,0,0,0,0,0,0,0,0,0,0,0,0,0,0,0,0,0,0,0,0,0,0,0,0,0,0,0,0,0,0,0,0,0,0,0,0,0,0,0,0,0,0,0,0,0,0,0,0,0,0,0,0,0,0,0,0,0,0,0,0,0,
0,0,0,0,0,0,0,0,0,0,0,0,0,0,0,0,0,0,0,0,0,0,0,0,0,0,0,0,0,0,0,0,0,0,0,0,0,0,0,0,0,0,0,0,0,0,0,0,0,0,0,0,0,0,0,0,0,0,0,0,0,0,0,0,0,0,0,0,0,0,0,0,0,0,0,
0,0,0,0,0,0,0,0,0,0,0,0,0,0,0,0,0,0,0,0,0,0,0,0,0,0,0,0,0,0,0,0,0,0,0,0,0,0,0,0,0,0,0,0,0,0,0,0,0,0,0,0,0,0,0,0,0,0,0,0,0,0,0,0,0,0,0,0,0,0,0,0,0,0,0,
0,0,0,0,0,0,0,0,0,0,0,0,0,0,0,0,0,0,0,0,0,0,0,0,0,0,0,0,0,0,0,0,0,0,0,0,0,0,0,0,0,0,0,0,0,0,0,0,0,0,0,0,0,0,0,0,0,0,0,0,0,0,0,0,0,0,0,0,0,0,0,0,0,0,0,
0,0,0,0,0,0,0,0,0,0,0,0,0,0,0,0,0,0,0,0,0,0,0,0,0,0,0,0,0,0,0,0,0,0,0,0,0,0,0,0,0,0,0,0,0,0,0,0,0,0,0,0,0,0,0,0,0,0,0,0,0,0,0,0,0,0,0,0,0,0,0,0,0,0,0,
0,0,0,0,0,0,0,0,0,0,0,0,0,0,0,0,0,0,0,0,0,0,0,0,0,0,0,0,0,0,0,0,0,0,0,0,0,0,0,0,0,0,0,0,0,0,0,0,0,0,0,0,0,0,0,0,0,0,0,0,0,0,0,0,0,0,0,0,0,0,0,0,0,0,0,
0,0,0,0,0,0,0,0,0,0,0,0,0,0,0,0,0,0,0,0,0,0,0,0,0,0,0,0,0,0,0,0,0,0,0,0,0,0,0,0,0,0,0,0,0,0,0,0,0,0,0,0,0,0,0,0,0,0,0,0,0,0,0,0,0,0,0,0,0,0,0,0,0,0,0,
0,0,0,0,0,0,0,0,0,0,0,0,0,0,0,0,0,0,0,0,0,0,0,0,0,0,0,0,0,0,0,0,0,0,0,0,0,0,0,0,0,0,0,0,0,0,0,0,0,0,0,0,0,0,0,0,0,0,0,0,0,0,0,0,0,0,0,0,0,0,0,0,0,0,0,
0,0,0,0,0,2147483920,2147483789,2147483789,2147483789,0,0,0,0,0,0,0,0,0,0,0,0,0,0,0,0,0,0,0,0,0,0,0,0,0,0,0,0,0,0,0,0,0,0,0,0,0,0,0,0,0,0,0,0,0,0,0,0,0,0,0,0,0,0,0,0,0,0,0,0,0,0,0,0,0,0,
0,0,0,0,0,2147483789,2147483789,2147483789,2147483789,0,0,0,0,0,0,0,0,0,0,0,0,0,0,0,0,0,0,0,0,0,0,0,0,0,0,0,0,0,0,0,0,0,0,0,0,0,0,0,0,0,0,0,0,0,0,0,0,0,0,0,0,0,0,0,0,0,0,0,0,0,0,0,0,0,0,
0,0,0,0,0,2147483789,2147483789,2147483789,2147483789,0,0,0,0,0,0,0,0,0,0,0,0,0,0,0,0,0,0,0,0,0,0,0,0,0,0,0,0,0,0,0,0,0,0,0,0,0,0,0,0,0,0,0,0,0,0,0,0,0,0,0,0,0,0,0,0,0,0,0,0,0,0,0,0,0,0,
0,0,0,0,0,2147483789,2147483789,2147483789,2147483789,0,0,0,0,0,0,0,0,0,0,0,0,0,0,0,0,0,0,0,0,0,0,0,0,0,0,0,0,0,0,0,0,0,0,0,0,0,0,0,0,0,0,0,0,0,0,0,0,0,0,0,0,0,0,0,0,0,0,0,0,0,0,0,0,0,0,
0,0,0,0,0,2147483789,2147483789,2147483789,2147483789,0,0,0,0,0,0,0,0,0,0,0,0,0,0,0,0,0,0,0,0,0,0,0,0,0,0,0,0,0,0,0,0,0,0,0,0,0,0,0,0,0,0,0,0,0,0,0,0,0,0,0,0,0,0,0,0,0,0,0,0,0,0,0,0,0,0,
0,0,0,0,0,2147484050,2147484049,2147484048,2147484047,0,0,0,0,0,0,0,0,0,0,0,0,0,0,0,0,0,0,0,0,0,0,0,0,0,0,0,0,0,0,0,0,0,0,0,0,0,0,0,0,0,0,0,0,0,0,0,0,0,0,0,0,0,0,0,0,0,0,0,0,0,0,0,0,0,0,
0,0,0,0,0,2147484076,2147484075,2147484074,2147484073,0,0,0,0,0,0,0,0,0,0,0,0,0,0,0,0,0,0,0,0,0,0,0,0,0,0,0,0,0,0,0,0,0,0,0,0,0,0,0,0,0,0,0,0,0,0,0,0,0,0,0,0,0,0,0,0,0,0,0,0,0,0,0,0,0,0,
0,0,0,0,0,0,0,0,0,0,0,0,0,0,0,0,0,0,0,0,0,0,0,0,0,0,0,0,0,0,0,0,0,0,0,0,0,0,0,0,0,0,0,0,0,0,0,0,0,0,0,0,0,0,0,0,0,0,0,0,0,0,0,0,0,0,0,0,0,0,0,0,0,0,0,
0,0,0,0,0,0,0,0,0,0,0,0,0,0,0,2147483920,2147483789,2147483789,2147483789,0,0,0,0,0,0,0,0,0,0,0,0,0,0,0,0,0,0,0,0,0,0,0,0,0,0,0,0,0,0,0,0,0,0,0,0,0,0,0,0,0,0,0,0,0,0,0,0,0,0,0,0,0,0,0,0,
0,0,0,0,0,0,0,0,0,0,0,0,0,0,0,2147483789,2147483789,2147483789,2147483789,0,0,0,0,0,0,0,0,0,0,0,0,0,0,0,0,0,0,0,0,0,0,0,0,0,0,0,0,0,0,0,0,0,0,0,0,0,0,0,0,0,0,0,0,0,0,0,0,0,0,0,0,0,0,0,0,
0,0,0,0,0,0,0,0,0,0,0,0,0,0,0,2147483789,2147483789,2147483789,2147483789,0,0,0,0,0,0,0,0,0,0,0,0,0,0,0,0,0,0,0,0,0,0,0,0,0,0,0,0,0,0,0,0,0,0,0,0,0,0,0,0,0,0,0,0,0,0,0,0,0,0,0,0,0,0,0,0,
0,0,0,0,0,0,0,0,0,0,0,0,0,0,0,2147483789,2147483789,2147483789,2147483789,0,0,0,0,0,0,0,0,0,0,0,0,0,0,0,0,0,0,0,0,0,0,0,0,0,0,0,0,0,0,0,0,0,0,0,0,0,0,0,0,0,0,0,0,0,0,0,0,0,0,0,0,0,0,0,0,
0,0,0,0,0,0,0,0,0,0,0,0,0,0,0,2147483789,2147483789,2147483789,2147483789,0,0,0,0,0,0,0,0,0,0,0,0,0,0,0,0,0,0,0,0,0,0,0,0,0,0,0,0,0,0,0,0,0,0,0,0,0,0,0,0,0,0,0,0,0,0,0,0,0,0,0,0,0,0,0,0,
0,0,0,0,0,0,0,0,0,0,0,0,0,0,0,2147484050,2147484049,2147484048,2147484047,0,0,0,0,0,0,0,0,0,0,0,0,0,0,0,0,0,0,0,0,0,0,0,0,0,0,0,0,0,0,0,0,0,0,0,0,0,0,0,0,0,0,0,0,0,0,0,0,0,0,0,0,0,0,0,0,
0,0,0,0,0,0,0,0,0,0,0,0,0,0,0,2147484076,2147484075,2147484074,2147484073,0,0,0,0,0,0,0,0,0,0,0,0,0,0,0,0,0,0,0,0,0,0,0,0,0,0,0,0,0,0,0,0,0,0,0,0,0,0,0,0,0,0,0,0,0,0,0,0,0,0,0,0,0,0,0,0,
0,0,0,0,0,0,0,0,0,0,0,0,0,0,0,0,0,0,0,0,0,0,0,0,0,0,0,0,0,0,0,0,0,0,0,0,0,0,0,0,0,0,0,0,0,0,0,0,0,0,0,0,0,0,0,0,0,0,0,0,0,0,0,0,0,0,0,0,0,0,0,0,0,0,0,
0,0,0,0,0,0,0,0,0,0,0,0,0,0,0,0,0,0,0,0,0,0,0,0,0,0,0,0,0,0,0,0,0,0,0,0,0,0,0,0,0,0,0,0,0,0,0,0,0,0,0,0,0,0,0,0,0,0,0,0,0,0,0,0,0,0,0,0,0,0,0,0,0,0,0,
0,0,0,0,0,0,0,0,0,0,0,0,0,0,0,0,0,0,0,0,0,0,0,0,0,0,0,0,0,0,0,0,0,0,0,0,0,0,0,0,0,0,0,0,0,0,0,0,0,0,0,0,0,0,0,0,0,0,0,0,0,0,0,0,0,0,0,0,0,0,0,0,0,0,0,
0,0,0,0,0,0,0,0,0,0,0,0,0,0,0,0,0,0,0,0,0,0,0,0,0,0,0,0,0,0,0,0,0,0,0,0,0,0,0,0,0,0,0,0,0,0,0,0,0,0,0,0,0,0,0,0,0,0,0,0,0,0,0,0,0,0,0,0,0,0,0,0,0,0,0,
0,0,0,0,0,0,0,0,0,0,0,0,0,0,0,0,0,0,0,0,0,0,0,0,0,0,0,0,0,0,0,0,0,0,0,0,0,0,0,0,0,0,0,0,0,0,0,0,0,0,0,0,0,0,0,0,0,0,0,0,0,0,0,0,0,0,0,0,0,0,0,0,0,0,0,
0,0,0,0,0,0,0,0,0,0,0,0,0,0,0,0,0,0,0,0,0,0,0,0,0,0,0,0,0,0,0,0,0,0,0,0,0,0,0,0,0,0,0,0,0,0,0,0,0,0,0,0,0,0,0,0,0,0,0,0,0,0,0,0,0,0,0,0,0,0,0,0,0,0,0,
0,0,0,0,0,0,0,0,0,0,0,0,0,0,0,0,0,0,0,0,0,0,0,0,0,0,0,0,0,0,0,0,0,0,0,0,0,0,0,0,0,0,0,0,0,0,0,0,0,0,0,0,0,0,0,0,0,0,0,0,0,0,0,0,0,0,0,0,0,0,0,0,0,0,0
</data>
 </layer>
 <layer id="10" name="COPA ARVORE 2" width="75" height="75" visible="0" locked="1">
  <properties>
   <property name="above" type="bool" value="true"/>
   <property name="priority" type="int" value="10010"/>
  </properties>
  <data encoding="csv">
0,0,0,0,0,0,0,0,0,0,0,0,0,0,0,0,0,0,0,0,0,0,0,0,0,0,0,0,0,0,0,0,0,0,0,0,0,0,0,0,0,0,0,0,0,0,0,0,0,0,0,0,0,0,0,0,0,0,0,0,0,0,0,0,0,0,0,0,0,0,0,0,0,0,0,
0,0,0,0,0,0,0,0,0,0,0,0,0,0,0,0,0,0,0,0,0,0,0,0,0,0,0,0,0,0,0,0,0,0,0,0,0,0,0,0,0,0,0,0,0,0,0,0,0,0,0,0,0,0,0,0,0,0,0,0,0,0,0,0,0,0,0,0,0,0,0,0,0,0,0,
0,0,0,0,0,0,0,0,0,0,0,0,0,0,0,0,0,0,0,0,2147483920,2147483919,2147483918,2147483917,0,0,0,0,0,0,0,0,0,0,0,0,0,0,0,0,0,0,0,0,0,0,0,0,0,0,0,0,0,0,0,0,0,0,0,0,0,0,0,0,0,0,0,0,0,0,0,0,0,0,0,
0,0,0,0,0,0,0,0,0,0,0,0,0,0,0,0,0,0,0,0,2147483946,2147483945,2147483944,2147483943,0,0,0,0,0,0,0,0,0,0,0,0,0,0,0,0,0,0,0,0,0,0,0,0,0,0,0,0,0,0,0,0,0,0,0,0,0,0,0,0,0,0,0,0,0,0,0,0,0,0,0,
0,0,0,0,0,0,0,0,0,0,0,0,0,0,0,0,0,0,0,0,2147483972,2147483971,2147483970,2147483969,0,0,0,0,0,0,0,0,0,0,0,0,0,0,0,0,0,0,0,0,0,0,0,0,0,0,0,0,0,0,0,0,0,0,0,0,0,0,0,0,0,0,0,0,0,0,0,0,0,0,0,
0,0,0,0,0,0,0,0,0,0,0,0,0,0,0,0,0,0,0,0,2147483998,2147483997,2147483996,2147483995,0,0,0,0,0,0,0,0,0,0,0,0,0,0,0,0,0,0,0,0,0,0,0,0,0,0,0,0,0,0,0,0,0,0,0,0,0,0,0,0,0,0,0,0,0,0,0,0,0,0,0,
0,0,0,0,0,0,0,0,0,0,0,0,0,0,0,0,0,0,0,0,2147484024,2147484023,2147484022,2147484021,0,0,0,0,0,0,0,0,0,0,0,0,0,0,0,0,0,0,0,0,0,0,0,0,0,0,0,0,0,0,0,0,0,0,0,0,0,0,2147483920,2147483919,2147483918,2147483917,0,0,0,0,0,0,0,0,0,
0,0,0,0,0,0,0,0,0,0,0,0,0,0,0,0,0,0,0,0,2147484050,139,139,2147484047,0,0,0,0,0,0,0,0,0,0,0,0,0,0,0,0,0,0,0,0,0,0,0,0,0,0,0,0,0,0,0,0,0,0,0,0,0,0,2147483946,2147483945,2147483944,2147483943,0,0,0,0,0,0,0,0,0,
0,0,0,0,0,0,0,0,0,0,0,0,0,0,0,0,0,0,0,0,2147484076,139,139,2147484073,0,0,0,0,0,0,0,0,0,0,0,0,0,0,0,0,0,0,0,0,0,0,0,0,0,0,0,0,0,0,0,0,0,0,0,0,0,0,2147483972,2147483971,2147483970,2147483969,0,0,0,0,0,0,0,0,0,
0,0,0,0,0,0,0,0,0,0,0,0,0,0,0,0,0,0,0,0,0,0,0,0,0,0,0,0,0,0,0,0,0,0,0,0,0,0,0,0,0,0,0,0,0,0,0,0,0,0,0,0,0,0,0,0,0,0,0,0,0,0,2147483998,2147483997,2147483996,2147483995,0,0,0,0,0,0,0,0,0,
0,0,0,0,0,0,0,0,0,0,0,0,0,0,0,0,0,0,0,0,0,0,0,0,0,0,0,0,0,0,0,0,0,0,0,0,0,0,0,0,0,0,0,0,0,0,0,0,0,0,0,0,0,0,0,0,0,0,0,0,0,0,2147484024,2147484023,2147484022,2147484021,0,0,0,0,0,0,0,0,0,
0,0,0,0,0,0,0,0,0,0,0,0,0,0,0,0,0,0,0,0,0,0,0,0,0,0,0,0,0,0,0,0,0,0,0,0,0,0,0,0,0,0,0,0,0,0,0,0,0,0,0,0,0,0,0,0,0,0,0,0,0,0,2147484050,139,139,2147484047,0,0,0,0,0,0,0,0,0,
0,0,0,0,0,0,0,0,0,0,0,0,0,0,0,0,0,0,0,0,0,0,0,0,0,0,0,0,0,0,0,0,0,0,0,0,0,0,0,0,0,0,0,0,0,0,0,0,0,0,0,0,0,0,0,0,0,0,0,0,0,0,2147484076,139,139,2147484073,0,0,0,0,0,0,0,0,0,
0,0,0,0,0,0,0,0,0,0,0,0,0,0,0,0,0,0,0,0,0,0,0,0,0,0,0,0,0,0,0,0,0,0,0,0,0,0,0,0,0,0,0,0,0,0,0,0,0,0,0,0,0,0,0,0,0,0,0,0,0,0,0,0,0,0,0,0,0,0,0,0,0,0,0,
0,0,0,0,0,0,0,0,0,0,0,0,0,0,0,0,0,0,0,0,0,0,0,0,0,0,0,0,0,0,0,0,0,0,0,0,0,0,0,0,0,0,0,0,0,0,0,0,0,0,0,0,0,0,0,0,0,0,0,0,0,0,0,0,0,0,0,0,0,0,0,0,0,0,0,
0,0,0,0,0,0,0,0,0,0,0,0,0,0,0,0,0,0,0,0,0,0,0,0,0,0,0,0,0,0,0,0,0,0,0,0,0,0,0,0,0,0,0,0,0,0,0,0,0,0,0,0,0,0,0,0,0,0,0,0,0,0,0,0,0,0,0,0,0,0,0,0,0,0,0,
0,0,0,0,0,0,0,0,0,0,0,0,0,0,0,0,0,0,0,0,0,0,0,0,0,0,0,0,0,0,0,0,0,0,0,0,0,0,0,0,0,0,0,0,0,0,0,0,0,0,0,0,0,0,0,0,0,0,0,0,0,0,0,0,0,0,0,0,0,0,0,0,0,0,0,
0,0,0,0,0,0,0,0,0,0,0,0,0,0,0,0,0,0,0,0,0,0,0,0,0,0,0,0,0,0,0,0,0,0,0,0,0,0,0,0,0,0,0,0,0,0,0,0,0,0,0,0,0,0,0,0,0,0,0,0,0,0,0,0,0,0,0,0,0,0,0,0,0,0,0,
0,0,0,0,0,0,0,0,0,0,0,0,0,0,0,0,0,0,0,0,0,0,0,0,0,0,0,0,0,0,0,0,0,0,0,0,0,0,0,0,0,0,0,0,0,0,0,0,0,0,0,0,0,0,0,0,0,0,0,0,0,0,0,0,0,0,0,0,0,0,0,0,0,0,0,
0,0,0,0,0,0,0,0,0,0,0,0,0,0,0,0,0,0,0,0,0,0,0,0,0,0,0,0,0,0,0,0,0,0,0,0,0,0,0,0,0,0,0,0,0,0,0,0,0,0,0,0,0,0,0,0,0,0,0,0,0,0,0,0,0,0,0,0,0,0,0,0,0,0,0,
0,0,0,0,0,0,0,0,0,0,0,0,0,0,0,0,0,0,0,0,0,0,0,0,0,0,0,0,0,0,0,0,0,0,0,0,0,0,0,0,0,0,0,0,0,0,0,0,0,0,0,0,0,0,0,0,0,0,0,0,0,0,0,0,0,0,0,0,0,0,0,0,0,0,0,
0,0,0,0,0,0,0,0,0,0,0,0,0,0,0,0,0,0,0,0,0,0,0,0,0,0,0,0,0,0,0,0,0,0,0,0,0,0,0,0,0,0,0,0,0,0,0,0,0,0,0,0,0,0,0,0,0,0,0,0,0,0,0,0,0,0,0,0,0,0,0,0,0,0,0,
0,0,0,0,0,0,0,0,0,0,0,0,0,0,0,0,0,0,0,0,0,0,0,0,0,0,0,0,0,0,0,0,0,0,0,0,0,0,0,0,0,0,0,0,0,0,0,0,0,0,0,0,0,0,0,0,2147483920,2147483919,2147483918,2147483917,0,0,0,0,0,0,0,0,0,0,0,0,0,0,0,
0,0,0,0,0,0,0,0,0,0,0,0,0,0,0,0,0,0,0,0,0,0,0,0,0,0,0,0,0,0,0,0,0,0,0,0,0,0,0,0,0,0,0,0,0,0,0,0,0,0,0,0,0,0,0,0,2147483946,2147483945,2147483944,2147483943,0,0,0,0,0,0,0,0,0,0,0,0,0,0,0,
0,0,0,0,0,0,0,0,0,0,0,0,0,0,0,0,0,0,0,0,0,0,0,0,0,0,0,0,0,0,0,0,0,0,0,0,0,0,0,0,0,0,0,0,0,0,0,0,0,0,0,0,0,0,0,0,2147483972,2147483971,2147483970,2147483969,0,0,0,2147483920,2147483919,2147483918,2147483917,0,0,0,0,0,0,0,0,
0,0,0,0,0,0,0,0,0,0,0,0,0,0,0,0,0,0,0,0,0,0,0,0,0,0,0,0,0,0,0,0,0,0,0,0,0,0,0,0,0,0,0,0,0,0,0,0,0,0,0,0,0,0,0,0,2147483998,2147483997,2147483996,2147483995,0,0,0,2147483946,2147483945,2147483944,2147483943,0,0,0,0,0,0,0,0,
0,0,0,0,0,0,0,0,0,0,0,0,0,0,0,0,0,0,0,0,0,0,0,0,0,0,0,0,0,0,0,0,0,0,0,0,0,0,0,0,0,0,0,0,0,0,0,0,0,0,0,0,0,0,0,0,2147484024,2147484023,2147484022,2147484021,0,0,0,2147483972,2147483971,2147483970,2147483969,0,0,0,0,0,0,0,0,
0,0,0,0,0,0,0,0,0,0,0,0,0,0,0,0,0,0,0,0,0,0,0,0,0,0,0,0,0,0,0,0,0,0,0,0,0,0,0,0,0,0,269,270,271,272,0,0,0,0,0,0,0,0,0,0,2147484050,139,139,2147484047,0,0,0,2147483998,2147483997,2147483996,2147483995,0,0,0,0,0,0,0,0,
0,0,0,0,0,0,0,0,0,0,0,0,0,0,0,0,0,0,0,0,0,0,0,0,0,0,0,0,0,0,0,0,0,0,0,0,0,0,0,0,0,0,295,296,297,298,0,0,0,0,0,0,0,0,0,0,2147484076,139,139,2147484073,0,0,0,2147484024,2147484023,2147484022,2147484021,0,0,0,0,0,0,0,0,
0,0,0,0,0,0,0,0,0,0,0,0,0,0,0,0,0,0,0,0,0,0,0,0,0,0,0,0,0,0,0,0,0,0,0,0,0,0,0,0,0,0,321,322,323,324,269,270,271,272,0,0,0,0,0,0,0,0,0,0,0,0,0,2147484050,139,139,2147484047,0,0,0,0,0,0,0,0,
0,0,0,0,0,0,0,0,0,0,0,0,0,0,0,0,0,0,0,0,0,0,0,0,0,0,0,0,0,0,0,0,0,0,0,0,0,0,0,0,0,0,347,348,349,350,295,296,297,298,0,0,269,270,271,272,0,0,0,0,0,0,0,2147484076,139,139,2147484073,0,0,0,0,0,0,0,0,
0,0,0,0,0,0,0,0,0,0,0,0,0,0,0,0,0,0,0,0,0,0,0,0,0,0,0,0,0,0,0,0,0,0,0,0,0,0,0,0,0,0,373,374,375,376,321,322,323,324,0,0,295,296,297,298,0,0,0,0,0,0,0,0,0,0,0,0,0,0,0,0,0,0,0,
0,0,0,0,0,0,0,0,0,0,0,0,0,0,0,0,0,0,0,0,0,0,0,0,0,0,0,0,0,0,0,0,0,0,0,0,0,0,0,0,0,0,399,139,139,402,347,348,349,350,0,0,321,322,323,324,0,0,0,0,0,0,0,0,0,0,0,0,0,0,0,0,0,0,0,
0,0,0,0,0,0,0,0,0,0,0,0,0,0,0,0,0,0,0,0,0,0,0,0,0,0,0,0,0,0,0,0,0,0,0,0,0,0,0,0,0,0,425,139,139,428,373,374,375,376,0,0,347,348,349,350,0,0,0,0,0,0,0,0,0,0,0,0,0,0,0,0,0,0,0,
0,0,0,0,0,0,0,0,0,0,0,0,0,0,0,0,0,0,0,0,0,0,0,0,0,0,0,0,0,0,0,0,0,0,0,0,0,0,0,0,0,0,0,0,0,0,399,139,139,402,0,0,373,374,375,376,0,0,0,0,0,0,0,0,0,0,0,0,0,0,0,0,0,0,0,
0,0,0,0,0,0,0,0,0,0,0,0,0,0,0,0,0,0,0,0,0,0,0,0,0,0,0,0,0,0,0,0,0,0,0,0,0,0,0,0,0,0,0,0,0,0,425,139,139,428,0,0,399,139,139,402,0,0,0,0,0,0,0,0,0,0,0,0,0,0,0,0,0,0,0,
0,0,0,0,0,0,0,0,0,0,0,0,0,0,0,0,0,0,0,0,0,0,0,397,398,0,0,0,0,0,0,0,0,0,0,0,0,0,0,0,0,0,0,0,0,0,0,0,0,0,0,0,425,139,139,428,0,0,0,0,0,0,0,0,0,0,0,0,0,0,0,0,0,0,0,
0,0,0,0,0,0,0,0,0,0,0,0,0,0,0,0,0,0,0,0,0,0,0,423,424,0,0,0,0,0,0,0,0,0,0,0,0,0,0,0,0,0,0,0,0,0,0,0,0,0,0,0,0,0,0,0,0,0,0,0,0,0,0,0,0,0,0,0,0,0,0,0,0,0,0,
0,0,0,0,0,0,0,0,0,0,0,0,0,0,0,0,0,0,0,0,0,0,0,0,449,450,451,0,0,0,0,0,0,0,0,0,0,0,0,0,0,0,0,0,0,0,0,0,0,0,0,0,0,0,0,0,0,0,0,0,0,0,0,0,0,0,0,0,0,0,0,0,0,0,0,
0,0,0,0,0,0,0,0,0,0,0,0,0,0,0,0,0,0,0,0,0,0,0,0,475,476,477,0,0,0,0,0,0,0,0,0,0,0,0,0,0,0,0,0,0,0,0,0,0,0,0,0,0,0,0,0,0,0,0,0,0,0,0,0,0,0,0,0,0,0,0,0,0,0,0,
0,0,0,0,0,0,0,0,0,0,0,0,0,0,0,0,0,0,0,0,0,0,449,450,451,0,0,0,0,0,0,0,0,0,0,0,0,0,0,0,0,0,0,0,0,0,0,0,0,0,0,0,0,0,0,0,0,0,0,0,0,0,0,0,0,0,0,0,0,0,0,0,0,0,0,
0,0,0,0,0,0,0,0,0,0,0,0,0,0,0,0,0,0,0,0,0,0,475,476,477,0,0,0,0,0,0,0,0,0,0,0,0,0,0,0,0,0,0,0,0,0,0,0,0,0,0,0,0,0,0,0,0,0,0,0,0,0,0,0,0,0,0,0,0,0,0,0,0,0,0,
0,0,0,0,0,0,0,0,0,0,0,0,0,0,0,0,0,0,0,0,0,0,0,0,0,0,0,0,0,397,398,0,0,0,0,0,0,0,0,0,0,0,0,0,0,0,0,0,0,0,0,0,0,0,0,0,0,0,0,0,0,0,0,0,0,0,0,0,0,0,0,0,0,0,0,
0,0,0,0,0,0,0,0,0,0,0,0,0,0,0,0,0,0,0,0,0,0,0,0,0,0,0,0,0,423,424,0,0,0,0,0,0,0,0,0,0,0,0,0,0,0,0,0,0,0,0,0,0,0,0,0,0,0,0,0,0,0,0,0,0,0,0,0,0,0,0,0,0,0,0,
0,0,0,0,0,0,0,0,0,0,0,0,0,0,0,0,0,0,0,0,0,0,0,0,0,0,0,0,0,0,0,0,0,0,0,0,0,0,0,0,0,0,0,0,0,0,0,0,0,0,0,0,0,0,0,0,0,0,0,0,0,0,0,0,0,0,0,0,0,0,0,0,0,0,0,
0,0,0,0,0,0,0,0,0,0,0,0,0,0,0,0,0,0,0,0,0,0,0,0,0,0,0,0,0,0,0,0,0,0,0,0,0,0,0,0,0,0,0,0,0,0,0,0,0,0,0,0,0,0,0,0,0,0,0,0,0,0,0,0,0,0,0,0,0,0,0,0,0,0,0,
0,0,0,0,0,0,0,0,0,0,0,0,0,0,0,0,0,0,0,0,0,0,0,0,0,0,0,0,0,0,0,0,0,0,0,0,0,0,0,0,0,0,0,0,0,0,0,0,0,0,0,0,0,0,0,0,0,0,0,0,0,0,0,0,0,0,0,0,0,0,0,0,0,0,0,
0,0,0,0,0,0,0,0,0,0,0,0,0,0,0,0,0,0,0,0,0,0,0,0,0,0,0,0,0,0,0,0,0,0,0,0,0,0,0,0,0,0,0,0,0,0,0,0,0,0,0,0,0,0,0,0,0,0,0,0,0,0,0,0,0,0,0,0,0,0,0,0,0,0,0,
0,0,0,0,0,0,0,0,0,0,0,0,0,0,0,0,0,0,0,0,0,0,0,0,0,0,0,0,0,0,0,0,0,0,0,0,0,0,0,0,0,0,0,0,0,0,0,0,0,0,0,0,0,0,0,0,0,0,0,0,0,0,0,0,0,0,0,0,0,0,0,0,0,0,0,
0,0,0,0,0,0,0,0,0,0,0,0,0,0,0,0,0,0,0,0,0,0,0,0,0,0,0,0,0,0,0,0,0,0,0,0,0,0,0,0,0,0,0,0,0,0,0,0,0,0,0,0,0,0,0,0,0,0,0,0,0,0,0,0,0,0,0,0,0,0,0,0,0,0,0,
0,0,0,0,0,0,0,0,0,0,0,0,0,0,0,0,0,0,0,0,0,0,0,0,0,0,0,0,0,0,0,0,0,0,0,0,0,0,0,0,0,0,0,0,0,0,0,0,0,0,0,0,0,0,0,0,0,0,0,0,0,0,0,0,0,0,0,0,0,0,0,0,0,0,0,
0,0,0,0,0,0,0,0,0,0,0,0,0,0,0,0,0,0,0,0,0,0,0,0,0,0,0,0,0,0,0,0,0,0,0,0,0,0,0,0,0,0,0,0,0,0,0,0,0,0,0,0,0,0,0,0,0,0,0,0,0,0,0,0,0,0,0,0,0,0,0,0,0,0,0,
0,0,0,0,0,0,0,0,0,0,0,0,0,0,0,0,0,0,0,0,0,0,0,0,0,0,0,0,0,0,0,0,0,0,0,0,0,0,0,0,0,0,0,0,0,0,0,0,0,0,0,0,0,0,0,0,0,0,0,0,0,0,0,0,0,0,0,0,0,0,0,0,0,0,0,
0,0,0,0,0,2147483920,2147483919,2147483918,2147483917,0,0,0,0,0,0,0,0,0,0,0,0,0,0,0,0,0,0,0,0,0,0,0,0,0,0,0,0,0,0,0,0,0,0,0,0,0,0,0,0,0,0,0,0,0,0,0,0,0,0,0,0,0,0,0,0,0,0,0,0,0,0,0,0,0,0,
0,0,0,0,0,2147483946,2147483945,2147483944,2147483943,0,0,0,0,0,0,0,0,0,0,0,0,0,0,0,0,0,0,0,0,0,0,0,0,0,0,0,0,0,0,0,0,0,0,0,0,0,0,0,0,0,0,0,0,0,0,0,0,0,0,0,0,0,0,0,0,0,0,0,0,0,0,0,0,0,0,
0,0,0,0,0,2147483972,2147483971,2147483970,2147483969,0,0,0,0,0,0,0,0,0,0,0,0,0,0,0,0,0,0,0,0,0,0,0,0,0,0,0,0,0,0,0,0,0,0,0,0,0,0,0,0,0,0,0,0,0,0,0,0,0,0,0,0,0,0,0,0,0,0,0,0,0,0,0,0,0,0,
0,0,0,0,0,2147483998,2147483997,2147483996,2147483995,0,0,0,0,0,0,0,0,0,0,0,0,0,0,0,0,0,0,0,0,0,0,0,0,0,0,0,0,0,0,0,0,0,0,0,0,0,0,0,0,0,0,0,0,0,0,0,0,0,0,0,0,0,0,0,0,0,0,0,0,0,0,0,0,0,0,
0,0,0,0,0,2147484024,2147484023,2147484022,2147484021,0,0,0,0,0,0,0,0,0,0,0,0,0,0,0,0,0,0,0,0,0,0,0,0,0,0,0,0,0,0,0,0,0,0,0,0,0,0,0,0,0,0,0,0,0,0,0,0,0,0,0,0,0,0,0,0,0,0,0,0,0,0,0,0,0,0,
0,0,0,0,0,2147484050,139,139,2147484047,0,0,0,0,0,0,0,0,0,0,0,0,0,0,0,0,0,0,0,0,0,0,0,0,0,0,0,0,0,0,0,0,0,0,0,0,0,0,0,0,0,0,0,0,0,0,0,0,0,0,0,0,0,0,0,0,0,0,0,0,0,0,0,0,0,0,
0,0,0,0,0,2147484076,139,139,2147484073,0,0,0,0,0,0,0,0,0,0,0,0,0,0,0,0,0,0,0,0,0,0,0,0,0,0,0,0,0,0,0,0,0,0,0,0,0,0,0,0,0,0,0,0,0,0,0,0,0,0,0,0,0,0,0,0,0,0,0,0,0,0,0,0,0,0,
0,0,0,0,0,0,0,0,0,0,0,0,0,0,0,0,0,0,0,0,0,0,0,0,0,0,0,0,0,0,0,0,0,0,0,0,0,0,0,0,0,0,0,0,0,0,0,0,0,0,0,0,0,0,0,0,0,0,0,0,0,0,0,0,0,0,0,0,0,0,0,0,0,0,0,
0,0,0,0,0,0,0,0,0,0,0,0,0,0,0,2147483920,2147483919,2147483918,2147483917,0,0,0,0,0,0,0,0,0,0,0,0,0,0,0,0,0,0,0,0,0,0,0,0,0,0,0,0,0,0,0,0,0,0,0,0,0,0,0,0,0,0,0,0,0,0,0,0,0,0,0,0,0,0,0,0,
0,0,0,0,0,0,0,0,0,0,0,0,0,0,0,2147483946,2147483945,2147483944,2147483943,0,0,0,0,0,0,0,0,0,0,0,0,0,0,0,0,0,0,0,0,0,0,0,0,0,0,0,0,0,0,0,0,0,0,0,0,0,0,0,0,0,0,0,0,0,0,0,0,0,0,0,0,0,0,0,0,
0,0,0,0,0,0,0,0,0,0,0,0,0,0,0,2147483972,2147483971,2147483970,2147483969,0,0,0,0,0,0,0,0,0,0,0,0,0,0,0,0,0,0,0,0,0,0,0,0,0,0,0,0,0,0,0,0,0,0,0,0,0,0,0,0,0,0,0,0,0,0,0,0,0,0,0,0,0,0,0,0,
0,0,0,0,0,0,0,0,0,0,0,0,0,0,0,2147483998,2147483997,2147483996,2147483995,0,0,0,0,0,0,0,0,0,0,0,0,0,0,0,0,0,0,0,0,0,0,0,0,0,0,0,0,0,0,0,0,0,0,0,0,0,0,0,0,0,0,0,0,0,0,0,0,0,0,0,0,0,0,0,0,
0,0,0,0,0,0,0,0,0,0,0,0,0,0,0,2147484024,2147484023,2147484022,2147484021,0,0,0,0,0,0,0,0,0,0,0,0,0,0,0,0,0,0,0,0,0,0,0,0,0,0,0,0,0,0,0,0,0,0,0,0,0,0,0,0,0,0,0,0,0,0,0,0,0,0,0,0,0,0,0,0,
0,0,0,0,0,0,0,0,0,0,0,0,0,0,0,2147484050,139,139,2147484047,0,0,0,0,0,0,0,0,0,0,0,0,0,0,0,0,0,0,0,0,0,0,0,0,0,0,0,0,0,0,0,0,0,0,0,0,0,0,0,0,0,0,0,0,0,0,0,0,0,0,0,0,0,0,0,0,
0,0,0,0,0,0,0,0,0,0,0,0,0,0,0,2147484076,139,139,2147484073,0,0,0,0,0,0,0,0,0,0,0,0,0,0,0,0,0,0,0,0,0,0,0,0,0,0,0,0,0,0,0,0,0,0,0,0,0,0,0,0,0,0,0,0,0,0,0,0,0,0,0,0,0,0,0,0,
0,0,0,0,0,0,0,0,0,0,0,0,0,0,0,0,0,0,0,0,0,0,0,0,0,0,0,0,0,0,0,0,0,0,0,0,0,0,0,0,0,0,0,0,0,0,0,0,0,0,0,0,0,0,0,0,0,0,0,0,0,0,0,0,0,0,0,0,0,0,0,0,0,0,0,
0,0,0,0,0,0,0,0,0,0,0,0,0,0,0,0,0,0,0,0,0,0,0,0,0,0,0,0,0,0,0,0,0,0,0,0,0,0,0,0,0,0,0,0,0,0,0,0,0,0,0,0,0,0,0,0,0,0,0,0,0,0,0,0,0,0,0,0,0,0,0,0,0,0,0,
0,0,0,0,0,0,0,0,0,0,0,0,0,0,0,0,0,0,0,0,0,0,0,0,0,0,0,0,0,0,0,0,0,0,0,0,0,0,0,0,0,0,0,0,0,0,0,0,0,0,0,0,0,0,0,0,0,0,0,0,0,0,0,0,0,0,0,0,0,0,0,0,0,0,0,
0,0,0,0,0,0,0,0,0,0,0,0,0,0,0,0,0,0,0,0,0,0,0,0,0,0,0,0,0,0,0,0,0,0,0,0,0,0,0,0,0,0,0,0,0,0,0,0,0,0,0,0,0,0,0,0,0,0,0,0,0,0,0,0,0,0,0,0,0,0,0,0,0,0,0,
0,0,0,0,0,0,0,0,0,0,0,0,0,0,0,0,0,0,0,0,0,0,0,0,0,0,0,0,0,0,0,0,0,0,0,0,0,0,0,0,0,0,0,0,0,0,0,0,0,0,0,0,0,0,0,0,0,0,0,0,0,0,0,0,0,0,0,0,0,0,0,0,0,0,0,
0,0,0,0,0,0,0,0,0,0,0,0,0,0,0,0,0,0,0,0,0,0,0,0,0,0,0,0,0,0,0,0,0,0,0,0,0,0,0,0,0,0,0,0,0,0,0,0,0,0,0,0,0,0,0,0,0,0,0,0,0,0,0,0,0,0,0,0,0,0,0,0,0,0,0,
0,0,0,0,0,0,0,0,0,0,0,0,0,0,0,0,0,0,0,0,0,0,0,0,0,0,0,0,0,0,0,0,0,0,0,0,0,0,0,0,0,0,0,0,0,0,0,0,0,0,0,0,0,0,0,0,0,0,0,0,0,0,0,0,0,0,0,0,0,0,0,0,0,0,0
</data>
 </layer>
 <layer id="7" name="TRONCO ARVORE 3" width="75" height="75" visible="0" locked="1">
  <data encoding="csv">
0,0,0,0,0,0,0,0,0,0,0,0,0,0,0,0,0,0,0,0,0,0,0,0,0,0,0,0,0,0,0,0,0,0,0,0,0,0,0,0,0,0,0,0,0,0,0,0,0,0,0,0,0,0,0,0,0,0,0,0,0,0,0,0,0,0,0,0,0,0,0,0,0,0,0,
0,0,0,0,0,0,0,0,0,0,0,0,0,0,0,0,0,0,0,0,0,0,0,0,0,0,0,0,0,0,0,0,0,0,0,0,0,0,0,0,0,0,0,0,0,0,0,0,0,0,0,0,0,0,0,0,0,0,0,0,0,0,0,0,0,0,0,0,0,0,0,0,0,0,0,
0,0,0,0,0,0,0,0,0,0,0,0,0,0,0,0,0,0,0,0,0,0,0,0,0,0,0,0,0,0,0,0,0,0,0,0,0,0,0,0,0,0,0,0,0,0,0,0,0,0,0,0,0,0,0,0,0,0,0,0,0,0,0,0,0,0,0,0,0,0,0,0,0,0,0,
0,0,0,0,0,0,0,0,0,0,0,0,0,0,0,0,0,0,0,0,0,0,0,0,0,0,0,0,0,0,0,0,0,0,0,0,0,0,0,0,0,0,0,0,0,0,0,0,0,0,0,0,0,0,0,0,0,0,0,0,0,0,0,0,0,0,0,0,0,0,0,0,0,0,0,
0,0,0,0,0,0,0,0,0,0,0,0,0,0,0,0,0,0,0,0,0,0,0,0,0,0,0,0,0,0,0,0,0,0,0,0,0,0,0,0,0,0,0,0,0,0,0,0,0,0,0,0,0,0,0,0,0,0,0,0,0,0,0,0,0,0,0,0,0,0,0,0,0,0,0,
0,0,0,0,0,0,0,0,0,0,0,0,0,0,0,0,0,0,0,0,0,0,0,0,0,0,0,0,0,0,0,0,0,0,0,0,0,0,0,0,0,0,0,0,0,0,0,0,0,0,0,0,0,0,0,0,0,0,0,0,0,0,0,0,0,0,0,0,0,0,0,0,0,0,0,
0,0,0,0,0,0,0,0,0,0,0,0,0,0,0,0,0,0,0,0,0,0,0,0,0,0,0,0,0,0,0,0,0,0,0,0,0,0,0,0,0,0,0,0,0,0,0,0,0,0,0,0,0,0,0,0,0,0,0,0,0,0,0,0,0,0,0,0,0,0,0,0,0,0,0,
0,0,0,0,0,0,0,0,0,0,0,0,0,0,0,0,0,0,0,0,0,0,0,0,0,0,0,0,0,0,0,0,0,0,0,0,0,0,0,0,0,0,0,0,0,0,0,0,0,0,0,0,0,0,0,0,0,0,0,0,0,0,0,0,0,0,0,0,0,0,0,0,0,0,0,
0,0,0,0,0,0,0,0,0,0,0,0,0,0,0,0,0,0,0,0,0,0,0,0,0,0,0,0,0,0,0,0,0,0,0,0,0,0,0,0,0,0,0,0,0,0,0,0,0,0,0,0,0,0,0,0,0,0,0,0,0,0,0,0,0,0,0,0,0,0,0,0,0,0,0,
0,0,0,0,0,0,0,0,0,0,0,0,0,0,0,0,0,0,0,0,0,0,0,0,0,0,0,0,0,0,0,0,0,0,0,0,0,0,0,0,0,0,0,0,0,0,0,0,0,0,0,0,0,0,0,0,0,0,0,0,0,0,0,0,0,0,0,0,0,0,0,0,0,0,0,
0,0,0,0,0,0,0,0,0,0,0,0,0,0,0,0,0,0,0,0,0,0,0,0,0,0,0,0,0,0,0,0,0,0,0,0,0,0,0,0,0,0,0,0,0,0,0,0,0,0,0,0,0,0,0,0,0,0,0,0,0,0,0,0,0,0,0,0,0,0,0,0,0,0,0,
0,0,0,0,0,0,0,0,0,0,0,0,0,0,0,0,0,0,0,0,0,0,0,0,0,0,0,0,0,0,0,0,0,0,0,0,0,0,0,0,0,0,0,0,0,0,0,0,0,0,0,0,0,0,0,0,0,0,0,0,0,0,0,0,0,0,0,0,0,0,0,0,0,0,0,
0,0,0,0,0,0,0,0,0,0,0,0,0,0,0,0,0,0,0,0,0,0,0,0,0,0,0,0,0,0,0,0,0,0,0,0,0,0,0,0,0,0,0,0,0,0,0,0,0,0,0,0,0,0,0,0,0,0,0,0,0,0,0,0,0,0,0,0,0,0,0,0,0,0,0,
0,0,0,0,0,0,0,0,0,0,0,0,0,0,0,0,0,0,0,0,0,0,0,0,0,0,0,0,0,0,0,0,0,0,0,0,0,0,0,0,0,0,0,0,0,0,0,0,0,0,0,0,0,0,0,0,0,0,0,0,0,0,0,0,0,0,0,0,0,0,0,0,0,0,0,
0,0,0,0,0,0,0,0,0,0,0,0,0,0,0,0,0,0,0,0,0,0,0,0,0,0,0,0,0,0,0,0,0,0,0,0,0,0,0,0,0,0,0,0,0,0,0,0,0,0,0,0,0,0,0,0,0,0,0,0,0,0,0,0,0,0,0,0,0,0,0,0,0,0,0,
0,0,0,0,0,0,0,0,0,0,0,0,0,0,0,0,0,0,0,0,0,0,0,0,0,0,0,0,0,0,0,0,0,0,0,0,0,0,0,0,0,0,0,0,0,0,0,0,0,0,0,0,0,0,0,0,0,0,0,0,0,0,0,0,0,0,0,0,0,0,0,0,0,0,0,
0,0,0,0,0,0,0,0,0,0,0,0,0,0,0,0,0,0,0,0,0,0,0,0,0,0,0,0,0,0,0,0,0,0,0,0,0,0,0,0,0,0,0,0,0,0,0,0,0,0,0,0,0,0,0,0,0,0,0,0,0,0,0,0,0,0,0,0,0,0,0,0,0,0,0,
0,0,0,0,0,0,0,0,0,0,0,0,0,0,0,0,0,0,0,0,0,0,0,0,0,0,0,0,0,0,0,0,0,0,0,0,0,0,0,0,0,0,0,0,0,0,0,0,0,0,0,0,0,0,0,0,0,0,0,0,0,0,0,0,0,0,0,0,0,0,0,0,0,0,0,
0,0,0,0,0,0,0,0,0,0,0,0,0,0,0,0,0,0,0,0,0,0,0,0,0,0,0,0,0,0,0,0,0,0,0,0,0,0,0,0,0,0,0,0,0,0,0,0,0,0,0,0,0,0,0,0,0,0,0,0,0,0,0,0,0,0,0,0,0,0,0,0,0,0,0,
0,0,0,0,0,0,0,0,0,0,0,0,0,0,0,0,0,0,0,0,0,0,0,0,0,0,0,0,0,0,0,0,0,0,0,0,0,0,0,0,0,0,0,0,0,0,0,0,0,0,0,0,0,0,0,0,0,0,0,0,0,0,0,0,0,0,0,0,0,0,0,0,0,0,0,
0,0,0,0,0,0,0,0,0,0,0,0,0,0,0,0,0,0,0,0,0,0,0,0,0,0,0,0,0,0,0,0,0,0,0,0,0,0,0,0,0,0,0,0,0,0,0,0,0,0,0,0,0,0,0,0,0,0,0,0,0,0,0,0,0,0,0,0,0,0,0,0,0,0,0,
0,0,0,0,0,0,0,0,0,0,0,0,0,0,0,0,0,0,0,0,0,0,0,0,0,0,0,0,0,0,0,0,0,0,0,0,0,0,0,0,0,0,0,0,0,0,0,0,0,0,0,0,0,0,0,0,0,0,0,0,0,0,0,0,0,0,0,0,0,0,0,0,0,0,0,
0,0,0,0,0,0,0,0,0,0,0,0,0,0,0,0,0,0,0,0,0,0,0,0,0,0,0,0,0,0,0,0,0,0,0,0,0,0,0,0,0,0,0,0,0,0,0,0,0,0,0,0,0,0,0,0,0,0,0,0,0,0,0,0,0,0,0,0,0,0,0,0,0,0,0,
0,0,0,0,0,0,0,0,0,0,0,0,0,0,0,0,0,0,0,0,0,0,0,0,0,0,0,0,0,0,0,0,0,0,0,0,0,0,0,0,0,0,0,0,0,0,0,0,0,0,0,0,0,0,0,0,0,0,0,0,0,0,0,0,0,0,0,0,0,0,0,0,0,0,0,
0,0,0,0,0,0,0,0,0,0,0,0,0,0,0,0,0,0,0,0,0,0,0,0,0,0,0,0,0,0,0,0,0,0,0,0,0,0,0,0,0,0,0,0,0,0,0,0,0,0,0,0,0,0,0,0,0,0,0,0,0,0,0,0,0,0,0,0,0,0,0,0,0,0,0,
0,0,0,0,0,0,0,0,0,0,0,0,0,0,0,0,0,0,0,0,0,0,0,0,0,0,0,0,0,0,0,0,0,0,0,0,0,0,0,0,0,0,0,0,0,0,0,0,0,0,0,0,0,0,0,0,0,0,0,0,0,0,0,0,0,0,0,0,0,0,0,0,0,0,0,
0,0,0,0,0,0,0,0,0,0,0,0,0,0,0,0,0,0,0,0,0,0,0,0,0,0,0,0,0,0,0,0,0,0,0,0,0,0,0,0,0,0,0,0,0,0,0,0,0,0,0,0,0,0,0,0,0,0,0,0,0,0,0,0,0,0,0,0,0,0,0,0,0,0,0,
0,0,0,0,0,0,0,0,0,0,0,0,0,0,0,0,0,0,0,0,0,0,0,0,0,0,0,0,0,0,0,0,0,0,0,0,0,0,0,0,0,0,0,0,0,0,0,0,0,0,0,0,0,0,0,0,0,0,0,0,0,0,0,0,0,0,0,0,0,0,0,0,0,0,0,
0,0,0,0,0,0,0,0,0,0,0,0,0,0,0,0,0,0,0,0,0,0,0,0,0,0,0,0,0,0,0,0,0,0,0,0,0,0,0,0,0,0,0,0,0,0,0,0,0,0,0,0,0,0,0,0,0,0,0,0,0,0,0,0,0,0,0,0,0,0,0,0,0,0,0,
0,0,0,0,0,0,0,0,0,0,0,0,0,0,0,0,0,0,0,0,0,0,0,0,0,0,0,0,0,0,0,0,0,0,0,0,0,0,0,0,0,0,0,0,0,0,0,0,0,0,0,0,0,0,0,0,0,0,0,0,0,0,0,0,0,0,0,0,0,0,0,0,0,0,0,
0,0,0,0,0,0,0,0,0,0,0,0,0,0,0,0,0,0,0,0,0,0,0,0,0,0,0,0,0,0,0,0,0,0,0,0,0,0,0,0,0,0,0,139,139,139,272,0,0,0,0,0,0,0,0,0,0,0,0,0,0,0,0,0,0,0,0,0,0,0,0,0,0,0,0,
0,0,0,0,0,0,0,0,0,0,0,0,0,0,0,0,0,0,0,0,0,0,0,0,0,0,0,0,0,0,0,0,0,0,0,0,0,0,0,0,0,0,139,139,139,139,139,0,0,0,0,269,139,139,139,0,0,0,0,0,0,0,0,0,0,0,0,0,0,0,0,0,0,0,0,
0,0,0,0,0,0,0,0,0,0,0,0,0,0,0,0,0,0,0,0,0,0,0,0,0,0,0,0,0,0,0,0,0,0,0,0,0,0,0,0,0,0,139,139,139,139,139,269,139,139,139,139,139,139,139,0,0,0,0,0,0,0,0,0,0,0,0,0,0,0,0,0,0,0,0,
0,0,0,0,0,0,0,0,0,0,0,0,0,0,0,0,0,0,0,0,0,0,0,0,0,0,0,0,0,0,0,0,0,0,0,0,0,0,0,0,0,0,139,139,139,139,139,139,139,139,139,139,139,139,139,0,0,0,0,0,0,0,0,0,0,0,0,0,0,0,0,0,0,0,0,
0,0,0,0,0,0,0,0,0,0,0,0,0,0,0,0,0,0,0,0,0,0,0,0,0,0,0,0,0,0,0,0,0,0,0,0,0,0,0,0,0,0,0,139,139,139,139,139,139,139,139,139,139,139,139,0,0,0,0,0,0,0,0,0,0,0,0,0,0,0,0,0,0,0,0,
0,0,0,0,0,0,0,0,0,0,0,0,0,0,0,0,0,0,0,0,0,0,0,0,0,0,0,0,0,0,0,0,0,0,0,0,0,0,0,0,0,0,0,399,400,401,402,139,139,139,139,139,139,139,139,0,0,0,0,0,0,0,0,0,0,0,0,0,0,0,0,0,0,0,0,
0,0,0,0,0,0,0,0,0,0,0,0,0,0,0,0,0,0,0,0,0,0,0,0,0,0,0,0,0,0,0,0,0,0,0,0,0,0,0,0,0,0,0,425,426,427,428,139,139,139,139,399,400,401,402,0,0,0,0,0,0,0,0,0,0,0,0,0,0,0,0,0,0,0,0,
0,0,0,0,0,0,0,0,0,0,0,0,0,0,0,0,0,0,0,0,0,0,0,0,0,0,0,0,0,0,0,0,0,0,0,0,0,0,0,0,0,0,0,0,0,0,0,399,400,401,402,425,426,427,428,0,0,0,0,0,0,0,0,0,0,0,0,0,0,0,0,0,0,0,0,
0,0,0,0,0,0,0,0,0,0,0,0,0,0,0,0,0,0,0,0,0,0,0,0,0,0,0,0,0,0,0,0,0,0,0,0,0,0,0,0,0,0,0,0,0,0,0,425,426,427,428,0,0,0,0,0,0,0,0,0,0,0,0,0,0,0,0,0,0,0,0,0,0,0,0,
0,0,0,0,0,0,0,0,0,0,0,0,0,0,0,0,0,0,0,0,0,0,0,0,0,0,0,0,0,0,0,0,0,0,0,0,0,0,0,0,0,0,0,0,0,0,0,0,0,0,0,0,0,0,0,0,0,0,0,0,0,0,0,0,0,0,0,0,0,0,0,0,0,0,0,
0,0,0,0,0,0,0,0,0,0,0,0,0,0,0,0,0,0,0,0,0,0,0,0,0,0,0,0,0,0,0,0,0,0,0,0,0,0,0,0,0,0,0,0,0,0,0,0,0,0,0,0,0,0,0,0,0,0,0,0,0,0,0,0,0,0,0,0,0,0,0,0,0,0,0,
0,0,0,0,0,0,0,0,0,0,0,0,0,0,0,0,0,0,0,0,0,0,0,0,0,0,0,0,0,0,0,0,0,0,0,0,0,0,0,0,0,0,0,0,0,0,0,0,0,0,0,0,0,0,0,0,0,0,0,0,0,0,0,0,0,0,0,0,0,0,0,0,0,0,0,
0,0,0,0,0,0,0,0,0,0,0,0,0,0,0,0,0,0,0,0,0,0,0,0,0,0,0,0,0,0,0,0,0,0,0,0,0,0,0,0,0,0,0,0,0,0,0,0,0,0,0,0,0,0,0,0,0,0,0,0,0,0,0,0,0,0,0,0,0,0,0,0,0,0,0,
0,0,0,0,0,0,0,0,0,0,0,0,0,0,0,0,0,0,0,0,0,0,0,0,0,0,0,0,0,0,0,0,0,0,0,0,0,0,0,0,0,0,0,0,0,0,0,0,0,0,0,0,0,0,0,0,0,0,0,0,0,0,0,0,0,0,0,0,0,0,0,0,0,0,0,
0,0,0,0,0,0,0,0,0,0,0,0,0,0,0,0,0,0,0,0,0,0,0,0,0,0,0,0,0,0,0,0,0,0,0,0,0,0,0,0,0,0,0,0,0,0,0,0,0,0,0,0,0,0,0,0,0,0,0,0,0,0,0,0,0,0,0,0,0,0,0,0,0,0,0,
0,0,0,0,0,0,0,0,0,0,0,0,0,0,0,0,0,0,0,0,0,0,0,0,0,0,0,0,0,0,0,0,0,0,0,0,0,0,0,0,0,0,0,0,0,0,0,0,0,0,0,0,0,0,0,0,0,0,0,0,0,0,0,0,0,0,0,0,0,0,0,0,0,0,0,
0,0,0,0,0,0,0,0,0,0,0,0,0,0,0,0,0,0,0,0,0,0,0,0,0,0,0,0,0,0,0,0,0,0,0,0,0,0,0,0,0,0,0,0,0,0,0,0,0,0,0,0,0,0,0,0,0,0,0,0,0,0,0,0,0,0,0,0,0,0,0,0,0,0,0,
0,0,0,0,0,0,0,0,0,0,0,0,0,0,0,0,0,0,0,0,0,0,0,0,0,0,0,0,0,0,0,0,0,0,0,0,0,0,0,0,0,0,0,0,0,0,0,0,0,0,0,0,0,0,0,0,0,0,0,0,0,0,0,0,0,0,0,0,0,0,0,0,0,0,0,
0,0,0,0,0,0,0,0,0,0,0,0,0,0,0,0,0,0,0,0,0,0,0,0,0,0,0,0,0,0,0,0,0,0,0,0,0,0,0,0,0,0,0,0,0,0,0,0,0,0,0,0,0,0,0,0,0,0,0,0,0,0,0,0,0,0,0,0,0,0,0,0,0,0,0,
0,0,0,0,0,0,0,0,0,0,0,0,0,0,0,0,0,0,0,0,0,0,0,0,0,0,0,0,0,0,0,0,0,0,0,0,0,0,0,0,0,0,0,0,0,0,0,0,0,0,0,0,0,0,0,0,0,0,0,0,0,0,0,0,0,0,0,0,0,0,0,0,0,0,0,
0,0,0,0,0,0,0,0,0,0,0,0,0,0,0,0,0,0,0,0,0,0,0,0,0,0,0,0,0,0,0,0,0,0,0,0,0,0,0,0,0,0,0,0,0,0,0,0,0,0,0,0,0,0,0,0,0,0,0,0,0,0,0,0,0,0,0,0,0,0,0,0,0,0,0,
0,0,0,0,0,0,0,0,0,0,0,0,0,0,0,0,0,0,0,0,0,0,0,0,0,0,0,0,0,0,0,0,0,0,0,0,0,0,0,0,0,0,0,0,0,0,0,0,0,0,0,0,0,0,0,0,0,0,0,0,0,0,0,0,0,0,0,0,0,0,0,0,0,0,0,
0,0,0,0,0,0,0,0,0,0,0,0,0,0,0,0,0,0,0,0,0,0,0,0,0,0,0,0,0,0,0,0,0,0,0,0,0,0,0,0,0,0,0,0,0,0,0,0,0,0,0,0,0,0,0,0,0,0,0,0,0,0,0,0,0,0,0,0,0,0,0,0,0,0,0,
0,0,0,0,0,0,0,0,0,0,0,0,0,0,0,0,0,0,0,0,0,0,0,0,0,0,0,0,0,0,0,0,0,0,0,0,0,0,0,0,0,0,0,0,0,0,0,0,0,0,0,0,0,0,0,0,0,0,0,0,0,0,0,0,0,0,0,0,0,0,0,0,0,0,0,
0,0,0,0,0,0,0,0,0,0,0,0,0,0,0,0,0,0,0,0,0,0,0,0,0,0,0,0,0,0,0,0,0,0,0,0,0,0,0,0,0,0,0,0,0,0,0,0,0,0,0,0,0,0,0,0,0,0,0,0,0,0,0,0,0,0,0,0,0,0,0,0,0,0,0,
0,0,0,0,0,0,0,0,0,0,0,0,0,0,0,0,0,0,0,0,0,0,0,0,0,0,0,0,0,0,0,0,0,0,0,0,0,0,0,0,0,0,0,0,0,0,0,0,0,0,0,0,0,0,0,0,0,0,0,0,0,0,0,0,0,0,0,0,0,0,0,0,0,0,0,
0,0,0,0,0,0,0,0,0,0,0,0,0,0,0,0,0,0,0,0,0,0,0,0,0,0,0,0,0,0,0,0,0,0,0,0,0,0,0,0,0,0,0,0,0,0,0,0,0,0,0,0,0,0,0,0,0,0,0,0,0,0,0,0,0,0,0,0,0,0,0,0,0,0,0,
0,0,0,0,0,0,0,0,0,0,0,0,0,0,0,0,0,0,0,0,0,0,0,0,0,0,0,0,0,0,0,0,0,0,0,0,0,0,0,0,0,0,0,0,0,0,0,0,0,0,0,0,0,0,0,0,0,0,0,0,0,0,0,0,0,0,0,0,0,0,0,0,0,0,0,
0,0,0,0,0,0,0,0,0,0,0,0,0,0,0,0,0,0,0,0,0,0,0,0,0,0,0,0,0,0,0,0,0,0,0,0,0,0,0,0,0,0,0,0,0,0,0,0,0,0,0,0,0,0,0,0,0,0,0,0,0,0,0,0,0,0,0,0,0,0,0,0,0,0,0,
0,0,0,0,0,0,0,0,0,0,0,0,0,0,0,0,0,0,0,0,0,0,0,0,0,0,0,0,0,0,0,0,0,0,0,0,0,0,0,0,0,0,0,0,0,0,0,0,0,0,0,0,0,0,0,0,0,0,0,0,0,0,0,0,0,0,0,0,0,0,0,0,0,0,0,
0,0,0,0,0,0,0,0,0,0,0,0,0,0,0,0,0,0,0,0,0,0,0,0,0,0,0,0,0,0,0,0,0,0,0,0,0,0,0,0,0,0,0,0,0,0,0,0,0,0,0,0,0,0,0,0,0,0,0,0,0,0,0,0,0,0,0,0,0,0,0,0,0,0,0,
0,0,0,0,0,0,0,0,0,0,0,0,0,0,0,0,0,0,0,0,0,0,0,0,0,0,0,0,0,0,0,0,0,0,0,0,0,0,0,0,0,0,0,0,0,0,0,0,0,0,0,0,0,0,0,0,0,0,0,0,0,0,0,0,0,0,0,0,0,0,0,0,0,0,0,
0,0,0,0,0,0,0,0,0,0,0,0,0,0,0,0,0,0,0,0,0,0,0,0,0,0,0,0,0,0,0,0,0,0,0,0,0,0,0,0,0,0,0,0,0,0,0,0,0,0,0,0,0,0,0,0,0,0,0,0,0,0,0,0,0,0,0,0,0,0,0,0,0,0,0,
0,0,0,0,0,0,0,0,0,0,0,0,0,0,0,0,0,0,0,0,0,0,0,0,0,0,0,0,0,0,0,0,0,0,0,0,0,0,0,0,0,0,0,0,0,0,0,0,0,0,0,0,0,0,0,0,0,0,0,0,0,0,0,0,0,0,0,0,0,0,0,0,0,0,0,
0,0,0,0,0,0,0,0,0,0,0,0,0,0,0,0,0,0,0,0,0,0,0,0,0,0,0,0,0,0,0,0,0,0,0,0,0,0,0,0,0,0,0,0,0,0,0,0,0,0,0,0,0,0,0,0,0,0,0,0,0,0,0,0,0,0,0,0,0,0,0,0,0,0,0,
0,0,0,0,0,0,0,0,0,0,0,0,0,0,0,0,0,0,0,0,0,0,0,0,0,0,0,0,0,0,0,0,0,0,0,0,0,0,0,0,0,0,0,0,0,0,0,0,0,0,0,0,0,0,0,0,0,0,0,0,0,0,0,0,0,0,0,0,0,0,0,0,0,0,0,
0,0,0,0,0,0,0,0,0,0,0,0,0,0,0,0,0,0,0,0,0,0,0,0,0,0,0,0,0,0,0,0,0,0,0,0,0,0,0,0,0,0,0,0,0,0,0,0,0,0,0,0,0,0,0,0,0,0,0,0,0,0,0,0,0,0,0,0,0,0,0,0,0,0,0,
0,0,0,0,0,0,0,0,0,0,0,0,0,0,0,0,0,0,0,0,0,0,0,0,0,0,0,0,0,0,0,0,0,0,0,0,0,0,0,0,0,0,0,0,0,0,0,0,0,0,0,0,0,0,0,0,0,0,0,0,0,0,0,0,0,0,0,0,0,0,0,0,0,0,0,
0,0,0,0,0,0,0,0,0,0,0,0,0,0,0,0,0,0,0,0,0,0,0,0,0,0,0,0,0,0,0,0,0,0,0,0,0,0,0,0,0,0,0,0,0,0,0,0,0,0,0,0,0,0,0,0,0,0,0,0,0,0,0,0,0,0,0,0,0,0,0,0,0,0,0,
0,0,0,0,0,0,0,0,0,0,0,0,0,0,0,0,0,0,0,0,0,0,0,0,0,0,0,0,0,0,0,0,0,0,0,0,0,0,0,0,0,0,0,0,0,0,0,0,0,0,0,0,0,0,0,0,0,0,0,0,0,0,0,0,0,0,0,0,0,0,0,0,0,0,0,
0,0,0,0,0,0,0,0,0,0,0,0,0,0,0,0,0,0,0,0,0,0,0,0,0,0,0,0,0,0,0,0,0,0,0,0,0,0,0,0,0,0,0,0,0,0,0,0,0,0,0,0,0,0,0,0,0,0,0,0,0,0,0,0,0,0,0,0,0,0,0,0,0,0,0,
0,0,0,0,0,0,0,0,0,0,0,0,0,0,0,0,0,0,0,0,0,0,0,0,0,0,0,0,0,0,0,0,0,0,0,0,0,0,0,0,0,0,0,0,0,0,0,0,0,0,0,0,0,0,0,0,0,0,0,0,0,0,0,0,0,0,0,0,0,0,0,0,0,0,0,
0,0,0,0,0,0,0,0,0,0,0,0,0,0,0,0,0,0,0,0,0,0,0,0,0,0,0,0,0,0,0,0,0,0,0,0,0,0,0,0,0,0,0,0,0,0,0,0,0,0,0,0,0,0,0,0,0,0,0,0,0,0,0,0,0,0,0,0,0,0,0,0,0,0,0,
0,0,0,0,0,0,0,0,0,0,0,0,0,0,0,0,0,0,0,0,0,0,0,0,0,0,0,0,0,0,0,0,0,0,0,0,0,0,0,0,0,0,0,0,0,0,0,0,0,0,0,0,0,0,0,0,0,0,0,0,0,0,0,0,0,0,0,0,0,0,0,0,0,0,0,
0,0,0,0,0,0,0,0,0,0,0,0,0,0,0,0,0,0,0,0,0,0,0,0,0,0,0,0,0,0,0,0,0,0,0,0,0,0,0,0,0,0,0,0,0,0,0,0,0,0,0,0,0,0,0,0,0,0,0,0,0,0,0,0,0,0,0,0,0,0,0,0,0,0,0
</data>
 </layer>
 <layer id="11" name="COPA ARVORE 3" width="75" height="75" visible="0" locked="1">
  <properties>
   <property name="above" type="bool" value="true"/>
   <property name="priority" type="int" value="10020"/>
  </properties>
  <data encoding="csv">
0,0,0,0,0,0,0,0,0,0,0,0,0,0,0,0,0,0,0,0,0,0,0,0,0,0,0,0,0,0,0,0,0,0,0,0,0,0,0,0,0,0,0,0,0,0,0,0,0,0,0,0,0,0,0,0,0,0,0,0,0,0,0,0,0,0,0,0,0,0,0,0,0,0,0,
0,0,0,0,0,0,0,0,0,0,0,0,0,0,0,0,0,0,0,0,0,0,0,0,0,0,0,0,0,0,0,0,0,0,0,0,0,0,0,0,0,0,0,0,0,0,0,0,0,0,0,0,0,0,0,0,0,0,0,0,0,0,0,0,0,0,0,0,0,0,0,0,0,0,0,
0,0,0,0,0,0,0,0,0,0,0,0,0,0,0,0,0,0,0,0,0,0,0,0,0,0,0,0,0,0,0,0,0,0,0,0,0,0,0,0,0,0,0,0,0,0,0,0,0,0,0,0,0,0,0,0,0,0,0,0,0,0,0,0,0,0,0,0,0,0,0,0,0,0,0,
0,0,0,0,0,0,0,0,0,0,0,0,0,0,0,0,0,0,0,0,0,0,0,0,0,0,0,0,0,0,0,0,0,0,0,0,0,0,0,0,0,0,0,0,0,0,0,0,0,0,0,0,0,0,0,0,0,0,0,0,0,0,0,0,0,0,0,0,0,0,0,0,0,0,0,
0,0,0,0,0,0,0,0,0,0,0,0,0,0,0,0,0,0,0,0,0,0,0,0,0,0,0,0,0,0,0,0,0,0,0,0,0,0,0,0,0,0,0,0,0,0,0,0,0,0,0,0,0,0,0,0,0,0,0,0,0,0,0,0,0,0,0,0,0,0,0,0,0,0,0,
0,0,0,0,0,0,0,0,0,0,0,0,0,0,0,0,0,0,0,0,0,0,0,0,0,0,0,0,0,0,0,0,0,0,0,0,0,0,0,0,0,0,0,0,0,0,0,0,0,0,0,0,0,0,0,0,0,0,0,0,0,0,0,0,0,0,0,0,0,0,0,0,0,0,0,
0,0,0,0,0,0,0,0,0,0,0,0,0,0,0,0,0,0,0,0,0,0,0,0,0,0,0,0,0,0,0,0,0,0,0,0,0,0,0,0,0,0,0,0,0,0,0,0,0,0,0,0,0,0,0,0,0,0,0,0,0,0,0,0,0,0,0,0,0,0,0,0,0,0,0,
0,0,0,0,0,0,0,0,0,0,0,0,0,0,0,0,0,0,0,0,0,0,0,0,0,0,0,0,0,0,0,0,0,0,0,0,0,0,0,0,0,0,0,0,0,0,0,0,0,0,0,0,0,0,0,0,0,0,0,0,0,0,0,0,0,0,0,0,0,0,0,0,0,0,0,
0,0,0,0,0,0,0,0,0,0,0,0,0,0,0,0,0,0,0,0,0,0,0,0,0,0,0,0,0,0,0,0,0,0,0,0,0,0,0,0,0,0,0,0,0,0,0,0,0,0,0,0,0,0,0,0,0,0,0,0,0,0,0,0,0,0,0,0,0,0,0,0,0,0,0,
0,0,0,0,0,0,0,0,0,0,0,0,0,0,0,0,0,0,0,0,0,0,0,0,0,0,0,0,0,0,0,0,0,0,0,0,0,0,0,0,0,0,0,0,0,0,0,0,0,0,0,0,0,0,0,0,0,0,0,0,0,0,0,0,0,0,0,0,0,0,0,0,0,0,0,
0,0,0,0,0,0,0,0,0,0,0,0,0,0,0,0,0,0,0,0,0,0,0,0,0,0,0,0,0,0,0,0,0,0,0,0,0,0,0,0,0,0,0,0,0,0,0,0,0,0,0,0,0,0,0,0,0,0,0,0,0,0,0,0,0,0,0,0,0,0,0,0,0,0,0,
0,0,0,0,0,0,0,0,0,0,0,0,0,0,0,0,0,0,0,0,0,0,0,0,0,0,0,0,0,0,0,0,0,0,0,0,0,0,0,0,0,0,0,0,0,0,0,0,0,0,0,0,0,0,0,0,0,0,0,0,0,0,0,0,0,0,0,0,0,0,0,0,0,0,0,
0,0,0,0,0,0,0,0,0,0,0,0,0,0,0,0,0,0,0,0,0,0,0,0,0,0,0,0,0,0,0,0,0,0,0,0,0,0,0,0,0,0,0,0,0,0,0,0,0,0,0,0,0,0,0,0,0,0,0,0,0,0,0,0,0,0,0,0,0,0,0,0,0,0,0,
0,0,0,0,0,0,0,0,0,0,0,0,0,0,0,0,0,0,0,0,0,0,0,0,0,0,0,0,0,0,0,0,0,0,0,0,0,0,0,0,0,0,0,0,0,0,0,0,0,0,0,0,0,0,0,0,0,0,0,0,0,0,0,0,0,0,0,0,0,0,0,0,0,0,0,
0,0,0,0,0,0,0,0,0,0,0,0,0,0,0,0,0,0,0,0,0,0,0,0,0,0,0,0,0,0,0,0,0,0,0,0,0,0,0,0,0,0,0,0,0,0,0,0,0,0,0,0,0,0,0,0,0,0,0,0,0,0,0,0,0,0,0,0,0,0,0,0,0,0,0,
0,0,0,0,0,0,0,0,0,0,0,0,0,0,0,0,0,0,0,0,0,0,0,0,0,0,0,0,0,0,0,0,0,0,0,0,0,0,0,0,0,0,0,0,0,0,0,0,0,0,0,0,0,0,0,0,0,0,0,0,0,0,0,0,0,0,0,0,0,0,0,0,0,0,0,
0,0,0,0,0,0,0,0,0,0,0,0,0,0,0,0,0,0,0,0,0,0,0,0,0,0,0,0,0,0,0,0,0,0,0,0,0,0,0,0,0,0,0,0,0,0,0,0,0,0,0,0,0,0,0,0,0,0,0,0,0,0,0,0,0,0,0,0,0,0,0,0,0,0,0,
0,0,0,0,0,0,0,0,0,0,0,0,0,0,0,0,0,0,0,0,0,0,0,0,0,0,0,0,0,0,0,0,0,0,0,0,0,0,0,0,0,0,0,0,0,0,0,0,0,0,0,0,0,0,0,0,0,0,0,0,0,0,0,0,0,0,0,0,0,0,0,0,0,0,0,
0,0,0,0,0,0,0,0,0,0,0,0,0,0,0,0,0,0,0,0,0,0,0,0,0,0,0,0,0,0,0,0,0,0,0,0,0,0,0,0,0,0,0,0,0,0,0,0,0,0,0,0,0,0,0,0,0,0,0,0,0,0,0,0,0,0,0,0,0,0,0,0,0,0,0,
0,0,0,0,0,0,0,0,0,0,0,0,0,0,0,0,0,0,0,0,0,0,0,0,0,0,0,0,0,0,0,0,0,0,0,0,0,0,0,0,0,0,0,0,0,0,0,0,0,0,0,0,0,0,0,0,0,0,0,0,0,0,0,0,0,0,0,0,0,0,0,0,0,0,0,
0,0,0,0,0,0,0,0,0,0,0,0,0,0,0,0,0,0,0,0,0,0,0,0,0,0,0,0,0,0,0,0,0,0,0,0,0,0,0,0,0,0,0,0,0,0,0,0,0,0,0,0,0,0,0,0,0,0,0,0,0,0,0,0,0,0,0,0,0,0,0,0,0,0,0,
0,0,0,0,0,0,0,0,0,0,0,0,0,0,0,0,0,0,0,0,0,0,0,0,0,0,0,0,0,0,0,0,0,0,0,0,0,0,0,0,0,0,0,0,0,0,0,0,0,0,0,0,0,0,0,0,0,0,0,0,0,0,0,0,0,0,0,0,0,0,0,0,0,0,0,
0,0,0,0,0,0,0,0,0,0,0,0,0,0,0,0,0,0,0,0,0,0,0,0,0,0,0,0,0,0,0,0,0,0,0,0,0,0,0,0,0,0,0,0,0,0,0,0,0,0,0,0,0,0,0,0,0,0,0,0,0,0,0,0,0,0,0,0,0,0,0,0,0,0,0,
0,0,0,0,0,0,0,0,0,0,0,0,0,0,0,0,0,0,0,0,0,0,0,0,0,0,0,0,0,0,0,0,0,0,0,0,0,0,0,0,0,0,0,0,0,0,0,0,0,0,0,0,0,0,0,0,0,0,0,0,0,0,0,0,0,0,0,0,0,0,0,0,0,0,0,
0,0,0,0,0,0,0,0,0,0,0,0,0,0,0,0,0,0,0,0,0,0,0,0,0,0,0,0,0,0,0,0,0,0,0,0,0,0,0,0,0,0,0,0,0,0,0,0,0,0,0,0,0,0,0,0,0,0,0,0,0,0,0,0,0,0,0,0,0,0,0,0,0,0,0,
0,0,0,0,0,0,0,0,0,0,0,0,0,0,0,0,0,0,0,0,0,0,0,0,0,0,0,0,0,0,0,0,0,0,0,0,0,0,0,0,0,0,0,0,0,0,0,0,0,0,0,0,0,0,0,0,0,0,0,0,0,0,0,0,0,0,0,0,0,0,0,0,0,0,0,
0,0,0,0,0,0,0,0,0,0,0,0,0,0,0,0,0,0,0,0,0,0,0,0,0,0,0,0,0,0,0,0,0,0,0,0,0,0,0,0,0,0,0,0,0,0,0,0,0,0,0,0,0,0,0,0,0,0,0,0,0,0,0,0,0,0,0,0,0,0,0,0,0,0,0,
0,0,0,0,0,0,0,0,0,0,0,0,0,0,0,0,0,0,0,0,0,0,0,0,0,0,0,0,0,0,0,0,0,0,0,0,0,0,0,0,0,0,0,0,0,0,0,0,0,0,0,0,0,0,0,0,0,0,0,0,0,0,0,0,0,0,0,0,0,0,0,0,0,0,0,
0,0,0,0,0,0,0,0,0,0,0,0,0,0,0,0,0,0,0,0,0,0,0,0,0,0,0,0,0,0,0,0,0,0,0,0,0,0,0,0,0,0,0,0,0,0,0,0,0,0,0,0,0,0,0,0,0,0,0,0,0,0,0,0,0,0,0,0,0,0,0,0,0,0,0,
0,0,0,0,0,0,0,0,0,0,0,0,0,0,0,0,0,0,0,0,0,0,0,0,0,0,0,0,0,0,0,0,0,0,0,0,0,0,0,0,0,0,0,0,0,0,0,0,0,0,0,0,0,0,0,0,0,0,0,0,0,0,0,0,0,0,0,0,0,0,0,0,0,0,0,
0,0,0,0,0,0,0,0,0,0,0,0,0,0,0,0,0,0,0,0,0,0,0,0,0,0,0,0,0,0,0,0,0,0,0,0,0,0,0,0,0,0,0,269,270,271,272,0,0,0,0,0,0,0,0,0,0,0,0,0,0,0,0,0,0,0,0,0,0,0,0,0,0,0,0,
0,0,0,0,0,0,0,0,0,0,0,0,0,0,0,0,0,0,0,0,0,0,0,0,0,0,0,0,0,0,0,0,0,0,0,0,0,0,0,0,0,0,0,295,296,297,298,0,0,0,0,269,270,271,272,0,0,0,0,0,0,0,0,0,0,0,0,0,0,0,0,0,0,0,0,
0,0,0,0,0,0,0,0,0,0,0,0,0,0,0,0,0,0,0,0,0,0,0,0,0,0,0,0,0,0,0,0,0,0,0,0,0,0,0,0,0,0,0,321,322,323,324,269,270,271,272,295,296,297,298,0,0,0,0,0,0,0,0,0,0,0,0,0,0,0,0,0,0,0,0,
0,0,0,0,0,0,0,0,0,0,0,0,0,0,0,0,0,0,0,0,0,0,0,0,0,0,0,0,0,0,0,0,0,0,0,0,0,0,0,0,0,0,0,347,348,349,350,295,296,297,298,321,322,323,324,0,0,0,0,0,0,0,0,0,0,0,0,0,0,0,0,0,0,0,0,
0,0,0,0,0,0,0,0,0,0,0,0,0,0,0,0,0,0,0,0,0,0,0,0,0,0,0,0,0,0,0,0,0,0,0,0,0,0,0,0,0,0,0,373,374,375,376,321,322,323,324,347,348,349,350,0,0,0,0,0,0,0,0,0,0,0,0,0,0,0,0,0,0,0,0,
0,0,0,0,0,0,0,0,0,0,0,0,0,0,0,0,0,0,0,0,0,0,0,0,0,0,0,0,0,0,0,0,0,0,0,0,0,0,0,0,0,0,0,399,139,139,402,347,348,349,350,373,374,375,376,0,0,0,0,0,0,0,0,0,0,0,0,0,0,0,0,0,0,0,0,
0,0,0,0,0,0,0,0,0,0,0,0,0,0,0,0,0,0,0,0,0,0,0,0,0,0,0,0,0,0,0,0,0,0,0,0,0,0,0,0,0,0,0,425,139,139,428,373,374,375,376,399,139,139,402,0,0,0,0,0,0,0,0,0,0,0,0,0,0,0,0,0,0,0,0,
0,0,0,0,0,0,0,0,0,0,0,0,0,0,0,0,0,0,0,0,0,0,0,0,0,0,0,0,0,0,0,0,0,0,0,0,0,0,0,0,0,0,0,0,0,0,0,399,139,139,402,425,139,139,428,0,0,0,0,0,0,0,0,0,0,0,0,0,0,0,0,0,0,0,0,
0,0,0,0,0,0,0,0,0,0,0,0,0,0,0,0,0,0,0,0,0,0,0,0,0,0,0,0,0,0,0,0,0,0,0,0,0,0,0,0,0,0,0,0,0,0,0,425,139,139,428,0,0,0,0,0,0,0,0,0,0,0,0,0,0,0,0,0,0,0,0,0,0,0,0,
0,0,0,0,0,0,0,0,0,0,0,0,0,0,0,0,0,0,0,0,0,0,0,0,0,0,0,0,0,0,0,0,0,0,0,0,0,0,0,0,0,0,0,0,0,0,0,0,0,0,0,0,0,0,0,0,0,0,0,0,0,0,0,0,0,0,0,0,0,0,0,0,0,0,0,
0,0,0,0,0,0,0,0,0,0,0,0,0,0,0,0,0,0,0,0,0,0,0,0,0,0,0,0,0,0,0,0,0,0,0,0,0,0,0,0,0,0,0,0,0,0,0,0,0,0,0,0,0,0,0,0,0,0,0,0,0,0,0,0,0,0,0,0,0,0,0,0,0,0,0,
0,0,0,0,0,0,0,0,0,0,0,0,0,0,0,0,0,0,0,0,0,0,0,0,0,0,0,0,0,0,0,0,0,0,0,0,0,0,0,0,0,0,0,0,0,0,0,0,0,0,0,0,0,0,0,0,0,0,0,0,0,0,0,0,0,0,0,0,0,0,0,0,0,0,0,
0,0,0,0,0,0,0,0,0,0,0,0,0,0,0,0,0,0,0,0,0,0,0,0,0,0,0,0,0,0,0,0,0,0,0,0,0,0,0,0,0,0,0,0,0,0,0,0,0,0,0,0,0,0,0,0,0,0,0,0,0,0,0,0,0,0,0,0,0,0,0,0,0,0,0,
0,0,0,0,0,0,0,0,0,0,0,0,0,0,0,0,0,0,0,0,0,0,0,0,0,0,0,0,0,0,0,0,0,0,0,0,0,0,0,0,0,0,0,0,0,0,0,0,0,0,0,0,0,0,0,0,0,0,0,0,0,0,0,0,0,0,0,0,0,0,0,0,0,0,0,
0,0,0,0,0,0,0,0,0,0,0,0,0,0,0,0,0,0,0,0,0,0,0,0,0,0,0,0,0,0,0,0,0,0,0,0,0,0,0,0,0,0,0,0,0,0,0,0,0,0,0,0,0,0,0,0,0,0,0,0,0,0,0,0,0,0,0,0,0,0,0,0,0,0,0,
0,0,0,0,0,0,0,0,0,0,0,0,0,0,0,0,0,0,0,0,0,0,0,0,0,0,0,0,0,0,0,0,0,0,0,0,0,0,0,0,0,0,0,0,0,0,0,0,0,0,0,0,0,0,0,0,0,0,0,0,0,0,0,0,0,0,0,0,0,0,0,0,0,0,0,
0,0,0,0,0,0,0,0,0,0,0,0,0,0,0,0,0,0,0,0,0,0,0,0,0,0,0,0,0,0,0,0,0,0,0,0,0,0,0,0,0,0,0,0,0,0,0,0,0,0,0,0,0,0,0,0,0,0,0,0,0,0,0,0,0,0,0,0,0,0,0,0,0,0,0,
0,0,0,0,0,0,0,0,0,0,0,0,0,0,0,0,0,0,0,0,0,0,0,0,0,0,0,0,0,0,0,0,0,0,0,0,0,0,0,0,0,0,0,0,0,0,0,0,0,0,0,0,0,0,0,0,0,0,0,0,0,0,0,0,0,0,0,0,0,0,0,0,0,0,0,
0,0,0,0,0,0,0,0,0,0,0,0,0,0,0,0,0,0,0,0,0,0,0,0,0,0,0,0,0,0,0,0,0,0,0,0,0,0,0,0,0,0,0,0,0,0,0,0,0,0,0,0,0,0,0,0,0,0,0,0,0,0,0,0,0,0,0,0,0,0,0,0,0,0,0,
0,0,0,0,0,0,0,0,0,0,0,0,0,0,0,0,0,0,0,0,0,0,0,0,0,0,0,0,0,0,0,0,0,0,0,0,0,0,0,0,0,0,0,0,0,0,0,0,0,0,0,0,0,0,0,0,0,0,0,0,0,0,0,0,0,0,0,0,0,0,0,0,0,0,0,
0,0,0,0,0,0,0,0,0,0,0,0,0,0,0,0,0,0,0,0,0,0,0,0,0,0,0,0,0,0,0,0,0,0,0,0,0,0,0,0,0,0,0,0,0,0,0,0,0,0,0,0,0,0,0,0,0,0,0,0,0,0,0,0,0,0,0,0,0,0,0,0,0,0,0,
0,0,0,0,0,0,0,0,0,0,0,0,0,0,0,0,0,0,0,0,0,0,0,0,0,0,0,0,0,0,0,0,0,0,0,0,0,0,0,0,0,0,0,0,0,0,0,0,0,0,0,0,0,0,0,0,0,0,0,0,0,0,0,0,0,0,0,0,0,0,0,0,0,0,0,
0,0,0,0,0,0,0,0,0,0,0,0,0,0,0,0,0,0,0,0,0,0,0,0,0,0,0,0,0,0,0,0,0,0,0,0,0,0,0,0,0,0,0,0,0,0,0,0,0,0,0,0,0,0,0,0,0,0,0,0,0,0,0,0,0,0,0,0,0,0,0,0,0,0,0,
0,0,0,0,0,0,0,0,0,0,0,0,0,0,0,0,0,0,0,0,0,0,0,0,0,0,0,0,0,0,0,0,0,0,0,0,0,0,0,0,0,0,0,0,0,0,0,0,0,0,0,0,0,0,0,0,0,0,0,0,0,0,0,0,0,0,0,0,0,0,0,0,0,0,0,
0,0,0,0,0,0,0,0,0,0,0,0,0,0,0,0,0,0,0,0,0,0,0,0,0,0,0,0,0,0,0,0,0,0,0,0,0,0,0,0,0,0,0,0,0,0,0,0,0,0,0,0,0,0,0,0,0,0,0,0,0,0,0,0,0,0,0,0,0,0,0,0,0,0,0,
0,0,0,0,0,0,0,0,0,0,0,0,0,0,0,0,0,0,0,0,0,0,0,0,0,0,0,0,0,0,0,0,0,0,0,0,0,0,0,0,0,0,0,0,0,0,0,0,0,0,0,0,0,0,0,0,0,0,0,0,0,0,0,0,0,0,0,0,0,0,0,0,0,0,0,
0,0,0,0,0,0,0,0,0,0,0,0,0,0,0,0,0,0,0,0,0,0,0,0,0,0,0,0,0,0,0,0,0,0,0,0,0,0,0,0,0,0,0,0,0,0,0,0,0,0,0,0,0,0,0,0,0,0,0,0,0,0,0,0,0,0,0,0,0,0,0,0,0,0,0,
0,0,0,0,0,0,0,0,0,0,0,0,0,0,0,0,0,0,0,0,0,0,0,0,0,0,0,0,0,0,0,0,0,0,0,0,0,0,0,0,0,0,0,0,0,0,0,0,0,0,0,0,0,0,0,0,0,0,0,0,0,0,0,0,0,0,0,0,0,0,0,0,0,0,0,
0,0,0,0,0,0,0,0,0,0,0,0,0,0,0,0,0,0,0,0,0,0,0,0,0,0,0,0,0,0,0,0,0,0,0,0,0,0,0,0,0,0,0,0,0,0,0,0,0,0,0,0,0,0,0,0,0,0,0,0,0,0,0,0,0,0,0,0,0,0,0,0,0,0,0,
0,0,0,0,0,0,0,0,0,0,0,0,0,0,0,0,0,0,0,0,0,0,0,0,0,0,0,0,0,0,0,0,0,0,0,0,0,0,0,0,0,0,0,0,0,0,0,0,0,0,0,0,0,0,0,0,0,0,0,0,0,0,0,0,0,0,0,0,0,0,0,0,0,0,0,
0,0,0,0,0,0,0,0,0,0,0,0,0,0,0,0,0,0,0,0,0,0,0,0,0,0,0,0,0,0,0,0,0,0,0,0,0,0,0,0,0,0,0,0,0,0,0,0,0,0,0,0,0,0,0,0,0,0,0,0,0,0,0,0,0,0,0,0,0,0,0,0,0,0,0,
0,0,0,0,0,0,0,0,0,0,0,0,0,0,0,0,0,0,0,0,0,0,0,0,0,0,0,0,0,0,0,0,0,0,0,0,0,0,0,0,0,0,0,0,0,0,0,0,0,0,0,0,0,0,0,0,0,0,0,0,0,0,0,0,0,0,0,0,0,0,0,0,0,0,0,
0,0,0,0,0,0,0,0,0,0,0,0,0,0,0,0,0,0,0,0,0,0,0,0,0,0,0,0,0,0,0,0,0,0,0,0,0,0,0,0,0,0,0,0,0,0,0,0,0,0,0,0,0,0,0,0,0,0,0,0,0,0,0,0,0,0,0,0,0,0,0,0,0,0,0,
0,0,0,0,0,0,0,0,0,0,0,0,0,0,0,0,0,0,0,0,0,0,0,0,0,0,0,0,0,0,0,0,0,0,0,0,0,0,0,0,0,0,0,0,0,0,0,0,0,0,0,0,0,0,0,0,0,0,0,0,0,0,0,0,0,0,0,0,0,0,0,0,0,0,0,
0,0,0,0,0,0,0,0,0,0,0,0,0,0,0,0,0,0,0,0,0,0,0,0,0,0,0,0,0,0,0,0,0,0,0,0,0,0,0,0,0,0,0,0,0,0,0,0,0,0,0,0,0,0,0,0,0,0,0,0,0,0,0,0,0,0,0,0,0,0,0,0,0,0,0,
0,0,0,0,0,0,0,0,0,0,0,0,0,0,0,0,0,0,0,0,0,0,0,0,0,0,0,0,0,0,0,0,0,0,0,0,0,0,0,0,0,0,0,0,0,0,0,0,0,0,0,0,0,0,0,0,0,0,0,0,0,0,0,0,0,0,0,0,0,0,0,0,0,0,0,
0,0,0,0,0,0,0,0,0,0,0,0,0,0,0,0,0,0,0,0,0,0,0,0,0,0,0,0,0,0,0,0,0,0,0,0,0,0,0,0,0,0,0,0,0,0,0,0,0,0,0,0,0,0,0,0,0,0,0,0,0,0,0,0,0,0,0,0,0,0,0,0,0,0,0,
0,0,0,0,0,0,0,0,0,0,0,0,0,0,0,0,0,0,0,0,0,0,0,0,0,0,0,0,0,0,0,0,0,0,0,0,0,0,0,0,0,0,0,0,0,0,0,0,0,0,0,0,0,0,0,0,0,0,0,0,0,0,0,0,0,0,0,0,0,0,0,0,0,0,0,
0,0,0,0,0,0,0,0,0,0,0,0,0,0,0,0,0,0,0,0,0,0,0,0,0,0,0,0,0,0,0,0,0,0,0,0,0,0,0,0,0,0,0,0,0,0,0,0,0,0,0,0,0,0,0,0,0,0,0,0,0,0,0,0,0,0,0,0,0,0,0,0,0,0,0,
0,0,0,0,0,0,0,0,0,0,0,0,0,0,0,0,0,0,0,0,0,0,0,0,0,0,0,0,0,0,0,0,0,0,0,0,0,0,0,0,0,0,0,0,0,0,0,0,0,0,0,0,0,0,0,0,0,0,0,0,0,0,0,0,0,0,0,0,0,0,0,0,0,0,0,
0,0,0,0,0,0,0,0,0,0,0,0,0,0,0,0,0,0,0,0,0,0,0,0,0,0,0,0,0,0,0,0,0,0,0,0,0,0,0,0,0,0,0,0,0,0,0,0,0,0,0,0,0,0,0,0,0,0,0,0,0,0,0,0,0,0,0,0,0,0,0,0,0,0,0,
0,0,0,0,0,0,0,0,0,0,0,0,0,0,0,0,0,0,0,0,0,0,0,0,0,0,0,0,0,0,0,0,0,0,0,0,0,0,0,0,0,0,0,0,0,0,0,0,0,0,0,0,0,0,0,0,0,0,0,0,0,0,0,0,0,0,0,0,0,0,0,0,0,0,0,
0,0,0,0,0,0,0,0,0,0,0,0,0,0,0,0,0,0,0,0,0,0,0,0,0,0,0,0,0,0,0,0,0,0,0,0,0,0,0,0,0,0,0,0,0,0,0,0,0,0,0,0,0,0,0,0,0,0,0,0,0,0,0,0,0,0,0,0,0,0,0,0,0,0,0,
0,0,0,0,0,0,0,0,0,0,0,0,0,0,0,0,0,0,0,0,0,0,0,0,0,0,0,0,0,0,0,0,0,0,0,0,0,0,0,0,0,0,0,0,0,0,0,0,0,0,0,0,0,0,0,0,0,0,0,0,0,0,0,0,0,0,0,0,0,0,0,0,0,0,0,
0,0,0,0,0,0,0,0,0,0,0,0,0,0,0,0,0,0,0,0,0,0,0,0,0,0,0,0,0,0,0,0,0,0,0,0,0,0,0,0,0,0,0,0,0,0,0,0,0,0,0,0,0,0,0,0,0,0,0,0,0,0,0,0,0,0,0,0,0,0,0,0,0,0,0
</data>
 </layer>
 <layer id="14" name="Arvores" width="75" height="75">
  <data encoding="csv">
0,0,0,0,0,0,0,0,0,0,0,0,0,0,0,0,0,0,0,0,0,0,0,0,0,0,0,0,0,0,0,0,0,0,0,0,0,0,0,0,0,0,0,0,0,0,0,0,0,0,0,0,0,0,0,0,0,0,0,0,0,0,0,0,0,0,0,0,0,0,0,0,0,0,0,
0,0,0,0,0,0,0,0,0,0,0,0,0,0,0,0,0,0,0,0,0,0,0,0,0,0,0,0,0,0,0,0,0,0,0,0,0,0,0,0,0,0,0,0,0,0,0,0,0,0,0,0,0,0,0,0,0,0,0,0,0,0,0,0,0,0,0,0,0,0,0,0,0,0,0,
0,0,0,0,0,0,0,0,0,0,0,0,0,0,0,0,0,0,0,0,0,0,0,0,0,0,0,0,0,0,0,0,0,0,0,0,0,0,0,0,0,0,0,0,0,0,0,0,0,0,0,0,0,0,0,0,0,0,0,0,0,0,0,0,0,0,0,0,0,0,0,0,0,0,0,
0,0,0,0,0,0,0,0,0,0,0,0,0,0,0,0,0,0,0,0,0,0,0,0,0,0,0,0,0,0,0,0,0,0,0,0,0,0,0,0,0,0,0,0,0,0,0,0,0,0,0,0,0,0,0,0,0,0,0,0,0,0,0,0,0,0,0,0,0,0,0,0,0,0,0,
0,0,0,0,0,0,0,0,0,0,0,0,0,0,0,0,0,0,0,0,0,0,0,0,0,0,0,0,0,0,0,0,0,0,0,0,0,0,6867,0,0,0,0,0,0,0,0,0,0,0,0,0,0,0,0,0,0,0,0,0,0,0,0,0,0,0,0,0,0,0,0,0,0,0,0,
0,0,0,0,0,0,0,0,0,0,0,0,0,0,0,0,0,0,0,0,0,0,0,0,0,0,0,0,0,0,0,0,0,0,0,0,0,0,0,0,0,0,0,0,0,0,0,0,0,0,0,0,0,0,0,0,0,0,0,0,0,0,0,0,0,0,0,0,0,0,0,0,0,0,0,
0,0,0,0,0,0,0,0,0,0,0,0,0,0,0,0,0,0,0,0,0,0,0,0,0,0,0,0,0,0,0,0,0,0,0,0,6866,0,0,0,0,0,0,0,0,0,0,0,0,0,0,0,0,0,0,0,0,0,0,0,0,0,0,0,0,0,0,0,0,0,0,0,0,0,0,
0,0,0,0,0,0,0,0,0,0,0,0,0,0,0,0,0,6861,0,0,0,0,0,0,0,0,0,0,0,0,0,0,0,0,0,0,0,0,0,0,6864,0,0,0,0,0,0,0,0,0,0,0,0,0,0,0,0,0,0,0,0,0,0,0,0,0,0,0,0,0,0,0,0,0,0,
0,0,0,0,0,0,0,0,0,0,0,0,0,0,0,0,0,0,0,0,0,0,0,0,0,0,0,0,0,0,0,0,0,0,0,0,0,0,0,0,0,0,0,0,0,0,0,0,0,0,0,0,0,0,0,0,0,0,0,0,0,0,6862,0,0,0,0,0,0,0,0,0,0,0,0,
0,0,0,0,0,0,0,0,0,0,0,0,0,0,0,0,0,0,0,0,0,6862,0,0,0,0,0,0,0,0,0,0,0,0,0,0,0,0,0,0,0,0,0,0,0,0,0,0,0,0,0,0,0,0,0,0,0,0,0,0,0,0,0,0,0,0,0,0,0,0,0,0,0,0,0,
0,0,0,0,0,0,0,0,0,0,0,0,0,0,0,6866,0,6864,0,0,0,0,0,0,0,0,0,0,0,0,0,0,0,0,0,0,0,0,0,0,0,0,0,0,0,0,0,0,0,0,0,0,0,0,0,0,0,0,0,6864,0,0,0,0,6865,0,0,0,0,0,0,0,0,0,0,
0,0,0,0,0,0,0,0,0,0,0,0,0,0,0,0,0,0,0,0,0,0,0,0,0,0,0,0,0,0,0,0,0,0,0,0,0,0,0,0,0,0,0,0,0,0,0,0,0,0,0,0,0,0,0,0,0,0,0,0,0,0,6868,0,0,0,0,0,0,0,0,0,0,0,0,
0,0,0,0,0,0,0,0,0,0,0,0,0,0,0,0,0,0,0,0,0,0,0,0,0,0,0,0,0,0,0,0,0,0,0,0,0,0,0,0,0,0,0,0,0,0,0,0,0,0,0,0,0,0,0,0,0,0,0,0,0,0,0,0,0,0,0,0,0,0,0,0,0,0,0,
0,0,0,0,0,0,0,0,0,0,0,6861,0,0,0,0,0,0,0,0,0,0,0,0,0,0,0,0,0,0,0,0,0,0,0,0,0,0,0,0,0,0,0,0,0,0,0,0,0,0,0,0,0,0,0,0,0,0,0,0,0,0,0,0,0,0,0,0,0,0,0,0,0,0,0,
0,0,0,0,0,0,0,6867,0,0,0,0,0,0,0,0,0,0,0,0,0,0,0,0,0,0,0,0,0,0,0,0,0,0,0,0,0,0,0,0,0,0,0,0,0,0,0,0,0,0,0,0,0,0,0,0,0,0,0,0,0,0,0,0,0,0,0,0,0,0,0,0,0,0,0,
0,0,0,0,0,0,0,0,0,0,0,0,0,0,0,0,0,0,0,0,0,0,0,0,0,0,0,0,0,0,0,0,0,0,0,6861,0,0,0,0,0,0,0,0,0,0,0,0,0,0,0,0,0,0,0,6862,0,0,0,0,0,0,0,0,0,6096,0,0,0,0,0,0,0,0,0,
0,0,0,0,0,0,0,0,0,0,0,0,0,0,0,0,0,0,0,0,0,0,0,0,0,0,0,0,0,0,0,0,0,0,0,0,0,0,0,0,0,0,0,0,0,0,0,0,0,0,0,0,6864,0,0,0,0,0,0,0,0,0,0,0,0,0,0,0,0,0,0,0,0,0,0,
0,0,0,0,0,0,0,0,0,0,6866,0,0,0,0,0,0,0,0,0,0,0,0,0,0,0,0,0,0,0,0,0,0,0,0,0,0,0,0,0,0,0,0,0,0,0,0,0,0,0,0,0,0,0,0,0,0,0,0,0,0,7178,7178,0,0,0,0,0,0,0,0,0,0,0,0,
0,0,0,0,0,0,0,0,0,0,0,0,0,0,0,0,0,0,0,0,0,0,0,0,0,0,0,0,0,0,0,0,0,6862,0,0,0,0,6866,0,0,0,0,0,0,0,0,0,0,0,0,0,0,0,0,0,0,6862,0,0,0,0,0,0,0,0,0,0,0,0,0,0,0,0,0,
0,0,0,0,0,0,0,0,0,0,0,0,0,0,0,0,0,0,0,0,0,0,0,0,0,0,0,0,0,0,0,0,0,0,0,0,0,0,0,0,0,7177,0,0,0,0,0,0,0,0,0,6865,0,0,0,0,0,0,0,0,0,0,0,0,0,0,0,0,0,0,0,0,0,0,0,
0,0,0,0,0,0,0,0,0,0,0,0,0,0,0,0,0,0,0,0,0,0,0,0,0,0,0,0,0,0,0,0,0,0,0,0,0,0,0,0,0,0,0,0,0,0,0,0,0,0,0,0,0,0,0,0,0,0,0,0,0,0,0,0,0,0,0,0,0,0,0,6862,0,0,0,
0,0,0,0,0,0,0,0,0,0,0,0,0,0,0,0,0,0,0,0,0,0,0,0,0,0,0,0,0,0,0,0,0,0,0,0,0,0,0,6285,0,0,0,0,0,0,0,0,0,0,0,0,0,0,0,0,0,0,0,0,0,0,0,0,0,0,0,6864,0,0,0,0,0,0,0,
0,0,0,0,0,0,0,0,0,0,0,0,0,0,0,0,0,0,0,0,0,0,0,0,0,0,0,0,0,0,0,0,0,0,0,0,0,0,0,0,0,0,0,6096,0,0,0,0,0,0,0,0,0,0,0,0,0,0,0,0,0,0,0,0,0,0,0,0,0,0,0,0,0,0,0,
0,0,0,0,0,0,0,0,0,0,0,0,0,0,0,0,0,0,0,0,0,0,0,0,0,0,0,0,0,0,0,0,0,0,0,0,0,0,0,0,0,0,0,0,0,0,0,0,0,0,0,0,0,0,0,0,0,0,0,6868,0,0,0,0,0,0,0,0,0,0,0,0,0,0,0,
0,0,0,0,0,0,0,0,0,0,0,0,0,0,0,0,0,0,0,0,0,0,0,0,0,0,0,0,0,0,0,0,0,0,0,0,0,0,0,0,0,0,0,0,0,0,0,0,0,0,0,0,0,0,0,0,0,6864,0,0,0,0,0,0,0,0,0,0,0,0,6865,0,0,0,0,
0,0,0,0,0,0,0,0,0,0,0,0,0,0,0,0,0,0,0,0,0,0,0,0,0,0,0,0,0,0,0,0,0,0,0,0,0,0,0,0,0,0,0,0,0,0,0,0,0,0,0,0,0,0,0,0,0,0,0,0,0,0,6862,0,0,0,0,0,0,0,0,0,0,0,0,
0,0,0,0,0,0,0,0,0,0,0,0,0,0,0,0,0,0,0,0,0,0,0,0,0,0,0,0,0,0,0,0,0,0,0,0,0,0,0,0,0,0,0,0,0,0,0,0,0,0,0,0,0,0,0,0,0,0,0,6865,0,0,0,0,0,0,0,0,0,0,0,0,0,0,0,
0,0,0,0,0,0,0,0,0,0,0,0,0,0,0,0,0,0,0,0,0,0,0,0,0,0,0,0,0,0,0,0,0,0,0,0,0,0,0,0,0,0,0,0,0,0,0,0,0,0,0,0,0,0,0,0,0,0,0,0,0,0,0,0,0,0,0,0,0,0,0,0,0,0,0,
0,0,0,0,0,0,0,0,0,0,0,0,0,0,0,0,0,0,0,0,0,0,0,0,0,0,0,0,0,0,0,0,0,0,0,0,0,0,0,0,0,0,0,0,0,6861,0,0,0,0,0,0,0,0,0,0,0,0,0,0,0,0,0,0,0,6868,0,0,0,0,0,0,0,0,0,
0,0,0,0,0,0,0,0,0,0,0,0,0,0,0,0,0,0,0,0,0,0,0,0,0,0,0,0,0,0,0,0,0,0,0,0,0,0,0,0,0,0,0,0,0,0,0,0,0,0,0,0,0,0,0,0,0,0,0,0,0,0,6864,0,0,0,0,0,0,0,0,0,0,0,0,
0,0,0,0,0,0,0,0,0,0,0,0,0,0,0,0,0,0,0,0,0,0,0,0,0,0,0,0,0,0,0,0,0,0,0,0,0,0,0,0,0,0,0,0,0,0,0,0,0,6862,0,0,0,0,0,0,0,0,0,0,0,0,0,0,0,0,0,6862,0,0,0,0,0,0,0,
0,0,0,0,0,0,0,0,0,0,0,0,0,0,0,0,0,0,0,0,0,0,0,0,0,0,0,0,0,0,0,0,0,0,0,0,0,0,0,0,0,0,0,0,0,0,0,6868,0,0,0,0,0,0,0,0,0,0,0,0,0,0,0,0,0,0,0,0,0,0,0,0,0,0,0,
0,0,0,0,0,0,0,0,0,0,0,0,0,0,0,0,0,0,0,0,0,0,0,0,0,0,0,0,0,0,0,0,0,0,0,0,0,0,0,0,0,0,0,0,0,0,0,0,0,0,0,0,0,0,0,0,0,0,0,0,0,0,0,0,6865,0,0,0,0,0,0,0,0,0,0,
0,0,0,0,0,0,0,0,0,0,0,0,0,0,0,0,0,0,0,0,0,0,0,0,0,0,0,0,0,0,0,0,0,0,0,0,0,6867,0,0,0,0,0,0,0,6865,0,0,0,0,0,0,0,0,0,0,0,0,0,0,0,0,0,0,0,0,0,0,0,0,0,0,0,0,0,
0,0,0,0,0,0,0,0,0,0,0,0,0,0,0,0,0,0,0,0,0,0,0,0,6861,0,0,0,0,0,0,0,0,0,0,0,0,0,0,0,0,6862,0,0,0,0,0,0,0,0,0,0,0,0,0,0,0,0,0,0,0,0,0,0,0,0,0,0,0,0,0,0,0,0,0,
0,0,0,0,0,0,0,0,0,0,0,0,0,0,0,0,0,0,0,0,0,0,0,0,0,0,0,0,0,0,0,0,0,0,0,0,0,0,6861,0,0,0,0,0,0,0,0,0,0,0,0,0,0,0,0,0,0,0,0,0,0,0,0,0,0,0,0,0,0,0,0,0,0,0,0,
0,0,0,0,0,0,0,0,0,0,0,0,0,0,0,0,0,0,0,0,0,0,0,6862,0,0,0,0,0,0,0,0,0,0,0,0,0,0,0,0,0,0,0,0,0,0,0,0,0,0,0,0,0,0,0,0,0,0,0,0,0,0,0,0,0,0,0,0,0,0,0,0,0,0,0,
0,0,0,0,0,0,0,0,0,0,0,0,0,0,0,0,0,0,0,0,0,0,0,0,6865,0,0,0,0,0,0,0,0,0,0,0,0,0,0,0,0,0,0,0,0,0,0,0,0,0,0,0,0,0,6862,0,0,0,0,0,0,0,0,0,0,0,0,0,0,0,0,0,0,0,0,
0,0,0,0,0,0,0,0,0,0,0,0,0,0,0,0,0,0,0,0,0,0,0,0,0,0,0,0,0,0,0,0,0,0,0,0,0,0,0,0,0,0,0,0,0,0,0,0,0,0,0,0,0,0,0,0,0,0,0,0,0,0,0,0,0,0,0,0,0,0,0,0,0,0,0,
0,0,0,0,0,0,0,0,0,0,0,0,0,0,0,0,0,0,0,0,0,0,0,0,0,0,0,0,0,0,0,0,0,0,0,0,0,0,0,0,0,0,0,0,0,0,0,0,0,0,0,0,6868,0,0,0,0,0,0,0,0,0,0,0,0,0,0,0,0,0,0,0,0,0,0,
0,0,0,0,0,0,0,0,0,0,0,0,0,0,0,0,0,0,0,0,0,0,0,0,0,0,0,0,0,0,0,0,0,0,0,0,0,0,0,0,0,0,0,0,0,0,0,0,0,0,0,0,0,0,6869,0,0,0,0,0,0,0,0,0,0,0,0,0,0,0,0,0,0,0,0,
0,0,0,0,0,0,0,0,0,0,0,0,0,0,0,0,0,0,0,0,0,0,0,0,0,0,0,0,0,0,0,0,0,0,0,0,0,0,0,0,0,0,0,0,0,0,0,0,0,0,0,0,0,0,0,0,0,0,0,0,0,0,0,0,0,0,0,0,0,0,0,0,0,0,0,
0,0,0,0,0,0,0,0,0,0,0,0,0,0,0,0,0,0,0,0,0,0,0,0,0,0,0,0,0,0,0,0,0,0,0,0,0,0,0,0,0,0,0,0,0,0,0,0,0,0,0,0,0,0,0,0,0,0,0,0,0,0,0,0,0,0,0,0,0,0,0,0,0,0,0,
0,0,0,0,0,0,0,0,0,0,0,0,0,0,0,0,0,0,0,0,0,0,0,0,0,0,0,0,0,0,0,0,0,0,0,0,0,0,0,0,0,0,0,0,0,0,0,0,0,0,0,0,0,0,0,0,0,0,0,0,0,0,0,0,0,0,0,0,0,0,0,0,0,0,0,
0,0,0,0,0,0,0,0,0,0,0,0,0,0,0,0,0,0,0,0,0,0,0,0,0,0,0,0,0,0,0,0,0,0,0,0,0,0,0,0,0,0,0,0,0,0,0,0,0,0,0,0,0,0,0,0,0,0,0,0,0,0,0,0,0,0,0,0,0,0,0,0,0,0,0,
0,0,0,0,0,0,0,0,0,0,0,0,0,0,0,0,0,0,0,0,0,0,0,0,0,0,0,0,0,0,0,0,0,0,0,0,0,0,0,0,0,0,0,0,0,0,0,0,0,0,0,0,0,0,0,0,0,0,0,0,0,0,0,0,0,0,0,0,0,0,0,0,0,0,0,
0,0,0,0,0,0,0,0,0,0,0,0,0,0,0,0,0,0,0,0,0,0,0,0,0,0,0,0,0,0,0,0,0,0,0,0,0,0,0,0,0,0,0,0,0,0,0,0,0,0,0,0,0,0,0,0,0,0,0,0,0,0,0,0,0,0,0,0,0,0,0,0,0,0,0,
0,0,0,0,0,0,0,0,0,0,0,0,0,0,0,0,0,0,0,0,0,0,0,0,0,0,0,0,0,0,0,0,0,0,0,0,0,0,0,0,0,0,0,0,0,0,0,0,0,0,0,0,0,0,0,0,0,0,0,0,0,0,0,0,0,0,0,0,0,0,0,0,0,0,0,
0,0,0,0,0,0,0,0,0,0,0,0,0,0,0,0,0,0,0,0,0,0,0,0,0,0,0,0,0,0,0,0,0,0,0,0,0,0,0,0,0,0,0,0,0,0,0,0,0,0,0,0,0,0,0,0,0,0,0,0,0,0,0,0,0,0,0,0,0,0,0,0,0,0,0,
0,0,0,0,0,0,0,0,0,0,0,0,0,0,0,0,0,0,0,0,0,0,0,0,0,0,0,0,0,0,0,0,0,0,0,0,0,0,0,0,0,0,0,0,0,0,0,0,0,0,0,0,0,0,0,0,0,0,0,0,0,0,0,0,0,0,0,0,0,0,0,0,0,0,0,
0,0,0,0,0,0,0,0,0,0,0,0,0,0,0,0,0,0,0,0,0,0,0,0,0,0,0,0,0,0,0,0,0,0,0,0,0,0,0,0,0,0,0,0,0,0,0,0,0,0,0,0,0,0,0,0,0,0,0,0,0,0,0,0,0,0,0,0,0,0,0,0,0,0,0,
0,0,0,0,0,0,0,0,0,0,0,0,0,0,0,0,0,0,0,0,0,0,0,0,0,0,0,0,0,0,0,0,0,0,0,0,0,0,0,0,0,0,0,0,0,0,0,0,0,0,0,0,0,0,0,0,0,0,0,0,0,0,0,0,0,0,0,0,0,0,0,0,0,0,0,
0,0,0,0,0,0,0,0,0,0,0,0,0,0,0,0,0,0,0,0,0,0,0,0,0,0,0,0,0,0,0,0,0,0,0,0,0,0,0,0,0,0,0,0,0,0,0,0,0,0,0,6861,0,0,0,0,0,0,0,0,0,0,0,0,0,0,0,0,0,0,0,0,0,0,0,
0,0,0,0,0,0,0,0,0,0,0,0,0,0,0,0,0,0,0,0,0,0,0,0,0,0,0,0,0,0,0,0,0,0,0,0,0,0,0,0,0,0,0,0,0,0,0,0,0,0,0,0,0,0,0,6867,0,0,0,0,0,0,0,0,0,0,0,0,0,0,0,0,0,0,0,
0,0,0,0,0,0,0,0,0,0,0,0,0,0,0,0,0,0,0,0,0,0,0,0,0,0,0,0,0,0,0,0,0,0,0,0,0,0,0,0,0,0,0,0,0,0,0,0,0,0,0,0,0,0,0,0,0,0,0,0,0,0,0,0,0,0,0,0,0,0,0,0,0,0,0,
0,0,0,0,0,0,0,0,0,0,0,0,0,0,0,0,0,0,0,0,0,0,0,0,0,0,0,0,0,0,0,0,0,0,0,0,0,0,0,0,0,0,0,0,0,0,0,0,0,0,0,0,0,6865,0,0,0,0,0,0,0,0,0,0,0,0,0,0,0,0,0,0,0,0,0,
0,0,0,0,0,0,0,0,0,0,0,0,0,0,0,0,0,0,0,0,0,0,0,0,0,0,0,0,0,0,0,0,0,0,0,0,0,0,0,0,0,0,0,0,0,0,0,0,0,0,0,0,0,0,0,0,0,0,0,0,0,0,0,0,0,0,0,0,0,0,0,0,0,0,0,
0,0,0,0,0,0,0,0,0,0,0,0,0,0,0,0,0,0,0,0,0,0,0,0,0,0,0,0,0,0,0,0,0,0,0,0,0,0,0,0,0,0,0,0,0,0,0,0,0,0,0,0,6868,0,0,0,0,0,0,0,0,0,0,0,0,0,0,0,0,0,0,0,0,0,0,
0,0,0,0,0,0,0,0,0,0,0,0,0,0,0,0,0,0,0,0,0,0,0,0,0,0,0,0,0,0,0,0,0,0,0,0,0,0,0,0,0,0,0,0,0,0,0,0,0,0,0,0,0,0,0,0,0,0,0,0,0,0,0,0,0,0,0,0,0,0,0,0,0,0,0,
0,0,0,0,0,0,0,0,0,0,0,0,0,0,0,0,0,0,0,0,0,0,0,0,0,0,0,0,0,0,0,0,0,0,0,0,0,0,0,0,0,0,0,0,0,0,0,0,0,0,0,0,0,0,0,0,0,0,0,0,0,0,0,0,0,0,0,0,0,0,0,0,0,0,0,
0,0,0,0,0,0,0,0,0,0,0,0,0,0,0,0,0,0,0,0,0,0,0,0,0,0,0,0,0,0,0,0,0,0,0,0,0,0,0,0,0,0,0,0,0,0,0,0,0,0,0,0,0,0,0,0,0,0,0,0,0,0,0,0,0,0,0,0,0,0,0,0,0,0,0,
0,0,0,0,0,0,0,0,0,0,0,0,0,0,0,0,0,0,0,0,0,0,0,0,0,0,0,0,0,0,0,0,0,0,0,0,0,0,0,0,0,0,0,0,0,0,0,0,0,0,0,0,0,0,0,0,0,0,0,0,0,0,0,0,0,0,0,0,0,0,0,0,0,0,0,
0,0,0,0,0,0,0,0,0,0,0,0,0,0,0,0,0,0,0,0,0,0,0,0,0,0,0,0,0,0,0,0,0,0,0,0,0,0,0,0,0,0,0,0,0,0,0,0,0,0,0,0,0,0,0,0,0,0,0,0,0,0,0,0,0,0,0,0,0,0,0,0,0,0,0,
0,0,0,0,0,0,0,0,0,0,0,0,0,0,0,0,0,0,0,0,0,0,0,0,0,0,0,0,0,0,0,0,0,0,0,0,0,0,0,0,0,0,0,0,0,0,0,0,0,0,0,0,0,0,0,0,0,0,0,0,0,0,0,0,0,0,0,0,0,0,0,0,0,0,0,
0,0,0,0,0,0,0,0,0,0,0,0,0,0,0,0,0,0,0,0,0,0,0,0,0,0,0,0,0,0,0,0,0,0,0,0,0,0,0,0,0,0,0,0,0,0,0,0,0,0,0,0,0,0,0,0,0,0,0,0,0,0,0,0,0,0,0,0,0,0,0,0,0,0,0,
0,0,0,0,0,0,0,0,0,0,0,0,0,0,0,0,0,0,0,0,0,0,0,0,0,0,0,0,0,0,0,0,0,0,0,0,0,0,0,0,0,0,0,0,0,0,0,0,0,0,0,0,0,0,0,0,0,0,0,0,0,0,0,0,0,0,0,0,0,0,0,0,0,0,0,
0,0,0,0,0,0,0,0,0,0,0,0,0,0,0,0,0,0,0,0,0,0,0,0,0,0,0,0,0,0,0,0,0,0,0,0,0,0,0,0,0,0,0,0,0,0,0,0,0,0,0,0,0,0,0,0,0,0,0,0,0,0,0,0,0,0,0,0,0,0,0,0,0,0,0,
0,0,0,0,0,0,0,0,0,0,0,0,0,0,0,0,0,0,0,0,0,0,0,0,0,0,0,0,0,0,0,0,0,0,0,0,0,0,0,0,0,0,0,0,0,0,0,0,0,0,0,0,0,0,0,0,0,0,0,0,0,0,0,0,0,0,0,0,0,0,0,0,0,0,0,
0,0,0,0,0,0,0,0,0,0,0,0,0,0,0,0,0,0,0,0,0,0,0,0,0,0,0,0,0,0,0,0,0,0,0,0,0,0,0,0,0,0,0,0,0,0,0,0,0,0,0,0,0,0,0,0,0,0,0,0,0,0,0,0,0,0,0,0,0,0,0,0,0,0,0,
0,0,0,0,0,0,0,0,0,0,0,0,0,0,0,0,0,0,0,0,0,0,0,0,0,0,0,0,0,0,0,0,0,0,0,0,0,0,0,0,0,0,0,0,0,0,0,0,0,0,0,0,0,0,0,0,0,0,0,0,0,0,0,0,0,0,0,0,0,0,0,0,0,0,0,
0,0,0,0,0,0,0,0,0,0,0,0,0,0,0,0,0,0,0,0,0,0,0,0,0,0,0,0,0,0,0,0,0,0,0,0,0,0,0,0,0,0,0,0,0,0,0,0,0,0,0,0,0,0,0,0,0,0,0,0,0,0,0,0,0,0,0,0,0,0,0,0,0,0,0,
0,0,0,0,0,0,0,0,0,0,0,0,0,0,0,0,0,0,0,0,0,0,0,0,0,0,0,0,0,0,0,0,0,0,0,0,0,0,0,0,0,0,0,0,0,0,0,0,0,0,0,0,0,0,0,0,0,0,0,0,0,0,0,0,0,0,0,0,0,0,0,0,0,0,0,
0,0,0,0,0,0,0,0,0,0,0,0,0,0,0,0,0,0,0,0,0,0,0,0,0,0,0,0,0,0,0,0,0,0,0,0,0,0,0,0,0,0,0,0,0,0,0,0,0,0,0,0,0,0,0,0,0,0,0,0,0,0,0,0,0,0,0,0,0,0,0,0,0,0,0,
0,0,0,0,0,0,0,0,0,0,0,0,0,0,0,0,0,0,0,0,0,0,0,0,0,0,0,0,0,0,0,0,0,0,0,0,0,0,0,0,0,0,0,0,0,0,0,0,0,0,0,0,0,0,0,0,0,0,0,0,0,0,0,0,0,0,0,0,0,0,0,0,0,0,0,
0,0,0,0,0,0,0,0,0,0,0,0,0,0,0,0,0,0,0,0,0,0,0,0,0,0,0,0,0,0,0,0,0,0,0,0,0,0,0,0,0,0,0,0,0,0,0,0,0,0,0,0,0,0,0,0,0,0,0,0,0,0,0,0,0,0,0,0,0,0,0,0,0,0,0
</data>
 </layer>
 <objectgroup id="13" name="Camada de Objetos 1"/>
</map>
