<?xml version="1.0" encoding="UTF-8"?>
<map version="1.10" tiledversion="1.12.2" orientation="orthogonal" renderorder="left-down" width="40" height="40" tilewidth="32" tileheight="32" infinite="0" nextlayerid="11" nextobjectid="1">
 <tileset firstgid="1" name="Terrain - Highlands" tilewidth="32" tileheight="32" tilecount="2964" columns="57">
  <image source="tiled/ERW - Highlands/tilesets and props/tilesets.png" width="1824" height="1664"/>
  <tile id="139" probability="3"/>
  <tile id="196" probability="3"/>
  <tile id="230" probability="10"/>
  <tile id="235" probability="10"/>
  <tile id="240" probability="10"/>
  <tile id="245" probability="10"/>
  <tile id="250" probability="10"/>
  <tile id="253" probability="3"/>
  <tile id="256" probability="10"/>
  <tile id="261" probability="10"/>
  <tile id="266" probability="10"/>
  <tile id="271" probability="10"/>
  <tile id="310" probability="3"/>
  <tile id="515" probability="0.5"/>
  <tile id="520" probability="0.5"/>
  <tile id="530" probability="0.5"/>
  <tile id="535" probability="0.5"/>
  <tile id="655" probability="0.5"/>
  <tile id="660" probability="0.5"/>
  <tile id="665" probability="0.5"/>
  <tile id="670" probability="0.5"/>
  <tile id="684" probability="0.01"/>
  <tile id="685" probability="0.01"/>
  <tile id="686" probability="0.01"/>
  <tile id="687" probability="0.01"/>
  <tile id="688" probability="0.01"/>
  <tile id="696" probability="0.5"/>
  <tile id="741" probability="0.01"/>
  <tile id="742" probability="0.01"/>
  <tile id="743" probability="0.01"/>
  <tile id="744" probability="0.01"/>
  <tile id="745" probability="0.01"/>
  <tile id="857" probability="0.3"/>
  <tile id="913" probability="0.3"/>
  <tile id="914" probability="0.3"/>
  <tile id="915" probability="0.3"/>
  <tile id="937" probability="3"/>
  <tile id="971" probability="0.3"/>
  <tile id="994" probability="3"/>
  <tile id="1038" probability="10"/>
  <tile id="1051" probability="3"/>
  <tile id="1108" probability="3"/>
  <tile id="1256" probability="0.3"/>
  <tile id="1312" probability="0.3"/>
  <tile id="1313" probability="0.3"/>
  <tile id="1314" probability="0.3"/>
  <tile id="1323" probability="0.5"/>
  <tile id="1370" probability="0.3"/>
  <tile id="2126" probability="3"/>
  <tile id="2131" probability="3"/>
  <tile id="2173" probability="3"/>
  <tile id="2178" probability="3"/>
  <tile id="2182" probability="3"/>
  <tile id="2183" probability="10"/>
  <tile id="2187" probability="3"/>
  <tile id="2188" probability="10"/>
  <tile id="2229" probability="3"/>
  <tile id="2230" probability="10"/>
  <tile id="2234" probability="3"/>
  <tile id="2235" probability="10"/>
  <tile id="2405" probability="10"/>
  <tile id="2410" probability="10"/>
  <tile id="2415" probability="10"/>
  <tile id="2458" probability="3"/>
  <tile id="2463" probability="3"/>
  <tile id="2514" probability="3"/>
  <tile id="2515" probability="10"/>
  <tile id="2519" probability="3"/>
  <tile id="2520" probability="10"/>
  <tile id="2530" probability="10"/>
  <wangsets>
   <wangset name="snow-ground-platformV1" type="corner" tile="515">
    <wangcolor name="" color="#ff0000" tile="515" probability="1"/>
    <wangtile tileid="286" wangid="0,0,0,1,0,0,0,0"/>
    <wangtile tileid="287" wangid="0,0,0,1,0,1,0,0"/>
    <wangtile tileid="288" wangid="0,0,0,0,0,1,0,0"/>
    <wangtile tileid="342" wangid="0,0,0,1,0,0,0,0"/>
    <wangtile tileid="343" wangid="0,1,0,1,0,1,0,0"/>
    <wangtile tileid="344" wangid="0,1,0,1,0,1,0,1"/>
    <wangtile tileid="345" wangid="0,0,0,1,0,1,0,1"/>
    <wangtile tileid="346" wangid="0,0,0,0,0,1,0,0"/>
    <wangtile tileid="399" wangid="0,1,0,1,0,0,0,0"/>
    <wangtile tileid="400" wangid="0,1,0,1,0,1,0,1"/>
    <wangtile tileid="401" wangid="0,1,0,1,0,1,0,1"/>
    <wangtile tileid="402" wangid="0,1,0,1,0,1,0,1"/>
    <wangtile tileid="403" wangid="0,0,0,0,0,1,0,1"/>
    <wangtile tileid="456" wangid="0,1,0,0,0,0,0,0"/>
    <wangtile tileid="457" wangid="0,1,0,1,0,0,0,1"/>
    <wangtile tileid="458" wangid="0,1,0,1,0,1,0,1"/>
    <wangtile tileid="459" wangid="0,1,0,0,0,1,0,1"/>
    <wangtile tileid="460" wangid="0,0,0,0,0,0,0,1"/>
    <wangtile tileid="514" wangid="0,1,0,0,0,0,0,0"/>
    <wangtile tileid="515" wangid="0,1,0,0,0,0,0,1"/>
    <wangtile tileid="516" wangid="0,0,0,0,0,0,0,1"/>
    <wangtile tileid="570" wangid="0,1,0,1,0,0,0,0"/>
    <wangtile tileid="571" wangid="0,0,0,0,0,1,0,1"/>
    <wangtile tileid="572" wangid="0,0,0,1,0,1,0,0"/>
    <wangtile tileid="573" wangid="0,0,0,1,0,1,0,0"/>
    <wangtile tileid="627" wangid="0,1,0,1,0,0,0,0"/>
    <wangtile tileid="628" wangid="0,0,0,0,0,1,0,1"/>
    <wangtile tileid="629" wangid="0,1,0,0,0,0,0,1"/>
    <wangtile tileid="630" wangid="0,1,0,0,0,0,0,1"/>
    <wangtile tileid="684" wangid="0,1,0,1,0,1,0,1"/>
    <wangtile tileid="685" wangid="0,1,0,1,0,1,0,1"/>
    <wangtile tileid="686" wangid="0,1,0,1,0,1,0,1"/>
    <wangtile tileid="687" wangid="0,1,0,1,0,1,0,1"/>
    <wangtile tileid="688" wangid="0,1,0,1,0,1,0,1"/>
    <wangtile tileid="741" wangid="0,1,0,1,0,1,0,1"/>
    <wangtile tileid="742" wangid="0,1,0,1,0,1,0,1"/>
    <wangtile tileid="743" wangid="0,1,0,1,0,1,0,1"/>
    <wangtile tileid="744" wangid="0,1,0,1,0,1,0,1"/>
   </wangset>
   <wangset name="terrain1" type="corner" tile="1028">
    <wangcolor name="" color="#ff0000" tile="1028" probability="1"/>
    <wangtile tileid="798" wangid="0,1,0,0,0,1,0,0"/>
    <wangtile tileid="799" wangid="0,0,0,1,0,0,0,0"/>
    <wangtile tileid="800" wangid="0,0,0,1,0,1,0,0"/>
    <wangtile tileid="801" wangid="0,0,0,0,0,1,0,0"/>
    <wangtile tileid="802" wangid="0,0,0,1,0,0,0,1"/>
    <wangtile tileid="855" wangid="0,0,0,1,0,0,0,0"/>
    <wangtile tileid="856" wangid="0,1,0,1,0,1,0,0"/>
    <wangtile tileid="857" wangid="0,1,0,1,0,1,0,1"/>
    <wangtile tileid="858" wangid="0,0,0,1,0,1,0,1"/>
    <wangtile tileid="859" wangid="0,0,0,0,0,1,0,0"/>
    <wangtile tileid="912" wangid="0,1,0,1,0,0,0,0"/>
    <wangtile tileid="913" wangid="0,1,0,1,0,1,0,1"/>
    <wangtile tileid="914" wangid="0,1,0,1,0,1,0,1"/>
    <wangtile tileid="915" wangid="0,1,0,1,0,1,0,1"/>
    <wangtile tileid="916" wangid="0,0,0,0,0,1,0,1"/>
    <wangtile tileid="969" wangid="0,1,0,0,0,0,0,0"/>
    <wangtile tileid="970" wangid="0,1,0,1,0,0,0,1"/>
    <wangtile tileid="971" wangid="0,1,0,1,0,1,0,1"/>
    <wangtile tileid="972" wangid="0,1,0,0,0,1,0,1"/>
    <wangtile tileid="973" wangid="0,0,0,0,0,0,0,1"/>
    <wangtile tileid="1027" wangid="0,1,0,0,0,0,0,0"/>
    <wangtile tileid="1028" wangid="0,1,0,0,0,0,0,1"/>
    <wangtile tileid="1029" wangid="0,0,0,0,0,0,0,1"/>
    <wangtile tileid="1030" wangid="0,1,0,1,0,1,0,1"/>
    <wangtile tileid="1083" wangid="0,0,0,0,0,1,0,1"/>
    <wangtile tileid="1084" wangid="0,0,0,0,0,1,0,1"/>
    <wangtile tileid="1085" wangid="0,0,0,1,0,1,0,0"/>
    <wangtile tileid="1086" wangid="0,0,0,1,0,1,0,0"/>
    <wangtile tileid="1140" wangid="0,1,0,1,0,0,0,0"/>
    <wangtile tileid="1141" wangid="0,1,0,1,0,0,0,0"/>
    <wangtile tileid="1142" wangid="0,1,0,0,0,0,0,1"/>
    <wangtile tileid="1143" wangid="0,1,0,0,0,0,0,1"/>
   </wangset>
   <wangset name="terrain2" type="corner" tile="1427">
    <wangcolor name="" color="#ff0000" tile="1427" probability="1"/>
    <wangtile tileid="1197" wangid="0,1,0,0,0,1,0,0"/>
    <wangtile tileid="1198" wangid="0,0,0,1,0,0,0,0"/>
    <wangtile tileid="1199" wangid="0,0,0,1,0,1,0,0"/>
    <wangtile tileid="1200" wangid="0,0,0,0,0,1,0,0"/>
    <wangtile tileid="1201" wangid="0,0,0,1,0,0,0,1"/>
    <wangtile tileid="1254" wangid="0,0,0,1,0,0,0,0"/>
    <wangtile tileid="1255" wangid="0,1,0,1,0,1,0,0"/>
    <wangtile tileid="1256" wangid="0,1,0,1,0,1,0,1"/>
    <wangtile tileid="1257" wangid="0,0,0,1,0,1,0,1"/>
    <wangtile tileid="1258" wangid="0,0,0,0,0,1,0,0"/>
    <wangtile tileid="1311" wangid="0,1,0,1,0,0,0,0"/>
    <wangtile tileid="1312" wangid="0,1,0,1,0,1,0,1"/>
    <wangtile tileid="1313" wangid="0,1,0,1,0,1,0,1"/>
    <wangtile tileid="1314" wangid="0,1,0,1,0,1,0,1"/>
    <wangtile tileid="1315" wangid="0,0,0,0,0,1,0,1"/>
    <wangtile tileid="1368" wangid="0,1,0,0,0,0,0,0"/>
    <wangtile tileid="1369" wangid="0,1,0,1,0,0,0,1"/>
    <wangtile tileid="1370" wangid="0,1,0,1,0,1,0,1"/>
    <wangtile tileid="1371" wangid="0,1,0,0,0,1,0,1"/>
    <wangtile tileid="1372" wangid="0,0,0,0,0,0,0,1"/>
    <wangtile tileid="1426" wangid="0,1,0,0,0,0,0,0"/>
    <wangtile tileid="1427" wangid="0,1,0,0,0,0,0,1"/>
    <wangtile tileid="1428" wangid="0,0,0,0,0,0,0,1"/>
    <wangtile tileid="1429" wangid="0,1,0,1,0,1,0,1"/>
    <wangtile tileid="1482" wangid="0,0,0,0,0,1,0,1"/>
    <wangtile tileid="1483" wangid="0,0,0,0,0,1,0,1"/>
    <wangtile tileid="1484" wangid="0,0,0,1,0,1,0,0"/>
    <wangtile tileid="1485" wangid="0,0,0,1,0,1,0,0"/>
    <wangtile tileid="1539" wangid="0,1,0,1,0,0,0,0"/>
    <wangtile tileid="1540" wangid="0,1,0,1,0,0,0,0"/>
    <wangtile tileid="1541" wangid="0,1,0,0,0,0,0,1"/>
    <wangtile tileid="1542" wangid="0,1,0,0,0,0,0,1"/>
   </wangset>
   <wangset name="snow-ground" type="corner" tile="1940">
    <wangcolor name="" color="#ff0000" tile="1940" probability="1"/>
    <wangtile tileid="1711" wangid="0,0,0,1,0,0,0,0"/>
    <wangtile tileid="1712" wangid="0,0,0,1,0,1,0,0"/>
    <wangtile tileid="1713" wangid="0,0,0,0,0,1,0,0"/>
    <wangtile tileid="1767" wangid="0,0,0,1,0,0,0,0"/>
    <wangtile tileid="1768" wangid="0,1,0,1,0,1,0,0"/>
    <wangtile tileid="1769" wangid="0,1,0,1,0,1,0,1"/>
    <wangtile tileid="1770" wangid="0,0,0,1,0,1,0,1"/>
    <wangtile tileid="1771" wangid="0,0,0,0,0,1,0,0"/>
    <wangtile tileid="1824" wangid="0,1,0,1,0,0,0,0"/>
    <wangtile tileid="1825" wangid="0,1,0,1,0,1,0,1"/>
    <wangtile tileid="1826" wangid="0,1,0,1,0,1,0,1"/>
    <wangtile tileid="1827" wangid="0,1,0,1,0,1,0,1"/>
    <wangtile tileid="1828" wangid="0,0,0,0,0,1,0,1"/>
    <wangtile tileid="1881" wangid="0,1,0,0,0,0,0,0"/>
    <wangtile tileid="1882" wangid="0,1,0,1,0,0,0,1"/>
    <wangtile tileid="1883" wangid="0,1,0,1,0,1,0,1"/>
    <wangtile tileid="1884" wangid="0,1,0,0,0,1,0,1"/>
    <wangtile tileid="1885" wangid="0,0,0,0,0,0,0,1"/>
    <wangtile tileid="1939" wangid="0,1,0,0,0,0,0,0"/>
    <wangtile tileid="1940" wangid="0,1,0,0,0,0,0,1"/>
    <wangtile tileid="1941" wangid="0,0,0,0,0,0,0,1"/>
    <wangtile tileid="1995" wangid="0,0,0,0,0,1,0,1"/>
    <wangtile tileid="1996" wangid="0,0,0,0,0,1,0,1"/>
    <wangtile tileid="1997" wangid="0,0,0,1,0,1,0,0"/>
    <wangtile tileid="1998" wangid="0,0,0,1,0,1,0,0"/>
    <wangtile tileid="2052" wangid="0,1,0,1,0,0,0,0"/>
    <wangtile tileid="2053" wangid="0,1,0,1,0,0,0,0"/>
    <wangtile tileid="2054" wangid="0,1,0,0,0,0,0,1"/>
    <wangtile tileid="2055" wangid="0,1,0,0,0,0,0,1"/>
   </wangset>
   <wangset name="frozen-lake" type="corner" tile="1717">
    <wangcolor name="" color="#ff0000" tile="1717" probability="1"/>
    <wangtile tileid="1488" wangid="0,0,0,1,0,0,0,0"/>
    <wangtile tileid="1489" wangid="0,0,0,1,0,1,0,0"/>
    <wangtile tileid="1490" wangid="0,0,0,0,0,1,0,0"/>
    <wangtile tileid="1492" wangid="0,1,0,1,0,0,0,0"/>
    <wangtile tileid="1493" wangid="0,1,0,1,0,0,0,0"/>
    <wangtile tileid="1494" wangid="0,1,0,1,0,0,0,0"/>
    <wangtile tileid="1495" wangid="0,1,0,1,0,0,0,0"/>
    <wangtile tileid="1496" wangid="0,1,0,1,0,0,0,0"/>
    <wangtile tileid="1497" wangid="0,0,0,1,0,1,0,0"/>
    <wangtile tileid="1498" wangid="0,0,0,1,0,0,0,0"/>
    <wangtile tileid="1499" wangid="0,0,0,1,0,0,0,0"/>
    <wangtile tileid="1544" wangid="0,0,0,1,0,0,0,0"/>
    <wangtile tileid="1545" wangid="0,1,0,1,0,1,0,0"/>
    <wangtile tileid="1546" wangid="0,1,0,1,0,1,0,1"/>
    <wangtile tileid="1547" wangid="0,0,0,1,0,1,0,1"/>
    <wangtile tileid="1548" wangid="0,0,0,0,0,1,0,0"/>
    <wangtile tileid="1549" wangid="0,0,0,0,0,1,0,1"/>
    <wangtile tileid="1550" wangid="0,0,0,0,0,1,0,1"/>
    <wangtile tileid="1551" wangid="0,0,0,0,0,1,0,1"/>
    <wangtile tileid="1552" wangid="0,0,0,0,0,1,0,1"/>
    <wangtile tileid="1553" wangid="0,0,0,0,0,1,0,1"/>
    <wangtile tileid="1554" wangid="0,0,0,1,0,1,0,1"/>
    <wangtile tileid="1555" wangid="0,0,0,0,0,1,0,0"/>
    <wangtile tileid="1556" wangid="0,0,0,0,0,1,0,0"/>
    <wangtile tileid="1601" wangid="0,1,0,1,0,0,0,0"/>
    <wangtile tileid="1602" wangid="0,1,0,1,0,1,0,1"/>
    <wangtile tileid="1603" wangid="0,1,0,1,0,1,0,1"/>
    <wangtile tileid="1604" wangid="0,1,0,1,0,1,0,1"/>
    <wangtile tileid="1605" wangid="0,0,0,0,0,1,0,1"/>
    <wangtile tileid="1606" wangid="0,1,0,0,0,0,0,1"/>
    <wangtile tileid="1607" wangid="0,1,0,0,0,0,0,1"/>
    <wangtile tileid="1608" wangid="0,1,0,0,0,0,0,1"/>
    <wangtile tileid="1609" wangid="0,1,0,0,0,0,0,1"/>
    <wangtile tileid="1610" wangid="0,1,0,0,0,0,0,1"/>
    <wangtile tileid="1611" wangid="0,1,0,1,0,0,0,1"/>
    <wangtile tileid="1612" wangid="0,1,0,0,0,0,0,0"/>
    <wangtile tileid="1613" wangid="0,1,0,0,0,0,0,0"/>
    <wangtile tileid="1658" wangid="0,1,0,0,0,0,0,0"/>
    <wangtile tileid="1659" wangid="0,1,0,1,0,0,0,1"/>
    <wangtile tileid="1660" wangid="0,1,0,1,0,1,0,1"/>
    <wangtile tileid="1661" wangid="0,1,0,0,0,1,0,1"/>
    <wangtile tileid="1662" wangid="0,0,0,0,0,0,0,1"/>
    <wangtile tileid="1663" wangid="0,0,0,1,0,1,0,0"/>
    <wangtile tileid="1664" wangid="0,0,0,1,0,1,0,0"/>
    <wangtile tileid="1665" wangid="0,0,0,1,0,1,0,0"/>
    <wangtile tileid="1666" wangid="0,0,0,1,0,1,0,0"/>
    <wangtile tileid="1667" wangid="0,0,0,1,0,1,0,0"/>
    <wangtile tileid="1668" wangid="0,1,0,0,0,1,0,1"/>
    <wangtile tileid="1669" wangid="0,0,0,0,0,0,0,1"/>
    <wangtile tileid="1670" wangid="0,0,0,0,0,0,0,1"/>
    <wangtile tileid="1716" wangid="0,1,0,0,0,0,0,0"/>
    <wangtile tileid="1717" wangid="0,1,0,0,0,0,0,1"/>
    <wangtile tileid="1718" wangid="0,0,0,0,0,0,0,1"/>
   </wangset>
   <wangset name="platformV2-1tile tall" type="corner" tile="1330">
    <wangcolor name="" color="#ff0000" tile="1330" probability="1"/>
    <wangtile tileid="1101" wangid="0,0,0,1,0,0,0,0"/>
    <wangtile tileid="1102" wangid="0,0,0,1,0,1,0,0"/>
    <wangtile tileid="1103" wangid="0,0,0,0,0,1,0,0"/>
    <wangtile tileid="1105" wangid="0,0,0,0,0,1,0,1"/>
    <wangtile tileid="1106" wangid="0,0,0,0,0,1,0,1"/>
    <wangtile tileid="1107" wangid="0,0,0,1,0,1,0,0"/>
    <wangtile tileid="1108" wangid="0,0,0,1,0,1,0,0"/>
    <wangtile tileid="1113" wangid="0,0,0,1,0,0,0,0"/>
    <wangtile tileid="1114" wangid="0,0,0,1,0,1,0,0"/>
    <wangtile tileid="1115" wangid="0,0,0,0,0,1,0,0"/>
    <wangtile tileid="1117" wangid="0,0,0,0,0,1,0,1"/>
    <wangtile tileid="1118" wangid="0,0,0,0,0,1,0,1"/>
    <wangtile tileid="1157" wangid="0,0,0,1,0,0,0,0"/>
    <wangtile tileid="1158" wangid="0,1,0,1,0,1,0,0"/>
    <wangtile tileid="1159" wangid="0,1,0,1,0,1,0,1"/>
    <wangtile tileid="1160" wangid="0,0,0,1,0,1,0,1"/>
    <wangtile tileid="1161" wangid="0,0,0,0,0,1,0,0"/>
    <wangtile tileid="1162" wangid="0,1,0,1,0,0,0,0"/>
    <wangtile tileid="1163" wangid="0,1,0,1,0,0,0,0"/>
    <wangtile tileid="1164" wangid="0,1,0,0,0,0,0,1"/>
    <wangtile tileid="1165" wangid="0,1,0,0,0,0,0,1"/>
    <wangtile tileid="1169" wangid="0,0,0,1,0,0,0,0"/>
    <wangtile tileid="1170" wangid="0,1,0,1,0,1,0,0"/>
    <wangtile tileid="1172" wangid="0,0,0,1,0,1,0,1"/>
    <wangtile tileid="1173" wangid="0,0,0,0,0,1,0,0"/>
    <wangtile tileid="1174" wangid="0,1,0,1,0,0,0,0"/>
    <wangtile tileid="1175" wangid="0,1,0,1,0,0,0,0"/>
    <wangtile tileid="1214" wangid="0,1,0,1,0,0,0,0"/>
    <wangtile tileid="1215" wangid="0,1,0,1,0,1,0,1"/>
    <wangtile tileid="1216" wangid="0,1,0,1,0,1,0,1"/>
    <wangtile tileid="1217" wangid="0,1,0,1,0,1,0,1"/>
    <wangtile tileid="1218" wangid="0,0,0,0,0,1,0,1"/>
    <wangtile tileid="1226" wangid="0,1,0,1,0,0,0,0"/>
    <wangtile tileid="1230" wangid="0,0,0,0,0,1,0,1"/>
    <wangtile tileid="1271" wangid="0,1,0,0,0,0,0,0"/>
    <wangtile tileid="1272" wangid="0,1,0,1,0,0,0,1"/>
    <wangtile tileid="1273" wangid="0,1,0,1,0,1,0,1"/>
    <wangtile tileid="1274" wangid="0,1,0,0,0,1,0,1"/>
    <wangtile tileid="1275" wangid="0,0,0,0,0,0,0,1"/>
    <wangtile tileid="1283" wangid="0,1,0,0,0,0,0,0"/>
    <wangtile tileid="1284" wangid="0,1,0,1,0,0,0,1"/>
    <wangtile tileid="1286" wangid="0,1,0,0,0,1,0,1"/>
    <wangtile tileid="1287" wangid="0,0,0,0,0,0,0,1"/>
    <wangtile tileid="1329" wangid="0,1,0,0,0,0,0,0"/>
    <wangtile tileid="1330" wangid="0,1,0,0,0,0,0,1"/>
    <wangtile tileid="1331" wangid="0,0,0,0,0,0,0,1"/>
    <wangtile tileid="1341" wangid="0,1,0,0,0,0,0,0"/>
    <wangtile tileid="1342" wangid="0,1,0,0,0,0,0,1"/>
    <wangtile tileid="1343" wangid="0,0,0,0,0,0,0,1"/>
   </wangset>
   <wangset name="platform-raw-1tile tall" type="corner" tile="1355">
    <wangcolor name="" color="#ff0000" tile="1355" probability="1"/>
    <wangtile tileid="1126" wangid="0,0,0,1,0,0,0,0"/>
    <wangtile tileid="1127" wangid="0,0,0,1,0,1,0,0"/>
    <wangtile tileid="1128" wangid="0,0,0,0,0,1,0,0"/>
    <wangtile tileid="1130" wangid="0,0,0,0,0,1,0,1"/>
    <wangtile tileid="1131" wangid="0,0,0,0,0,1,0,1"/>
    <wangtile tileid="1132" wangid="0,0,0,1,0,1,0,0"/>
    <wangtile tileid="1133" wangid="0,0,0,1,0,1,0,0"/>
    <wangtile tileid="1182" wangid="0,0,0,1,0,0,0,0"/>
    <wangtile tileid="1183" wangid="0,1,0,1,0,1,0,0"/>
    <wangtile tileid="1184" wangid="0,1,0,1,0,1,0,1"/>
    <wangtile tileid="1185" wangid="0,0,0,1,0,1,0,1"/>
    <wangtile tileid="1186" wangid="0,0,0,0,0,1,0,0"/>
    <wangtile tileid="1187" wangid="0,1,0,1,0,0,0,0"/>
    <wangtile tileid="1188" wangid="0,1,0,1,0,0,0,0"/>
    <wangtile tileid="1189" wangid="0,1,0,0,0,0,0,1"/>
    <wangtile tileid="1190" wangid="0,1,0,0,0,0,0,1"/>
    <wangtile tileid="1239" wangid="0,1,0,1,0,0,0,0"/>
    <wangtile tileid="1240" wangid="0,1,0,1,0,1,0,1"/>
    <wangtile tileid="1241" wangid="0,1,0,1,0,1,0,1"/>
    <wangtile tileid="1242" wangid="0,1,0,1,0,1,0,1"/>
    <wangtile tileid="1243" wangid="0,0,0,0,0,1,0,1"/>
    <wangtile tileid="1296" wangid="0,1,0,0,0,0,0,0"/>
    <wangtile tileid="1297" wangid="0,1,0,1,0,0,0,1"/>
    <wangtile tileid="1298" wangid="0,1,0,1,0,1,0,1"/>
    <wangtile tileid="1299" wangid="0,1,0,0,0,1,0,1"/>
    <wangtile tileid="1300" wangid="0,0,0,0,0,0,0,1"/>
    <wangtile tileid="1354" wangid="0,1,0,0,0,0,0,0"/>
    <wangtile tileid="1355" wangid="0,1,0,0,0,0,0,1"/>
    <wangtile tileid="1356" wangid="0,0,0,0,0,0,0,1"/>
   </wangset>
  </wangsets>
 </tileset>
 <tileset firstgid="2965" name="Atlas-Props-Sprites" tilewidth="352" tileheight="288" tilecount="384" columns="0">
  <grid orientation="orthogonal" width="1" height="1"/>
  <tile id="0">
   <image source="tiled/ERW - Highlands/tilesets and props/props-sprites/cabin-1.png" width="224" height="192"/>
  </tile>
  <tile id="1">
   <image source="tiled/ERW - Highlands/tilesets and props/props-sprites/cabin-2.png" width="192" height="192"/>
  </tile>
  <tile id="2">
   <image source="tiled/ERW - Highlands/tilesets and props/props-sprites/cabin-3.png" width="192" height="192"/>
  </tile>
  <tile id="3">
   <image source="tiled/ERW - Highlands/tilesets and props/props-sprites/cabin-campfire-1.png" width="128" height="96"/>
  </tile>
  <tile id="4">
   <image source="tiled/ERW - Highlands/tilesets and props/props-sprites/cabin-campfire-2.png" width="128" height="96"/>
  </tile>
  <tile id="5">
   <image source="tiled/ERW - Highlands/tilesets and props/props-sprites/cabin-campfire-3.png" width="64" height="64"/>
  </tile>
  <tile id="6">
   <image source="tiled/ERW - Highlands/tilesets and props/props-sprites/cabin-campfire-4.png" width="64" height="64"/>
  </tile>
  <tile id="7">
   <image source="tiled/ERW - Highlands/tilesets and props/props-sprites/cabin-campfire-5.png" width="32" height="32"/>
  </tile>
  <tile id="8">
   <image source="tiled/ERW - Highlands/tilesets and props/props-sprites/clouds_0.png" width="160" height="64"/>
  </tile>
  <tile id="9">
   <image source="tiled/ERW - Highlands/tilesets and props/props-sprites/clouds_1.png" width="160" height="64"/>
  </tile>
  <tile id="10">
   <image source="tiled/ERW - Highlands/tilesets and props/props-sprites/clouds_2.png" width="192" height="64"/>
  </tile>
  <tile id="11">
   <image source="tiled/ERW - Highlands/tilesets and props/props-sprites/clouds_3.png" width="160" height="64"/>
  </tile>
  <tile id="12">
   <image source="tiled/ERW - Highlands/tilesets and props/props-sprites/clouds_4.png" width="160" height="64"/>
  </tile>
  <tile id="13">
   <image source="tiled/ERW - Highlands/tilesets and props/props-sprites/magic-tree.png" width="160" height="192"/>
  </tile>
  <tile id="14">
   <image source="tiled/ERW - Highlands/tilesets and props/props-sprites/magic-tree1.png" width="96" height="32"/>
  </tile>
  <tile id="15">
   <image source="tiled/ERW - Highlands/tilesets and props/props-sprites/pine-tree2-big.png" width="96" height="192"/>
  </tile>
  <tile id="16">
   <image source="tiled/ERW - Highlands/tilesets and props/props-sprites/pine-tree2-big-snow.png" width="96" height="192"/>
  </tile>
  <tile id="17">
   <image source="tiled/ERW - Highlands/tilesets and props/props-sprites/pine-tree2-big-snow2.png" width="96" height="192"/>
  </tile>
  <tile id="18">
   <image source="tiled/ERW - Highlands/tilesets and props/props-sprites/pine-tree2-medium.png" width="96" height="160"/>
  </tile>
  <tile id="19">
   <image source="tiled/ERW - Highlands/tilesets and props/props-sprites/pine-tree2-medium-snow.png" width="96" height="160"/>
  </tile>
  <tile id="20">
   <image source="tiled/ERW - Highlands/tilesets and props/props-sprites/pine-tree2-medium-snow2.png" width="96" height="160"/>
  </tile>
  <tile id="21">
   <image source="tiled/ERW - Highlands/tilesets and props/props-sprites/pine-tree2-no leaves_0.png" width="32" height="32"/>
  </tile>
  <tile id="22">
   <image source="tiled/ERW - Highlands/tilesets and props/props-sprites/pine-tree2-no leaves_1.png" width="96" height="160"/>
  </tile>
  <tile id="23">
   <image source="tiled/ERW - Highlands/tilesets and props/props-sprites/pine-tree2-no leaves_2.png" width="32" height="96"/>
  </tile>
  <tile id="24">
   <image source="tiled/ERW - Highlands/tilesets and props/props-sprites/pine-tree2-no leaves_3.png" width="32" height="32"/>
  </tile>
  <tile id="25">
   <image source="tiled/ERW - Highlands/tilesets and props/props-sprites/pine-tree2-no leaves_4.png" width="32" height="96"/>
  </tile>
  <tile id="26">
   <image source="tiled/ERW - Highlands/tilesets and props/props-sprites/pine-tree2-no leaves_5.png" width="32" height="32"/>
  </tile>
  <tile id="27">
   <image source="tiled/ERW - Highlands/tilesets and props/props-sprites/pine-tree2-no leaves_6.png" width="32" height="32"/>
  </tile>
  <tile id="28">
   <image source="tiled/ERW - Highlands/tilesets and props/props-sprites/pine-tree2-no leaves_7.png" width="96" height="160"/>
  </tile>
  <tile id="29">
   <image source="tiled/ERW - Highlands/tilesets and props/props-sprites/pine-tree2-small.png" width="96" height="128"/>
  </tile>
  <tile id="30">
   <image source="tiled/ERW - Highlands/tilesets and props/props-sprites/pine-tree2-small-snow.png" width="96" height="96"/>
  </tile>
  <tile id="31">
   <image source="tiled/ERW - Highlands/tilesets and props/props-sprites/pine-tree2-small-snow2.png" width="96" height="96"/>
  </tile>
  <tile id="32">
   <image source="tiled/ERW - Highlands/tilesets and props/props-sprites/pine-tree2-snow-no leaves_0.png" width="96" height="160"/>
  </tile>
  <tile id="33">
   <image source="tiled/ERW - Highlands/tilesets and props/props-sprites/pine-tree2-snow-no leaves_1.png" width="32" height="96"/>
  </tile>
  <tile id="34">
   <image source="tiled/ERW - Highlands/tilesets and props/props-sprites/pine-tree2-snow-no leaves_2.png" width="32" height="96"/>
  </tile>
  <tile id="35">
   <image source="tiled/ERW - Highlands/tilesets and props/props-sprites/pine-tree2-snow-no leaves_3.png" width="96" height="160"/>
  </tile>
  <tile id="36">
   <image source="tiled/ERW - Highlands/tilesets and props/props-sprites/pine-tree-big.png" width="96" height="192"/>
  </tile>
  <tile id="37">
   <image source="tiled/ERW - Highlands/tilesets and props/props-sprites/pine-tree-big-snow.png" width="96" height="192"/>
  </tile>
  <tile id="38">
   <image source="tiled/ERW - Highlands/tilesets and props/props-sprites/pine-tree-big-snow2.png" width="96" height="192"/>
  </tile>
  <tile id="39">
   <image source="tiled/ERW - Highlands/tilesets and props/props-sprites/pine-tree-medium.png" width="96" height="160"/>
  </tile>
  <tile id="40">
   <image source="tiled/ERW - Highlands/tilesets and props/props-sprites/pine-tree-medium-snow.png" width="96" height="160"/>
  </tile>
  <tile id="41">
   <image source="tiled/ERW - Highlands/tilesets and props/props-sprites/pine-tree-medium-snow2.png" width="96" height="160"/>
  </tile>
  <tile id="42">
   <image source="tiled/ERW - Highlands/tilesets and props/props-sprites/pine-tree-no leaves_0.png" width="32" height="96"/>
  </tile>
  <tile id="43">
   <image source="tiled/ERW - Highlands/tilesets and props/props-sprites/pine-tree-no leaves_1.png" width="32" height="96"/>
  </tile>
  <tile id="44">
   <image source="tiled/ERW - Highlands/tilesets and props/props-sprites/pine-tree-no leaves_2.png" width="32" height="160"/>
  </tile>
  <tile id="45">
   <image source="tiled/ERW - Highlands/tilesets and props/props-sprites/pine-tree-no leaves_3.png" width="32" height="160"/>
  </tile>
  <tile id="46">
   <image source="tiled/ERW - Highlands/tilesets and props/props-sprites/pine-tree-no leaves_4.png" width="32" height="32"/>
  </tile>
  <tile id="47">
   <image source="tiled/ERW - Highlands/tilesets and props/props-sprites/pine-tree-no leaves_5.png" width="32" height="32"/>
  </tile>
  <tile id="48">
   <image source="tiled/ERW - Highlands/tilesets and props/props-sprites/pine-tree-no leaves_6.png" width="32" height="32"/>
  </tile>
  <tile id="49">
   <image source="tiled/ERW - Highlands/tilesets and props/props-sprites/pine-tree-no leaves_7.png" width="32" height="32"/>
  </tile>
  <tile id="50">
   <image source="tiled/ERW - Highlands/tilesets and props/props-sprites/pine-tree-no leaves_8.png" width="32" height="32"/>
  </tile>
  <tile id="51">
   <image source="tiled/ERW - Highlands/tilesets and props/props-sprites/pine-tree-no leaves_9.png" width="32" height="32"/>
  </tile>
  <tile id="52">
   <image source="tiled/ERW - Highlands/tilesets and props/props-sprites/pine-tree-no leaves_10.png" width="32" height="32"/>
  </tile>
  <tile id="53">
   <image source="tiled/ERW - Highlands/tilesets and props/props-sprites/pine-tree-shadow-big.png" width="96" height="64"/>
  </tile>
  <tile id="54">
   <image source="tiled/ERW - Highlands/tilesets and props/props-sprites/pine-tree-shadow-medium.png" width="96" height="64"/>
  </tile>
  <tile id="55">
   <image source="tiled/ERW - Highlands/tilesets and props/props-sprites/pine-tree-shadow-small.png" width="96" height="32"/>
  </tile>
  <tile id="56">
   <image source="tiled/ERW - Highlands/tilesets and props/props-sprites/pine-tree-small.png" width="96" height="96"/>
  </tile>
  <tile id="57">
   <image source="tiled/ERW - Highlands/tilesets and props/props-sprites/pine-tree-small-snow.png" width="96" height="96"/>
  </tile>
  <tile id="58">
   <image source="tiled/ERW - Highlands/tilesets and props/props-sprites/pine-tree-small-snow2.png" width="96" height="96"/>
  </tile>
  <tile id="59">
   <image source="tiled/ERW - Highlands/tilesets and props/props-sprites/pine-tree-snow-no leaves_0.png" width="32" height="160"/>
  </tile>
  <tile id="60">
   <image source="tiled/ERW - Highlands/tilesets and props/props-sprites/pine-tree-snow-no leaves_1.png" width="32" height="160"/>
  </tile>
  <tile id="61">
   <image source="tiled/ERW - Highlands/tilesets and props/props-sprites/pine-tree-snow-no leaves_2.png" width="32" height="96"/>
  </tile>
  <tile id="62">
   <image source="tiled/ERW - Highlands/tilesets and props/props-sprites/pine-tree-snow-no leaves_3.png" width="32" height="96"/>
  </tile>
  <tile id="63">
   <image source="tiled/ERW - Highlands/tilesets and props/props-sprites/pine-tree-snow-no leaves_4.png" width="32" height="32"/>
  </tile>
  <tile id="64">
   <image source="tiled/ERW - Highlands/tilesets and props/props-sprites/pine-tree-snow-no leaves_5.png" width="32" height="32"/>
  </tile>
  <tile id="65">
   <image source="tiled/ERW - Highlands/tilesets and props/props-sprites/pine-tree-snow-no leaves_6.png" width="32" height="32"/>
  </tile>
  <tile id="66">
   <image source="tiled/ERW - Highlands/tilesets and props/props-sprites/pine-tree-snow-no leaves_7.png" width="32" height="32"/>
  </tile>
  <tile id="67">
   <image source="tiled/ERW - Highlands/tilesets and props/props-sprites/pine-tree-snow-no leaves_8.png" width="32" height="32"/>
  </tile>
  <tile id="68">
   <image source="tiled/ERW - Highlands/tilesets and props/props-sprites/pine-tree-snow-no leaves_9.png" width="32" height="32"/>
  </tile>
  <tile id="69">
   <image source="tiled/ERW - Highlands/tilesets and props/props-sprites/pine-tree-snow-no leaves_10.png" width="32" height="32"/>
  </tile>
  <tile id="70">
   <image source="tiled/ERW - Highlands/tilesets and props/props-sprites/pine-tree-trunk1.png" width="32" height="64"/>
  </tile>
  <tile id="71">
   <image source="tiled/ERW - Highlands/tilesets and props/props-sprites/pine-tree-trunk2.png" width="32" height="32"/>
  </tile>
  <tile id="72">
   <image source="tiled/ERW - Highlands/tilesets and props/props-sprites/pine-tree-trunk3.png" width="32" height="64"/>
  </tile>
  <tile id="73">
   <image source="tiled/ERW - Highlands/tilesets and props/props-sprites/POI1-1.png" width="96" height="96"/>
  </tile>
  <tile id="74">
   <image source="tiled/ERW - Highlands/tilesets and props/props-sprites/POI1-2.png" width="96" height="96"/>
  </tile>
  <tile id="75">
   <image source="tiled/ERW - Highlands/tilesets and props/props-sprites/POI1-3.png" width="96" height="96"/>
  </tile>
  <tile id="76">
   <image source="tiled/ERW - Highlands/tilesets and props/props-sprites/POI1-4.png" width="96" height="96"/>
  </tile>
  <tile id="77">
   <image source="tiled/ERW - Highlands/tilesets and props/props-sprites/POI1-5.png" width="160" height="128"/>
  </tile>
  <tile id="78">
   <image source="tiled/ERW - Highlands/tilesets and props/props-sprites/POI2-1.png" width="288" height="224"/>
  </tile>
  <tile id="79">
   <image source="tiled/ERW - Highlands/tilesets and props/props-sprites/POI2-2.png" width="128" height="96"/>
  </tile>
  <tile id="80">
   <image source="tiled/ERW - Highlands/tilesets and props/props-sprites/POI2-3.png" width="128" height="96"/>
  </tile>
  <tile id="81">
   <image source="tiled/ERW - Highlands/tilesets and props/props-sprites/POI3.png" width="160" height="160"/>
  </tile>
  <tile id="82">
   <image source="tiled/ERW - Highlands/tilesets and props/props-sprites/POI3-complete.png" width="352" height="288"/>
  </tile>
  <tile id="83">
   <image source="tiled/ERW - Highlands/tilesets and props/props-sprites/POI3-rocks-1.png" width="64" height="64"/>
  </tile>
  <tile id="84">
   <image source="tiled/ERW - Highlands/tilesets and props/props-sprites/POI3-rocks-2.png" width="64" height="64"/>
  </tile>
  <tile id="85">
   <image source="tiled/ERW - Highlands/tilesets and props/props-sprites/POI3-rocks-3.png" width="64" height="64"/>
  </tile>
  <tile id="86">
   <image source="tiled/ERW - Highlands/tilesets and props/props-sprites/POI3-rocks-4.png" width="64" height="64"/>
  </tile>
  <tile id="87">
   <image source="tiled/ERW - Highlands/tilesets and props/props-sprites/POI3-rocks-5.png" width="64" height="64"/>
  </tile>
  <tile id="88">
   <image source="tiled/ERW - Highlands/tilesets and props/props-sprites/POI3-rocks-6.png" width="64" height="64"/>
  </tile>
  <tile id="89">
   <image source="tiled/ERW - Highlands/tilesets and props/props-sprites/POI3-rocks-7.png" width="64" height="64"/>
  </tile>
  <tile id="90">
   <image source="tiled/ERW - Highlands/tilesets and props/props-sprites/POI3-rocks-8.png" width="64" height="64"/>
  </tile>
  <tile id="91">
   <image source="tiled/ERW - Highlands/tilesets and props/props-sprites/POI3-rocks-9.png" width="128" height="64"/>
  </tile>
  <tile id="92">
   <image source="tiled/ERW - Highlands/tilesets and props/props-sprites/rocks_0.png" width="32" height="32"/>
  </tile>
  <tile id="93">
   <image source="tiled/ERW - Highlands/tilesets and props/props-sprites/rocks_1.png" width="32" height="32"/>
  </tile>
  <tile id="94">
   <image source="tiled/ERW - Highlands/tilesets and props/props-sprites/rocks_2.png" width="32" height="32"/>
  </tile>
  <tile id="95">
   <image source="tiled/ERW - Highlands/tilesets and props/props-sprites/rocks_3.png" width="32" height="32"/>
  </tile>
  <tile id="96">
   <image source="tiled/ERW - Highlands/tilesets and props/props-sprites/rocks_4.png" width="32" height="32"/>
  </tile>
  <tile id="97">
   <image source="tiled/ERW - Highlands/tilesets and props/props-sprites/rocks_5.png" width="32" height="32"/>
  </tile>
  <tile id="98">
   <image source="tiled/ERW - Highlands/tilesets and props/props-sprites/rocks_6.png" width="32" height="32"/>
  </tile>
  <tile id="99">
   <image source="tiled/ERW - Highlands/tilesets and props/props-sprites/rocks_7.png" width="32" height="32"/>
  </tile>
  <tile id="100">
   <image source="tiled/ERW - Highlands/tilesets and props/props-sprites/rocks_8.png" width="32" height="32"/>
  </tile>
  <tile id="101">
   <image source="tiled/ERW - Highlands/tilesets and props/props-sprites/rocks_9.png" width="32" height="32"/>
  </tile>
  <tile id="102">
   <image source="tiled/ERW - Highlands/tilesets and props/props-sprites/rocks_10.png" width="32" height="32"/>
  </tile>
  <tile id="103">
   <image source="tiled/ERW - Highlands/tilesets and props/props-sprites/rocks_11.png" width="32" height="32"/>
  </tile>
  <tile id="104">
   <image source="tiled/ERW - Highlands/tilesets and props/props-sprites/rocks_12.png" width="32" height="32"/>
  </tile>
  <tile id="105">
   <image source="tiled/ERW - Highlands/tilesets and props/props-sprites/rocks_13.png" width="32" height="32"/>
  </tile>
  <tile id="106">
   <image source="tiled/ERW - Highlands/tilesets and props/props-sprites/rocks_14.png" width="32" height="32"/>
  </tile>
  <tile id="107">
   <image source="tiled/ERW - Highlands/tilesets and props/props-sprites/rocks_15.png" width="64" height="32"/>
  </tile>
  <tile id="108">
   <image source="tiled/ERW - Highlands/tilesets and props/props-sprites/rocks_16.png" width="64" height="32"/>
  </tile>
  <tile id="109">
   <image source="tiled/ERW - Highlands/tilesets and props/props-sprites/rocks-snow_0.png" width="32" height="32"/>
  </tile>
  <tile id="110">
   <image source="tiled/ERW - Highlands/tilesets and props/props-sprites/rocks-snow_1.png" width="32" height="32"/>
  </tile>
  <tile id="111">
   <image source="tiled/ERW - Highlands/tilesets and props/props-sprites/rocks-snow_2.png" width="32" height="32"/>
  </tile>
  <tile id="112">
   <image source="tiled/ERW - Highlands/tilesets and props/props-sprites/rocks-snow_3.png" width="32" height="32"/>
  </tile>
  <tile id="113">
   <image source="tiled/ERW - Highlands/tilesets and props/props-sprites/rocks-snow_4.png" width="32" height="32"/>
  </tile>
  <tile id="114">
   <image source="tiled/ERW - Highlands/tilesets and props/props-sprites/rocks-snow_5.png" width="32" height="32"/>
  </tile>
  <tile id="115">
   <image source="tiled/ERW - Highlands/tilesets and props/props-sprites/rocks-snow_6.png" width="32" height="32"/>
  </tile>
  <tile id="116">
   <image source="tiled/ERW - Highlands/tilesets and props/props-sprites/rocks-snow_7.png" width="32" height="32"/>
  </tile>
  <tile id="117">
   <image source="tiled/ERW - Highlands/tilesets and props/props-sprites/rocks-snow_8.png" width="32" height="32"/>
  </tile>
  <tile id="118">
   <image source="tiled/ERW - Highlands/tilesets and props/props-sprites/rocks-snow_9.png" width="32" height="32"/>
  </tile>
  <tile id="119">
   <image source="tiled/ERW - Highlands/tilesets and props/props-sprites/rocks-snow_10.png" width="64" height="32"/>
  </tile>
  <tile id="120">
   <image source="tiled/ERW - Highlands/tilesets and props/props-sprites/rocks-snow_11.png" width="64" height="32"/>
  </tile>
  <tile id="121">
   <image source="tiled/ERW - Highlands/tilesets and props/props-sprites/simple-fence_0.png" width="32" height="32"/>
  </tile>
  <tile id="122">
   <image source="tiled/ERW - Highlands/tilesets and props/props-sprites/simple-fence_1.png" width="32" height="32"/>
  </tile>
  <tile id="123">
   <image source="tiled/ERW - Highlands/tilesets and props/props-sprites/simple-fence_2.png" width="32" height="32"/>
  </tile>
  <tile id="124">
   <image source="tiled/ERW - Highlands/tilesets and props/props-sprites/simple-fence_3.png" width="32" height="32"/>
  </tile>
  <tile id="125">
   <image source="tiled/ERW - Highlands/tilesets and props/props-sprites/simple-fence_4.png" width="32" height="32"/>
  </tile>
  <tile id="126">
   <image source="tiled/ERW - Highlands/tilesets and props/props-sprites/simple-fence_5.png" width="32" height="32"/>
  </tile>
  <tile id="127">
   <image source="tiled/ERW - Highlands/tilesets and props/props-sprites/simple-fence_6.png" width="32" height="32"/>
  </tile>
  <tile id="128">
   <image source="tiled/ERW - Highlands/tilesets and props/props-sprites/simple-fence_7.png" width="32" height="32"/>
  </tile>
  <tile id="129">
   <image source="tiled/ERW - Highlands/tilesets and props/props-sprites/simple-fence_8.png" width="32" height="32"/>
  </tile>
  <tile id="130">
   <image source="tiled/ERW - Highlands/tilesets and props/props-sprites/simple-fence_9.png" width="32" height="32"/>
  </tile>
  <tile id="131">
   <image source="tiled/ERW - Highlands/tilesets and props/props-sprites/simple-fence_10.png" width="32" height="32"/>
  </tile>
  <tile id="132">
   <image source="tiled/ERW - Highlands/tilesets and props/props-sprites/simple-fence_11.png" width="32" height="32"/>
  </tile>
  <tile id="133">
   <image source="tiled/ERW - Highlands/tilesets and props/props-sprites/simple-fence_12.png" width="32" height="32"/>
  </tile>
  <tile id="134">
   <image source="tiled/ERW - Highlands/tilesets and props/props-sprites/simple-fence_13.png" width="32" height="32"/>
  </tile>
  <tile id="135">
   <image source="tiled/ERW - Highlands/tilesets and props/props-sprites/simple-fence_14.png" width="32" height="32"/>
  </tile>
  <tile id="136">
   <image source="tiled/ERW - Highlands/tilesets and props/props-sprites/simple-fence_15.png" width="32" height="32"/>
  </tile>
  <tile id="137">
   <image source="tiled/ERW - Highlands/tilesets and props/props-sprites/rocks-15.png" width="64" height="32"/>
  </tile>
  <tile id="138">
   <image source="tiled/ERW - Highlands/tilesets and props/props-sprites/rocks-16.png" width="64" height="32"/>
  </tile>
  <tile id="139">
   <image source="tiled/ERW - Highlands/tilesets and props/props-sprites/rocks-17.png" width="32" height="32"/>
  </tile>
  <tile id="140">
   <image source="tiled/ERW - Highlands/tilesets and props/props-sprites/rocks-18.png" width="32" height="32"/>
  </tile>
  <tile id="141">
   <image source="tiled/ERW - Highlands/tilesets and props/props-sprites/rocks-19.png" width="32" height="32"/>
  </tile>
  <tile id="142">
   <image source="tiled/ERW - Highlands/tilesets and props/props-sprites/rocks-20.png" width="32" height="32"/>
  </tile>
  <tile id="143">
   <image source="tiled/ERW - Highlands/tilesets and props/props-sprites/tall-grass_0.png" width="64" height="32"/>
  </tile>
  <tile id="144">
   <image source="tiled/ERW - Highlands/tilesets and props/props-sprites/tall-grass_1.png" width="64" height="32"/>
  </tile>
  <tile id="145">
   <image source="tiled/ERW - Highlands/tilesets and props/props-sprites/tall-grass_2.png" width="64" height="32"/>
  </tile>
  <tile id="146">
   <image source="tiled/ERW - Highlands/tilesets and props/props-sprites/tall-grass_3.png" width="64" height="32"/>
  </tile>
  <tile id="147">
   <image source="tiled/ERW - Highlands/tilesets and props/props-sprites/tall-grass_4.png" width="32" height="32"/>
  </tile>
  <tile id="148">
   <image source="tiled/ERW - Highlands/tilesets and props/props-sprites/tall-grass_5.png" width="32" height="32"/>
  </tile>
  <tile id="149">
   <image source="tiled/ERW - Highlands/tilesets and props/props-sprites/tall-grass_6.png" width="32" height="32"/>
  </tile>
  <tile id="150">
   <image source="tiled/ERW - Highlands/tilesets and props/props-sprites/tall-grass_7.png" width="32" height="32"/>
  </tile>
  <tile id="151">
   <image source="tiled/ERW - Highlands/tilesets and props/props-sprites/wooden-logs_0.png" width="32" height="64"/>
  </tile>
  <tile id="152">
   <image source="tiled/ERW - Highlands/tilesets and props/props-sprites/wooden-logs_1.png" width="32" height="64"/>
  </tile>
  <tile id="153">
   <image source="tiled/ERW - Highlands/tilesets and props/props-sprites/wooden-logs_2.png" width="32" height="64"/>
  </tile>
  <tile id="154">
   <image source="tiled/ERW - Highlands/tilesets and props/props-sprites/wooden-logs_3.png" width="32" height="64"/>
  </tile>
  <tile id="155">
   <image source="tiled/ERW - Highlands/tilesets and props/props-sprites/wooden-logs_4.png" width="96" height="64"/>
  </tile>
  <tile id="156">
   <image source="tiled/ERW - Highlands/tilesets and props/props-sprites/wooden-logs_5.png" width="96" height="64"/>
  </tile>
  <tile id="157">
   <image source="tiled/ERW - Highlands/tilesets and props/props-sprites/wooden-logs_6.png" width="96" height="64"/>
  </tile>
  <tile id="158">
   <image source="tiled/ERW - Highlands/tilesets and props/props-sprites/wooden-logs_7.png" width="96" height="64"/>
  </tile>
  <tile id="159">
   <image source="tiled/ERW - Highlands/tilesets and props/props-sprites/wooden-logs_8.png" width="96" height="32"/>
  </tile>
  <tile id="160">
   <image source="tiled/ERW - Highlands/tilesets and props/props-sprites/wooden-logs_9.png" width="96" height="32"/>
  </tile>
  <tile id="161">
   <image source="tiled/ERW - Highlands/tilesets and props/props-sprites/wooden-logs_10.png" width="96" height="32"/>
  </tile>
  <tile id="162">
   <image source="tiled/ERW - Highlands/tilesets and props/props-sprites/wooden-logs_11.png" width="96" height="32"/>
  </tile>
  <tile id="163">
   <image source="tiled/ERW - Highlands/tilesets and props/props-sprites/wooden-logs_12.png" width="96" height="32"/>
  </tile>
  <tile id="164">
   <image source="tiled/ERW - Highlands/tilesets and props/props-sprites/wooden-logs_13.png" width="96" height="32"/>
  </tile>
  <tile id="165">
   <image source="tiled/ERW - Highlands/tilesets and props/props-sprites/wooden-logs_14.png" width="96" height="32"/>
  </tile>
  <tile id="166">
   <image source="tiled/ERW - Highlands/tilesets and props/props-sprites/wooden-logs_15.png" width="96" height="32"/>
  </tile>
  <tile id="167">
   <image source="tiled/ERW - Highlands/tilesets and props/props-sprites/wooden-logs_16.png" width="96" height="32"/>
  </tile>
  <tile id="168">
   <image source="tiled/ERW - Highlands/tilesets and props/props-sprites/wooden-logs_17.png" width="96" height="32"/>
  </tile>
  <tile id="169">
   <image source="tiled/ERW - Highlands/tilesets and props/props-sprites/wooden-logs_18.png" width="96" height="32"/>
  </tile>
  <tile id="170">
   <image source="tiled/ERW - Highlands/tilesets and props/props-sprites/wooden-logs_19.png" width="96" height="32"/>
  </tile>
  <tile id="389">
   <image source="tiled/ERW - Highlands/tilesets and props/props-sprites/animated_clouds1-1.png" width="256" height="192"/>
   <animation>
    <frame tileid="389" duration="100"/>
    <frame tileid="390" duration="100"/>
    <frame tileid="391" duration="100"/>
    <frame tileid="392" duration="100"/>
    <frame tileid="393" duration="100"/>
    <frame tileid="394" duration="100"/>
    <frame tileid="395" duration="100"/>
    <frame tileid="396" duration="100"/>
    <frame tileid="397" duration="100"/>
    <frame tileid="398" duration="100"/>
    <frame tileid="399" duration="100"/>
    <frame tileid="400" duration="100"/>
    <frame tileid="401" duration="100"/>
   </animation>
  </tile>
  <tile id="390">
   <image source="tiled/ERW - Highlands/tilesets and props/props-sprites/animated_clouds1-2.png" width="256" height="192"/>
  </tile>
  <tile id="391">
   <image source="tiled/ERW - Highlands/tilesets and props/props-sprites/animated_clouds1-3.png" width="256" height="192"/>
  </tile>
  <tile id="392">
   <image source="tiled/ERW - Highlands/tilesets and props/props-sprites/animated_clouds1-4.png" width="256" height="192"/>
  </tile>
  <tile id="393">
   <image source="tiled/ERW - Highlands/tilesets and props/props-sprites/animated_clouds1-5.png" width="256" height="192"/>
  </tile>
  <tile id="394">
   <image source="tiled/ERW - Highlands/tilesets and props/props-sprites/animated_clouds1-6.png" width="256" height="192"/>
  </tile>
  <tile id="395">
   <image source="tiled/ERW - Highlands/tilesets and props/props-sprites/animated_clouds1-7.png" width="256" height="192"/>
  </tile>
  <tile id="396">
   <image source="tiled/ERW - Highlands/tilesets and props/props-sprites/animated_clouds1-8.png" width="256" height="192"/>
  </tile>
  <tile id="397">
   <image source="tiled/ERW - Highlands/tilesets and props/props-sprites/animated_clouds1-9.png" width="256" height="192"/>
  </tile>
  <tile id="398">
   <image source="tiled/ERW - Highlands/tilesets and props/props-sprites/animated_clouds1-10.png" width="256" height="192"/>
  </tile>
  <tile id="399">
   <image source="tiled/ERW - Highlands/tilesets and props/props-sprites/animated_clouds1-11.png" width="256" height="192"/>
  </tile>
  <tile id="400">
   <image source="tiled/ERW - Highlands/tilesets and props/props-sprites/animated_clouds1-12.png" width="256" height="192"/>
  </tile>
  <tile id="401">
   <image source="tiled/ERW - Highlands/tilesets and props/props-sprites/animated_clouds1-13.png" width="256" height="192"/>
  </tile>
  <tile id="402">
   <image source="tiled/ERW - Highlands/tilesets and props/props-sprites/animated_clouds2-1.png" width="256" height="192"/>
   <animation>
    <frame tileid="402" duration="100"/>
    <frame tileid="403" duration="100"/>
    <frame tileid="404" duration="100"/>
    <frame tileid="405" duration="100"/>
    <frame tileid="406" duration="100"/>
    <frame tileid="407" duration="100"/>
    <frame tileid="408" duration="100"/>
    <frame tileid="409" duration="100"/>
    <frame tileid="410" duration="100"/>
    <frame tileid="411" duration="100"/>
    <frame tileid="412" duration="100"/>
    <frame tileid="413" duration="100"/>
    <frame tileid="414" duration="100"/>
   </animation>
  </tile>
  <tile id="403">
   <image source="tiled/ERW - Highlands/tilesets and props/props-sprites/animated_clouds2-2.png" width="256" height="192"/>
  </tile>
  <tile id="404">
   <image source="tiled/ERW - Highlands/tilesets and props/props-sprites/animated_clouds2-3.png" width="256" height="192"/>
  </tile>
  <tile id="405">
   <image source="tiled/ERW - Highlands/tilesets and props/props-sprites/animated_clouds2-4.png" width="256" height="192"/>
  </tile>
  <tile id="406">
   <image source="tiled/ERW - Highlands/tilesets and props/props-sprites/animated_clouds2-5.png" width="256" height="192"/>
  </tile>
  <tile id="407">
   <image source="tiled/ERW - Highlands/tilesets and props/props-sprites/animated_clouds2-6.png" width="256" height="192"/>
  </tile>
  <tile id="408">
   <image source="tiled/ERW - Highlands/tilesets and props/props-sprites/animated_clouds2-7.png" width="256" height="192"/>
  </tile>
  <tile id="409">
   <image source="tiled/ERW - Highlands/tilesets and props/props-sprites/animated_clouds2-8.png" width="256" height="192"/>
  </tile>
  <tile id="410">
   <image source="tiled/ERW - Highlands/tilesets and props/props-sprites/animated_clouds2-9.png" width="256" height="192"/>
  </tile>
  <tile id="411">
   <image source="tiled/ERW - Highlands/tilesets and props/props-sprites/animated_clouds2-10.png" width="256" height="192"/>
  </tile>
  <tile id="412">
   <image source="tiled/ERW - Highlands/tilesets and props/props-sprites/animated_clouds2-11.png" width="256" height="192"/>
  </tile>
  <tile id="413">
   <image source="tiled/ERW - Highlands/tilesets and props/props-sprites/animated_clouds2-12.png" width="256" height="192"/>
  </tile>
  <tile id="414">
   <image source="tiled/ERW - Highlands/tilesets and props/props-sprites/animated_clouds2-13.png" width="256" height="192"/>
  </tile>
  <tile id="415">
   <image source="tiled/ERW - Highlands/tilesets and props/props-sprites/animated_clouds3-1.png" width="256" height="192"/>
   <animation>
    <frame tileid="415" duration="100"/>
    <frame tileid="416" duration="100"/>
    <frame tileid="417" duration="100"/>
    <frame tileid="418" duration="100"/>
    <frame tileid="419" duration="100"/>
    <frame tileid="420" duration="100"/>
    <frame tileid="421" duration="100"/>
    <frame tileid="422" duration="100"/>
    <frame tileid="423" duration="100"/>
    <frame tileid="424" duration="100"/>
    <frame tileid="425" duration="100"/>
    <frame tileid="426" duration="100"/>
    <frame tileid="427" duration="100"/>
   </animation>
  </tile>
  <tile id="416">
   <image source="tiled/ERW - Highlands/tilesets and props/props-sprites/animated_clouds3-2.png" width="256" height="192"/>
  </tile>
  <tile id="417">
   <image source="tiled/ERW - Highlands/tilesets and props/props-sprites/animated_clouds3-3.png" width="256" height="192"/>
  </tile>
  <tile id="418">
   <image source="tiled/ERW - Highlands/tilesets and props/props-sprites/animated_clouds3-4.png" width="256" height="192"/>
  </tile>
  <tile id="419">
   <image source="tiled/ERW - Highlands/tilesets and props/props-sprites/animated_clouds3-5.png" width="256" height="192"/>
  </tile>
  <tile id="420">
   <image source="tiled/ERW - Highlands/tilesets and props/props-sprites/animated_clouds3-6.png" width="256" height="192"/>
  </tile>
  <tile id="421">
   <image source="tiled/ERW - Highlands/tilesets and props/props-sprites/animated_clouds3-7.png" width="256" height="192"/>
  </tile>
  <tile id="422">
   <image source="tiled/ERW - Highlands/tilesets and props/props-sprites/animated_clouds3-8.png" width="256" height="192"/>
  </tile>
  <tile id="423">
   <image source="tiled/ERW - Highlands/tilesets and props/props-sprites/animated_clouds3-9.png" width="256" height="192"/>
  </tile>
  <tile id="424">
   <image source="tiled/ERW - Highlands/tilesets and props/props-sprites/animated_clouds3-10.png" width="256" height="192"/>
  </tile>
  <tile id="425">
   <image source="tiled/ERW - Highlands/tilesets and props/props-sprites/animated_clouds3-11.png" width="256" height="192"/>
  </tile>
  <tile id="426">
   <image source="tiled/ERW - Highlands/tilesets and props/props-sprites/animated_clouds3-12.png" width="256" height="192"/>
  </tile>
  <tile id="427">
   <image source="tiled/ERW - Highlands/tilesets and props/props-sprites/animated_clouds3-13.png" width="256" height="192"/>
  </tile>
  <tile id="428">
   <image source="tiled/ERW - Highlands/tilesets and props/props-sprites/animated_clouds4-1.png" width="256" height="192"/>
   <animation>
    <frame tileid="428" duration="100"/>
    <frame tileid="429" duration="100"/>
    <frame tileid="430" duration="100"/>
    <frame tileid="431" duration="100"/>
    <frame tileid="432" duration="100"/>
    <frame tileid="433" duration="100"/>
    <frame tileid="434" duration="100"/>
    <frame tileid="435" duration="100"/>
    <frame tileid="436" duration="100"/>
    <frame tileid="437" duration="100"/>
    <frame tileid="438" duration="100"/>
    <frame tileid="439" duration="100"/>
    <frame tileid="440" duration="100"/>
   </animation>
  </tile>
  <tile id="429">
   <image source="tiled/ERW - Highlands/tilesets and props/props-sprites/animated_clouds4-2.png" width="256" height="192"/>
  </tile>
  <tile id="430">
   <image source="tiled/ERW - Highlands/tilesets and props/props-sprites/animated_clouds4-3.png" width="256" height="192"/>
  </tile>
  <tile id="431">
   <image source="tiled/ERW - Highlands/tilesets and props/props-sprites/animated_clouds4-4.png" width="256" height="192"/>
  </tile>
  <tile id="432">
   <image source="tiled/ERW - Highlands/tilesets and props/props-sprites/animated_clouds4-5.png" width="256" height="192"/>
  </tile>
  <tile id="433">
   <image source="tiled/ERW - Highlands/tilesets and props/props-sprites/animated_clouds4-6.png" width="256" height="192"/>
  </tile>
  <tile id="434">
   <image source="tiled/ERW - Highlands/tilesets and props/props-sprites/animated_clouds4-7.png" width="256" height="192"/>
  </tile>
  <tile id="435">
   <image source="tiled/ERW - Highlands/tilesets and props/props-sprites/animated_clouds4-8.png" width="256" height="192"/>
  </tile>
  <tile id="436">
   <image source="tiled/ERW - Highlands/tilesets and props/props-sprites/animated_clouds4-9.png" width="256" height="192"/>
  </tile>
  <tile id="437">
   <image source="tiled/ERW - Highlands/tilesets and props/props-sprites/animated_clouds4-10.png" width="256" height="192"/>
  </tile>
  <tile id="438">
   <image source="tiled/ERW - Highlands/tilesets and props/props-sprites/animated_clouds4-11.png" width="256" height="192"/>
  </tile>
  <tile id="439">
   <image source="tiled/ERW - Highlands/tilesets and props/props-sprites/animated_clouds4-12.png" width="256" height="192"/>
  </tile>
  <tile id="440">
   <image source="tiled/ERW - Highlands/tilesets and props/props-sprites/animated_clouds4-13.png" width="256" height="192"/>
  </tile>
  <tile id="441">
   <image source="tiled/ERW - Highlands/tilesets and props/props-sprites/animated_clouds5-1.png" width="256" height="192"/>
   <animation>
    <frame tileid="441" duration="100"/>
    <frame tileid="442" duration="100"/>
    <frame tileid="443" duration="100"/>
    <frame tileid="444" duration="100"/>
    <frame tileid="445" duration="100"/>
    <frame tileid="446" duration="100"/>
    <frame tileid="447" duration="100"/>
    <frame tileid="448" duration="100"/>
    <frame tileid="449" duration="100"/>
    <frame tileid="450" duration="100"/>
    <frame tileid="451" duration="100"/>
    <frame tileid="452" duration="100"/>
    <frame tileid="453" duration="100"/>
   </animation>
  </tile>
  <tile id="442">
   <image source="tiled/ERW - Highlands/tilesets and props/props-sprites/animated_clouds5-2.png" width="256" height="192"/>
  </tile>
  <tile id="443">
   <image source="tiled/ERW - Highlands/tilesets and props/props-sprites/animated_clouds5-3.png" width="256" height="192"/>
  </tile>
  <tile id="444">
   <image source="tiled/ERW - Highlands/tilesets and props/props-sprites/animated_clouds5-4.png" width="256" height="192"/>
  </tile>
  <tile id="445">
   <image source="tiled/ERW - Highlands/tilesets and props/props-sprites/animated_clouds5-5.png" width="256" height="192"/>
  </tile>
  <tile id="446">
   <image source="tiled/ERW - Highlands/tilesets and props/props-sprites/animated_clouds5-6.png" width="256" height="192"/>
  </tile>
  <tile id="447">
   <image source="tiled/ERW - Highlands/tilesets and props/props-sprites/animated_clouds5-7.png" width="256" height="192"/>
  </tile>
  <tile id="448">
   <image source="tiled/ERW - Highlands/tilesets and props/props-sprites/animated_clouds5-8.png" width="256" height="192"/>
  </tile>
  <tile id="449">
   <image source="tiled/ERW - Highlands/tilesets and props/props-sprites/animated_clouds5-9.png" width="256" height="192"/>
  </tile>
  <tile id="450">
   <image source="tiled/ERW - Highlands/tilesets and props/props-sprites/animated_clouds5-10.png" width="256" height="192"/>
  </tile>
  <tile id="451">
   <image source="tiled/ERW - Highlands/tilesets and props/props-sprites/animated_clouds5-11.png" width="256" height="192"/>
  </tile>
  <tile id="452">
   <image source="tiled/ERW - Highlands/tilesets and props/props-sprites/animated_clouds5-12.png" width="256" height="192"/>
  </tile>
  <tile id="453">
   <image source="tiled/ERW - Highlands/tilesets and props/props-sprites/animated_clouds5-13.png" width="256" height="192"/>
  </tile>
  <tile id="454">
   <image source="tiled/ERW - Highlands/tilesets and props/props-sprites/animated_pine_tree_big-snow1-1.png" width="256" height="192"/>
   <animation>
    <frame tileid="454" duration="100"/>
    <frame tileid="455" duration="100"/>
    <frame tileid="456" duration="100"/>
    <frame tileid="457" duration="100"/>
    <frame tileid="458" duration="100"/>
    <frame tileid="459" duration="100"/>
    <frame tileid="460" duration="100"/>
    <frame tileid="461" duration="100"/>
    <frame tileid="462" duration="100"/>
    <frame tileid="463" duration="100"/>
    <frame tileid="464" duration="100"/>
    <frame tileid="465" duration="100"/>
    <frame tileid="466" duration="100"/>
    <frame tileid="467" duration="100"/>
   </animation>
  </tile>
  <tile id="455">
   <image source="tiled/ERW - Highlands/tilesets and props/props-sprites/animated_pine_tree_big-snow1-2.png" width="256" height="192"/>
  </tile>
  <tile id="456">
   <image source="tiled/ERW - Highlands/tilesets and props/props-sprites/animated_pine_tree_big-snow1-3.png" width="256" height="192"/>
  </tile>
  <tile id="457">
   <image source="tiled/ERW - Highlands/tilesets and props/props-sprites/animated_pine_tree_big-snow1-4.png" width="256" height="192"/>
  </tile>
  <tile id="458">
   <image source="tiled/ERW - Highlands/tilesets and props/props-sprites/animated_pine_tree_big-snow1-5.png" width="256" height="192"/>
  </tile>
  <tile id="459">
   <image source="tiled/ERW - Highlands/tilesets and props/props-sprites/animated_pine_tree_big-snow1-6.png" width="256" height="192"/>
  </tile>
  <tile id="460">
   <image source="tiled/ERW - Highlands/tilesets and props/props-sprites/animated_pine_tree_big-snow1-7.png" width="256" height="192"/>
  </tile>
  <tile id="461">
   <image source="tiled/ERW - Highlands/tilesets and props/props-sprites/animated_pine_tree_big-snow1-8.png" width="256" height="192"/>
  </tile>
  <tile id="462">
   <image source="tiled/ERW - Highlands/tilesets and props/props-sprites/animated_pine_tree_big-snow1-9.png" width="256" height="192"/>
  </tile>
  <tile id="463">
   <image source="tiled/ERW - Highlands/tilesets and props/props-sprites/animated_pine_tree_big-snow1-10.png" width="256" height="192"/>
  </tile>
  <tile id="464">
   <image source="tiled/ERW - Highlands/tilesets and props/props-sprites/animated_pine_tree_big-snow1-11.png" width="256" height="192"/>
  </tile>
  <tile id="465">
   <image source="tiled/ERW - Highlands/tilesets and props/props-sprites/animated_pine_tree_big-snow1-12.png" width="256" height="192"/>
  </tile>
  <tile id="466">
   <image source="tiled/ERW - Highlands/tilesets and props/props-sprites/animated_pine_tree_big-snow1-13.png" width="256" height="192"/>
  </tile>
  <tile id="467">
   <image source="tiled/ERW - Highlands/tilesets and props/props-sprites/animated_pine_tree_big-snow1-14.png" width="256" height="192"/>
  </tile>
  <tile id="468">
   <image source="tiled/ERW - Highlands/tilesets and props/props-sprites/animated_pine_tree_big-snow2-1.png" width="256" height="192"/>
   <animation>
    <frame tileid="468" duration="100"/>
    <frame tileid="469" duration="100"/>
    <frame tileid="470" duration="100"/>
    <frame tileid="471" duration="100"/>
    <frame tileid="472" duration="100"/>
    <frame tileid="473" duration="100"/>
    <frame tileid="474" duration="100"/>
    <frame tileid="475" duration="100"/>
    <frame tileid="476" duration="100"/>
    <frame tileid="477" duration="100"/>
    <frame tileid="478" duration="100"/>
    <frame tileid="479" duration="100"/>
    <frame tileid="480" duration="100"/>
    <frame tileid="481" duration="100"/>
   </animation>
  </tile>
  <tile id="469">
   <image source="tiled/ERW - Highlands/tilesets and props/props-sprites/animated_pine_tree_big-snow2-2.png" width="256" height="192"/>
  </tile>
  <tile id="470">
   <image source="tiled/ERW - Highlands/tilesets and props/props-sprites/animated_pine_tree_big-snow2-3.png" width="256" height="192"/>
  </tile>
  <tile id="471">
   <image source="tiled/ERW - Highlands/tilesets and props/props-sprites/animated_pine_tree_big-snow2-4.png" width="256" height="192"/>
  </tile>
  <tile id="472">
   <image source="tiled/ERW - Highlands/tilesets and props/props-sprites/animated_pine_tree_big-snow2-5.png" width="256" height="192"/>
  </tile>
  <tile id="473">
   <image source="tiled/ERW - Highlands/tilesets and props/props-sprites/animated_pine_tree_big-snow2-6.png" width="256" height="192"/>
  </tile>
  <tile id="474">
   <image source="tiled/ERW - Highlands/tilesets and props/props-sprites/animated_pine_tree_big-snow2-7.png" width="256" height="192"/>
  </tile>
  <tile id="475">
   <image source="tiled/ERW - Highlands/tilesets and props/props-sprites/animated_pine_tree_big-snow2-8.png" width="256" height="192"/>
  </tile>
  <tile id="476">
   <image source="tiled/ERW - Highlands/tilesets and props/props-sprites/animated_pine_tree_big-snow2-9.png" width="256" height="192"/>
  </tile>
  <tile id="477">
   <image source="tiled/ERW - Highlands/tilesets and props/props-sprites/animated_pine_tree_big-snow2-10.png" width="256" height="192"/>
  </tile>
  <tile id="478">
   <image source="tiled/ERW - Highlands/tilesets and props/props-sprites/animated_pine_tree_big-snow2-11.png" width="256" height="192"/>
  </tile>
  <tile id="479">
   <image source="tiled/ERW - Highlands/tilesets and props/props-sprites/animated_pine_tree_big-snow2-12.png" width="256" height="192"/>
  </tile>
  <tile id="480">
   <image source="tiled/ERW - Highlands/tilesets and props/props-sprites/animated_pine_tree_big-snow2-13.png" width="256" height="192"/>
  </tile>
  <tile id="481">
   <image source="tiled/ERW - Highlands/tilesets and props/props-sprites/animated_pine_tree_big-snow2-14.png" width="256" height="192"/>
  </tile>
  <tile id="482">
   <image source="tiled/ERW - Highlands/tilesets and props/props-sprites/animated_pine_tree_medium-snow1-1.png" width="256" height="192"/>
   <animation>
    <frame tileid="482" duration="100"/>
    <frame tileid="483" duration="100"/>
    <frame tileid="484" duration="100"/>
    <frame tileid="485" duration="100"/>
    <frame tileid="486" duration="100"/>
    <frame tileid="487" duration="100"/>
    <frame tileid="488" duration="100"/>
    <frame tileid="489" duration="100"/>
    <frame tileid="490" duration="100"/>
    <frame tileid="491" duration="100"/>
    <frame tileid="492" duration="100"/>
    <frame tileid="493" duration="100"/>
    <frame tileid="494" duration="100"/>
    <frame tileid="495" duration="100"/>
   </animation>
  </tile>
  <tile id="483">
   <image source="tiled/ERW - Highlands/tilesets and props/props-sprites/animated_pine_tree_medium-snow1-2.png" width="256" height="192"/>
  </tile>
  <tile id="484">
   <image source="tiled/ERW - Highlands/tilesets and props/props-sprites/animated_pine_tree_medium-snow1-3.png" width="256" height="192"/>
  </tile>
  <tile id="485">
   <image source="tiled/ERW - Highlands/tilesets and props/props-sprites/animated_pine_tree_medium-snow1-4.png" width="256" height="192"/>
  </tile>
  <tile id="486">
   <image source="tiled/ERW - Highlands/tilesets and props/props-sprites/animated_pine_tree_medium-snow1-5.png" width="256" height="192"/>
  </tile>
  <tile id="487">
   <image source="tiled/ERW - Highlands/tilesets and props/props-sprites/animated_pine_tree_medium-snow1-6.png" width="256" height="192"/>
  </tile>
  <tile id="488">
   <image source="tiled/ERW - Highlands/tilesets and props/props-sprites/animated_pine_tree_medium-snow1-7.png" width="256" height="192"/>
  </tile>
  <tile id="489">
   <image source="tiled/ERW - Highlands/tilesets and props/props-sprites/animated_pine_tree_medium-snow1-8.png" width="256" height="192"/>
  </tile>
  <tile id="490">
   <image source="tiled/ERW - Highlands/tilesets and props/props-sprites/animated_pine_tree_medium-snow1-9.png" width="256" height="192"/>
  </tile>
  <tile id="491">
   <image source="tiled/ERW - Highlands/tilesets and props/props-sprites/animated_pine_tree_medium-snow1-10.png" width="256" height="192"/>
  </tile>
  <tile id="492">
   <image source="tiled/ERW - Highlands/tilesets and props/props-sprites/animated_pine_tree_medium-snow1-11.png" width="256" height="192"/>
  </tile>
  <tile id="493">
   <image source="tiled/ERW - Highlands/tilesets and props/props-sprites/animated_pine_tree_medium-snow1-12.png" width="256" height="192"/>
  </tile>
  <tile id="494">
   <image source="tiled/ERW - Highlands/tilesets and props/props-sprites/animated_pine_tree_medium-snow1-13.png" width="256" height="192"/>
  </tile>
  <tile id="495">
   <image source="tiled/ERW - Highlands/tilesets and props/props-sprites/animated_pine_tree_medium-snow1-14.png" width="256" height="192"/>
  </tile>
  <tile id="496">
   <image source="tiled/ERW - Highlands/tilesets and props/props-sprites/animated_pine_tree_medium-snow2-1.png" width="256" height="192"/>
   <animation>
    <frame tileid="496" duration="100"/>
    <frame tileid="497" duration="100"/>
    <frame tileid="498" duration="100"/>
    <frame tileid="499" duration="100"/>
    <frame tileid="500" duration="100"/>
    <frame tileid="501" duration="100"/>
    <frame tileid="502" duration="100"/>
    <frame tileid="503" duration="100"/>
    <frame tileid="504" duration="100"/>
    <frame tileid="505" duration="100"/>
    <frame tileid="506" duration="100"/>
    <frame tileid="507" duration="100"/>
    <frame tileid="508" duration="100"/>
    <frame tileid="509" duration="100"/>
   </animation>
  </tile>
  <tile id="497">
   <image source="tiled/ERW - Highlands/tilesets and props/props-sprites/animated_pine_tree_medium-snow2-2.png" width="256" height="192"/>
  </tile>
  <tile id="498">
   <image source="tiled/ERW - Highlands/tilesets and props/props-sprites/animated_pine_tree_medium-snow2-3.png" width="256" height="192"/>
  </tile>
  <tile id="499">
   <image source="tiled/ERW - Highlands/tilesets and props/props-sprites/animated_pine_tree_medium-snow2-4.png" width="256" height="192"/>
  </tile>
  <tile id="500">
   <image source="tiled/ERW - Highlands/tilesets and props/props-sprites/animated_pine_tree_medium-snow2-5.png" width="256" height="192"/>
  </tile>
  <tile id="501">
   <image source="tiled/ERW - Highlands/tilesets and props/props-sprites/animated_pine_tree_medium-snow2-6.png" width="256" height="192"/>
  </tile>
  <tile id="502">
   <image source="tiled/ERW - Highlands/tilesets and props/props-sprites/animated_pine_tree_medium-snow2-7.png" width="256" height="192"/>
  </tile>
  <tile id="503">
   <image source="tiled/ERW - Highlands/tilesets and props/props-sprites/animated_pine_tree_medium-snow2-8.png" width="256" height="192"/>
  </tile>
  <tile id="504">
   <image source="tiled/ERW - Highlands/tilesets and props/props-sprites/animated_pine_tree_medium-snow2-9.png" width="256" height="192"/>
  </tile>
  <tile id="505">
   <image source="tiled/ERW - Highlands/tilesets and props/props-sprites/animated_pine_tree_medium-snow2-10.png" width="256" height="192"/>
  </tile>
  <tile id="506">
   <image source="tiled/ERW - Highlands/tilesets and props/props-sprites/animated_pine_tree_medium-snow2-11.png" width="256" height="192"/>
  </tile>
  <tile id="507">
   <image source="tiled/ERW - Highlands/tilesets and props/props-sprites/animated_pine_tree_medium-snow2-12.png" width="256" height="192"/>
  </tile>
  <tile id="508">
   <image source="tiled/ERW - Highlands/tilesets and props/props-sprites/animated_pine_tree_medium-snow2-13.png" width="256" height="192"/>
  </tile>
  <tile id="509">
   <image source="tiled/ERW - Highlands/tilesets and props/props-sprites/animated_pine_tree_medium-snow2-14.png" width="256" height="192"/>
  </tile>
  <tile id="510">
   <image source="tiled/ERW - Highlands/tilesets and props/props-sprites/animated_pine_tree_medium-snow2-15.png" width="256" height="192"/>
   <animation>
    <frame tileid="510" duration="100"/>
    <frame tileid="511" duration="100"/>
    <frame tileid="512" duration="100"/>
    <frame tileid="513" duration="100"/>
    <frame tileid="514" duration="100"/>
    <frame tileid="515" duration="100"/>
    <frame tileid="516" duration="100"/>
    <frame tileid="517" duration="100"/>
    <frame tileid="518" duration="100"/>
    <frame tileid="519" duration="100"/>
    <frame tileid="520" duration="100"/>
    <frame tileid="521" duration="100"/>
    <frame tileid="522" duration="100"/>
   </animation>
  </tile>
  <tile id="511">
   <image source="tiled/ERW - Highlands/tilesets and props/props-sprites/animated_pine_tree_medium-snow2-16.png" width="256" height="192"/>
  </tile>
  <tile id="512">
   <image source="tiled/ERW - Highlands/tilesets and props/props-sprites/animated_pine_tree_medium-snow2-17.png" width="256" height="192"/>
  </tile>
  <tile id="513">
   <image source="tiled/ERW - Highlands/tilesets and props/props-sprites/animated_pine_tree_medium-snow2-18.png" width="256" height="192"/>
  </tile>
  <tile id="514">
   <image source="tiled/ERW - Highlands/tilesets and props/props-sprites/animated_pine_tree_medium-snow2-19.png" width="256" height="192"/>
  </tile>
  <tile id="515">
   <image source="tiled/ERW - Highlands/tilesets and props/props-sprites/animated_pine_tree_medium-snow2-20.png" width="256" height="192"/>
  </tile>
  <tile id="516">
   <image source="tiled/ERW - Highlands/tilesets and props/props-sprites/animated_pine_tree_medium-snow2-21.png" width="256" height="192"/>
  </tile>
  <tile id="517">
   <image source="tiled/ERW - Highlands/tilesets and props/props-sprites/animated_pine_tree_medium-snow2-22.png" width="256" height="192"/>
  </tile>
  <tile id="518">
   <image source="tiled/ERW - Highlands/tilesets and props/props-sprites/animated_pine_tree_medium-snow2-23.png" width="256" height="192"/>
  </tile>
  <tile id="519">
   <image source="tiled/ERW - Highlands/tilesets and props/props-sprites/animated_pine_tree_medium-snow2-24.png" width="256" height="192"/>
  </tile>
  <tile id="520">
   <image source="tiled/ERW - Highlands/tilesets and props/props-sprites/animated_pine_tree_medium-snow2-25.png" width="256" height="192"/>
  </tile>
  <tile id="521">
   <image source="tiled/ERW - Highlands/tilesets and props/props-sprites/animated_pine_tree_medium-snow2-26.png" width="256" height="192"/>
  </tile>
  <tile id="522">
   <image source="tiled/ERW - Highlands/tilesets and props/props-sprites/animated_pine_tree_medium-snow2-27.png" width="256" height="192"/>
  </tile>
  <tile id="523">
   <image source="tiled/ERW - Highlands/tilesets and props/props-sprites/animated_pine_tree_medium-snow2-28.png" width="256" height="192"/>
  </tile>
  <tile id="524">
   <image source="tiled/ERW - Highlands/tilesets and props/props-sprites/animated_pine_tree_small-snow1-1.png" width="256" height="192"/>
   <animation>
    <frame tileid="524" duration="100"/>
    <frame tileid="525" duration="100"/>
    <frame tileid="526" duration="100"/>
    <frame tileid="527" duration="100"/>
    <frame tileid="528" duration="100"/>
    <frame tileid="529" duration="100"/>
    <frame tileid="530" duration="100"/>
    <frame tileid="531" duration="100"/>
    <frame tileid="532" duration="100"/>
    <frame tileid="533" duration="100"/>
    <frame tileid="534" duration="100"/>
    <frame tileid="535" duration="100"/>
    <frame tileid="536" duration="100"/>
   </animation>
  </tile>
  <tile id="525">
   <image source="tiled/ERW - Highlands/tilesets and props/props-sprites/animated_pine_tree_small-snow1-2.png" width="256" height="192"/>
  </tile>
  <tile id="526">
   <image source="tiled/ERW - Highlands/tilesets and props/props-sprites/animated_pine_tree_small-snow1-3.png" width="256" height="192"/>
  </tile>
  <tile id="527">
   <image source="tiled/ERW - Highlands/tilesets and props/props-sprites/animated_pine_tree_small-snow1-4.png" width="256" height="192"/>
  </tile>
  <tile id="528">
   <image source="tiled/ERW - Highlands/tilesets and props/props-sprites/animated_pine_tree_small-snow1-5.png" width="256" height="192"/>
  </tile>
  <tile id="529">
   <image source="tiled/ERW - Highlands/tilesets and props/props-sprites/animated_pine_tree_small-snow1-6.png" width="256" height="192"/>
  </tile>
  <tile id="530">
   <image source="tiled/ERW - Highlands/tilesets and props/props-sprites/animated_pine_tree_small-snow1-7.png" width="256" height="192"/>
  </tile>
  <tile id="531">
   <image source="tiled/ERW - Highlands/tilesets and props/props-sprites/animated_pine_tree_small-snow1-8.png" width="256" height="192"/>
  </tile>
  <tile id="532">
   <image source="tiled/ERW - Highlands/tilesets and props/props-sprites/animated_pine_tree_small-snow1-9.png" width="256" height="192"/>
  </tile>
  <tile id="533">
   <image source="tiled/ERW - Highlands/tilesets and props/props-sprites/animated_pine_tree_small-snow1-10.png" width="256" height="192"/>
  </tile>
  <tile id="534">
   <image source="tiled/ERW - Highlands/tilesets and props/props-sprites/animated_pine_tree_small-snow1-11.png" width="256" height="192"/>
  </tile>
  <tile id="535">
   <image source="tiled/ERW - Highlands/tilesets and props/props-sprites/animated_pine_tree_small-snow1-12.png" width="256" height="192"/>
  </tile>
  <tile id="536">
   <image source="tiled/ERW - Highlands/tilesets and props/props-sprites/animated_pine_tree_small-snow1-13.png" width="256" height="192"/>
  </tile>
  <tile id="537">
   <image source="tiled/ERW - Highlands/tilesets and props/props-sprites/animated_pine_tree_small-snow1-14.png" width="256" height="192"/>
  </tile>
  <tile id="538">
   <image source="tiled/ERW - Highlands/tilesets and props/props-sprites/animated_pine_tree_small-snow2-1.png" width="256" height="192"/>
  </tile>
  <tile id="539">
   <image source="tiled/ERW - Highlands/tilesets and props/props-sprites/animated_pine_tree_small-snow2-2.png" width="256" height="192"/>
   <animation>
    <frame tileid="538" duration="100"/>
    <frame tileid="539" duration="100"/>
    <frame tileid="540" duration="100"/>
    <frame tileid="541" duration="100"/>
    <frame tileid="542" duration="100"/>
    <frame tileid="543" duration="100"/>
    <frame tileid="544" duration="100"/>
    <frame tileid="545" duration="100"/>
    <frame tileid="546" duration="100"/>
    <frame tileid="547" duration="100"/>
    <frame tileid="548" duration="100"/>
    <frame tileid="549" duration="100"/>
    <frame tileid="550" duration="100"/>
    <frame tileid="551" duration="100"/>
   </animation>
  </tile>
  <tile id="540">
   <image source="tiled/ERW - Highlands/tilesets and props/props-sprites/animated_pine_tree_small-snow2-3.png" width="256" height="192"/>
  </tile>
  <tile id="541">
   <image source="tiled/ERW - Highlands/tilesets and props/props-sprites/animated_pine_tree_small-snow2-4.png" width="256" height="192"/>
  </tile>
  <tile id="542">
   <image source="tiled/ERW - Highlands/tilesets and props/props-sprites/animated_pine_tree_small-snow2-5.png" width="256" height="192"/>
  </tile>
  <tile id="543">
   <image source="tiled/ERW - Highlands/tilesets and props/props-sprites/animated_pine_tree_small-snow2-6.png" width="256" height="192"/>
  </tile>
  <tile id="544">
   <image source="tiled/ERW - Highlands/tilesets and props/props-sprites/animated_pine_tree_small-snow2-7.png" width="256" height="192"/>
  </tile>
  <tile id="545">
   <image source="tiled/ERW - Highlands/tilesets and props/props-sprites/animated_pine_tree_small-snow2-8.png" width="256" height="192"/>
  </tile>
  <tile id="546">
   <image source="tiled/ERW - Highlands/tilesets and props/props-sprites/animated_pine_tree_small-snow2-9.png" width="256" height="192"/>
  </tile>
  <tile id="547">
   <image source="tiled/ERW - Highlands/tilesets and props/props-sprites/animated_pine_tree_small-snow2-10.png" width="256" height="192"/>
  </tile>
  <tile id="548">
   <image source="tiled/ERW - Highlands/tilesets and props/props-sprites/animated_pine_tree_small-snow2-11.png" width="256" height="192"/>
  </tile>
  <tile id="549">
   <image source="tiled/ERW - Highlands/tilesets and props/props-sprites/animated_pine_tree_small-snow2-12.png" width="256" height="192"/>
  </tile>
  <tile id="550">
   <image source="tiled/ERW - Highlands/tilesets and props/props-sprites/animated_pine_tree_small-snow2-13.png" width="256" height="192"/>
  </tile>
  <tile id="551">
   <image source="tiled/ERW - Highlands/tilesets and props/props-sprites/animated_pine_tree_small-snow2-14.png" width="256" height="192"/>
  </tile>
  <tile id="552">
   <image source="tiled/ERW - Highlands/tilesets and props/props-sprites/fx1.png" width="224" height="192"/>
   <animation>
    <frame tileid="552" duration="100"/>
    <frame tileid="553" duration="100"/>
    <frame tileid="554" duration="100"/>
    <frame tileid="555" duration="100"/>
    <frame tileid="556" duration="100"/>
    <frame tileid="557" duration="100"/>
    <frame tileid="558" duration="100"/>
    <frame tileid="559" duration="100"/>
    <frame tileid="560" duration="100"/>
    <frame tileid="561" duration="100"/>
    <frame tileid="562" duration="100"/>
    <frame tileid="563" duration="100"/>
    <frame tileid="564" duration="100"/>
    <frame tileid="565" duration="100"/>
    <frame tileid="566" duration="100"/>
    <frame tileid="567" duration="100"/>
   </animation>
  </tile>
  <tile id="553">
   <image source="tiled/ERW - Highlands/tilesets and props/props-sprites/fx2.png" width="224" height="192"/>
  </tile>
  <tile id="554">
   <image source="tiled/ERW - Highlands/tilesets and props/props-sprites/fx3.png" width="224" height="192"/>
  </tile>
  <tile id="555">
   <image source="tiled/ERW - Highlands/tilesets and props/props-sprites/fx4.png" width="224" height="192"/>
  </tile>
  <tile id="556">
   <image source="tiled/ERW - Highlands/tilesets and props/props-sprites/fx5.png" width="224" height="192"/>
  </tile>
  <tile id="557">
   <image source="tiled/ERW - Highlands/tilesets and props/props-sprites/fx6.png" width="224" height="192"/>
  </tile>
  <tile id="558">
   <image source="tiled/ERW - Highlands/tilesets and props/props-sprites/fx7.png" width="224" height="192"/>
  </tile>
  <tile id="559">
   <image source="tiled/ERW - Highlands/tilesets and props/props-sprites/fx8.png" width="224" height="192"/>
  </tile>
  <tile id="560">
   <image source="tiled/ERW - Highlands/tilesets and props/props-sprites/fx9.png" width="224" height="192"/>
  </tile>
  <tile id="561">
   <image source="tiled/ERW - Highlands/tilesets and props/props-sprites/fx10.png" width="224" height="192"/>
  </tile>
  <tile id="562">
   <image source="tiled/ERW - Highlands/tilesets and props/props-sprites/fx11.png" width="224" height="192"/>
  </tile>
  <tile id="563">
   <image source="tiled/ERW - Highlands/tilesets and props/props-sprites/fx12.png" width="224" height="192"/>
  </tile>
  <tile id="564">
   <image source="tiled/ERW - Highlands/tilesets and props/props-sprites/fx13.png" width="224" height="192"/>
  </tile>
  <tile id="565">
   <image source="tiled/ERW - Highlands/tilesets and props/props-sprites/fx14.png" width="224" height="192"/>
  </tile>
  <tile id="566">
   <image source="tiled/ERW - Highlands/tilesets and props/props-sprites/fx15.png" width="224" height="192"/>
  </tile>
  <tile id="567">
   <image source="tiled/ERW - Highlands/tilesets and props/props-sprites/fx16.png" width="224" height="192"/>
  </tile>
  <tile id="568">
   <image source="tiled/ERW - Highlands/tilesets and props/props-sprites/magical-monument-fx1.png" width="224" height="224"/>
   <animation>
    <frame tileid="568" duration="100"/>
    <frame tileid="569" duration="100"/>
    <frame tileid="570" duration="100"/>
    <frame tileid="571" duration="100"/>
    <frame tileid="572" duration="100"/>
    <frame tileid="573" duration="100"/>
    <frame tileid="574" duration="100"/>
    <frame tileid="575" duration="100"/>
    <frame tileid="576" duration="100"/>
    <frame tileid="577" duration="100"/>
    <frame tileid="578" duration="100"/>
    <frame tileid="579" duration="100"/>
    <frame tileid="580" duration="100"/>
    <frame tileid="581" duration="100"/>
    <frame tileid="582" duration="100"/>
    <frame tileid="583" duration="100"/>
    <frame tileid="584" duration="100"/>
    <frame tileid="585" duration="100"/>
   </animation>
  </tile>
  <tile id="569">
   <image source="tiled/ERW - Highlands/tilesets and props/props-sprites/magical-monument-fx2.png" width="224" height="224"/>
  </tile>
  <tile id="570">
   <image source="tiled/ERW - Highlands/tilesets and props/props-sprites/magical-monument-fx3.png" width="224" height="224"/>
  </tile>
  <tile id="571">
   <image source="tiled/ERW - Highlands/tilesets and props/props-sprites/magical-monument-fx4.png" width="224" height="224"/>
  </tile>
  <tile id="572">
   <image source="tiled/ERW - Highlands/tilesets and props/props-sprites/magical-monument-fx5.png" width="224" height="224"/>
  </tile>
  <tile id="573">
   <image source="tiled/ERW - Highlands/tilesets and props/props-sprites/magical-monument-fx6.png" width="224" height="224"/>
  </tile>
  <tile id="574">
   <image source="tiled/ERW - Highlands/tilesets and props/props-sprites/magical-monument-fx7.png" width="224" height="224"/>
  </tile>
  <tile id="575">
   <image source="tiled/ERW - Highlands/tilesets and props/props-sprites/magical-monument-fx8.png" width="224" height="224"/>
  </tile>
  <tile id="576">
   <image source="tiled/ERW - Highlands/tilesets and props/props-sprites/magical-monument-fx9.png" width="224" height="224"/>
  </tile>
  <tile id="577">
   <image source="tiled/ERW - Highlands/tilesets and props/props-sprites/magical-monument-fx10.png" width="224" height="224"/>
  </tile>
  <tile id="578">
   <image source="tiled/ERW - Highlands/tilesets and props/props-sprites/magical-monument-fx11.png" width="224" height="224"/>
  </tile>
  <tile id="579">
   <image source="tiled/ERW - Highlands/tilesets and props/props-sprites/magical-monument-fx12.png" width="224" height="224"/>
  </tile>
  <tile id="580">
   <image source="tiled/ERW - Highlands/tilesets and props/props-sprites/magical-monument-fx13.png" width="224" height="224"/>
  </tile>
  <tile id="581">
   <image source="tiled/ERW - Highlands/tilesets and props/props-sprites/magical-monument-fx14.png" width="224" height="224"/>
  </tile>
  <tile id="582">
   <image source="tiled/ERW - Highlands/tilesets and props/props-sprites/magical-monument-fx15.png" width="224" height="224"/>
  </tile>
  <tile id="583">
   <image source="tiled/ERW - Highlands/tilesets and props/props-sprites/magical-monument-fx16.png" width="224" height="224"/>
  </tile>
  <tile id="584">
   <image source="tiled/ERW - Highlands/tilesets and props/props-sprites/magical-monument-fx17.png" width="224" height="224"/>
  </tile>
  <tile id="585">
   <image source="tiled/ERW - Highlands/tilesets and props/props-sprites/magical-monument-fx18.png" width="224" height="224"/>
  </tile>
  <tile id="586">
   <image source="tiled/ERW - Highlands/tilesets and props/props-sprites/magical-tree1.png" width="192" height="256"/>
   <animation>
    <frame tileid="586" duration="100"/>
    <frame tileid="587" duration="100"/>
    <frame tileid="588" duration="100"/>
    <frame tileid="589" duration="100"/>
    <frame tileid="590" duration="100"/>
    <frame tileid="591" duration="100"/>
    <frame tileid="592" duration="100"/>
    <frame tileid="593" duration="100"/>
    <frame tileid="594" duration="100"/>
    <frame tileid="595" duration="100"/>
    <frame tileid="596" duration="100"/>
    <frame tileid="597" duration="100"/>
    <frame tileid="598" duration="100"/>
    <frame tileid="599" duration="100"/>
    <frame tileid="600" duration="100"/>
    <frame tileid="601" duration="100"/>
   </animation>
  </tile>
  <tile id="587">
   <image source="tiled/ERW - Highlands/tilesets and props/props-sprites/magical-tree2.png" width="192" height="256"/>
  </tile>
  <tile id="588">
   <image source="tiled/ERW - Highlands/tilesets and props/props-sprites/magical-tree3.png" width="192" height="256"/>
  </tile>
  <tile id="589">
   <image source="tiled/ERW - Highlands/tilesets and props/props-sprites/magical-tree4.png" width="192" height="256"/>
  </tile>
  <tile id="590">
   <image source="tiled/ERW - Highlands/tilesets and props/props-sprites/magical-tree5.png" width="192" height="256"/>
  </tile>
  <tile id="591">
   <image source="tiled/ERW - Highlands/tilesets and props/props-sprites/magical-tree6.png" width="192" height="256"/>
  </tile>
  <tile id="592">
   <image source="tiled/ERW - Highlands/tilesets and props/props-sprites/magical-tree7.png" width="192" height="256"/>
  </tile>
  <tile id="593">
   <image source="tiled/ERW - Highlands/tilesets and props/props-sprites/magical-tree8.png" width="192" height="256"/>
  </tile>
  <tile id="594">
   <image source="tiled/ERW - Highlands/tilesets and props/props-sprites/magical-tree9.png" width="192" height="256"/>
  </tile>
  <tile id="595">
   <image source="tiled/ERW - Highlands/tilesets and props/props-sprites/magical-tree10.png" width="192" height="256"/>
  </tile>
  <tile id="596">
   <image source="tiled/ERW - Highlands/tilesets and props/props-sprites/magical-tree11.png" width="192" height="256"/>
  </tile>
  <tile id="597">
   <image source="tiled/ERW - Highlands/tilesets and props/props-sprites/magical-tree12.png" width="192" height="256"/>
  </tile>
  <tile id="598">
   <image source="tiled/ERW - Highlands/tilesets and props/props-sprites/magical-tree13.png" width="192" height="256"/>
  </tile>
  <tile id="599">
   <image source="tiled/ERW - Highlands/tilesets and props/props-sprites/magical-tree14.png" width="192" height="256"/>
  </tile>
  <tile id="600">
   <image source="tiled/ERW - Highlands/tilesets and props/props-sprites/magical-tree15.png" width="192" height="256"/>
  </tile>
  <tile id="601">
   <image source="tiled/ERW - Highlands/tilesets and props/props-sprites/magical-tree16.png" width="192" height="256"/>
  </tile>
 </tileset>
 <tileset firstgid="3567" name="old_wizard-idle2" tilewidth="32" tileheight="32" tilecount="625" columns="25">
  <image source="tiled/ERW - The Village/NPCs/old wise wizard/old_wizard-idle2.png" width="800" height="800"/>
 </tileset>
 <layer id="1" name="Camada de Blocos 1" width="40" height="40">
  <data encoding="csv">
0,0,0,0,0,0,0,0,0,0,0,0,0,0,0,0,0,0,0,0,0,0,0,0,0,0,0,0,0,0,0,0,0,0,0,0,0,0,0,0,
0,0,0,0,0,0,0,0,0,0,0,0,0,0,0,0,0,0,0,0,0,0,0,0,0,0,0,0,0,0,0,0,0,0,0,0,0,0,0,0,
0,0,0,0,0,0,0,0,0,0,0,0,0,0,0,0,0,0,0,0,0,0,0,0,0,0,0,0,0,0,0,0,0,0,0,0,0,0,0,0,
0,0,0,0,0,0,0,0,0,0,0,0,0,0,0,0,0,0,0,0,0,0,0,0,0,0,0,0,0,0,0,0,0,0,0,0,0,0,0,0,
0,0,0,0,0,0,0,0,0,0,0,0,0,0,0,0,0,0,0,0,0,0,0,0,0,0,0,0,0,0,0,0,0,0,0,0,0,0,0,0,
0,0,0,0,0,0,0,0,0,0,0,0,0,0,0,0,0,0,0,0,0,0,0,0,0,0,0,0,0,0,0,0,0,0,0,0,0,0,0,0,
0,0,0,0,0,0,0,0,0,0,0,0,0,0,0,0,0,0,0,0,0,0,0,0,0,0,0,0,0,0,0,0,0,0,0,0,0,0,0,0,
0,0,0,0,0,0,0,3593,3594,3595,0,0,0,0,0,0,0,0,0,0,0,0,0,0,0,0,0,0,0,0,0,0,0,0,0,0,0,0,0,0,
0,0,0,0,0,0,0,3618,3619,3620,0,0,0,0,0,0,0,0,0,0,0,0,0,0,0,0,0,0,0,0,0,0,0,0,0,0,0,0,0,0,
0,0,0,0,0,0,0,3643,3644,3645,0,0,0,0,0,0,0,0,0,0,0,0,0,0,0,0,0,0,0,0,0,0,0,0,0,0,0,0,0,0,
0,0,0,0,0,0,0,3643,3644,3645,0,0,0,0,0,0,0,0,0,0,0,0,0,0,0,0,0,0,0,0,0,0,0,0,0,0,0,0,0,0,
0,0,0,0,0,0,0,0,0,0,0,0,0,0,0,0,0,0,0,0,0,0,0,0,0,0,0,0,0,0,0,0,0,0,0,0,0,0,0,0,
0,0,0,0,0,0,0,0,0,0,0,0,0,0,0,0,0,0,0,0,0,0,0,0,0,0,0,0,0,0,0,0,0,0,0,0,0,0,0,0,
0,0,0,0,0,0,0,0,0,0,0,0,0,0,0,0,0,0,0,0,0,0,0,0,0,0,0,0,0,0,0,0,0,0,0,0,0,0,0,0,
0,0,0,0,0,0,0,0,0,0,0,0,0,0,0,0,0,0,0,0,0,0,0,0,0,0,0,0,0,0,0,0,0,0,0,0,0,0,0,0,
0,0,0,0,0,0,0,0,0,0,0,0,0,0,0,0,0,0,0,0,0,0,0,0,0,0,0,0,0,0,0,0,0,0,0,0,0,0,0,0,
0,0,0,0,0,0,0,0,0,0,0,0,0,0,0,0,0,0,0,0,0,0,0,0,0,0,0,0,0,0,0,0,0,0,0,0,0,0,0,0,
0,0,0,0,0,0,0,0,0,0,0,0,0,0,0,0,0,0,0,0,0,0,0,0,0,0,0,0,0,0,0,0,0,0,0,0,0,0,0,0,
0,0,0,0,0,0,0,0,0,0,0,0,0,0,0,0,0,0,0,0,0,0,0,0,0,0,0,0,0,0,0,0,0,0,0,0,0,0,0,0,
0,0,0,0,0,0,0,0,0,0,0,0,0,0,0,0,0,0,0,0,0,0,0,0,0,0,0,0,0,0,0,0,0,0,0,0,0,0,0,0,
0,0,0,0,0,0,0,0,0,0,0,0,0,0,0,3016,0,0,0,0,0,0,0,0,0,0,0,0,0,0,0,0,0,0,0,0,0,0,0,0,
0,0,0,0,0,0,0,0,0,0,0,0,0,0,0,0,0,0,0,0,0,0,0,0,0,0,0,0,0,0,0,0,0,0,0,0,0,0,0,0,
0,0,0,0,0,0,0,0,0,0,0,0,0,0,0,0,0,0,0,0,0,0,0,0,0,0,0,0,0,0,0,0,0,0,0,0,0,0,0,0,
0,0,0,0,0,0,0,0,0,0,0,0,0,0,0,0,0,0,0,0,0,0,0,0,0,0,0,0,0,0,0,0,0,0,0,0,0,0,0,0,
0,0,0,0,0,0,0,0,0,0,0,0,0,0,0,0,0,0,0,0,0,0,0,0,0,0,0,0,0,0,0,0,0,0,0,0,0,0,0,0,
0,0,0,0,0,0,0,0,0,0,0,0,0,0,0,0,0,0,0,0,0,0,0,0,0,0,0,0,0,0,0,0,0,0,0,0,0,0,0,0,
0,0,0,0,0,0,0,0,0,0,0,0,0,0,0,0,0,0,0,0,0,0,0,0,0,0,0,0,0,0,0,0,0,0,0,0,0,0,0,0,
0,0,0,0,0,0,0,0,0,0,0,0,0,0,0,0,0,0,0,0,0,0,0,0,0,0,0,0,0,0,0,0,0,0,0,0,0,0,0,0,
0,0,0,0,0,0,0,0,0,0,0,0,0,0,0,0,0,0,0,0,0,0,0,0,0,0,0,0,0,0,0,0,0,0,0,0,0,0,0,0,
0,0,0,0,0,0,0,0,0,0,0,0,0,0,0,0,0,0,0,0,0,0,0,0,0,0,0,0,0,0,0,0,0,0,0,0,0,0,0,0,
0,0,0,0,0,0,0,0,0,0,0,0,0,0,0,0,0,0,0,0,0,0,0,0,0,0,0,0,0,0,0,0,0,0,0,0,0,0,0,0,
0,0,0,0,0,0,0,0,0,0,0,0,0,0,0,0,0,0,0,0,0,0,0,0,0,0,0,0,0,0,0,0,0,0,0,0,0,0,0,0,
0,0,0,0,0,0,0,0,0,0,0,0,0,0,0,0,0,0,0,0,0,0,0,0,0,0,0,0,0,0,0,0,0,0,0,0,0,0,0,0,
0,0,0,0,0,0,0,0,0,0,0,0,0,0,0,0,0,0,0,0,0,0,0,0,0,0,0,0,0,0,0,0,0,0,0,0,0,0,0,0,
0,0,0,0,0,0,0,0,0,0,0,0,0,0,0,0,0,0,0,0,0,0,0,0,0,0,0,0,0,0,0,0,0,0,0,0,0,0,0,0,
0,0,0,0,0,0,0,0,0,0,0,0,0,0,0,0,0,0,0,0,0,0,0,0,0,0,0,0,0,0,0,0,0,0,0,0,0,0,0,0,
0,0,0,0,0,0,0,0,0,0,0,0,0,0,0,0,0,0,0,0,0,0,0,0,0,0,0,0,0,0,0,0,0,0,0,0,0,0,0,0,
0,0,0,0,0,0,0,0,0,0,0,0,0,0,0,0,0,0,0,0,0,0,0,0,0,0,0,0,0,0,0,0,0,0,0,0,0,0,0,0,
0,0,0,0,0,0,0,0,0,0,0,0,0,0,0,0,0,0,0,0,0,0,0,0,0,0,0,0,0,0,0,0,0,0,0,0,0,0,0,0,
0,0,0,0,0,0,0,0,0,0,0,0,0,0,0,0,0,0,0,0,0,0,0,0,0,0,0,0,0,0,0,0,0,0,0,0,0,0,0,0
</data>
 </layer>
 <layer id="2" name="Grama" width="40" height="40">
  <data encoding="csv">
402,403,401,459,403,402,345,345,401,401,402,403,459,403,401,401,403,459,345,345,402,403,401,345,401,345,345,345,403,403,459,403,345,403,402,401,401,403,401,401,
345,401,403,402,401,402,401,402,402,401,459,401,345,403,459,402,402,401,459,401,401,403,402,401,402,403,459,403,345,459,402,459,401,403,345,345,402,459,345,345,
402,459,459,401,402,401,459,403,402,345,345,402,459,402,402,401,459,401,402,401,402,459,402,403,402,402,402,345,401,401,686,402,401,459,345,345,401,402,459,401,
403,402,403,401,401,401,459,402,345,345,401,403,459,402,402,459,745,402,403,459,345,401,345,403,401,345,345,403,401,402,401,459,460,458,460,458,345,402,402,403,
345,401,459,403,345,459,402,345,403,403,403,402,345,459,402,403,403,401,401,402,401,402,403,401,401,459,459,401,402,459,403,402,346,1500,1665,1549,401,403,403,402,
401,345,459,459,403,402,459,403,345,403,403,401,459,402,459,401,345,459,401,459,345,402,459,459,401,402,402,403,403,401,402,459,1545,1546,1547,1554,402,403,345,402,
403,345,401,403,459,403,403,345,401,402,403,345,402,403,459,403,402,345,345,401,401,401,401,402,345,401,345,345,345,345,401,1489,1546,1603,1547,1606,403,402,401,459,
459,345,459,403,345,401,459,402,401,402,345,345,403,401,345,459,403,345,401,459,401,402,345,401,401,403,401,403,401,401,1500,1546,1661,1661,1662,1663,402,403,459,345,
401,402,402,401,345,459,401,401,402,402,403,401,401,345,402,403,403,742,459,402,403,459,459,742,402,402,459,345,401,402,1613,1607,1610,1611,1663,402,345,459,459,459,
459,402,403,401,402,345,459,403,401,401,345,403,459,401,401,401,401,403,459,402,401,403,345,403,687,401,459,401,403,402,345,403,403,402,402,401,403,459,402,403,
401,403,459,402,459,459,401,401,401,403,459,401,459,459,403,459,459,401,402,402,345,345,459,403,345,345,403,459,459,401,401,345,403,345,403,401,459,402,403,459,
401,745,345,402,459,403,402,743,402,401,403,401,402,459,345,403,345,403,402,403,345,402,1500,1668,1557,401,459,345,403,1489,1557,345,402,402,403,345,460,458,345,345,
401,403,401,459,345,402,459,402,402,402,459,401,401,459,345,459,402,459,345,402,402,345,1494,1603,1550,403,401,401,403,1614,1671,345,401,403,345,345,346,344,401,403,
459,345,403,403,402,401,459,459,459,401,345,459,459,403,345,401,403,345,401,345,402,401,1614,1609,1671,345,345,402,402,403,345,402,402,401,403,402,402,403,459,402,
402,459,403,459,401,402,402,401,401,459,459,402,459,402,345,402,345,403,345,345,459,345,402,403,742,402,459,402,345,345,402,402,401,403,403,345,402,459,459,403,
345,459,403,401,403,402,459,459,459,345,401,459,345,459,402,459,460,458,401,459,345,459,459,459,401,401,459,403,403,459,402,403,345,402,402,459,403,402,459,403,
401,401,459,402,402,345,345,345,345,402,401,403,345,401,345,459,346,344,403,459,345,403,401,403,402,402,403,401,459,402,402,402,402,402,402,345,401,459,402,345,
402,403,403,459,403,459,345,401,403,402,401,459,403,401,459,403,401,345,459,401,403,345,403,459,403,401,459,403,745,345,459,345,403,401,345,459,459,459,403,345,
401,402,345,401,403,459,401,459,402,345,459,401,459,345,403,459,402,403,345,459,459,401,403,401,401,402,345,401,459,345,402,401,401,401,402,402,345,402,402,459,
345,459,402,459,459,403,401,402,459,459,459,459,459,745,402,401,403,402,459,459,345,401,345,460,631,458,401,402,403,459,401,345,403,401,401,401,345,402,459,401,
402,419,419,345,345,401,402,345,402,403,743,401,459,459,403,402,345,459,345,459,401,402,459,346,574,344,459,403,401,459,345,345,401,345,345,345,401,403,401,403,
362,419,419,459,362,459,402,401,402,459,402,403,459,403,401,402,403,403,401,403,402,459,459,401,459,345,402,345,401,402,402,401,403,401,402,403,345,403,402,459,
363,363,363,363,361,345,459,459,345,459,402,402,459,402,402,402,401,345,345,403,459,403,345,401,402,459,401,459,403,345,403,345,459,459,402,459,403,402,401,401,
361,363,362,362,362,361,361,419,419,459,403,402,459,401,402,402,402,402,403,459,401,459,401,402,403,345,345,401,459,403,345,743,403,401,459,689,402,745,401,345,
419,363,361,361,361,305,363,305,345,401,345,345,401,345,403,345,403,401,402,402,402,403,401,459,403,402,403,459,459,460,458,401,345,402,459,402,401,401,345,345,
419,419,419,419,361,305,305,361,419,401,402,401,402,402,401,402,402,403,401,459,402,403,345,403,401,401,402,345,401,346,344,402,401,403,459,459,459,345,345,402,
362,305,363,305,419,305,305,362,362,361,361,305,363,345,403,401,402,459,345,459,403,403,459,403,403,403,345,459,403,403,403,459,402,402,459,402,459,403,401,459,
305,305,305,419,362,419,362,305,361,363,361,305,305,361,459,402,345,459,402,345,401,459,345,345,459,459,402,459,401,459,401,402,402,402,459,401,345,403,345,401,
362,362,361,361,363,305,305,419,305,419,363,362,362,419,401,401,459,403,401,403,402,459,401,401,459,403,345,403,403,402,403,459,401,402,402,345,403,345,459,345,
361,361,305,419,363,419,305,361,419,361,305,419,361,362,305,401,403,401,345,401,403,403,401,345,403,459,403,403,401,402,402,459,401,401,401,345,401,459,401,459,
363,363,305,361,361,363,362,362,361,305,362,362,419,362,363,361,402,402,403,402,345,401,401,459,403,401,403,402,459,402,345,744,403,402,745,459,688,345,403,402,
305,305,419,419,305,305,363,362,419,419,419,363,363,363,419,362,305,401,403,401,459,401,402,401,402,403,459,401,401,401,401,345,402,401,402,459,345,403,459,345,
361,305,361,305,361,361,305,362,363,361,363,361,363,361,419,361,305,419,362,362,459,401,745,459,402,401,403,403,459,742,402,459,459,402,459,345,345,401,402,403,
361,363,361,362,363,305,363,362,305,363,305,362,419,305,361,361,362,419,459,419,401,401,401,459,402,345,345,459,403,745,345,403,345,401,459,459,459,403,401,345,
419,305,305,363,362,362,361,419,361,361,361,305,362,361,419,363,419,361,419,362,401,459,403,459,345,345,459,403,401,459,401,401,345,402,459,402,401,401,345,459,
362,361,419,361,361,362,419,362,361,419,305,361,363,361,305,361,363,362,419,363,345,401,402,401,401,345,345,459,345,403,345,403,403,459,401,345,345,403,401,459,
363,363,361,363,362,363,362,362,362,363,362,305,419,361,361,419,419,361,363,305,459,345,403,459,459,459,401,345,459,401,403,403,459,402,401,403,401,345,402,345,
362,361,361,305,363,363,361,363,362,361,362,363,362,305,305,362,305,361,305,362,419,362,402,401,401,403,459,401,403,401,460,458,402,401,401,402,403,403,402,402,
363,419,361,361,305,363,305,361,363,419,305,363,362,305,419,363,363,362,361,361,401,401,345,459,401,401,345,402,403,403,346,344,459,403,459,402,402,402,403,402,
419,363,362,305,305,361,305,361,361,419,361,362,361,419,363,419,362,305,419,305,345,345,345,402,345,403,345,401,402,402,403,402,403,459,403,401,401,403,459,403
</data>
 </layer>
 <layer id="8" name="lama" width="40" height="40">
  <data encoding="csv">
0,0,0,0,0,0,0,0,0,0,0,0,0,0,0,0,0,0,0,0,0,0,0,0,0,0,0,0,0,0,0,0,0,0,0,0,0,0,0,0,
0,0,0,0,0,0,0,0,0,0,0,0,0,0,0,0,0,0,0,0,0,0,0,0,0,0,0,0,0,0,0,0,0,0,0,0,0,0,0,0,
0,0,0,0,0,0,0,0,0,0,0,0,0,0,0,0,0,0,0,0,0,1199,1486,1259,0,0,0,0,0,0,0,0,0,0,0,0,0,0,0,0,
0,0,0,0,0,0,0,800,860,800,801,801,1087,860,0,0,0,0,0,0,1199,1256,1430,1258,1201,0,0,0,0,0,0,0,0,0,0,0,0,0,0,0,
0,0,0,0,0,0,0,1142,859,857,858,914,916,859,860,0,0,0,0,0,1312,1430,1430,1430,1484,0,0,0,0,0,0,0,0,0,0,0,0,0,0,0,
0,0,0,0,0,0,856,857,1031,973,971,1031,915,1031,859,801,860,0,0,0,1427,1370,1314,1314,1484,0,0,0,0,0,0,0,0,0,0,0,0,0,0,0,
0,0,0,0,0,800,857,1031,1031,859,857,1031,1031,1031,914,973,974,0,0,0,0,1369,1542,1543,1373,0,0,0,0,0,0,0,0,0,0,0,0,0,0,0,
0,0,0,800,1087,857,1031,1031,916,914,1031,915,858,972,972,1084,0,0,0,0,0,0,0,0,0,0,0,0,0,0,0,0,0,0,0,0,0,0,0,0,
0,0,0,913,915,858,1031,972,1031,1031,914,916,915,914,1031,1084,0,0,0,0,0,0,0,0,0,0,0,0,0,0,0,0,0,0,0,0,0,0,0,0,
0,0,0,1141,858,972,972,858,914,1031,858,1031,1031,915,973,1030,0,0,0,0,0,0,0,0,0,0,0,0,0,0,0,0,0,0,0,0,0,0,0,0,
0,0,0,1141,1031,972,915,916,916,858,1031,1031,972,1031,1085,0,0,0,0,0,0,0,0,0,0,0,0,0,0,0,0,0,0,0,0,0,0,0,0,0,
0,0,0,913,1031,1031,1031,914,1031,914,914,972,858,1031,1085,0,0,0,0,0,0,0,0,0,0,0,0,0,0,0,0,0,0,0,0,0,0,0,0,0,
0,0,0,1142,1031,914,1031,1031,914,915,915,914,914,914,1085,0,0,0,0,0,0,0,0,0,0,0,0,0,0,0,0,0,0,0,0,0,0,0,0,0,
0,0,0,913,914,915,1031,915,916,915,1031,1031,858,914,1085,0,0,0,0,0,0,0,0,0,0,0,0,0,0,0,0,0,0,0,0,0,0,0,0,0,
0,0,0,1142,972,1031,973,1029,1144,1144,971,1031,972,1031,917,0,0,0,0,0,0,0,0,0,0,0,0,0,0,0,0,0,0,0,0,0,0,0,0,0,
0,0,0,1028,1029,1143,1030,0,0,0,1141,973,1029,1029,1030,0,0,0,0,0,0,0,0,0,0,0,0,0,0,0,0,0,0,0,0,0,0,0,0,0,
0,0,0,0,0,0,0,0,0,0,1028,1030,0,0,0,0,0,0,0,0,0,0,0,0,0,0,0,0,0,0,0,0,0,0,0,0,0,0,0,0,
0,0,0,0,0,0,0,0,0,0,0,0,0,0,0,0,0,0,0,0,0,0,0,0,0,0,0,0,0,0,0,0,0,0,0,0,0,0,0,0,
0,0,0,0,0,0,0,0,0,0,0,0,0,0,0,0,0,0,0,0,0,0,0,0,0,0,0,0,0,0,0,0,0,0,0,0,0,0,0,0,
0,0,0,0,0,0,0,0,0,0,0,0,0,0,0,0,0,0,0,0,0,0,0,0,0,0,0,0,0,0,0,0,0,0,0,0,0,0,0,0,
0,0,0,0,0,0,0,0,0,0,0,0,0,0,0,0,0,0,0,0,0,0,0,0,0,0,0,0,0,0,0,0,0,0,0,0,0,0,0,0,
0,0,0,0,0,0,0,0,0,0,0,0,0,0,0,0,0,0,0,0,0,0,0,0,0,0,0,0,0,0,0,0,0,0,0,0,0,0,0,0,
0,0,0,0,0,0,0,0,0,0,0,0,0,0,0,0,0,0,0,0,0,0,0,0,0,0,0,0,0,0,0,0,0,0,0,0,0,0,0,0,
0,0,0,0,0,0,0,0,0,0,0,0,0,0,0,0,0,0,0,0,0,0,0,0,0,0,0,0,0,0,0,0,0,0,0,0,0,0,0,0,
0,0,1255,1486,1486,1485,1201,0,0,0,0,0,0,0,0,0,0,0,0,0,0,0,0,0,0,0,856,1087,801,1087,801,801,802,0,0,0,0,0,0,0,
0,1255,1256,1430,1313,1314,1258,1486,1259,0,0,0,0,0,0,0,0,0,0,0,0,0,0,0,0,0,970,971,972,858,914,972,859,801,860,0,0,0,0,0,
1255,1256,1430,1315,1314,1430,1315,1430,1258,1201,0,0,0,0,0,0,0,0,0,0,0,0,0,0,0,0,0,1142,915,973,1029,1029,1144,971,859,1087,802,0,0,0,
1541,1430,1430,1430,1314,1430,1430,1430,1430,1316,0,0,0,0,0,0,0,0,0,0,0,0,0,0,0,0,0,1028,971,859,801,1086,1086,799,1143,971,859,802,0,0,
1312,1430,1430,1430,1257,1371,1314,1430,1430,1484,0,0,0,0,0,0,0,0,0,0,0,0,0,0,0,0,0,0,970,1143,1144,1144,971,859,801,857,972,1084,0,0,
1369,1542,1370,1371,1430,1314,1430,1430,1314,1316,0,0,0,0,0,0,0,0,0,0,0,0,0,0,0,0,0,0,0,0,0,0,1028,1144,1029,1144,1144,974,0,0,
0,0,1369,1542,1543,1428,1543,1542,1543,1373,0,0,0,0,0,0,0,0,0,0,0,0,0,0,0,0,0,0,0,0,0,0,0,0,0,0,0,0,0,0,
0,0,0,0,0,0,0,0,0,0,0,0,0,0,0,0,0,0,0,0,0,0,0,0,0,0,0,0,0,0,0,0,0,0,0,0,0,0,0,0,
0,0,0,0,0,0,0,0,0,0,0,0,0,0,0,0,0,0,0,0,0,0,0,0,0,0,0,0,0,0,0,0,0,0,0,0,0,0,0,0,
0,0,0,0,0,0,0,0,0,0,0,0,0,0,0,0,0,0,0,0,0,0,0,0,0,0,0,0,0,0,0,0,0,0,0,0,0,0,0,0,
0,0,0,0,0,0,0,0,0,0,0,0,0,0,0,0,0,0,0,0,0,0,0,0,0,0,0,0,0,0,0,0,0,0,0,0,0,0,0,0,
0,0,0,0,0,0,0,0,0,0,0,0,0,0,0,0,0,0,0,0,0,0,0,0,0,0,0,0,0,0,0,0,0,0,0,0,0,0,0,0,
0,0,0,0,0,0,0,0,0,0,0,0,0,0,0,0,0,0,0,0,0,0,0,0,0,0,0,0,0,0,0,0,0,0,0,0,0,0,0,0,
0,0,0,0,0,0,0,0,0,0,0,0,0,0,0,0,0,0,0,0,0,0,0,0,0,0,0,0,0,0,0,0,0,0,0,0,0,0,0,0,
0,0,0,0,0,0,0,0,0,0,0,0,0,0,0,0,0,0,0,0,0,0,0,0,0,0,0,0,0,0,0,0,0,0,0,0,0,0,0,0,
0,0,0,0,0,0,0,0,0,0,0,0,0,0,0,0,0,0,0,0,0,0,0,0,0,0,0,0,0,0,0,0,0,0,0,0,0,0,0,0
</data>
 </layer>
 <layer id="3" name="grama_neve" width="40" height="40">
  <data encoding="csv">
0,0,0,0,0,0,0,0,0,0,0,0,0,0,0,0,0,0,0,0,0,0,0,0,0,0,0,0,0,0,0,0,0,0,0,0,0,0,0,0,
0,0,0,0,0,0,0,0,0,0,0,0,0,0,0,0,0,0,0,0,0,0,0,0,0,0,0,0,0,0,0,0,0,0,0,0,0,0,0,0,
0,0,0,0,0,0,0,0,0,0,0,0,0,0,0,0,0,0,0,0,0,0,0,0,0,0,0,0,0,0,0,3113,0,0,0,0,0,0,0,0,
0,0,0,0,0,0,0,0,0,0,0,0,3110,0,0,0,0,0,0,0,0,0,0,0,0,0,0,0,0,0,0,0,0,0,0,0,0,3114,0,0,
0,0,3113,0,0,0,0,0,0,0,0,0,0,0,0,0,3115,0,0,0,0,0,0,0,0,0,0,0,0,0,0,0,0,0,0,0,0,0,0,0,
0,0,0,0,0,0,0,0,0,0,0,0,0,0,0,0,0,0,0,0,0,0,0,0,0,0,0,0,0,0,0,0,0,0,0,0,0,0,0,0,
0,0,0,0,0,0,0,0,0,0,0,0,0,0,0,0,0,0,0,0,0,0,0,0,0,0,0,0,0,0,0,0,0,0,0,0,0,0,0,0,
0,0,0,0,3112,0,0,0,0,0,0,0,0,0,0,0,0,0,0,0,0,0,0,0,0,0,0,0,0,0,0,0,0,0,0,0,0,0,3111,0,
0,0,0,0,0,0,0,0,0,0,0,0,0,0,0,0,0,0,0,0,0,0,0,0,0,0,0,0,0,0,0,0,0,0,0,0,0,0,0,0,
0,0,0,0,0,0,0,0,0,0,0,0,0,0,0,0,0,0,0,0,0,0,0,0,0,0,0,0,0,0,0,0,0,0,0,0,0,0,0,0,
0,0,0,0,0,0,0,0,0,0,0,0,0,0,3110,0,0,0,0,0,0,0,3113,0,0,0,0,0,0,0,0,0,0,0,0,0,0,0,0,0,
0,0,3115,0,0,0,0,0,0,0,0,0,0,0,0,0,0,0,0,0,0,0,0,0,0,0,0,0,0,0,0,0,0,0,0,0,0,0,0,0,
0,0,0,0,0,0,0,0,0,0,0,0,0,0,0,0,0,0,0,0,0,0,0,0,0,0,0,0,0,0,0,0,0,0,0,0,0,3110,0,0,
0,0,0,0,0,0,0,0,0,0,0,0,0,0,0,0,0,0,0,0,0,0,0,0,0,0,0,0,0,0,0,0,0,0,0,0,0,0,0,0,
0,0,0,0,0,0,0,0,0,0,0,0,0,0,0,0,0,0,0,0,0,0,0,0,0,0,0,0,0,0,0,0,0,0,0,0,0,0,0,0,
0,0,0,0,0,0,0,0,0,0,0,0,3112,0,0,0,0,0,0,0,0,0,0,0,0,0,0,0,0,0,0,0,0,0,0,0,0,3113,0,0,
0,0,0,0,0,0,0,0,0,0,0,0,0,0,0,0,0,0,0,0,0,0,0,0,0,0,0,0,0,0,0,0,0,0,0,0,0,0,0,0,
0,0,0,0,0,0,0,0,0,0,0,0,0,0,0,0,0,0,0,0,0,0,0,0,0,0,0,0,0,0,0,0,0,0,0,0,0,0,0,0,
0,0,0,0,0,0,0,3108,0,0,0,0,0,0,0,0,0,0,0,0,0,0,0,0,0,0,0,0,0,0,0,0,0,0,0,0,0,0,0,0,
0,0,3114,0,0,0,0,0,0,0,0,0,0,0,0,0,0,0,0,0,0,0,0,0,0,0,0,0,0,0,0,0,3110,0,0,0,0,0,0,0,
0,0,0,0,0,0,0,0,0,0,0,0,0,0,0,0,0,0,0,0,0,0,0,0,0,0,0,0,0,0,0,0,0,0,0,0,0,0,0,0,
0,0,0,0,0,0,0,0,0,0,0,0,0,0,0,0,0,0,0,0,0,0,0,0,0,0,0,3113,0,0,0,0,0,0,0,0,0,3115,0,0,
0,0,0,0,0,0,0,0,0,0,0,0,0,0,0,0,0,0,0,0,0,0,3108,0,0,0,0,0,0,0,0,0,0,0,0,0,0,0,0,0,
0,0,70,0,0,0,0,0,0,0,0,0,0,0,0,0,0,0,0,0,3111,0,0,0,0,0,0,0,0,0,0,0,0,0,0,0,0,0,0,0,
0,0,0,0,0,0,0,0,0,0,0,0,0,0,0,0,0,0,0,0,0,0,0,0,0,0,0,0,0,0,0,0,0,0,0,0,0,0,0,0,
0,0,0,0,0,0,0,0,0,3114,0,0,0,0,0,0,0,0,0,0,0,0,0,0,0,0,0,0,0,0,0,0,0,0,0,0,0,0,0,0,
0,0,0,0,0,0,0,0,0,0,0,0,0,0,0,0,0,0,0,0,0,0,0,0,0,0,0,0,0,0,0,0,0,0,0,0,0,0,0,0,
0,184,0,0,0,0,14,0,0,0,0,0,0,3108,0,0,0,0,3114,0,0,0,0,0,0,0,0,0,0,0,0,0,0,0,0,0,0,0,0,0,
0,0,0,126,0,0,0,0,0,0,0,0,0,0,0,0,0,0,0,0,0,0,0,0,0,0,0,0,0,0,0,0,0,0,0,0,0,0,0,0,
0,0,0,0,0,0,0,0,0,0,0,69,0,0,0,0,0,0,0,0,0,0,0,0,3108,0,0,0,0,0,0,0,0,0,0,0,0,0,0,0,
0,0,0,0,0,0,0,0,0,0,0,0,0,0,0,0,0,0,0,0,0,0,0,0,0,0,0,0,0,0,0,0,0,0,0,0,0,0,0,0,
0,0,0,0,0,0,0,0,0,0,0,0,0,0,0,0,0,0,3114,0,0,0,0,0,0,0,0,0,0,0,0,0,0,0,0,0,0,0,0,0,
0,0,0,0,0,0,0,0,12,0,0,0,0,0,0,0,0,0,0,0,0,0,0,0,0,0,0,0,0,0,0,0,0,0,0,0,0,0,0,0,
0,0,184,0,0,0,0,0,0,0,0,0,0,0,0,0,0,0,0,0,0,0,0,0,0,3114,0,0,0,0,0,0,0,0,0,0,0,0,0,0,
0,0,0,0,0,0,0,0,0,0,0,68,0,0,13,0,0,0,0,0,0,0,0,0,0,0,0,0,0,0,0,0,0,3109,0,0,0,0,0,0,
0,0,0,0,0,0,0,0,0,0,0,0,0,0,0,0,0,0,0,0,0,0,0,0,0,0,0,0,0,0,0,0,0,0,0,0,0,0,0,0,
0,0,0,0,0,0,0,0,0,0,0,0,0,0,0,0,0,0,0,0,0,0,0,0,0,0,0,0,0,0,0,0,0,0,0,0,0,0,0,0,
0,0,0,14,0,0,0,0,0,0,0,0,0,0,0,0,0,0,0,0,0,0,0,0,0,0,0,0,0,0,0,0,3113,0,0,0,0,0,0,0,
0,0,0,0,0,0,0,0,0,69,0,0,0,0,13,0,125,0,0,0,0,0,0,0,0,3108,0,0,0,0,0,0,0,0,0,0,0,0,0,0,
0,0,0,0,0,0,0,0,0,0,0,0,0,0,0,0,0,0,0,0,3110,0,0,0,0,0,0,0,0,0,0,0,0,0,0,0,0,3111,0,0
</data>
 </layer>
 <layer id="4" name="Pedra_neve" width="40" height="40">
  <data encoding="csv">
0,0,0,0,0,0,0,0,0,0,0,0,0,0,0,0,0,0,0,0,0,0,0,0,0,0,0,0,0,0,0,0,0,0,0,0,0,0,0,0,
0,0,0,0,0,0,0,0,0,0,0,0,0,0,0,0,0,0,0,0,0,0,0,0,0,0,0,0,0,0,0,0,0,0,0,0,0,3063,0,0,
0,0,0,0,0,0,0,0,0,0,0,3081,0,0,0,0,0,0,0,0,0,0,0,0,0,0,0,0,0,0,0,0,0,0,0,0,0,0,0,0,
0,0,0,0,0,0,0,0,0,0,0,0,0,0,0,0,0,0,0,0,0,0,0,0,0,0,0,0,0,0,0,0,0,0,0,0,0,0,0,0,
0,0,0,0,0,0,0,0,0,0,0,0,0,0,0,0,0,0,0,0,0,0,0,0,0,0,0,0,0,0,0,0,0,0,0,0,0,0,0,0,
3066,0,0,0,0,0,0,0,0,0,0,0,0,0,0,0,0,0,0,0,0,0,0,0,0,0,0,0,0,0,0,0,0,0,0,0,0,3063,0,0,
0,0,0,0,0,0,0,3083,3070,0,0,0,0,0,0,0,0,0,0,0,0,0,0,0,0,0,0,0,0,0,0,0,0,0,0,0,0,0,0,0,
0,0,0,0,0,0,0,0,0,0,0,0,0,3074,0,0,0,0,0,0,0,0,0,0,0,0,0,0,0,0,0,0,0,0,0,0,0,0,0,0,
0,0,0,0,0,0,0,0,0,0,0,0,0,0,0,0,0,0,0,0,0,0,0,0,0,0,0,0,0,0,0,0,0,0,0,0,0,0,0,0,
0,0,0,0,0,0,0,0,0,0,0,0,0,0,0,0,0,0,0,0,0,0,0,0,0,0,0,0,0,0,0,0,0,0,0,0,0,0,0,0,
0,0,0,0,0,0,0,0,0,0,0,0,0,0,0,0,0,0,0,0,0,0,0,0,0,0,0,0,0,0,0,0,0,0,0,0,0,0,0,0,
0,0,0,0,0,0,0,0,0,0,0,0,0,0,0,0,0,0,0,0,0,0,0,0,0,0,0,0,0,0,0,0,0,0,0,0,0,0,0,0,
0,0,0,0,0,0,0,0,0,0,0,0,0,0,0,0,0,0,0,0,0,0,0,0,0,0,0,0,0,0,0,0,0,0,0,0,0,0,0,0,
0,0,0,0,0,0,0,0,0,0,0,0,0,0,0,0,0,0,0,0,0,0,0,0,0,0,0,0,0,0,0,0,0,0,0,0,0,0,0,0,
0,0,0,0,0,3058,0,0,0,0,0,0,0,3084,0,0,0,0,0,0,0,0,0,0,0,0,0,0,0,0,0,0,0,0,0,0,0,0,0,0,
0,0,0,0,0,0,0,0,0,0,0,0,0,0,0,0,0,0,0,0,0,0,0,0,0,0,0,0,0,0,0,0,0,0,0,0,0,0,3083,0,
0,0,0,0,0,0,0,0,0,0,3063,0,0,0,0,0,0,0,0,0,0,0,0,0,0,0,0,0,0,0,0,0,0,0,0,0,0,0,0,0,
0,0,0,0,0,0,0,0,0,0,0,0,0,0,0,0,0,0,0,0,0,0,0,0,0,0,0,0,0,0,0,0,0,0,0,0,0,0,0,0,
0,0,0,0,0,0,0,0,0,0,0,0,0,0,0,0,0,0,0,0,0,0,0,0,0,0,0,0,0,0,0,0,0,0,0,0,0,0,0,0,
0,0,0,0,0,0,0,0,0,0,0,0,0,0,0,0,0,0,0,0,0,0,0,0,0,0,0,0,0,0,0,0,0,0,0,0,0,0,0,0,
0,0,0,0,0,0,0,0,0,0,0,0,0,0,0,0,3072,0,0,0,0,0,0,0,0,0,0,0,0,0,0,0,0,0,0,0,0,0,0,0,
0,0,0,0,0,0,0,0,0,0,0,0,0,0,0,0,0,0,0,0,0,0,0,0,0,0,0,0,0,0,0,0,3075,0,0,0,0,0,0,0,
0,0,0,3053,0,0,0,0,0,0,0,0,0,0,0,0,0,0,0,0,0,0,0,0,0,0,0,0,0,0,0,0,0,0,0,0,0,0,0,0,
0,0,0,0,0,0,0,0,0,0,0,0,0,0,0,0,0,0,0,0,0,0,0,0,0,0,0,0,0,0,0,0,0,0,0,0,0,0,0,0,
0,0,0,0,0,0,0,0,0,0,0,0,3056,0,0,0,0,0,0,0,0,0,0,0,0,0,0,0,0,0,0,0,0,0,0,0,0,0,0,0,
0,0,0,0,0,3059,0,0,0,0,0,0,0,0,0,0,0,0,0,0,0,0,0,0,0,0,0,0,0,0,0,0,0,0,0,0,0,0,0,0,
0,0,0,0,0,0,0,0,0,0,0,0,0,0,0,0,0,0,0,0,0,3067,0,0,0,0,0,0,0,0,0,0,0,0,0,0,0,0,0,0,
0,0,0,0,0,0,0,0,0,0,0,0,0,0,0,0,0,0,0,0,0,0,0,0,0,0,0,0,0,3056,0,0,0,0,0,0,0,3061,0,0,
0,0,0,0,0,0,0,0,0,0,0,0,0,0,0,0,0,0,3057,0,0,0,0,0,0,0,0,0,0,0,0,0,0,0,0,0,0,0,0,0,
0,0,0,0,0,0,0,0,0,0,0,0,0,0,0,0,0,0,0,0,3081,0,0,0,0,0,3085,0,0,0,0,0,0,0,0,0,0,0,0,0,
0,0,0,0,0,0,0,0,0,0,3063,0,0,0,0,0,0,0,0,0,0,0,0,0,0,0,0,0,0,0,0,0,0,0,0,0,0,0,0,0,
0,0,0,0,0,0,0,3055,0,0,0,0,0,0,0,0,0,0,0,0,0,0,0,0,0,0,0,0,0,0,0,0,0,0,0,0,0,0,0,0,
0,0,0,0,0,0,0,0,0,0,0,0,0,0,0,0,0,0,0,0,0,0,0,0,0,0,0,0,0,0,0,0,0,0,0,0,0,0,0,0,
3060,0,0,0,0,0,0,0,0,0,0,0,0,0,0,0,3061,0,0,0,0,0,0,0,0,0,0,0,0,0,0,0,0,0,0,0,0,0,0,0,
0,0,0,0,0,0,0,0,0,0,0,0,0,0,0,0,0,0,0,0,0,0,0,0,0,0,0,0,0,0,0,0,0,0,0,0,0,0,0,0,
0,0,0,0,0,0,0,0,0,0,0,0,0,0,0,0,0,0,0,0,0,3077,0,0,0,0,0,0,0,0,0,0,0,0,0,0,0,0,0,0,
0,0,0,0,0,0,0,0,0,0,0,0,0,0,0,0,0,0,0,0,0,0,0,0,0,0,0,0,0,0,0,0,0,0,0,0,3057,0,0,0,
0,0,0,0,0,0,0,0,0,0,0,0,0,0,0,0,0,0,0,0,0,0,0,0,0,0,0,0,0,0,0,0,0,0,0,0,0,0,0,0,
0,0,0,0,3053,0,0,0,0,0,0,0,0,0,0,0,0,0,0,0,0,0,0,0,0,0,0,0,0,0,0,0,0,0,0,0,0,0,0,0,
0,0,0,0,0,0,0,0,0,0,0,0,3056,0,0,0,0,0,0,0,0,0,0,0,0,0,0,0,0,0,0,3079,0,0,0,0,0,0,0,0
</data>
 </layer>
 <layer id="7" name="Arvores_feias" width="40" height="40">
  <data encoding="csv">
0,0,0,0,0,0,0,0,0,0,0,0,0,0,0,0,0,0,0,0,0,0,0,0,0,0,0,0,0,0,0,0,0,0,0,0,0,0,0,0,
0,0,0,0,0,0,0,0,0,0,0,0,0,0,0,0,0,0,0,0,0,0,0,0,0,0,0,0,0,0,0,0,0,0,0,0,0,0,0,0,
0,0,0,0,0,0,0,0,0,0,0,0,0,0,0,0,0,0,0,0,0,0,0,0,0,0,0,0,0,0,0,0,0,0,0,0,0,0,0,0,
0,0,3132,0,0,0,0,0,0,0,0,0,0,0,0,0,0,0,0,0,0,0,0,0,0,0,0,0,0,0,0,0,0,0,0,0,0,0,0,0,
0,0,0,0,0,0,0,0,0,0,0,0,0,0,0,0,0,0,0,0,0,0,0,0,0,0,0,0,0,0,0,0,0,0,0,0,0,0,0,0,
0,0,0,0,0,0,0,0,0,0,0,0,0,0,0,0,0,0,0,0,0,0,0,0,0,0,0,0,0,0,0,0,0,0,0,0,0,0,0,0,
0,0,0,0,0,0,0,0,0,0,3016,0,0,0,0,0,0,0,0,0,0,0,0,0,0,0,0,0,0,0,0,0,0,0,0,0,0,0,0,0,
0,0,0,0,0,0,0,0,0,0,0,0,0,0,0,0,0,0,0,0,0,0,0,0,0,0,0,0,0,0,0,0,0,0,0,0,0,0,0,0,
0,0,0,0,0,0,0,0,0,0,0,0,0,0,0,0,0,0,0,0,0,0,0,0,0,0,0,0,0,0,0,0,0,0,0,0,0,0,0,0,
0,0,0,0,0,0,0,0,0,0,0,0,0,0,0,0,0,0,0,0,0,0,0,0,0,0,0,0,0,0,0,0,0,0,0,0,0,0,0,0,
0,0,0,0,0,0,0,0,0,0,0,0,0,0,0,0,0,0,0,0,0,0,0,0,0,0,0,0,0,0,0,0,0,0,0,0,0,0,0,0,
0,0,0,0,0,0,0,0,0,0,0,0,0,0,0,0,0,0,0,0,0,0,0,0,0,0,0,0,0,0,0,0,0,0,0,0,0,0,0,0,
0,0,0,0,0,0,0,0,0,0,0,0,0,0,0,0,0,0,0,0,0,0,0,0,0,0,0,0,0,0,0,0,0,0,0,0,0,0,0,0,
0,0,0,0,0,0,0,0,0,0,0,0,0,0,0,0,0,0,0,0,0,0,0,0,0,0,0,0,0,0,0,0,0,0,0,0,0,0,0,0,
0,0,0,0,0,0,0,0,3016,0,0,0,0,0,0,0,0,0,0,0,0,0,0,0,0,0,0,0,0,0,0,0,0,0,0,0,0,0,0,0,
0,0,0,0,0,0,0,0,0,0,0,0,0,0,0,0,0,0,0,0,0,0,0,0,0,0,0,0,0,0,0,0,0,0,0,0,0,0,0,0,
0,0,0,0,0,0,0,0,0,0,0,0,0,0,0,0,0,0,0,0,0,0,0,0,0,0,0,0,0,0,0,0,0,0,0,0,0,0,0,0,
0,0,0,0,0,0,0,0,0,0,0,0,0,0,0,0,0,0,0,0,0,0,0,0,0,0,0,0,0,0,0,0,0,0,0,0,0,0,0,0,
0,0,0,0,0,0,0,0,0,0,0,0,0,0,0,0,0,0,0,0,0,0,0,0,0,0,0,0,0,0,0,0,0,0,0,0,3116,0,0,0,
0,0,0,0,0,0,0,0,0,0,0,0,0,0,0,0,0,0,0,0,0,0,0,0,0,0,0,0,0,0,0,0,0,0,0,0,0,0,0,0,
0,0,0,0,0,0,3132,0,0,0,0,0,0,0,0,0,0,0,0,0,0,0,0,0,0,0,0,0,0,0,0,0,0,0,0,0,0,0,0,0,
0,0,0,0,0,0,0,0,0,0,0,0,0,0,0,0,0,0,0,0,0,0,0,0,0,0,0,0,3132,0,0,0,0,0,0,0,0,0,0,0,
0,0,0,0,0,0,0,0,0,0,0,0,0,0,0,0,0,0,0,0,0,0,3116,0,0,0,0,0,0,0,0,0,0,0,0,0,0,0,0,0,
0,0,0,0,0,0,0,0,0,0,0,0,0,0,0,0,0,0,0,0,0,0,0,0,0,0,0,0,0,0,0,0,0,0,0,0,0,0,0,0,
0,0,0,0,0,0,0,0,0,0,0,0,0,0,0,0,0,0,0,0,0,0,0,0,0,0,0,0,0,0,0,0,0,0,0,0,0,0,0,0,
0,0,0,0,0,0,0,0,0,0,0,0,0,0,0,0,0,0,0,0,0,0,0,0,3016,0,0,0,0,0,0,0,0,0,0,0,0,0,0,0,
0,0,0,0,0,0,0,0,0,0,0,0,0,0,0,0,0,0,0,0,0,0,0,0,0,0,0,0,0,0,0,0,0,0,0,0,0,0,0,0,
0,0,0,0,0,0,0,0,3116,0,0,0,0,0,0,0,0,0,0,0,0,0,0,0,0,0,0,0,0,0,0,0,0,0,0,0,0,0,0,0,
0,0,0,0,0,0,0,0,0,0,0,0,0,0,0,0,0,0,0,0,0,0,0,0,0,0,0,0,0,0,0,0,0,0,0,0,0,0,0,0,
0,0,0,0,0,0,0,0,0,0,0,0,0,0,0,0,0,0,0,0,0,0,0,0,0,0,0,0,0,0,0,0,0,0,0,0,0,0,0,0,
0,0,0,0,0,0,0,0,0,0,0,0,0,0,0,0,0,0,0,0,0,0,0,0,0,0,0,0,0,0,0,0,0,0,0,0,0,0,0,0,
0,0,0,3116,0,0,0,0,0,0,0,0,0,0,0,0,0,0,0,0,0,0,0,0,0,0,0,0,0,0,0,0,0,0,0,0,0,0,0,0,
0,0,0,0,0,0,0,0,0,0,0,0,0,3116,0,0,0,0,0,0,0,0,0,0,0,0,0,0,0,0,0,0,0,0,0,0,0,0,0,0,
0,0,0,0,0,0,0,0,0,0,0,0,0,0,0,0,0,0,0,0,0,0,0,0,0,0,0,0,0,0,0,0,0,0,0,0,0,0,0,0,
0,0,0,0,0,0,0,0,0,0,0,0,0,0,0,0,0,0,0,0,0,0,0,0,0,0,0,0,0,0,0,0,0,0,0,0,0,0,0,0,
0,0,0,0,0,0,0,0,0,0,0,0,0,0,0,0,0,0,0,0,0,0,0,0,0,0,0,0,0,0,0,0,0,0,0,0,0,0,0,0,
0,0,0,0,0,0,0,0,0,0,0,0,0,0,0,0,0,0,0,0,0,0,0,0,0,0,0,0,0,0,0,0,0,0,0,0,0,0,0,0,
0,0,0,0,0,0,0,0,0,0,0,0,0,0,0,0,0,0,0,0,0,0,0,0,0,0,0,0,0,0,0,0,0,0,0,0,0,0,0,0,
0,0,0,0,0,0,0,0,0,0,0,0,0,0,0,0,0,0,0,0,0,0,0,0,0,0,0,0,0,0,0,0,0,0,0,0,0,0,0,0,
0,0,0,0,0,0,0,0,0,0,0,0,0,0,0,0,0,0,0,0,0,0,0,0,0,0,0,0,0,0,0,0,0,0,0,0,0,0,0,0
</data>
 </layer>
 <layer id="9" name="objetos_feios" width="40" height="40">
  <data encoding="csv">
0,0,0,0,0,0,0,0,0,0,0,0,0,0,0,0,0,0,0,0,0,0,0,0,0,0,0,0,0,0,0,0,0,0,0,0,0,0,0,0,
0,0,0,0,0,0,0,0,0,0,0,0,0,0,0,0,0,0,0,0,0,0,0,0,0,0,0,0,0,0,0,0,0,0,0,0,0,0,0,0,
0,0,0,0,0,0,0,3029,0,0,0,0,0,0,0,0,0,0,0,0,0,0,0,0,0,0,0,0,0,0,0,0,0,0,0,0,0,0,0,0,
0,0,0,0,0,0,0,0,0,0,0,0,0,0,0,0,0,0,0,0,0,0,0,0,0,0,0,0,0,0,3041,0,0,3039,0,0,0,0,0,0,
0,0,0,0,0,0,0,0,0,0,0,0,0,2967,0,0,0,0,0,0,0,0,3000,0,0,0,0,0,0,0,0,0,0,0,0,0,0,0,0,0,
0,0,0,0,0,0,0,0,0,0,0,2971,0,0,0,0,0,0,0,0,0,0,0,0,0,0,0,0,0,0,0,0,0,0,0,0,0,0,0,0,
0,0,0,0,0,0,0,0,0,0,0,0,0,0,0,0,0,0,0,0,0,0,0,0,0,0,0,0,0,0,0,0,0,0,0,0,0,0,0,0,
0,0,0,0,0,0,0,0,0,0,0,0,0,0,0,0,0,0,0,0,0,0,0,0,0,0,0,0,0,0,0,0,0,0,0,0,0,0,0,0,
0,0,0,0,0,0,0,0,0,0,0,0,0,0,0,0,0,0,0,0,0,0,0,0,0,0,0,0,0,0,0,0,0,0,0,0,0,0,0,0,
0,0,0,0,2987,0,0,0,0,0,0,0,0,0,0,0,0,0,0,0,0,0,0,0,0,0,0,0,0,0,0,0,0,0,0,0,0,0,0,0,
0,0,0,0,0,0,0,0,0,0,0,0,0,0,0,0,0,0,0,0,0,0,0,0,0,0,0,0,0,0,0,0,0,0,0,0,0,0,0,0,
0,0,0,0,0,0,0,0,0,0,0,0,0,0,0,0,0,0,0,0,0,0,0,0,0,0,0,0,0,0,0,0,0,0,0,0,0,0,0,0,
0,0,0,0,0,0,0,0,0,0,3000,0,0,0,0,0,0,0,0,0,0,0,0,0,0,0,0,0,0,0,0,0,0,0,0,0,0,0,0,0,
0,0,0,0,0,0,0,0,0,0,0,0,0,0,0,0,0,0,0,0,0,0,0,0,0,0,0,0,0,0,0,0,0,0,0,0,0,0,0,0,
0,0,0,0,0,0,0,0,0,0,0,0,0,0,0,0,0,0,0,0,0,0,0,0,0,0,0,0,0,0,0,0,0,0,0,0,0,0,0,0,
0,0,0,0,0,0,0,0,0,0,0,0,0,0,0,0,0,0,0,0,0,0,0,0,0,0,0,0,0,0,0,0,0,0,0,0,0,0,0,0,
0,0,0,0,0,0,0,0,0,0,0,0,0,0,0,0,0,0,0,3116,0,0,0,0,0,3116,0,0,0,0,0,3560,0,0,0,0,0,0,0,0,
0,0,3116,0,0,3029,0,0,0,0,0,0,0,0,0,0,0,0,0,0,0,0,0,0,0,0,0,0,0,0,3007,0,0,0,2989,0,0,0,0,0,
0,0,0,0,0,0,0,0,0,0,0,0,0,0,0,0,0,0,0,0,0,0,0,0,0,0,0,0,0,0,0,0,0,0,0,0,0,0,0,0,
0,0,0,0,0,0,0,0,0,0,0,0,0,0,0,0,0,0,0,0,0,0,0,0,0,0,0,0,0,0,0,0,0,0,0,0,0,0,0,0,
0,0,0,0,0,0,0,0,0,0,0,0,0,0,0,0,0,0,0,0,0,0,0,0,0,0,0,0,0,0,0,0,0,0,0,0,0,0,0,0,
0,0,0,0,0,0,0,0,0,0,0,0,0,0,0,0,0,0,0,0,0,0,0,0,0,0,0,0,0,0,0,0,0,0,0,0,0,0,0,0,
0,0,0,0,0,0,0,0,0,0,0,0,0,0,0,0,0,0,0,0,0,0,0,0,0,0,0,0,0,0,0,0,0,0,0,0,0,0,0,0,
0,0,0,0,0,0,0,3007,0,0,0,0,0,0,0,0,0,0,0,0,0,0,0,0,0,0,0,0,0,0,0,0,0,0,0,0,0,0,0,0,
0,0,0,0,0,0,0,0,0,0,0,0,0,0,0,0,0,0,0,0,0,0,0,0,0,0,0,0,0,0,0,0,0,0,0,0,0,0,0,0,
0,0,0,0,0,0,0,0,0,0,0,0,0,0,0,0,0,0,0,0,0,0,0,0,0,0,2987,0,0,0,0,0,0,0,0,0,0,0,0,0,
0,2987,0,0,0,0,0,0,0,0,0,0,0,0,0,0,0,0,0,0,0,0,0,0,0,0,0,0,0,0,0,0,0,0,0,3000,0,0,0,0,
0,0,0,0,0,0,0,0,0,0,0,0,0,0,0,0,0,0,0,0,0,0,0,0,0,0,0,0,0,0,0,0,0,0,0,0,0,0,0,0,
0,0,0,0,0,0,0,0,0,0,3041,0,3039,0,0,0,0,0,0,0,0,0,0,0,0,0,0,0,0,0,0,0,0,0,0,0,0,0,0,0,
0,0,0,0,0,0,0,0,0,0,0,0,0,0,0,0,0,0,0,0,0,0,0,0,0,0,0,0,0,0,0,0,0,0,0,0,0,0,0,0,
0,0,0,0,0,0,0,0,0,0,0,0,0,0,0,0,0,0,0,0,0,0,0,0,0,0,0,0,0,0,0,0,0,0,0,0,0,0,0,0,
0,0,0,0,0,0,0,0,0,0,0,0,0,0,0,0,0,0,0,0,0,0,0,0,0,0,0,0,0,0,0,0,0,0,0,0,0,0,0,0,
0,0,0,0,0,0,0,0,0,0,0,0,0,0,0,0,0,0,0,0,0,0,0,0,0,0,0,0,0,0,0,0,0,0,0,0,0,0,0,0,
0,0,0,0,0,0,0,0,0,0,0,0,0,0,0,0,0,0,0,0,0,0,0,0,0,0,0,0,0,0,0,0,0,0,0,0,0,0,0,0,
0,3056,0,0,0,0,0,0,0,0,0,0,0,0,0,0,0,0,0,0,0,0,0,0,0,0,0,0,0,0,0,0,0,0,0,0,0,0,0,0,
0,0,0,0,0,0,0,3056,0,0,0,0,0,0,0,0,0,0,0,0,0,0,0,0,0,0,0,0,0,0,0,0,0,0,0,0,0,0,0,0,
0,0,0,0,0,0,0,0,0,0,0,0,0,0,2989,0,0,0,0,0,0,0,0,0,0,0,0,0,0,0,0,0,0,0,0,0,0,0,0,0,
0,0,0,0,0,0,0,0,0,0,0,0,0,0,0,0,0,0,0,0,0,0,0,0,0,0,0,0,0,0,0,0,0,0,0,0,0,0,0,0,
0,0,0,0,0,0,0,0,0,0,0,0,0,0,0,0,0,0,0,0,0,0,0,0,0,0,0,0,0,0,0,0,0,0,0,0,0,0,0,0,
0,0,0,0,0,0,0,0,0,0,0,0,0,0,0,0,0,0,0,0,0,0,0,0,0,0,0,0,0,0,0,0,0,0,0,0,0,0,0,0
</data>
 </layer>
 <layer id="10" name="Mago" width="40" height="40">
  <data encoding="csv">
0,0,0,0,0,0,0,0,0,0,0,0,0,0,0,0,0,0,0,0,0,0,0,0,0,0,0,0,0,0,0,0,0,0,0,0,0,0,0,0,
0,0,0,0,0,0,0,0,0,0,0,0,0,0,0,0,0,0,0,0,0,0,0,0,0,0,0,0,0,0,0,0,0,0,0,0,0,0,0,0,
0,0,0,0,0,0,0,0,0,0,0,0,0,0,0,0,0,0,0,0,0,0,0,0,0,0,0,0,0,0,0,0,0,0,0,0,0,0,0,0,
0,0,0,0,0,0,0,0,0,0,0,0,0,0,0,0,0,0,0,0,0,0,0,0,0,0,0,0,0,0,0,0,0,0,0,0,0,0,0,0,
0,0,0,0,0,0,0,0,0,0,0,0,0,0,0,0,0,0,0,0,0,0,0,0,0,0,0,0,0,0,0,0,0,0,0,0,0,0,0,0,
0,0,0,0,0,0,0,0,0,0,0,0,0,0,0,0,0,0,0,0,0,0,0,0,0,0,0,0,0,0,0,0,0,0,0,0,0,0,0,0,
0,0,0,0,0,0,0,0,0,0,0,0,0,0,0,0,0,0,0,0,0,0,0,0,0,0,0,0,0,0,0,0,0,0,0,0,0,0,0,0,
0,0,0,0,0,0,0,0,0,0,0,0,0,0,0,0,0,0,0,0,0,0,0,0,0,0,0,0,0,0,0,0,0,0,0,0,0,0,0,0,
0,0,0,0,0,0,0,3593,3594,3595,0,0,0,0,0,0,0,0,0,0,0,0,0,0,0,0,0,0,0,0,0,0,0,0,0,0,0,0,0,0,
0,0,0,0,0,0,0,3618,3619,3620,0,0,0,0,0,0,0,0,0,0,0,0,0,0,0,0,0,0,0,0,0,0,0,0,0,0,0,0,0,0,
0,0,0,0,0,0,0,3643,3644,3645,0,0,0,0,0,0,0,0,0,0,0,0,0,0,0,0,0,0,0,0,0,0,0,0,0,0,0,0,0,0,
0,0,0,0,0,0,0,0,0,0,0,0,0,0,0,0,0,0,0,0,0,0,0,0,0,0,0,0,0,0,0,0,0,0,0,0,0,0,0,0,
0,0,0,0,0,0,0,0,0,0,0,0,0,0,0,0,0,0,0,0,0,0,0,0,0,0,0,0,0,0,0,0,0,0,0,0,0,0,0,0,
0,0,0,0,0,0,0,0,0,0,0,0,0,0,0,0,0,0,0,0,0,0,0,0,0,0,0,0,0,0,0,0,0,0,0,0,0,0,0,0,
0,0,0,0,0,0,0,0,0,0,0,0,0,0,0,0,0,0,0,0,0,0,0,0,0,0,0,0,0,0,0,0,0,0,0,0,0,0,0,0,
0,0,0,0,0,0,0,0,0,0,0,0,0,0,0,0,0,0,0,0,0,0,0,0,0,0,0,0,0,0,0,0,0,0,0,0,0,0,0,0,
0,0,0,0,0,0,0,0,0,0,0,0,0,0,0,0,0,0,0,0,0,0,0,0,0,0,0,0,0,0,0,0,0,0,0,0,0,0,0,0,
0,0,0,0,0,0,0,0,0,0,0,0,0,0,0,0,0,0,0,0,0,0,0,0,0,0,0,0,0,0,0,0,0,0,0,0,0,0,0,0,
0,0,0,0,0,0,0,0,0,0,0,0,0,0,0,0,0,0,0,0,0,0,0,0,0,0,0,0,0,0,0,0,0,0,0,0,0,0,0,0,
0,0,0,0,0,0,0,0,0,0,0,0,0,0,0,0,0,0,0,0,0,0,0,0,0,0,0,0,0,0,0,0,0,0,0,0,0,0,0,0,
0,0,0,0,0,0,0,0,0,0,0,0,0,0,0,0,0,0,0,0,0,0,0,0,0,0,0,0,0,0,0,0,0,0,0,0,0,0,0,0,
0,0,0,0,0,0,0,0,0,0,0,0,0,0,0,0,0,0,0,0,0,0,0,0,0,0,0,0,0,0,0,0,0,0,0,0,0,0,0,0,
0,0,0,0,0,0,0,0,0,0,0,0,0,0,0,0,0,0,0,0,0,0,0,0,0,0,0,0,0,0,0,0,0,0,0,0,0,0,0,0,
0,0,0,0,0,0,0,0,0,0,0,0,0,0,0,0,0,0,0,0,0,0,0,0,0,0,0,0,0,0,0,0,0,0,0,0,0,0,0,0,
0,0,0,0,0,0,0,0,0,0,0,0,0,0,0,0,0,0,0,0,0,0,0,0,0,0,0,0,0,0,0,0,0,0,0,0,0,0,0,0,
0,0,0,0,0,0,0,0,0,0,0,0,0,0,0,0,0,0,0,0,0,0,0,0,0,0,0,0,0,0,0,0,0,0,0,0,0,0,0,0,
0,0,0,0,0,0,0,0,0,0,0,0,0,0,0,0,0,0,0,0,0,0,0,0,0,0,0,0,0,0,0,0,0,0,0,0,0,0,0,0,
0,0,0,0,0,0,0,0,0,0,0,0,0,0,0,0,0,0,0,0,0,0,0,0,0,0,0,0,0,0,0,0,0,0,0,0,0,0,0,0,
0,0,0,0,0,0,0,0,0,0,0,0,0,0,0,0,0,0,0,0,0,0,0,0,0,0,0,0,0,0,0,0,0,0,0,0,0,0,0,0,
0,0,0,0,0,0,0,0,0,0,0,0,0,0,0,0,0,0,0,0,0,0,0,0,0,0,0,0,0,0,0,0,0,0,0,0,0,0,0,0,
0,0,0,0,0,0,0,0,0,0,0,0,0,0,0,0,0,0,0,0,0,0,0,0,0,0,0,0,0,0,0,0,0,0,0,0,0,0,0,0,
0,0,0,0,0,0,0,0,0,0,0,0,0,0,0,0,0,0,0,0,0,0,0,0,0,0,0,0,0,0,0,0,0,0,0,0,0,0,0,0,
0,0,0,0,0,0,0,0,0,0,0,0,0,0,0,0,0,0,0,0,0,0,0,0,0,0,0,0,0,0,0,0,0,0,0,0,0,0,0,0,
0,0,0,0,0,0,0,0,0,0,0,0,0,0,0,0,0,0,0,0,0,0,0,0,0,0,0,0,0,0,0,0,0,0,0,0,0,0,0,0,
0,0,0,0,0,0,0,0,0,0,0,0,0,0,0,0,0,0,0,0,0,0,0,0,0,0,0,0,0,0,0,0,0,0,0,0,0,0,0,0,
0,0,0,0,0,0,0,0,0,0,0,0,0,0,0,0,0,0,0,0,0,0,0,0,0,0,0,0,0,0,0,0,0,0,0,0,0,0,0,0,
0,0,0,0,0,0,0,0,0,0,0,0,0,0,0,0,0,0,0,0,0,0,0,0,0,0,0,0,0,0,0,0,0,0,0,0,0,0,0,0,
0,0,0,0,0,0,0,0,0,0,0,0,0,0,0,0,0,0,0,0,0,0,0,0,0,0,0,0,0,0,0,0,0,0,0,0,0,0,0,0,
0,0,0,0,0,0,0,0,0,0,0,0,0,0,0,0,0,0,0,0,0,0,0,0,0,0,0,0,0,0,0,0,0,0,0,0,0,0,0,0,
0,0,0,0,0,0,0,0,0,0,0,0,0,0,0,0,0,0,0,0,0,0,0,0,0,0,0,0,0,0,0,0,0,0,0,0,0,0,0,0
</data>
 </layer>
</map>
