<?xml version="1.0" encoding="UTF-8"?>
<map version="1.10" tiledversion="1.12.2" orientation="orthogonal" renderorder="left-down" width="40" height="40" tilewidth="32" tileheight="32" infinite="0" nextlayerid="10" nextobjectid="4">
 <editorsettings>
  <export target="mapa_floresta.json" format="json"/>
 </editorsettings>
 <tileset firstgid="1" name="Terrain - Highlands" tilewidth="32" tileheight="32" tilecount="2964" columns="57">
  <image source="tiled/ERW - Highlands/tilesets and props/tilesets.png" width="1824" height="1664"/>
  <tile id="139" probability="3"/>
  <tile id="196" probability="3"/>
  <tile id="230" probability="10"/>
  <tile id="235" probability="10"/>
  <tile id="240" probability="10"/>
  <tile id="245" probability="10"/>
  <tile id="250" probability="10"/>
  <tile id="253" probability="3"/>
  <tile id="256" probability="10"/>
  <tile id="261" probability="10"/>
  <tile id="266" probability="10"/>
  <tile id="271" probability="10"/>
  <tile id="310" probability="3"/>
  <tile id="515" probability="0.5"/>
  <tile id="520" probability="0.5"/>
  <tile id="530" probability="0.5"/>
  <tile id="535" probability="0.5"/>
  <tile id="655" probability="0.5"/>
  <tile id="660" probability="0.5"/>
  <tile id="665" probability="0.5"/>
  <tile id="670" probability="0.5"/>
  <tile id="684" probability="0.01"/>
  <tile id="685" probability="0.01"/>
  <tile id="686" probability="0.01"/>
  <tile id="687" probability="0.01"/>
  <tile id="688" probability="0.01"/>
  <tile id="696" probability="0.5"/>
  <tile id="741" probability="0.01"/>
  <tile id="742" probability="0.01"/>
  <tile id="743" probability="0.01"/>
  <tile id="744" probability="0.01"/>
  <tile id="745" probability="0.01"/>
  <tile id="857" probability="0.3"/>
  <tile id="913" probability="0.3"/>
  <tile id="914" probability="0.3"/>
  <tile id="915" probability="0.3"/>
  <tile id="937" probability="3"/>
  <tile id="971" probability="0.3"/>
  <tile id="994" probability="3"/>
  <tile id="1038" probability="10"/>
  <tile id="1051" probability="3"/>
  <tile id="1108" probability="3"/>
  <tile id="1256" probability="0.3"/>
  <tile id="1312" probability="0.3"/>
  <tile id="1313" probability="0.3"/>
  <tile id="1314" probability="0.3"/>
  <tile id="1323" probability="0.5"/>
  <tile id="1370" probability="0.3"/>
  <tile id="2126" probability="3"/>
  <tile id="2131" probability="3"/>
  <tile id="2173" probability="3"/>
  <tile id="2178" probability="3"/>
  <tile id="2182" probability="3"/>
  <tile id="2183" probability="10"/>
  <tile id="2187" probability="3"/>
  <tile id="2188" probability="10"/>
  <tile id="2229" probability="3"/>
  <tile id="2230" probability="10"/>
  <tile id="2234" probability="3"/>
  <tile id="2235" probability="10"/>
  <tile id="2405" probability="10"/>
  <tile id="2410" probability="10"/>
  <tile id="2415" probability="10"/>
  <tile id="2458" probability="3"/>
  <tile id="2463" probability="3"/>
  <tile id="2514" probability="3"/>
  <tile id="2515" probability="10"/>
  <tile id="2519" probability="3"/>
  <tile id="2520" probability="10"/>
  <tile id="2530" probability="10"/>
  <wangsets>
   <wangset name="snow-ground-platformV1" type="corner" tile="515">
    <wangcolor name="" color="#ff0000" tile="515" probability="1"/>
    <wangtile tileid="286" wangid="0,0,0,1,0,0,0,0"/>
    <wangtile tileid="287" wangid="0,0,0,1,0,1,0,0"/>
    <wangtile tileid="288" wangid="0,0,0,0,0,1,0,0"/>
    <wangtile tileid="342" wangid="0,0,0,1,0,0,0,0"/>
    <wangtile tileid="343" wangid="0,1,0,1,0,1,0,0"/>
    <wangtile tileid="344" wangid="0,1,0,1,0,1,0,1"/>
    <wangtile tileid="345" wangid="0,0,0,1,0,1,0,1"/>
    <wangtile tileid="346" wangid="0,0,0,0,0,1,0,0"/>
    <wangtile tileid="399" wangid="0,1,0,1,0,0,0,0"/>
    <wangtile tileid="400" wangid="0,1,0,1,0,1,0,1"/>
    <wangtile tileid="401" wangid="0,1,0,1,0,1,0,1"/>
    <wangtile tileid="402" wangid="0,1,0,1,0,1,0,1"/>
    <wangtile tileid="403" wangid="0,0,0,0,0,1,0,1"/>
    <wangtile tileid="456" wangid="0,1,0,0,0,0,0,0"/>
    <wangtile tileid="457" wangid="0,1,0,1,0,0,0,1"/>
    <wangtile tileid="458" wangid="0,1,0,1,0,1,0,1"/>
    <wangtile tileid="459" wangid="0,1,0,0,0,1,0,1"/>
    <wangtile tileid="460" wangid="0,0,0,0,0,0,0,1"/>
    <wangtile tileid="514" wangid="0,1,0,0,0,0,0,0"/>
    <wangtile tileid="515" wangid="0,1,0,0,0,0,0,1"/>
    <wangtile tileid="516" wangid="0,0,0,0,0,0,0,1"/>
    <wangtile tileid="570" wangid="0,1,0,1,0,0,0,0"/>
    <wangtile tileid="571" wangid="0,0,0,0,0,1,0,1"/>
    <wangtile tileid="572" wangid="0,0,0,1,0,1,0,0"/>
    <wangtile tileid="573" wangid="0,0,0,1,0,1,0,0"/>
    <wangtile tileid="627" wangid="0,1,0,1,0,0,0,0"/>
    <wangtile tileid="628" wangid="0,0,0,0,0,1,0,1"/>
    <wangtile tileid="629" wangid="0,1,0,0,0,0,0,1"/>
    <wangtile tileid="630" wangid="0,1,0,0,0,0,0,1"/>
    <wangtile tileid="684" wangid="0,1,0,1,0,1,0,1"/>
    <wangtile tileid="685" wangid="0,1,0,1,0,1,0,1"/>
    <wangtile tileid="686" wangid="0,1,0,1,0,1,0,1"/>
    <wangtile tileid="687" wangid="0,1,0,1,0,1,0,1"/>
    <wangtile tileid="688" wangid="0,1,0,1,0,1,0,1"/>
    <wangtile tileid="741" wangid="0,1,0,1,0,1,0,1"/>
    <wangtile tileid="742" wangid="0,1,0,1,0,1,0,1"/>
    <wangtile tileid="743" wangid="0,1,0,1,0,1,0,1"/>
    <wangtile tileid="744" wangid="0,1,0,1,0,1,0,1"/>
   </wangset>
   <wangset name="terrain1" type="corner" tile="1028">
    <wangcolor name="" color="#ff0000" tile="1028" probability="1"/>
    <wangtile tileid="798" wangid="0,1,0,0,0,1,0,0"/>
    <wangtile tileid="799" wangid="0,0,0,1,0,0,0,0"/>
    <wangtile tileid="800" wangid="0,0,0,1,0,1,0,0"/>
    <wangtile tileid="801" wangid="0,0,0,0,0,1,0,0"/>
    <wangtile tileid="802" wangid="0,0,0,1,0,0,0,1"/>
    <wangtile tileid="855" wangid="0,0,0,1,0,0,0,0"/>
    <wangtile tileid="856" wangid="0,1,0,1,0,1,0,0"/>
    <wangtile tileid="857" wangid="0,1,0,1,0,1,0,1"/>
    <wangtile tileid="858" wangid="0,0,0,1,0,1,0,1"/>
    <wangtile tileid="859" wangid="0,0,0,0,0,1,0,0"/>
    <wangtile tileid="912" wangid="0,1,0,1,0,0,0,0"/>
    <wangtile tileid="913" wangid="0,1,0,1,0,1,0,1"/>
    <wangtile tileid="914" wangid="0,1,0,1,0,1,0,1"/>
    <wangtile tileid="915" wangid="0,1,0,1,0,1,0,1"/>
    <wangtile tileid="916" wangid="0,0,0,0,0,1,0,1"/>
    <wangtile tileid="969" wangid="0,1,0,0,0,0,0,0"/>
    <wangtile tileid="970" wangid="0,1,0,1,0,0,0,1"/>
    <wangtile tileid="971" wangid="0,1,0,1,0,1,0,1"/>
    <wangtile tileid="972" wangid="0,1,0,0,0,1,0,1"/>
    <wangtile tileid="973" wangid="0,0,0,0,0,0,0,1"/>
    <wangtile tileid="1027" wangid="0,1,0,0,0,0,0,0"/>
    <wangtile tileid="1028" wangid="0,1,0,0,0,0,0,1"/>
    <wangtile tileid="1029" wangid="0,0,0,0,0,0,0,1"/>
    <wangtile tileid="1030" wangid="0,1,0,1,0,1,0,1"/>
    <wangtile tileid="1083" wangid="0,0,0,0,0,1,0,1"/>
    <wangtile tileid="1084" wangid="0,0,0,0,0,1,0,1"/>
    <wangtile tileid="1085" wangid="0,0,0,1,0,1,0,0"/>
    <wangtile tileid="1086" wangid="0,0,0,1,0,1,0,0"/>
    <wangtile tileid="1140" wangid="0,1,0,1,0,0,0,0"/>
    <wangtile tileid="1141" wangid="0,1,0,1,0,0,0,0"/>
    <wangtile tileid="1142" wangid="0,1,0,0,0,0,0,1"/>
    <wangtile tileid="1143" wangid="0,1,0,0,0,0,0,1"/>
   </wangset>
   <wangset name="terrain2" type="corner" tile="1427">
    <wangcolor name="" color="#ff0000" tile="1427" probability="1"/>
    <wangtile tileid="1197" wangid="0,1,0,0,0,1,0,0"/>
    <wangtile tileid="1198" wangid="0,0,0,1,0,0,0,0"/>
    <wangtile tileid="1199" wangid="0,0,0,1,0,1,0,0"/>
    <wangtile tileid="1200" wangid="0,0,0,0,0,1,0,0"/>
    <wangtile tileid="1201" wangid="0,0,0,1,0,0,0,1"/>
    <wangtile tileid="1254" wangid="0,0,0,1,0,0,0,0"/>
    <wangtile tileid="1255" wangid="0,1,0,1,0,1,0,0"/>
    <wangtile tileid="1256" wangid="0,1,0,1,0,1,0,1"/>
    <wangtile tileid="1257" wangid="0,0,0,1,0,1,0,1"/>
    <wangtile tileid="1258" wangid="0,0,0,0,0,1,0,0"/>
    <wangtile tileid="1311" wangid="0,1,0,1,0,0,0,0"/>
    <wangtile tileid="1312" wangid="0,1,0,1,0,1,0,1"/>
    <wangtile tileid="1313" wangid="0,1,0,1,0,1,0,1"/>
    <wangtile tileid="1314" wangid="0,1,0,1,0,1,0,1"/>
    <wangtile tileid="1315" wangid="0,0,0,0,0,1,0,1"/>
    <wangtile tileid="1368" wangid="0,1,0,0,0,0,0,0"/>
    <wangtile tileid="1369" wangid="0,1,0,1,0,0,0,1"/>
    <wangtile tileid="1370" wangid="0,1,0,1,0,1,0,1"/>
    <wangtile tileid="1371" wangid="0,1,0,0,0,1,0,1"/>
    <wangtile tileid="1372" wangid="0,0,0,0,0,0,0,1"/>
    <wangtile tileid="1426" wangid="0,1,0,0,0,0,0,0"/>
    <wangtile tileid="1427" wangid="0,1,0,0,0,0,0,1"/>
    <wangtile tileid="1428" wangid="0,0,0,0,0,0,0,1"/>
    <wangtile tileid="1429" wangid="0,1,0,1,0,1,0,1"/>
    <wangtile tileid="1482" wangid="0,0,0,0,0,1,0,1"/>
    <wangtile tileid="1483" wangid="0,0,0,0,0,1,0,1"/>
    <wangtile tileid="1484" wangid="0,0,0,1,0,1,0,0"/>
    <wangtile tileid="1485" wangid="0,0,0,1,0,1,0,0"/>
    <wangtile tileid="1539" wangid="0,1,0,1,0,0,0,0"/>
    <wangtile tileid="1540" wangid="0,1,0,1,0,0,0,0"/>
    <wangtile tileid="1541" wangid="0,1,0,0,0,0,0,1"/>
    <wangtile tileid="1542" wangid="0,1,0,0,0,0,0,1"/>
   </wangset>
   <wangset name="snow-ground" type="corner" tile="1940">
    <wangcolor name="" color="#ff0000" tile="1940" probability="1"/>
    <wangtile tileid="1711" wangid="0,0,0,1,0,0,0,0"/>
    <wangtile tileid="1712" wangid="0,0,0,1,0,1,0,0"/>
    <wangtile tileid="1713" wangid="0,0,0,0,0,1,0,0"/>
    <wangtile tileid="1767" wangid="0,0,0,1,0,0,0,0"/>
    <wangtile tileid="1768" wangid="0,1,0,1,0,1,0,0"/>
    <wangtile tileid="1769" wangid="0,1,0,1,0,1,0,1"/>
    <wangtile tileid="1770" wangid="0,0,0,1,0,1,0,1"/>
    <wangtile tileid="1771" wangid="0,0,0,0,0,1,0,0"/>
    <wangtile tileid="1824" wangid="0,1,0,1,0,0,0,0"/>
    <wangtile tileid="1825" wangid="0,1,0,1,0,1,0,1"/>
    <wangtile tileid="1826" wangid="0,1,0,1,0,1,0,1"/>
    <wangtile tileid="1827" wangid="0,1,0,1,0,1,0,1"/>
    <wangtile tileid="1828" wangid="0,0,0,0,0,1,0,1"/>
    <wangtile tileid="1881" wangid="0,1,0,0,0,0,0,0"/>
    <wangtile tileid="1882" wangid="0,1,0,1,0,0,0,1"/>
    <wangtile tileid="1883" wangid="0,1,0,1,0,1,0,1"/>
    <wangtile tileid="1884" wangid="0,1,0,0,0,1,0,1"/>
    <wangtile tileid="1885" wangid="0,0,0,0,0,0,0,1"/>
    <wangtile tileid="1939" wangid="0,1,0,0,0,0,0,0"/>
    <wangtile tileid="1940" wangid="0,1,0,0,0,0,0,1"/>
    <wangtile tileid="1941" wangid="0,0,0,0,0,0,0,1"/>
    <wangtile tileid="1995" wangid="0,0,0,0,0,1,0,1"/>
    <wangtile tileid="1996" wangid="0,0,0,0,0,1,0,1"/>
    <wangtile tileid="1997" wangid="0,0,0,1,0,1,0,0"/>
    <wangtile tileid="1998" wangid="0,0,0,1,0,1,0,0"/>
    <wangtile tileid="2052" wangid="0,1,0,1,0,0,0,0"/>
    <wangtile tileid="2053" wangid="0,1,0,1,0,0,0,0"/>
    <wangtile tileid="2054" wangid="0,1,0,0,0,0,0,1"/>
    <wangtile tileid="2055" wangid="0,1,0,0,0,0,0,1"/>
   </wangset>
   <wangset name="frozen-lake" type="corner" tile="1717">
    <wangcolor name="" color="#ff0000" tile="1717" probability="1"/>
    <wangtile tileid="1488" wangid="0,0,0,1,0,0,0,0"/>
    <wangtile tileid="1489" wangid="0,0,0,1,0,1,0,0"/>
    <wangtile tileid="1490" wangid="0,0,0,0,0,1,0,0"/>
    <wangtile tileid="1492" wangid="0,1,0,1,0,0,0,0"/>
    <wangtile tileid="1493" wangid="0,1,0,1,0,0,0,0"/>
    <wangtile tileid="1494" wangid="0,1,0,1,0,0,0,0"/>
    <wangtile tileid="1495" wangid="0,1,0,1,0,0,0,0"/>
    <wangtile tileid="1496" wangid="0,1,0,1,0,0,0,0"/>
    <wangtile tileid="1497" wangid="0,0,0,1,0,1,0,0"/>
    <wangtile tileid="1498" wangid="0,0,0,1,0,0,0,0"/>
    <wangtile tileid="1499" wangid="0,0,0,1,0,0,0,0"/>
    <wangtile tileid="1544" wangid="0,0,0,1,0,0,0,0"/>
    <wangtile tileid="1545" wangid="0,1,0,1,0,1,0,0"/>
    <wangtile tileid="1546" wangid="0,1,0,1,0,1,0,1"/>
    <wangtile tileid="1547" wangid="0,0,0,1,0,1,0,1"/>
    <wangtile tileid="1548" wangid="0,0,0,0,0,1,0,0"/>
    <wangtile tileid="1549" wangid="0,0,0,0,0,1,0,1"/>
    <wangtile tileid="1550" wangid="0,0,0,0,0,1,0,1"/>
    <wangtile tileid="1551" wangid="0,0,0,0,0,1,0,1"/>
    <wangtile tileid="1552" wangid="0,0,0,0,0,1,0,1"/>
    <wangtile tileid="1553" wangid="0,0,0,0,0,1,0,1"/>
    <wangtile tileid="1554" wangid="0,0,0,1,0,1,0,1"/>
    <wangtile tileid="1555" wangid="0,0,0,0,0,1,0,0"/>
    <wangtile tileid="1556" wangid="0,0,0,0,0,1,0,0"/>
    <wangtile tileid="1601" wangid="0,1,0,1,0,0,0,0"/>
    <wangtile tileid="1602" wangid="0,1,0,1,0,1,0,1"/>
    <wangtile tileid="1603" wangid="0,1,0,1,0,1,0,1"/>
    <wangtile tileid="1604" wangid="0,1,0,1,0,1,0,1"/>
    <wangtile tileid="1605" wangid="0,0,0,0,0,1,0,1"/>
    <wangtile tileid="1606" wangid="0,1,0,0,0,0,0,1"/>
    <wangtile tileid="1607" wangid="0,1,0,0,0,0,0,1"/>
    <wangtile tileid="1608" wangid="0,1,0,0,0,0,0,1"/>
    <wangtile tileid="1609" wangid="0,1,0,0,0,0,0,1"/>
    <wangtile tileid="1610" wangid="0,1,0,0,0,0,0,1"/>
    <wangtile tileid="1611" wangid="0,1,0,1,0,0,0,1"/>
    <wangtile tileid="1612" wangid="0,1,0,0,0,0,0,0"/>
    <wangtile tileid="1613" wangid="0,1,0,0,0,0,0,0"/>
    <wangtile tileid="1658" wangid="0,1,0,0,0,0,0,0"/>
    <wangtile tileid="1659" wangid="0,1,0,1,0,0,0,1"/>
    <wangtile tileid="1660" wangid="0,1,0,1,0,1,0,1"/>
    <wangtile tileid="1661" wangid="0,1,0,0,0,1,0,1"/>
    <wangtile tileid="1662" wangid="0,0,0,0,0,0,0,1"/>
    <wangtile tileid="1663" wangid="0,0,0,1,0,1,0,0"/>
    <wangtile tileid="1664" wangid="0,0,0,1,0,1,0,0"/>
    <wangtile tileid="1665" wangid="0,0,0,1,0,1,0,0"/>
    <wangtile tileid="1666" wangid="0,0,0,1,0,1,0,0"/>
    <wangtile tileid="1667" wangid="0,0,0,1,0,1,0,0"/>
    <wangtile tileid="1668" wangid="0,1,0,0,0,1,0,1"/>
    <wangtile tileid="1669" wangid="0,0,0,0,0,0,0,1"/>
    <wangtile tileid="1670" wangid="0,0,0,0,0,0,0,1"/>
    <wangtile tileid="1716" wangid="0,1,0,0,0,0,0,0"/>
    <wangtile tileid="1717" wangid="0,1,0,0,0,0,0,1"/>
    <wangtile tileid="1718" wangid="0,0,0,0,0,0,0,1"/>
   </wangset>
   <wangset name="platformV2-1tile tall" type="corner" tile="1330">
    <wangcolor name="" color="#ff0000" tile="1330" probability="1"/>
    <wangtile tileid="1101" wangid="0,0,0,1,0,0,0,0"/>
    <wangtile tileid="1102" wangid="0,0,0,1,0,1,0,0"/>
    <wangtile tileid="1103" wangid="0,0,0,0,0,1,0,0"/>
    <wangtile tileid="1105" wangid="0,0,0,0,0,1,0,1"/>
    <wangtile tileid="1106" wangid="0,0,0,0,0,1,0,1"/>
    <wangtile tileid="1107" wangid="0,0,0,1,0,1,0,0"/>
    <wangtile tileid="1108" wangid="0,0,0,1,0,1,0,0"/>
    <wangtile tileid="1113" wangid="0,0,0,1,0,0,0,0"/>
    <wangtile tileid="1114" wangid="0,0,0,1,0,1,0,0"/>
    <wangtile tileid="1115" wangid="0,0,0,0,0,1,0,0"/>
    <wangtile tileid="1117" wangid="0,0,0,0,0,1,0,1"/>
    <wangtile tileid="1118" wangid="0,0,0,0,0,1,0,1"/>
    <wangtile tileid="1157" wangid="0,0,0,1,0,0,0,0"/>
    <wangtile tileid="1158" wangid="0,1,0,1,0,1,0,0"/>
    <wangtile tileid="1159" wangid="0,1,0,1,0,1,0,1"/>
    <wangtile tileid="1160" wangid="0,0,0,1,0,1,0,1"/>
    <wangtile tileid="1161" wangid="0,0,0,0,0,1,0,0"/>
    <wangtile tileid="1162" wangid="0,1,0,1,0,0,0,0"/>
    <wangtile tileid="1163" wangid="0,1,0,1,0,0,0,0"/>
    <wangtile tileid="1164" wangid="0,1,0,0,0,0,0,1"/>
    <wangtile tileid="1165" wangid="0,1,0,0,0,0,0,1"/>
    <wangtile tileid="1169" wangid="0,0,0,1,0,0,0,0"/>
    <wangtile tileid="1170" wangid="0,1,0,1,0,1,0,0"/>
    <wangtile tileid="1172" wangid="0,0,0,1,0,1,0,1"/>
    <wangtile tileid="1173" wangid="0,0,0,0,0,1,0,0"/>
    <wangtile tileid="1174" wangid="0,1,0,1,0,0,0,0"/>
    <wangtile tileid="1175" wangid="0,1,0,1,0,0,0,0"/>
    <wangtile tileid="1214" wangid="0,1,0,1,0,0,0,0"/>
    <wangtile tileid="1215" wangid="0,1,0,1,0,1,0,1"/>
    <wangtile tileid="1216" wangid="0,1,0,1,0,1,0,1"/>
    <wangtile tileid="1217" wangid="0,1,0,1,0,1,0,1"/>
    <wangtile tileid="1218" wangid="0,0,0,0,0,1,0,1"/>
    <wangtile tileid="1226" wangid="0,1,0,1,0,0,0,0"/>
    <wangtile tileid="1230" wangid="0,0,0,0,0,1,0,1"/>
    <wangtile tileid="1271" wangid="0,1,0,0,0,0,0,0"/>
    <wangtile tileid="1272" wangid="0,1,0,1,0,0,0,1"/>
    <wangtile tileid="1273" wangid="0,1,0,1,0,1,0,1"/>
    <wangtile tileid="1274" wangid="0,1,0,0,0,1,0,1"/>
    <wangtile tileid="1275" wangid="0,0,0,0,0,0,0,1"/>
    <wangtile tileid="1283" wangid="0,1,0,0,0,0,0,0"/>
    <wangtile tileid="1284" wangid="0,1,0,1,0,0,0,1"/>
    <wangtile tileid="1286" wangid="0,1,0,0,0,1,0,1"/>
    <wangtile tileid="1287" wangid="0,0,0,0,0,0,0,1"/>
    <wangtile tileid="1329" wangid="0,1,0,0,0,0,0,0"/>
    <wangtile tileid="1330" wangid="0,1,0,0,0,0,0,1"/>
    <wangtile tileid="1331" wangid="0,0,0,0,0,0,0,1"/>
    <wangtile tileid="1341" wangid="0,1,0,0,0,0,0,0"/>
    <wangtile tileid="1342" wangid="0,1,0,0,0,0,0,1"/>
    <wangtile tileid="1343" wangid="0,0,0,0,0,0,0,1"/>
   </wangset>
   <wangset name="platform-raw-1tile tall" type="corner" tile="1355">
    <wangcolor name="" color="#ff0000" tile="1355" probability="1"/>
    <wangtile tileid="1126" wangid="0,0,0,1,0,0,0,0"/>
    <wangtile tileid="1127" wangid="0,0,0,1,0,1,0,0"/>
    <wangtile tileid="1128" wangid="0,0,0,0,0,1,0,0"/>
    <wangtile tileid="1130" wangid="0,0,0,0,0,1,0,1"/>
    <wangtile tileid="1131" wangid="0,0,0,0,0,1,0,1"/>
    <wangtile tileid="1132" wangid="0,0,0,1,0,1,0,0"/>
    <wangtile tileid="1133" wangid="0,0,0,1,0,1,0,0"/>
    <wangtile tileid="1182" wangid="0,0,0,1,0,0,0,0"/>
    <wangtile tileid="1183" wangid="0,1,0,1,0,1,0,0"/>
    <wangtile tileid="1184" wangid="0,1,0,1,0,1,0,1"/>
    <wangtile tileid="1185" wangid="0,0,0,1,0,1,0,1"/>
    <wangtile tileid="1186" wangid="0,0,0,0,0,1,0,0"/>
    <wangtile tileid="1187" wangid="0,1,0,1,0,0,0,0"/>
    <wangtile tileid="1188" wangid="0,1,0,1,0,0,0,0"/>
    <wangtile tileid="1189" wangid="0,1,0,0,0,0,0,1"/>
    <wangtile tileid="1190" wangid="0,1,0,0,0,0,0,1"/>
    <wangtile tileid="1239" wangid="0,1,0,1,0,0,0,0"/>
    <wangtile tileid="1240" wangid="0,1,0,1,0,1,0,1"/>
    <wangtile tileid="1241" wangid="0,1,0,1,0,1,0,1"/>
    <wangtile tileid="1242" wangid="0,1,0,1,0,1,0,1"/>
    <wangtile tileid="1243" wangid="0,0,0,0,0,1,0,1"/>
    <wangtile tileid="1296" wangid="0,1,0,0,0,0,0,0"/>
    <wangtile tileid="1297" wangid="0,1,0,1,0,0,0,1"/>
    <wangtile tileid="1298" wangid="0,1,0,1,0,1,0,1"/>
    <wangtile tileid="1299" wangid="0,1,0,0,0,1,0,1"/>
    <wangtile tileid="1300" wangid="0,0,0,0,0,0,0,1"/>
    <wangtile tileid="1354" wangid="0,1,0,0,0,0,0,0"/>
    <wangtile tileid="1355" wangid="0,1,0,0,0,0,0,1"/>
    <wangtile tileid="1356" wangid="0,0,0,0,0,0,0,1"/>
   </wangset>
  </wangsets>
 </tileset>
 <tileset firstgid="2965" name="Atlas-Props-sheet2-sprites" tilewidth="352" tileheight="288" tilecount="297" columns="0">
  <grid orientation="orthogonal" width="1" height="1"/>
  <tile id="0">
   <image source="tiled/ERW-Grassland 2.0/Props/Static props/sheet2-sprites/altar - neutral.png" width="288" height="224"/>
  </tile>
  <tile id="1">
   <image source="tiled/ERW-Grassland 2.0/Props/Static props/sheet2-sprites/altar - on grass - complete.png" width="288" height="256"/>
  </tile>
  <tile id="2">
   <image source="tiled/ERW-Grassland 2.0/Props/Static props/sheet2-sprites/altar - only stones.png" width="224" height="128"/>
  </tile>
  <tile id="3">
   <image source="tiled/ERW-Grassland 2.0/Props/Static props/sheet2-sprites/barricade - 1.png" width="64" height="64"/>
  </tile>
  <tile id="4">
   <image source="tiled/ERW-Grassland 2.0/Props/Static props/sheet2-sprites/barricade - 2.png" width="64" height="64"/>
  </tile>
  <tile id="5">
   <image source="tiled/ERW-Grassland 2.0/Props/Static props/sheet2-sprites/barricade - 3.png" width="64" height="64"/>
  </tile>
  <tile id="6">
   <image source="tiled/ERW-Grassland 2.0/Props/Static props/sheet2-sprites/barricade - 4.png" width="64" height="64"/>
  </tile>
  <tile id="7">
   <image source="tiled/ERW-Grassland 2.0/Props/Static props/sheet2-sprites/barricade - 5.png" width="64" height="64"/>
  </tile>
  <tile id="8">
   <image source="tiled/ERW-Grassland 2.0/Props/Static props/sheet2-sprites/barricade - 6.png" width="64" height="64"/>
  </tile>
  <tile id="9">
   <image source="tiled/ERW-Grassland 2.0/Props/Static props/sheet2-sprites/barricade - 8.png" width="64" height="32"/>
  </tile>
  <tile id="10">
   <image source="tiled/ERW-Grassland 2.0/Props/Static props/sheet2-sprites/barricade - 9.png" width="64" height="32"/>
  </tile>
  <tile id="11">
   <image source="tiled/ERW-Grassland 2.0/Props/Static props/sheet2-sprites/barricade - 10.png" width="32" height="64"/>
  </tile>
  <tile id="12">
   <image source="tiled/ERW-Grassland 2.0/Props/Static props/sheet2-sprites/barricade - 11.png" width="32" height="64"/>
  </tile>
  <tile id="13">
   <image source="tiled/ERW-Grassland 2.0/Props/Static props/sheet2-sprites/barricade - spikes - 1.png" width="96" height="64"/>
  </tile>
  <tile id="14">
   <image source="tiled/ERW-Grassland 2.0/Props/Static props/sheet2-sprites/barricade - spikes - 2.png" width="96" height="64"/>
  </tile>
  <tile id="15">
   <image source="tiled/ERW-Grassland 2.0/Props/Static props/sheet2-sprites/barricade - spikes - 3.png" width="64" height="96"/>
  </tile>
  <tile id="16">
   <image source="tiled/ERW-Grassland 2.0/Props/Static props/sheet2-sprites/barricade - spikes - 4.png" width="64" height="96"/>
  </tile>
  <tile id="17">
   <image source="tiled/ERW-Grassland 2.0/Props/Static props/sheet2-sprites/bone - big - 1.png" width="64" height="128"/>
  </tile>
  <tile id="18">
   <image source="tiled/ERW-Grassland 2.0/Props/Static props/sheet2-sprites/bone - big - 2.png" width="64" height="128"/>
  </tile>
  <tile id="19">
   <image source="tiled/ERW-Grassland 2.0/Props/Static props/sheet2-sprites/bone - big - 3.png" width="64" height="128"/>
  </tile>
  <tile id="20">
   <image source="tiled/ERW-Grassland 2.0/Props/Static props/sheet2-sprites/bone - big - 4.png" width="64" height="128"/>
  </tile>
  <tile id="21">
   <image source="tiled/ERW-Grassland 2.0/Props/Static props/sheet2-sprites/bone - big - 5.png" width="64" height="96"/>
  </tile>
  <tile id="22">
   <image source="tiled/ERW-Grassland 2.0/Props/Static props/sheet2-sprites/bone - big - 6.png" width="64" height="96"/>
  </tile>
  <tile id="23">
   <image source="tiled/ERW-Grassland 2.0/Props/Static props/sheet2-sprites/bone - small - 1.png" width="32" height="32"/>
  </tile>
  <tile id="24">
   <image source="tiled/ERW-Grassland 2.0/Props/Static props/sheet2-sprites/bone - small - 2.png" width="32" height="32"/>
  </tile>
  <tile id="25">
   <image source="tiled/ERW-Grassland 2.0/Props/Static props/sheet2-sprites/bone - small - 3.png" width="32" height="32"/>
  </tile>
  <tile id="26">
   <image source="tiled/ERW-Grassland 2.0/Props/Static props/sheet2-sprites/bone - small - 4.png" width="32" height="32"/>
  </tile>
  <tile id="27">
   <image source="tiled/ERW-Grassland 2.0/Props/Static props/sheet2-sprites/bone - small - 5.png" width="32" height="32"/>
  </tile>
  <tile id="28">
   <image source="tiled/ERW-Grassland 2.0/Props/Static props/sheet2-sprites/bone - small - 6.png" width="32" height="32"/>
  </tile>
  <tile id="29">
   <image source="tiled/ERW-Grassland 2.0/Props/Static props/sheet2-sprites/bone - small - 7.png" width="64" height="32"/>
  </tile>
  <tile id="30">
   <image source="tiled/ERW-Grassland 2.0/Props/Static props/sheet2-sprites/bone - small - 8.png" width="32" height="32"/>
  </tile>
  <tile id="31">
   <image source="tiled/ERW-Grassland 2.0/Props/Static props/sheet2-sprites/bone - small - 9.png" width="32" height="32"/>
  </tile>
  <tile id="32">
   <image source="tiled/ERW-Grassland 2.0/Props/Static props/sheet2-sprites/bone - small - 10.png" width="32" height="32"/>
  </tile>
  <tile id="33">
   <image source="tiled/ERW-Grassland 2.0/Props/Static props/sheet2-sprites/bone - small - 11.png" width="32" height="32"/>
  </tile>
  <tile id="34">
   <image source="tiled/ERW-Grassland 2.0/Props/Static props/sheet2-sprites/bone - small - 12.png" width="32" height="32"/>
  </tile>
  <tile id="35">
   <image source="tiled/ERW-Grassland 2.0/Props/Static props/sheet2-sprites/bone - small - 13.png" width="32" height="32"/>
  </tile>
  <tile id="36">
   <image source="tiled/ERW-Grassland 2.0/Props/Static props/sheet2-sprites/bone - small - 14.png" width="64" height="32"/>
  </tile>
  <tile id="37">
   <image source="tiled/ERW-Grassland 2.0/Props/Static props/sheet2-sprites/cabin interior - bear carpet.png" width="64" height="96"/>
  </tile>
  <tile id="38">
   <image source="tiled/ERW-Grassland 2.0/Props/Static props/sheet2-sprites/cabin interior - bed - pillow.png" width="64" height="96"/>
  </tile>
  <tile id="39">
   <image source="tiled/ERW-Grassland 2.0/Props/Static props/sheet2-sprites/cabin interior - bed.png" width="64" height="96"/>
  </tile>
  <tile id="40">
   <image source="tiled/ERW-Grassland 2.0/Props/Static props/sheet2-sprites/cabin interior - bench.png" width="32" height="32"/>
  </tile>
  <tile id="41">
   <image source="tiled/ERW-Grassland 2.0/Props/Static props/sheet2-sprites/cabin interior - cabin interior - light.png" width="192" height="128"/>
  </tile>
  <tile id="42">
   <image source="tiled/ERW-Grassland 2.0/Props/Static props/sheet2-sprites/cabin interior - carpet.png" width="32" height="64"/>
  </tile>
  <tile id="43">
   <image source="tiled/ERW-Grassland 2.0/Props/Static props/sheet2-sprites/cabin interior - chest tissue.png" width="64" height="32"/>
  </tile>
  <tile id="44">
   <image source="tiled/ERW-Grassland 2.0/Props/Static props/sheet2-sprites/cabin interior - light2.png" width="224" height="128"/>
  </tile>
  <tile id="45">
   <image source="tiled/ERW-Grassland 2.0/Props/Static props/sheet2-sprites/cabin interior - pan 1.png" width="32" height="32"/>
  </tile>
  <tile id="46">
   <image source="tiled/ERW-Grassland 2.0/Props/Static props/sheet2-sprites/cabin interior - pan 2.png" width="32" height="32"/>
  </tile>
  <tile id="47">
   <image source="tiled/ERW-Grassland 2.0/Props/Static props/sheet2-sprites/cabin interior - pans.png" width="32" height="32"/>
  </tile>
  <tile id="48">
   <image source="tiled/ERW-Grassland 2.0/Props/Static props/sheet2-sprites/cabin interior - pilow.png" width="64" height="32"/>
  </tile>
  <tile id="49">
   <image source="tiled/ERW-Grassland 2.0/Props/Static props/sheet2-sprites/cabin interior - side table.png" width="32" height="96"/>
  </tile>
  <tile id="50">
   <image source="tiled/ERW-Grassland 2.0/Props/Static props/sheet2-sprites/cabin interior - wooden chest 1 - tissue.png" width="64" height="32"/>
  </tile>
  <tile id="51">
   <image source="tiled/ERW-Grassland 2.0/Props/Static props/sheet2-sprites/cabin interior - wooden chest 1.png" width="64" height="32"/>
  </tile>
  <tile id="52">
   <image source="tiled/ERW-Grassland 2.0/Props/Static props/sheet2-sprites/cabin interior - wooden chest 2 - tissue.png" width="64" height="32"/>
  </tile>
  <tile id="53">
   <image source="tiled/ERW-Grassland 2.0/Props/Static props/sheet2-sprites/cabin interior - wooden chest 2.png" width="64" height="32"/>
  </tile>
  <tile id="54">
   <image source="tiled/ERW-Grassland 2.0/Props/Static props/sheet2-sprites/cabin interior - wooden chest 3 - tissue.png" width="64" height="32"/>
  </tile>
  <tile id="55">
   <image source="tiled/ERW-Grassland 2.0/Props/Static props/sheet2-sprites/cabin interior - wooden chest 3.png" width="64" height="32"/>
  </tile>
  <tile id="56">
   <image source="tiled/ERW-Grassland 2.0/Props/Static props/sheet2-sprites/carriage - broken.png" width="160" height="160"/>
  </tile>
  <tile id="57">
   <image source="tiled/ERW-Grassland 2.0/Props/Static props/sheet2-sprites/carriage - complete - on grass.png" width="160" height="160"/>
  </tile>
  <tile id="58">
   <image source="tiled/ERW-Grassland 2.0/Props/Static props/sheet2-sprites/carriage - complete.png" width="160" height="160"/>
  </tile>
  <tile id="59">
   <image source="tiled/ERW-Grassland 2.0/Props/Static props/sheet2-sprites/carriage - no tent - on grass.png" width="160" height="160"/>
  </tile>
  <tile id="60">
   <image source="tiled/ERW-Grassland 2.0/Props/Static props/sheet2-sprites/carriage - no tent.png" width="160" height="160"/>
  </tile>
  <tile id="61">
   <image source="tiled/ERW-Grassland 2.0/Props/Static props/sheet2-sprites/carriage - no tent1.png" width="160" height="160"/>
  </tile>
  <tile id="62">
   <image source="tiled/ERW-Grassland 2.0/Props/Static props/sheet2-sprites/carriage - no tent2 - on grass.png" width="160" height="160"/>
  </tile>
  <tile id="63">
   <image source="tiled/ERW-Grassland 2.0/Props/Static props/sheet2-sprites/carriage - on grass - broken.png" width="160" height="160"/>
  </tile>
  <tile id="64">
   <image source="tiled/ERW-Grassland 2.0/Props/Static props/sheet2-sprites/carriage - tent support - 1.png" width="32" height="64"/>
  </tile>
  <tile id="65">
   <image source="tiled/ERW-Grassland 2.0/Props/Static props/sheet2-sprites/carriage - tent support - 2.png" width="32" height="64"/>
  </tile>
  <tile id="66">
   <image source="tiled/ERW-Grassland 2.0/Props/Static props/sheet2-sprites/carriage - tent support - 3.png" width="32" height="32"/>
  </tile>
  <tile id="67">
   <image source="tiled/ERW-Grassland 2.0/Props/Static props/sheet2-sprites/carriage - tent support - 4.png" width="32" height="32"/>
  </tile>
  <tile id="68">
   <image source="tiled/ERW-Grassland 2.0/Props/Static props/sheet2-sprites/carriage - tent support - 5.png" width="32" height="32"/>
  </tile>
  <tile id="69">
   <image source="tiled/ERW-Grassland 2.0/Props/Static props/sheet2-sprites/carriage - tent support - 6.png" width="32" height="32"/>
  </tile>
  <tile id="70">
   <image source="tiled/ERW-Grassland 2.0/Props/Static props/sheet2-sprites/grass tufts 1.png" width="64" height="32"/>
  </tile>
  <tile id="71">
   <image source="tiled/ERW-Grassland 2.0/Props/Static props/sheet2-sprites/grass tufts 2.png" width="64" height="32"/>
  </tile>
  <tile id="72">
   <image source="tiled/ERW-Grassland 2.0/Props/Static props/sheet2-sprites/grass tufts 3.png" width="32" height="32"/>
  </tile>
  <tile id="73">
   <image source="tiled/ERW-Grassland 2.0/Props/Static props/sheet2-sprites/grass tufts 4.png" width="96" height="32"/>
  </tile>
  <tile id="74">
   <image source="tiled/ERW-Grassland 2.0/Props/Static props/sheet2-sprites/grass tufts 5.png" width="32" height="32"/>
  </tile>
  <tile id="75">
   <image source="tiled/ERW-Grassland 2.0/Props/Static props/sheet2-sprites/grass tufts 6.png" width="32" height="32"/>
  </tile>
  <tile id="76">
   <image source="tiled/ERW-Grassland 2.0/Props/Static props/sheet2-sprites/grass tufts 7.png" width="32" height="32"/>
  </tile>
  <tile id="77">
   <image source="tiled/ERW-Grassland 2.0/Props/Static props/sheet2-sprites/grass tufts 8.png" width="32" height="32"/>
  </tile>
  <tile id="78">
   <image source="tiled/ERW-Grassland 2.0/Props/Static props/sheet2-sprites/grass tufts 9.png" width="32" height="32"/>
  </tile>
  <tile id="79">
   <image source="tiled/ERW-Grassland 2.0/Props/Static props/sheet2-sprites/grass tufts 10.png" width="32" height="32"/>
  </tile>
  <tile id="80">
   <image source="tiled/ERW-Grassland 2.0/Props/Static props/sheet2-sprites/grass tufts 11.png" width="32" height="32"/>
  </tile>
  <tile id="81">
   <image source="tiled/ERW-Grassland 2.0/Props/Static props/sheet2-sprites/grass tufts 12.png" width="32" height="32"/>
  </tile>
  <tile id="82">
   <image source="tiled/ERW-Grassland 2.0/Props/Static props/sheet2-sprites/grass tufts 13.png" width="32" height="32"/>
  </tile>
  <tile id="83">
   <image source="tiled/ERW-Grassland 2.0/Props/Static props/sheet2-sprites/grass tufts 14.png" width="32" height="32"/>
  </tile>
  <tile id="84">
   <image source="tiled/ERW-Grassland 2.0/Props/Static props/sheet2-sprites/grass tufts 15.png" width="32" height="32"/>
  </tile>
  <tile id="85">
   <image source="tiled/ERW-Grassland 2.0/Props/Static props/sheet2-sprites/grass tufts 16.png" width="32" height="32"/>
  </tile>
  <tile id="86">
   <image source="tiled/ERW-Grassland 2.0/Props/Static props/sheet2-sprites/grass tufts 17.png" width="32" height="32"/>
  </tile>
  <tile id="87">
   <image source="tiled/ERW-Grassland 2.0/Props/Static props/sheet2-sprites/grass tufts 18.png" width="32" height="32"/>
  </tile>
  <tile id="88">
   <image source="tiled/ERW-Grassland 2.0/Props/Static props/sheet2-sprites/grass tufts 19.png" width="64" height="32"/>
  </tile>
  <tile id="89">
   <image source="tiled/ERW-Grassland 2.0/Props/Static props/sheet2-sprites/grass tufts 20.png" width="64" height="32"/>
  </tile>
  <tile id="90">
   <image source="tiled/ERW-Grassland 2.0/Props/Static props/sheet2-sprites/grass tufts 21.png" width="64" height="32"/>
  </tile>
  <tile id="91">
   <image source="tiled/ERW-Grassland 2.0/Props/Static props/sheet2-sprites/grass tufts 22.png" width="352" height="32"/>
  </tile>
  <tile id="92">
   <image source="tiled/ERW-Grassland 2.0/Props/Static props/sheet2-sprites/grass tufts 23.png" width="32" height="32"/>
  </tile>
  <tile id="93">
   <image source="tiled/ERW-Grassland 2.0/Props/Static props/sheet2-sprites/grass tufts 24.png" width="32" height="32"/>
  </tile>
  <tile id="94">
   <image source="tiled/ERW-Grassland 2.0/Props/Static props/sheet2-sprites/grass tufts 25.png" width="32" height="32"/>
  </tile>
  <tile id="95">
   <image source="tiled/ERW-Grassland 2.0/Props/Static props/sheet2-sprites/grass tufts 26.png" width="32" height="32"/>
  </tile>
  <tile id="96">
   <image source="tiled/ERW-Grassland 2.0/Props/Static props/sheet2-sprites/grass tufts 27.png" width="32" height="32"/>
  </tile>
  <tile id="97">
   <image source="tiled/ERW-Grassland 2.0/Props/Static props/sheet2-sprites/grass tufts 28.png" width="32" height="32"/>
  </tile>
  <tile id="98">
   <image source="tiled/ERW-Grassland 2.0/Props/Static props/sheet2-sprites/grass tufts 29.png" width="32" height="32"/>
  </tile>
  <tile id="99">
   <image source="tiled/ERW-Grassland 2.0/Props/Static props/sheet2-sprites/grass tufts 30.png" width="32" height="32"/>
  </tile>
  <tile id="100">
   <image source="tiled/ERW-Grassland 2.0/Props/Static props/sheet2-sprites/grass tufts 31.png" width="32" height="32"/>
  </tile>
  <tile id="101">
   <image source="tiled/ERW-Grassland 2.0/Props/Static props/sheet2-sprites/grass tufts 32.png" width="32" height="32"/>
  </tile>
  <tile id="102">
   <image source="tiled/ERW-Grassland 2.0/Props/Static props/sheet2-sprites/shrine 1 - bowl 1.png" width="32" height="32"/>
  </tile>
  <tile id="103">
   <image source="tiled/ERW-Grassland 2.0/Props/Static props/sheet2-sprites/shrine 1 - bowl 2.png" width="32" height="32"/>
  </tile>
  <tile id="104">
   <image source="tiled/ERW-Grassland 2.0/Props/Static props/sheet2-sprites/shrine 1 - only support1.png" width="64" height="64"/>
  </tile>
  <tile id="105">
   <image source="tiled/ERW-Grassland 2.0/Props/Static props/sheet2-sprites/shrine 1 - only support2 .png" width="64" height="64"/>
  </tile>
  <tile id="106">
   <image source="tiled/ERW-Grassland 2.0/Props/Static props/sheet2-sprites/shrine 1 - support 1 - on grass.png" width="64" height="64"/>
  </tile>
  <tile id="107">
   <image source="tiled/ERW-Grassland 2.0/Props/Static props/sheet2-sprites/shrine 1 - support 2 - on grass.png" width="64" height="64"/>
  </tile>
  <tile id="108">
   <image source="tiled/ERW-Grassland 2.0/Props/Static props/sheet2-sprites/shrine 1 - support 2.png" width="64" height="64"/>
  </tile>
  <tile id="109">
   <image source="tiled/ERW-Grassland 2.0/Props/Static props/sheet2-sprites/shrine 1 - support 3 - on grass.png" width="64" height="64"/>
  </tile>
  <tile id="110">
   <image source="tiled/ERW-Grassland 2.0/Props/Static props/sheet2-sprites/shrine 1 - support 3.png" width="64" height="64"/>
  </tile>
  <tile id="111">
   <image source="tiled/ERW-Grassland 2.0/Props/Static props/sheet2-sprites/shrine 1 - support 4 - 1 - on grass.png" width="64" height="64"/>
  </tile>
  <tile id="112">
   <image source="tiled/ERW-Grassland 2.0/Props/Static props/sheet2-sprites/shrine 1 - support 4 - 1.png" width="64" height="64"/>
  </tile>
  <tile id="113">
   <image source="tiled/ERW-Grassland 2.0/Props/Static props/sheet2-sprites/shrine 1 - support 4 - on grass.png" width="64" height="64"/>
  </tile>
  <tile id="114">
   <image source="tiled/ERW-Grassland 2.0/Props/Static props/sheet2-sprites/shrine 1 - support 4.png" width="64" height="64"/>
  </tile>
  <tile id="115">
   <image source="tiled/ERW-Grassland 2.0/Props/Static props/sheet2-sprites/shrine 1.png" width="64" height="64"/>
  </tile>
  <tile id="116">
   <image source="tiled/ERW-Grassland 2.0/Props/Static props/sheet2-sprites/shrine 2 - base - on grass.png" width="192" height="128"/>
  </tile>
  <tile id="117">
   <image source="tiled/ERW-Grassland 2.0/Props/Static props/sheet2-sprites/shrine 2 - base.png" width="192" height="128"/>
  </tile>
  <tile id="118">
   <image source="tiled/ERW-Grassland 2.0/Props/Static props/sheet2-sprites/shrine 2 - pilar - on grass.png" width="64" height="128"/>
  </tile>
  <tile id="119">
   <image source="tiled/ERW-Grassland 2.0/Props/Static props/sheet2-sprites/shrine 2 - pilar.png" width="64" height="128"/>
  </tile>
  <tile id="120">
   <image source="tiled/ERW-Grassland 2.0/Props/Static props/sheet2-sprites/shrine 2 - smaller pilar - on grass.png" width="64" height="128"/>
  </tile>
  <tile id="121">
   <image source="tiled/ERW-Grassland 2.0/Props/Static props/sheet2-sprites/shrine 2 - smaller pilar.png" width="64" height="128"/>
  </tile>
  <tile id="122">
   <image source="tiled/ERW-Grassland 2.0/Props/Static props/sheet2-sprites/spikes 1.png" width="64" height="32"/>
  </tile>
  <tile id="123">
   <image source="tiled/ERW-Grassland 2.0/Props/Static props/sheet2-sprites/spikes 2.png" width="64" height="64"/>
  </tile>
  <tile id="124">
   <image source="tiled/ERW-Grassland 2.0/Props/Static props/sheet2-sprites/spikes 3.png" width="32" height="64"/>
  </tile>
  <tile id="125">
   <image source="tiled/ERW-Grassland 2.0/Props/Static props/sheet2-sprites/spikes 4.png" width="32" height="64"/>
  </tile>
  <tile id="126">
   <image source="tiled/ERW-Grassland 2.0/Props/Static props/sheet2-sprites/spikes 5.png" width="32" height="32"/>
  </tile>
  <tile id="127">
   <image source="tiled/ERW-Grassland 2.0/Props/Static props/sheet2-sprites/spikes 6.png" width="32" height="32"/>
  </tile>
  <tile id="128">
   <image source="tiled/ERW-Grassland 2.0/Props/Static props/sheet2-sprites/spikes 7.png" width="32" height="32"/>
  </tile>
  <tile id="129">
   <image source="tiled/ERW-Grassland 2.0/Props/Static props/sheet2-sprites/standard - flag.png" width="96" height="128"/>
  </tile>
  <tile id="130">
   <image source="tiled/ERW-Grassland 2.0/Props/Static props/sheet2-sprites/standard - only flag.png" width="64" height="96"/>
  </tile>
  <tile id="131">
   <image source="tiled/ERW-Grassland 2.0/Props/Static props/sheet2-sprites/standard - only gravel portion.png" width="96" height="64"/>
  </tile>
  <tile id="132">
   <image source="tiled/ERW-Grassland 2.0/Props/Static props/sheet2-sprites/standard 2.png" width="96" height="96"/>
  </tile>
  <tile id="133">
   <image source="tiled/ERW-Grassland 2.0/Props/Static props/sheet2-sprites/standard.png" width="96" height="128"/>
  </tile>
  <tile id="134">
   <image source="tiled/ERW-Grassland 2.0/Props/Static props/sheet2-sprites/stronghold - embranchment section - down - for z ordering.png" width="128" height="64"/>
  </tile>
  <tile id="135">
   <image source="tiled/ERW-Grassland 2.0/Props/Static props/sheet2-sprites/stronghold - embranchment section - down - on grass.png" width="128" height="96"/>
  </tile>
  <tile id="136">
   <image source="tiled/ERW-Grassland 2.0/Props/Static props/sheet2-sprites/stronghold - embranchment section - down.png" width="128" height="96"/>
  </tile>
  <tile id="137">
   <image source="tiled/ERW-Grassland 2.0/Props/Static props/sheet2-sprites/stronghold - embranchment section - for z ordering.png" width="192" height="96"/>
  </tile>
  <tile id="138">
   <image source="tiled/ERW-Grassland 2.0/Props/Static props/sheet2-sprites/stronghold - embranchment section - left - for z ordering.png" width="32" height="64"/>
  </tile>
  <tile id="139">
   <image source="tiled/ERW-Grassland 2.0/Props/Static props/sheet2-sprites/stronghold - embranchment section - left - on grass.png" width="64" height="192"/>
  </tile>
  <tile id="140">
   <image source="tiled/ERW-Grassland 2.0/Props/Static props/sheet2-sprites/stronghold - embranchment section - left.png" width="32" height="160"/>
  </tile>
  <tile id="141">
   <image source="tiled/ERW-Grassland 2.0/Props/Static props/sheet2-sprites/stronghold - embranchment section - on grass.png" width="192" height="256"/>
  </tile>
  <tile id="142">
   <image source="tiled/ERW-Grassland 2.0/Props/Static props/sheet2-sprites/stronghold - embranchment section - right - for z ordering.png" width="32" height="64"/>
  </tile>
  <tile id="143">
   <image source="tiled/ERW-Grassland 2.0/Props/Static props/sheet2-sprites/stronghold - embranchment section - right - on grass.png" width="64" height="192"/>
  </tile>
  <tile id="144">
   <image source="tiled/ERW-Grassland 2.0/Props/Static props/sheet2-sprites/stronghold - embranchment section - right.png" width="32" height="160"/>
  </tile>
  <tile id="145">
   <image source="tiled/ERW-Grassland 2.0/Props/Static props/sheet2-sprites/stronghold - embranchment section - up - on grass.png" width="128" height="64"/>
  </tile>
  <tile id="146">
   <image source="tiled/ERW-Grassland 2.0/Props/Static props/sheet2-sprites/stronghold - embranchment section.png" width="192" height="224"/>
  </tile>
  <tile id="147">
   <image source="tiled/ERW-Grassland 2.0/Props/Static props/sheet2-sprites/stronghold - gate - left section - for z ordering.png" width="32" height="32"/>
  </tile>
  <tile id="148">
   <image source="tiled/ERW-Grassland 2.0/Props/Static props/sheet2-sprites/stronghold - gate - left section - on grass.png" width="64" height="224"/>
  </tile>
  <tile id="149">
   <image source="tiled/ERW-Grassland 2.0/Props/Static props/sheet2-sprites/stronghold - gate - right section - for z ordering.png" width="32" height="32"/>
  </tile>
  <tile id="150">
   <image source="tiled/ERW-Grassland 2.0/Props/Static props/sheet2-sprites/stronghold - gate - right section - on grass.png" width="64" height="224"/>
  </tile>
  <tile id="151">
   <image source="tiled/ERW-Grassland 2.0/Props/Static props/sheet2-sprites/stronghold - horizontal - end - on grass.png" width="64" height="160"/>
  </tile>
  <tile id="152">
   <image source="tiled/ERW-Grassland 2.0/Props/Static props/sheet2-sprites/stronghold - horizontal - end.png" width="64" height="160"/>
  </tile>
  <tile id="153">
   <image source="tiled/ERW-Grassland 2.0/Props/Static props/sheet2-sprites/stronghold - horizontal - entrance - on grass.png" width="160" height="192"/>
  </tile>
  <tile id="154">
   <image source="tiled/ERW-Grassland 2.0/Props/Static props/sheet2-sprites/stronghold - horizontal - entrance.png" width="160" height="192"/>
  </tile>
  <tile id="155">
   <image source="tiled/ERW-Grassland 2.0/Props/Static props/sheet2-sprites/stronghold - horizontal - for z ordering.png" width="96" height="64"/>
  </tile>
  <tile id="156">
   <image source="tiled/ERW-Grassland 2.0/Props/Static props/sheet2-sprites/stronghold - horizontal - on grass.png" width="96" height="160"/>
  </tile>
  <tile id="157">
   <image source="tiled/ERW-Grassland 2.0/Props/Static props/sheet2-sprites/stronghold - horizontal.png" width="96" height="160"/>
  </tile>
  <tile id="158">
   <image source="tiled/ERW-Grassland 2.0/Props/Static props/sheet2-sprites/stronghold - horizontal2 - for z ordering.png" width="128" height="64"/>
  </tile>
  <tile id="159">
   <image source="tiled/ERW-Grassland 2.0/Props/Static props/sheet2-sprites/stronghold - horizontal2 - on grass.png" width="128" height="160"/>
  </tile>
  <tile id="160">
   <image source="tiled/ERW-Grassland 2.0/Props/Static props/sheet2-sprites/stronghold - horizontal2.png" width="128" height="160"/>
  </tile>
  <tile id="161">
   <image source="tiled/ERW-Grassland 2.0/Props/Static props/sheet2-sprites/stronghold - vertical - end.png" width="64" height="64"/>
  </tile>
  <tile id="162">
   <image source="tiled/ERW-Grassland 2.0/Props/Static props/sheet2-sprites/stronghold - vertical - end2 - on grass.png" width="128" height="128"/>
  </tile>
  <tile id="163">
   <image source="tiled/ERW-Grassland 2.0/Props/Static props/sheet2-sprites/stronghold - vertical - end2.png" width="128" height="128"/>
  </tile>
  <tile id="164">
   <image source="tiled/ERW-Grassland 2.0/Props/Static props/sheet2-sprites/stronghold - vertical - on grass.png" width="128" height="128"/>
  </tile>
  <tile id="165">
   <image source="tiled/ERW-Grassland 2.0/Props/Static props/sheet2-sprites/stronghold - vertical2 - on grass.png" width="128" height="96"/>
  </tile>
  <tile id="166">
   <image source="tiled/ERW-Grassland 2.0/Props/Static props/sheet2-sprites/tent 1 - on grass.png" width="320" height="288"/>
  </tile>
  <tile id="167">
   <image source="tiled/ERW-Grassland 2.0/Props/Static props/sheet2-sprites/tent 1 - small - on grass.png" width="160" height="160"/>
  </tile>
  <tile id="168">
   <image source="tiled/ERW-Grassland 2.0/Props/Static props/sheet2-sprites/tent 1 - small.png" width="160" height="160"/>
  </tile>
  <tile id="169">
   <image source="tiled/ERW-Grassland 2.0/Props/Static props/sheet2-sprites/tent 1.png" width="320" height="288"/>
  </tile>
  <tile id="170">
   <image source="tiled/ERW-Grassland 2.0/Props/Static props/sheet2-sprites/tent 2 - on grass.png" width="320" height="288"/>
  </tile>
  <tile id="171">
   <image source="tiled/ERW-Grassland 2.0/Props/Static props/sheet2-sprites/tent 2 - small - on grass.png" width="160" height="160"/>
  </tile>
  <tile id="172">
   <image source="tiled/ERW-Grassland 2.0/Props/Static props/sheet2-sprites/tent 2 - small .png" width="160" height="160"/>
  </tile>
  <tile id="173">
   <image source="tiled/ERW-Grassland 2.0/Props/Static props/sheet2-sprites/tent 2.png" width="320" height="288"/>
  </tile>
  <tile id="174">
   <image source="tiled/ERW-Grassland 2.0/Props/Static props/sheet2-sprites/throne - on grass.png" width="192" height="128"/>
  </tile>
  <tile id="175">
   <image source="tiled/ERW-Grassland 2.0/Props/Static props/sheet2-sprites/throne.png" width="192" height="128"/>
  </tile>
  <tile id="176">
   <image source="tiled/ERW-Grassland 2.0/Props/Static props/sheet2-sprites/vendor - bench.png" width="32" height="32"/>
  </tile>
  <tile id="177">
   <image source="tiled/ERW-Grassland 2.0/Props/Static props/sheet2-sprites/vendor - crate 1.png" width="64" height="64"/>
  </tile>
  <tile id="178">
   <image source="tiled/ERW-Grassland 2.0/Props/Static props/sheet2-sprites/vendor - crate 2.png" width="64" height="64"/>
  </tile>
  <tile id="179">
   <image source="tiled/ERW-Grassland 2.0/Props/Static props/sheet2-sprites/vendor - crate 3.png" width="64" height="64"/>
  </tile>
  <tile id="180">
   <image source="tiled/ERW-Grassland 2.0/Props/Static props/sheet2-sprites/vendor - potion 1.png" width="32" height="32"/>
  </tile>
  <tile id="181">
   <image source="tiled/ERW-Grassland 2.0/Props/Static props/sheet2-sprites/vendor - potion 2.png" width="32" height="32"/>
  </tile>
  <tile id="182">
   <image source="tiled/ERW-Grassland 2.0/Props/Static props/sheet2-sprites/vendor - potion 3.png" width="32" height="32"/>
  </tile>
  <tile id="183">
   <image source="tiled/ERW-Grassland 2.0/Props/Static props/sheet2-sprites/vendor - potion 4.png" width="32" height="32"/>
  </tile>
  <tile id="184">
   <image source="tiled/ERW-Grassland 2.0/Props/Static props/sheet2-sprites/vendor - pouch - 1.png" width="32" height="32"/>
  </tile>
  <tile id="185">
   <image source="tiled/ERW-Grassland 2.0/Props/Static props/sheet2-sprites/vendor - pouch - 2.png" width="32" height="32"/>
  </tile>
  <tile id="186">
   <image source="tiled/ERW-Grassland 2.0/Props/Static props/sheet2-sprites/vendor - pouch - 3.png" width="32" height="32"/>
  </tile>
  <tile id="187">
   <image source="tiled/ERW-Grassland 2.0/Props/Static props/sheet2-sprites/vendor - scroll paper - 1.png" width="32" height="32"/>
  </tile>
  <tile id="188">
   <image source="tiled/ERW-Grassland 2.0/Props/Static props/sheet2-sprites/vendor - scroll paper - 2.png" width="32" height="32"/>
  </tile>
  <tile id="189">
   <image source="tiled/ERW-Grassland 2.0/Props/Static props/sheet2-sprites/vendor - vase - 1.png" width="32" height="32"/>
  </tile>
  <tile id="190">
   <image source="tiled/ERW-Grassland 2.0/Props/Static props/sheet2-sprites/vendor - vase - 2.png" width="32" height="32"/>
  </tile>
  <tile id="191">
   <image source="tiled/ERW-Grassland 2.0/Props/Static props/sheet2-sprites/vendor - vase - 3.png" width="32" height="32"/>
  </tile>
  <tile id="192">
   <image source="tiled/ERW-Grassland 2.0/Props/Static props/sheet2-sprites/vendor - vase - 4.png" width="32" height="32"/>
  </tile>
  <tile id="193">
   <image source="tiled/ERW-Grassland 2.0/Props/Static props/sheet2-sprites/vendor - vase - 5.png" width="32" height="32"/>
  </tile>
  <tile id="194">
   <image source="tiled/ERW-Grassland 2.0/Props/Static props/sheet2-sprites/vendor - vase - 6.png" width="32" height="32"/>
  </tile>
  <tile id="195">
   <image source="tiled/ERW-Grassland 2.0/Props/Static props/sheet2-sprites/vendor structure - complete - on grass.png" width="288" height="192"/>
  </tile>
  <tile id="196">
   <image source="tiled/ERW-Grassland 2.0/Props/Static props/sheet2-sprites/vendor structure - complete.png" width="256" height="192"/>
  </tile>
  <tile id="197">
   <image source="tiled/ERW-Grassland 2.0/Props/Static props/sheet2-sprites/vendor structure - naked.png" width="256" height="160"/>
  </tile>
  <tile id="198">
   <image source="tiled/ERW-Grassland 2.0/Props/Static props/sheet2-sprites/vendor structure - tissue on top.png" width="160" height="64"/>
  </tile>
  <tile id="199">
   <image source="tiled/ERW-Grassland 2.0/Props/Static props/sheet2-sprites/vendor structure - wheel.png" width="64" height="64"/>
  </tile>
  <tile id="200">
   <image source="tiled/ERW-Grassland 2.0/Props/Static props/sheet2-sprites/watchtower - back  - base section with neutral shadow.png" width="128" height="64"/>
  </tile>
  <tile id="201">
   <image source="tiled/ERW-Grassland 2.0/Props/Static props/sheet2-sprites/watchtower - back.png" width="128" height="224"/>
  </tile>
  <tile id="202">
   <image source="tiled/ERW-Grassland 2.0/Props/Static props/sheet2-sprites/watchtower - flag.png" width="64" height="64"/>
  </tile>
  <tile id="203">
   <image source="tiled/ERW-Grassland 2.0/Props/Static props/sheet2-sprites/watchtower - front  - base section with neutral shadow.png" width="128" height="64"/>
  </tile>
  <tile id="204">
   <image source="tiled/ERW-Grassland 2.0/Props/Static props/sheet2-sprites/watchtower - front.png" width="128" height="224"/>
  </tile>
  <tile id="205">
   <image source="tiled/ERW-Grassland 2.0/Props/Static props/sheet2-sprites/watchtower - stairs - size 1 - back.png" width="32" height="128"/>
  </tile>
  <tile id="206">
   <image source="tiled/ERW-Grassland 2.0/Props/Static props/sheet2-sprites/watchtower - stairs - size 1 - front.png" width="32" height="128"/>
  </tile>
  <tile id="207">
   <image source="tiled/ERW-Grassland 2.0/Props/Static props/sheet2-sprites/watchtower - stairs - size 2 - back.png" width="32" height="96"/>
  </tile>
  <tile id="208">
   <image source="tiled/ERW-Grassland 2.0/Props/Static props/sheet2-sprites/watchtower - stairs - size 2 - front.png" width="32" height="96"/>
  </tile>
  <tile id="209">
   <image source="tiled/ERW-Grassland 2.0/Props/Static props/sheet2-sprites/watchtower - stairs - size 3 - back.png" width="32" height="64"/>
  </tile>
  <tile id="210">
   <image source="tiled/ERW-Grassland 2.0/Props/Static props/sheet2-sprites/watchtower - stairs - size 3 - front.png" width="32" height="64"/>
  </tile>
  <tile id="211">
   <image source="tiled/ERW-Grassland 2.0/Props/Static props/sheet2-sprites/weapon support - where the weapons hang.png" width="256" height="160"/>
  </tile>
  <tile id="212">
   <image source="tiled/ERW-Grassland 2.0/Props/Static props/sheet2-sprites/weapons - big axe.png" width="32" height="32"/>
  </tile>
  <tile id="213">
   <image source="tiled/ERW-Grassland 2.0/Props/Static props/sheet2-sprites/weapons - hammer.png" width="32" height="64"/>
  </tile>
  <tile id="214">
   <image source="tiled/ERW-Grassland 2.0/Props/Static props/sheet2-sprites/weapons - knife on the table.png" width="32" height="32"/>
  </tile>
  <tile id="215">
   <image source="tiled/ERW-Grassland 2.0/Props/Static props/sheet2-sprites/weapons - machete.png" width="32" height="64"/>
  </tile>
  <tile id="216">
   <image source="tiled/ERW-Grassland 2.0/Props/Static props/sheet2-sprites/weapons - scythe ish.png" width="32" height="64"/>
  </tile>
  <tile id="217">
   <image source="tiled/ERW-Grassland 2.0/Props/Static props/sheet2-sprites/weapons - small axe.png" width="32" height="32"/>
  </tile>
  <tile id="218">
   <image source="tiled/ERW-Grassland 2.0/Props/Static props/sheet2-sprites/weapons - spear.png" width="32" height="64"/>
  </tile>
  <tile id="219">
   <image source="tiled/ERW-Grassland 2.0/Props/Static props/sheet2-sprites/weapons - sword on any floor 1.png" width="64" height="32"/>
  </tile>
  <tile id="220">
   <image source="tiled/ERW-Grassland 2.0/Props/Static props/sheet2-sprites/weapons - sword on any floor 2.png" width="32" height="64"/>
  </tile>
  <tile id="221">
   <image source="tiled/ERW-Grassland 2.0/Props/Static props/sheet2-sprites/weapons - sword on grass 2.png" width="64" height="32"/>
  </tile>
  <tile id="222">
   <image source="tiled/ERW-Grassland 2.0/Props/Static props/sheet2-sprites/weapons - sword on grass 3.png" width="32" height="64"/>
  </tile>
  <tile id="223">
   <image source="tiled/ERW-Grassland 2.0/Props/Static props/sheet2-sprites/weapons - sword on grass.png" width="64" height="32"/>
  </tile>
  <tile id="224">
   <image source="tiled/ERW-Grassland 2.0/Props/Static props/sheet2-sprites/weapons - sword.png" width="32" height="64"/>
  </tile>
  <tile id="225">
   <image source="tiled/ERW-Grassland 2.0/Props/Static props/sheet2-sprites/wood log - big - no rope - 1.png" width="32" height="96"/>
  </tile>
  <tile id="226">
   <image source="tiled/ERW-Grassland 2.0/Props/Static props/sheet2-sprites/wood log - big - no rope - 2.png" width="32" height="96"/>
  </tile>
  <tile id="227">
   <image source="tiled/ERW-Grassland 2.0/Props/Static props/sheet2-sprites/wood log - big - no rope - 3.png" width="32" height="96"/>
  </tile>
  <tile id="228">
   <image source="tiled/ERW-Grassland 2.0/Props/Static props/sheet2-sprites/wood log - big - no rope - 4.png" width="32" height="96"/>
  </tile>
  <tile id="229">
   <image source="tiled/ERW-Grassland 2.0/Props/Static props/sheet2-sprites/wood log - big - no rope - 5.png" width="32" height="96"/>
  </tile>
  <tile id="230">
   <image source="tiled/ERW-Grassland 2.0/Props/Static props/sheet2-sprites/wood log - big - no rope - 6.png" width="32" height="96"/>
  </tile>
  <tile id="231">
   <image source="tiled/ERW-Grassland 2.0/Props/Static props/sheet2-sprites/wood log - big - no rope - 7.png" width="32" height="96"/>
  </tile>
  <tile id="232">
   <image source="tiled/ERW-Grassland 2.0/Props/Static props/sheet2-sprites/wood log - big - no rope - 8.png" width="32" height="96"/>
  </tile>
  <tile id="233">
   <image source="tiled/ERW-Grassland 2.0/Props/Static props/sheet2-sprites/wood log - big - no rope - 9.png" width="32" height="96"/>
  </tile>
  <tile id="234">
   <image source="tiled/ERW-Grassland 2.0/Props/Static props/sheet2-sprites/wood log - big - no rope - 10.png" width="32" height="96"/>
  </tile>
  <tile id="235">
   <image source="tiled/ERW-Grassland 2.0/Props/Static props/sheet2-sprites/wood log - big - no rope - 11.png" width="32" height="96"/>
  </tile>
  <tile id="236">
   <image source="tiled/ERW-Grassland 2.0/Props/Static props/sheet2-sprites/wood log - big - no rope - 12.png" width="32" height="96"/>
  </tile>
  <tile id="237">
   <image source="tiled/ERW-Grassland 2.0/Props/Static props/sheet2-sprites/wood log - big - rope - 1.png" width="32" height="96"/>
  </tile>
  <tile id="238">
   <image source="tiled/ERW-Grassland 2.0/Props/Static props/sheet2-sprites/wood log - big - rope - 2.png" width="32" height="96"/>
  </tile>
  <tile id="239">
   <image source="tiled/ERW-Grassland 2.0/Props/Static props/sheet2-sprites/wood log - big - rope - 3.png" width="32" height="96"/>
  </tile>
  <tile id="240">
   <image source="tiled/ERW-Grassland 2.0/Props/Static props/sheet2-sprites/wood log - big - rope - 4.png" width="32" height="96"/>
  </tile>
  <tile id="241">
   <image source="tiled/ERW-Grassland 2.0/Props/Static props/sheet2-sprites/wood log - big - rope - 5.png" width="32" height="96"/>
  </tile>
  <tile id="242">
   <image source="tiled/ERW-Grassland 2.0/Props/Static props/sheet2-sprites/wood log - big - rope - 6.png" width="32" height="96"/>
  </tile>
  <tile id="243">
   <image source="tiled/ERW-Grassland 2.0/Props/Static props/sheet2-sprites/wood log - big - rope - 7.png" width="32" height="96"/>
  </tile>
  <tile id="244">
   <image source="tiled/ERW-Grassland 2.0/Props/Static props/sheet2-sprites/wood log - big - rope - 8.png" width="32" height="96"/>
  </tile>
  <tile id="245">
   <image source="tiled/ERW-Grassland 2.0/Props/Static props/sheet2-sprites/wood log - big - rope - 9.png" width="32" height="96"/>
  </tile>
  <tile id="246">
   <image source="tiled/ERW-Grassland 2.0/Props/Static props/sheet2-sprites/wood log - big - rope - 10.png" width="32" height="96"/>
  </tile>
  <tile id="247">
   <image source="tiled/ERW-Grassland 2.0/Props/Static props/sheet2-sprites/wood log - big - rope - 11.png" width="32" height="96"/>
  </tile>
  <tile id="248">
   <image source="tiled/ERW-Grassland 2.0/Props/Static props/sheet2-sprites/wood log - big - rope - 12.png" width="32" height="96"/>
  </tile>
  <tile id="249">
   <image source="tiled/ERW-Grassland 2.0/Props/Static props/sheet2-sprites/wood log - big - thiner - 1.png" width="32" height="96"/>
  </tile>
  <tile id="250">
   <image source="tiled/ERW-Grassland 2.0/Props/Static props/sheet2-sprites/wood log - big - thiner - 2.png" width="32" height="96"/>
  </tile>
  <tile id="251">
   <image source="tiled/ERW-Grassland 2.0/Props/Static props/sheet2-sprites/wood log - big - thiner - 3.png" width="32" height="96"/>
  </tile>
  <tile id="252">
   <image source="tiled/ERW-Grassland 2.0/Props/Static props/sheet2-sprites/wood log - big - thiner - 4.png" width="32" height="96"/>
  </tile>
  <tile id="253">
   <image source="tiled/ERW-Grassland 2.0/Props/Static props/sheet2-sprites/wood log - big - thiner - 5.png" width="32" height="96"/>
  </tile>
  <tile id="254">
   <image source="tiled/ERW-Grassland 2.0/Props/Static props/sheet2-sprites/wood log - intermediate - no rope - 1.png" width="32" height="96"/>
  </tile>
  <tile id="255">
   <image source="tiled/ERW-Grassland 2.0/Props/Static props/sheet2-sprites/wood log - intermediate - no rope - 2.png" width="32" height="96"/>
  </tile>
  <tile id="256">
   <image source="tiled/ERW-Grassland 2.0/Props/Static props/sheet2-sprites/wood log - intermediate - no rope - 3.png" width="32" height="96"/>
  </tile>
  <tile id="257">
   <image source="tiled/ERW-Grassland 2.0/Props/Static props/sheet2-sprites/wood log - intermediate - no rope - 4.png" width="32" height="96"/>
  </tile>
  <tile id="258">
   <image source="tiled/ERW-Grassland 2.0/Props/Static props/sheet2-sprites/wood log - intermediate - no rope - 5.png" width="32" height="96"/>
  </tile>
  <tile id="259">
   <image source="tiled/ERW-Grassland 2.0/Props/Static props/sheet2-sprites/wood log - intermediate - no rope - 6.png" width="32" height="96"/>
  </tile>
  <tile id="260">
   <image source="tiled/ERW-Grassland 2.0/Props/Static props/sheet2-sprites/wood log - intermediate - no rope - 7.png" width="32" height="96"/>
  </tile>
  <tile id="261">
   <image source="tiled/ERW-Grassland 2.0/Props/Static props/sheet2-sprites/wood log - intermediate - no rope - 8.png" width="32" height="96"/>
  </tile>
  <tile id="262">
   <image source="tiled/ERW-Grassland 2.0/Props/Static props/sheet2-sprites/wood log - intermediate - no rope - 9.png" width="32" height="96"/>
  </tile>
  <tile id="263">
   <image source="tiled/ERW-Grassland 2.0/Props/Static props/sheet2-sprites/wood log - intermediate - no rope - 10.png" width="32" height="96"/>
  </tile>
  <tile id="264">
   <image source="tiled/ERW-Grassland 2.0/Props/Static props/sheet2-sprites/wood log - intermediate - no rope - 11.png" width="32" height="96"/>
  </tile>
  <tile id="265">
   <image source="tiled/ERW-Grassland 2.0/Props/Static props/sheet2-sprites/wood log - intermediate - no rope - 12.png" width="32" height="96"/>
  </tile>
  <tile id="266">
   <image source="tiled/ERW-Grassland 2.0/Props/Static props/sheet2-sprites/wood log - intermediate - rope - 1.png" width="32" height="96"/>
  </tile>
  <tile id="267">
   <image source="tiled/ERW-Grassland 2.0/Props/Static props/sheet2-sprites/wood log - intermediate - rope - 2.png" width="32" height="96"/>
  </tile>
  <tile id="268">
   <image source="tiled/ERW-Grassland 2.0/Props/Static props/sheet2-sprites/wood log - intermediate - rope - 3.png" width="32" height="96"/>
  </tile>
  <tile id="269">
   <image source="tiled/ERW-Grassland 2.0/Props/Static props/sheet2-sprites/wood log - intermediate - rope - 4.png" width="32" height="96"/>
  </tile>
  <tile id="270">
   <image source="tiled/ERW-Grassland 2.0/Props/Static props/sheet2-sprites/wood log - intermediate - rope - 5.png" width="32" height="96"/>
  </tile>
  <tile id="271">
   <image source="tiled/ERW-Grassland 2.0/Props/Static props/sheet2-sprites/wood log - intermediate - rope - 6.png" width="32" height="96"/>
  </tile>
  <tile id="272">
   <image source="tiled/ERW-Grassland 2.0/Props/Static props/sheet2-sprites/wood log - intermediate - rope - 7.png" width="32" height="96"/>
  </tile>
  <tile id="273">
   <image source="tiled/ERW-Grassland 2.0/Props/Static props/sheet2-sprites/wood log - intermediate - rope - 8.png" width="32" height="96"/>
  </tile>
  <tile id="274">
   <image source="tiled/ERW-Grassland 2.0/Props/Static props/sheet2-sprites/wood log - intermediate - rope - 9.png" width="32" height="96"/>
  </tile>
  <tile id="275">
   <image source="tiled/ERW-Grassland 2.0/Props/Static props/sheet2-sprites/wood log - intermediate - rope - 10.png" width="32" height="96"/>
  </tile>
  <tile id="276">
   <image source="tiled/ERW-Grassland 2.0/Props/Static props/sheet2-sprites/wood log - intermediate - rope - 11.png" width="32" height="96"/>
  </tile>
  <tile id="277">
   <image source="tiled/ERW-Grassland 2.0/Props/Static props/sheet2-sprites/wood log - intermediate - rope - 12.png" width="32" height="96"/>
  </tile>
  <tile id="278">
   <image source="tiled/ERW-Grassland 2.0/Props/Static props/sheet2-sprites/wood log - small - thiner - 1.png" width="32" height="64"/>
  </tile>
  <tile id="279">
   <image source="tiled/ERW-Grassland 2.0/Props/Static props/sheet2-sprites/wood log - small - thiner - 2.png" width="32" height="64"/>
  </tile>
  <tile id="280">
   <image source="tiled/ERW-Grassland 2.0/Props/Static props/sheet2-sprites/wood log - small - thiner - 3.png" width="32" height="64"/>
  </tile>
  <tile id="281">
   <image source="tiled/ERW-Grassland 2.0/Props/Static props/sheet2-sprites/wood log - small - thiner - 4.png" width="32" height="64"/>
  </tile>
  <tile id="282">
   <image source="tiled/ERW-Grassland 2.0/Props/Static props/sheet2-sprites/wood log - small - thiner - 5.png" width="32" height="64"/>
  </tile>
  <tile id="283">
   <image source="tiled/ERW-Grassland 2.0/Props/Static props/sheet2-sprites/wood log - small - thiner - 6.png" width="32" height="64"/>
  </tile>
  <tile id="284">
   <image source="tiled/ERW-Grassland 2.0/Props/Static props/sheet2-sprites/wood log - small - thiner - 7.png" width="32" height="64"/>
  </tile>
  <tile id="285">
   <image source="tiled/ERW-Grassland 2.0/Props/Static props/sheet2-sprites/wood log - small - thiner - 8.png" width="32" height="64"/>
  </tile>
  <tile id="286">
   <image source="tiled/ERW-Grassland 2.0/Props/Static props/sheet2-sprites/wood log - small - thiner - 9.png" width="32" height="64"/>
  </tile>
  <tile id="287">
   <image source="tiled/ERW-Grassland 2.0/Props/Static props/sheet2-sprites/wood log - small - thiner - 10.png" width="32" height="64"/>
  </tile>
  <tile id="288">
   <image source="tiled/ERW-Grassland 2.0/Props/Static props/sheet2-sprites/wood log wall pack - intermediate - 1.png" width="256" height="96"/>
  </tile>
  <tile id="289">
   <image source="tiled/ERW-Grassland 2.0/Props/Static props/sheet2-sprites/wood log wall pack - intermediate - 2.png" width="96" height="96"/>
  </tile>
  <tile id="290">
   <image source="tiled/ERW-Grassland 2.0/Props/Static props/sheet2-sprites/wood log wall pack - intermediate - 3.png" width="96" height="96"/>
  </tile>
  <tile id="291">
   <image source="tiled/ERW-Grassland 2.0/Props/Static props/sheet2-sprites/wood log wall pack - intermediate - 4.png" width="96" height="96"/>
  </tile>
  <tile id="292">
   <image source="tiled/ERW-Grassland 2.0/Props/Static props/sheet2-sprites/wood log wall pack - intermediate - no grass - 1.png" width="256" height="96"/>
  </tile>
  <tile id="293">
   <image source="tiled/ERW-Grassland 2.0/Props/Static props/sheet2-sprites/wood log wall pack - intermediate - no grass - 2.png" width="96" height="96"/>
  </tile>
  <tile id="294">
   <image source="tiled/ERW-Grassland 2.0/Props/Static props/sheet2-sprites/wood log wall pack - intermediate - no grass - 3.png" width="96" height="96"/>
  </tile>
  <tile id="295">
   <image source="tiled/ERW-Grassland 2.0/Props/Static props/sheet2-sprites/wood log wall pack - intermediate - no grass - 4.png" width="96" height="96"/>
  </tile>
  <tile id="296">
   <image source="tiled/ERW-Grassland 2.0/Props/Static props/sheet2-sprites/wooden table - rustic - on grass.png" width="128" height="64"/>
  </tile>
 </tileset>
 <tileset firstgid="3262" name="Tileset - Terrain - new grass2" tilewidth="32" tileheight="32" tilecount="3960" columns="55">
  <image source="tiled/ERW-Grassland 2.0/Tilesets/Tileset-Terrain-new grass.png" width="1760" height="2304"/>
  <tile id="416" probability="0.25"/>
  <tile id="417" probability="0.25"/>
  <tile id="418" probability="0.25"/>
  <tile id="419" probability="0.25"/>
  <tile id="420" probability="0.25"/>
  <tile id="421" probability="0.25"/>
  <tile id="422" probability="0.25"/>
  <tile id="423" probability="0.25"/>
  <tile id="424" probability="0.25"/>
  <tile id="425" probability="0.25"/>
  <tile id="471" probability="0.25"/>
  <tile id="472" probability="0.25"/>
  <tile id="473" probability="0.25"/>
  <tile id="474" probability="0.25"/>
  <tile id="475" probability="0.25"/>
  <tile id="476" probability="0.25"/>
  <tile id="477" probability="0.25"/>
  <tile id="478" probability="0.25"/>
  <tile id="479" probability="0.25"/>
  <tile id="480" probability="0.25"/>
  <tile id="648" probability="0.25"/>
  <tile id="649" probability="0.25"/>
  <tile id="650" probability="0.25"/>
  <tile id="651" probability="0.25"/>
  <tile id="652" probability="0.25"/>
  <tile id="653" probability="0.25"/>
  <tile id="654" probability="0.25"/>
  <tile id="655" probability="0.25"/>
  <tile id="656" probability="0.25"/>
  <tile id="657" probability="0.25"/>
  <tile id="1131" probability="0.25"/>
  <tile id="1132" probability="0.25"/>
  <tile id="1133" probability="0.25"/>
  <tile id="1134" probability="0.25"/>
  <tile id="1135" probability="0.25"/>
  <tile id="1136" probability="0.25"/>
  <tile id="1137" probability="0.25"/>
  <tile id="1138" probability="0.25"/>
  <tile id="1139" probability="0.25"/>
  <tile id="1140" probability="0.25"/>
  <tile id="1141" probability="0.25"/>
  <tile id="1142" probability="0.25"/>
  <tile id="1186" probability="0.25"/>
  <tile id="1187" probability="0.25"/>
  <tile id="1188" probability="0.25"/>
  <tile id="1189" probability="0.25"/>
  <tile id="1190" probability="0.25"/>
  <tile id="1191" probability="0.25"/>
  <tile id="1192" probability="0.25"/>
  <tile id="1193" probability="0.25"/>
  <tile id="1194" probability="0.25"/>
  <tile id="1195" probability="0.25"/>
  <tile id="1196" probability="0.25"/>
  <tile id="1197" probability="0.25"/>
  <tile id="2335" probability="0.2"/>
  <tile id="2336" probability="0.2"/>
  <tile id="2337" probability="0.2"/>
  <tile id="2338" probability="0.2"/>
  <tile id="2339" probability="0.2"/>
  <tile id="2340" probability="0.2"/>
  <tile id="2341" probability="0.2"/>
  <tile id="2342" probability="0.2"/>
  <tile id="2343" probability="0.2"/>
  <tile id="2344" probability="0.2"/>
  <tile id="2345" probability="0.2"/>
  <tile id="2346" probability="0.2"/>
  <tile id="2390" probability="0.2"/>
  <tile id="2391" probability="0.2"/>
  <tile id="2392" probability="0.2"/>
  <tile id="2393" probability="0.2"/>
  <tile id="2394" probability="0.2"/>
  <tile id="2395" probability="0.2"/>
  <tile id="2396" probability="0.2"/>
  <tile id="2397" probability="0.2"/>
  <tile id="2398" probability="0.2"/>
  <tile id="2399" probability="0.2"/>
  <tile id="2400" probability="0.2"/>
  <tile id="2401" probability="0.2"/>
  <tile id="2445" probability="0.2"/>
  <tile id="2446" probability="0.2"/>
  <tile id="2447" probability="0.2"/>
  <tile id="2448" probability="0.2"/>
  <tile id="2449" probability="0.2"/>
  <tile id="2450" probability="0.2"/>
  <tile id="2451" probability="0.2"/>
  <tile id="2452" probability="0.2"/>
  <tile id="2453" probability="0.2"/>
  <tile id="2454" probability="0.2"/>
  <tile id="2455" probability="0.2"/>
  <tile id="2456" probability="0.2"/>
  <tile id="2628" probability="0.15"/>
  <tile id="2629" probability="0.15"/>
  <tile id="2630" probability="0.15"/>
  <tile id="2631" probability="0.15"/>
  <tile id="2632" probability="0.15"/>
  <tile id="2633" probability="0.15"/>
  <tile id="2634" probability="0.15"/>
  <tile id="2635" probability="0.15"/>
  <tile id="2636" probability="0.15"/>
  <tile id="2637" probability="0.15"/>
  <tile id="2638" probability="0.15"/>
  <tile id="2639" probability="0.15"/>
  <tile id="2683" probability="0.15"/>
  <tile id="2684" probability="0.15"/>
  <tile id="2685" probability="0.15"/>
  <tile id="2686" probability="0.15"/>
  <tile id="2687" probability="0.15"/>
  <tile id="2688" probability="0.15"/>
  <tile id="2689" probability="0.15"/>
  <tile id="2690" probability="0.15"/>
  <tile id="2691" probability="0.15"/>
  <tile id="2692" probability="0.15"/>
  <tile id="2693" probability="0.15"/>
  <tile id="2694" probability="0.15"/>
  <tile id="2738" probability="0.15"/>
  <tile id="2739" probability="0.15"/>
  <tile id="2740" probability="0.15"/>
  <tile id="2741" probability="0.15"/>
  <tile id="2742" probability="0.15"/>
  <tile id="2743" probability="0.15"/>
  <tile id="2744" probability="0.15"/>
  <tile id="2745" probability="0.15"/>
  <tile id="2746" probability="0.15"/>
  <tile id="2747" probability="0.15"/>
  <tile id="2748" probability="0.15"/>
  <tile id="2749" probability="0.15"/>
  <tile id="2793" probability="0.15"/>
  <tile id="2794" probability="0.15"/>
  <tile id="2795" probability="0.15"/>
  <tile id="2796" probability="0.15"/>
  <tile id="2797" probability="0.15"/>
  <tile id="2798" probability="0.15"/>
  <tile id="2799" probability="0.15"/>
  <tile id="2800" probability="0.15"/>
  <tile id="2801" probability="0.15"/>
  <tile id="2802" probability="0.15"/>
  <tile id="2803" probability="0.15"/>
  <tile id="2804" probability="0.15"/>
  <tile id="2848" probability="0.15"/>
  <tile id="2849" probability="0.15"/>
  <tile id="2850" probability="0.15"/>
  <tile id="2851" probability="0.15"/>
  <tile id="2852" probability="0.15"/>
  <tile id="2853" probability="0.15"/>
  <tile id="2854" probability="0.15"/>
  <tile id="2855" probability="0.15"/>
  <tile id="2856" probability="0.15"/>
  <tile id="2857" probability="0.15"/>
  <tile id="2858" probability="0.15"/>
  <tile id="2859" probability="0.15"/>
  <wangsets>
   <wangset name="wall2" type="corner" tile="277">
    <wangcolor name="grass2 to grass" color="#ff0000" tile="277" probability="1"/>
    <wangcolor name="grass to neutral transition" color="#00ff00" tile="2807" probability="1"/>
    <wangtile tileid="55" wangid="0,1,0,0,0,1,0,0"/>
    <wangtile tileid="56" wangid="0,0,0,1,0,0,0,0"/>
    <wangtile tileid="57" wangid="0,0,0,1,0,1,0,0"/>
    <wangtile tileid="58" wangid="0,0,0,0,0,1,0,0"/>
    <wangtile tileid="59" wangid="0,0,0,1,0,0,0,1"/>
    <wangtile tileid="110" wangid="0,0,0,1,0,0,0,0"/>
    <wangtile tileid="111" wangid="0,1,0,1,0,1,0,0"/>
    <wangtile tileid="112" wangid="0,1,0,1,0,1,0,1"/>
    <wangtile tileid="113" wangid="0,0,0,1,0,1,0,1"/>
    <wangtile tileid="114" wangid="0,0,0,0,0,1,0,0"/>
    <wangtile tileid="165" wangid="0,1,0,1,0,0,0,0"/>
    <wangtile tileid="166" wangid="0,1,0,1,0,1,0,1"/>
    <wangtile tileid="167" wangid="0,1,0,1,0,1,0,1"/>
    <wangtile tileid="168" wangid="0,1,0,1,0,1,0,1"/>
    <wangtile tileid="169" wangid="0,0,0,0,0,1,0,1"/>
    <wangtile tileid="220" wangid="0,1,0,0,0,0,0,0"/>
    <wangtile tileid="221" wangid="0,1,0,1,0,0,0,1"/>
    <wangtile tileid="222" wangid="0,1,0,1,0,1,0,1"/>
    <wangtile tileid="223" wangid="0,1,0,0,0,1,0,1"/>
    <wangtile tileid="224" wangid="0,0,0,0,0,0,0,1"/>
    <wangtile tileid="276" wangid="0,1,0,0,0,0,0,0"/>
    <wangtile tileid="277" wangid="0,1,0,0,0,0,0,1"/>
    <wangtile tileid="278" wangid="0,0,0,0,0,0,0,1"/>
    <wangtile tileid="330" wangid="0,1,0,1,0,0,0,0"/>
    <wangtile tileid="331" wangid="0,0,0,0,0,1,0,1"/>
    <wangtile tileid="332" wangid="0,0,0,1,0,1,0,0"/>
    <wangtile tileid="333" wangid="0,0,0,1,0,1,0,0"/>
    <wangtile tileid="385" wangid="0,1,0,1,0,0,0,0"/>
    <wangtile tileid="386" wangid="0,0,0,0,0,1,0,1"/>
    <wangtile tileid="387" wangid="0,1,0,0,0,0,0,1"/>
    <wangtile tileid="388" wangid="0,1,0,0,0,0,0,1"/>
    <wangtile tileid="440" wangid="0,1,0,1,0,0,0,0"/>
    <wangtile tileid="441" wangid="0,0,0,0,0,1,0,1"/>
    <wangtile tileid="442" wangid="0,0,0,1,0,1,0,0"/>
    <wangtile tileid="443" wangid="0,0,0,1,0,1,0,0"/>
    <wangtile tileid="497" wangid="0,1,0,0,0,0,0,1"/>
    <wangtile tileid="498" wangid="0,1,0,0,0,0,0,1"/>
    <wangtile tileid="2585" wangid="0,2,0,0,0,2,0,0"/>
    <wangtile tileid="2586" wangid="0,0,0,2,0,0,0,0"/>
    <wangtile tileid="2587" wangid="0,0,0,2,0,2,0,0"/>
    <wangtile tileid="2588" wangid="0,0,0,0,0,2,0,0"/>
    <wangtile tileid="2589" wangid="0,0,0,2,0,0,0,2"/>
    <wangtile tileid="2640" wangid="0,0,0,2,0,0,0,0"/>
    <wangtile tileid="2641" wangid="0,2,0,2,0,2,0,0"/>
    <wangtile tileid="2642" wangid="0,2,0,2,0,2,0,2"/>
    <wangtile tileid="2643" wangid="0,0,0,2,0,2,0,2"/>
    <wangtile tileid="2644" wangid="0,0,0,0,0,2,0,0"/>
    <wangtile tileid="2695" wangid="0,2,0,2,0,0,0,0"/>
    <wangtile tileid="2696" wangid="0,2,0,2,0,2,0,2"/>
    <wangtile tileid="2697" wangid="0,2,0,2,0,2,0,2"/>
    <wangtile tileid="2698" wangid="0,2,0,2,0,2,0,2"/>
    <wangtile tileid="2699" wangid="0,0,0,0,0,2,0,2"/>
    <wangtile tileid="2750" wangid="0,2,0,0,0,0,0,0"/>
    <wangtile tileid="2751" wangid="0,2,0,2,0,0,0,2"/>
    <wangtile tileid="2752" wangid="0,2,0,2,0,2,0,2"/>
    <wangtile tileid="2753" wangid="0,2,0,0,0,2,0,2"/>
    <wangtile tileid="2754" wangid="0,0,0,0,0,0,0,2"/>
    <wangtile tileid="2806" wangid="0,2,0,0,0,0,0,0"/>
    <wangtile tileid="2807" wangid="0,2,0,0,0,0,0,2"/>
    <wangtile tileid="2808" wangid="0,0,0,0,0,0,0,2"/>
    <wangtile tileid="2860" wangid="0,2,0,2,0,0,0,0"/>
    <wangtile tileid="2861" wangid="0,0,0,0,0,2,0,2"/>
    <wangtile tileid="2862" wangid="0,0,0,2,0,2,0,0"/>
    <wangtile tileid="2863" wangid="0,0,0,2,0,2,0,0"/>
    <wangtile tileid="2915" wangid="0,2,0,2,0,0,0,0"/>
    <wangtile tileid="2916" wangid="0,0,0,0,0,2,0,2"/>
    <wangtile tileid="2917" wangid="0,2,0,0,0,0,0,2"/>
    <wangtile tileid="2918" wangid="0,2,0,0,0,0,0,2"/>
    <wangtile tileid="2970" wangid="0,2,0,2,0,0,0,0"/>
    <wangtile tileid="2971" wangid="0,0,0,0,0,2,0,2"/>
    <wangtile tileid="2972" wangid="0,0,0,2,0,2,0,0"/>
    <wangtile tileid="2973" wangid="0,0,0,2,0,2,0,0"/>
    <wangtile tileid="3027" wangid="0,2,0,0,0,0,0,2"/>
    <wangtile tileid="3028" wangid="0,2,0,0,0,0,0,2"/>
   </wangset>
   <wangset name="tall grass - cartoonish style" type="corner" tile="1228">
    <wangcolor name="style 1" color="#ff0000" tile="1118" probability="1"/>
    <wangcolor name="style 2" color="#00ff00" tile="1178" probability="1"/>
    <wangcolor name="style 3" color="#0000ff" tile="1183" probability="1"/>
    <wangtile tileid="1006" wangid="0,1,0,0,0,1,0,0"/>
    <wangtile tileid="1007" wangid="0,0,0,1,0,0,0,0"/>
    <wangtile tileid="1008" wangid="0,0,0,1,0,1,0,0"/>
    <wangtile tileid="1009" wangid="0,0,0,0,0,1,0,0"/>
    <wangtile tileid="1010" wangid="0,0,0,1,0,0,0,1"/>
    <wangtile tileid="1011" wangid="0,2,0,0,0,2,0,0"/>
    <wangtile tileid="1012" wangid="0,0,0,2,0,0,0,0"/>
    <wangtile tileid="1013" wangid="0,0,0,2,0,2,0,0"/>
    <wangtile tileid="1014" wangid="0,0,0,0,0,2,0,0"/>
    <wangtile tileid="1015" wangid="0,0,0,2,0,0,0,2"/>
    <wangtile tileid="1016" wangid="0,3,0,0,0,3,0,0"/>
    <wangtile tileid="1017" wangid="0,0,0,3,0,0,0,0"/>
    <wangtile tileid="1018" wangid="0,0,0,3,0,3,0,0"/>
    <wangtile tileid="1019" wangid="0,0,0,0,0,3,0,0"/>
    <wangtile tileid="1020" wangid="0,0,0,3,0,0,0,3"/>
    <wangtile tileid="1061" wangid="0,0,0,1,0,0,0,0"/>
    <wangtile tileid="1062" wangid="0,1,0,1,0,1,0,0"/>
    <wangtile tileid="1063" wangid="0,1,0,1,0,1,0,1"/>
    <wangtile tileid="1064" wangid="0,0,0,1,0,1,0,1"/>
    <wangtile tileid="1065" wangid="0,0,0,0,0,1,0,0"/>
    <wangtile tileid="1066" wangid="0,0,0,2,0,0,0,0"/>
    <wangtile tileid="1067" wangid="0,2,0,2,0,2,0,0"/>
    <wangtile tileid="1068" wangid="0,2,0,2,0,2,0,2"/>
    <wangtile tileid="1069" wangid="0,0,0,2,0,2,0,2"/>
    <wangtile tileid="1070" wangid="0,0,0,0,0,2,0,0"/>
    <wangtile tileid="1071" wangid="0,0,0,3,0,0,0,0"/>
    <wangtile tileid="1072" wangid="0,3,0,3,0,3,0,0"/>
    <wangtile tileid="1073" wangid="0,3,0,3,0,3,0,3"/>
    <wangtile tileid="1074" wangid="0,0,0,3,0,3,0,3"/>
    <wangtile tileid="1075" wangid="0,0,0,0,0,3,0,0"/>
    <wangtile tileid="1116" wangid="0,1,0,1,0,0,0,0"/>
    <wangtile tileid="1117" wangid="0,1,0,1,0,1,0,1"/>
    <wangtile tileid="1118" wangid="0,1,0,1,0,1,0,1"/>
    <wangtile tileid="1119" wangid="0,1,0,1,0,1,0,1"/>
    <wangtile tileid="1120" wangid="0,0,0,0,0,1,0,1"/>
    <wangtile tileid="1121" wangid="0,2,0,2,0,0,0,0"/>
    <wangtile tileid="1122" wangid="0,2,0,2,0,2,0,2"/>
    <wangtile tileid="1123" wangid="0,2,0,2,0,2,0,2"/>
    <wangtile tileid="1124" wangid="0,2,0,2,0,2,0,2"/>
    <wangtile tileid="1125" wangid="0,0,0,0,0,2,0,2"/>
    <wangtile tileid="1126" wangid="0,3,0,3,0,0,0,0"/>
    <wangtile tileid="1127" wangid="0,3,0,3,0,3,0,3"/>
    <wangtile tileid="1128" wangid="0,3,0,3,0,3,0,3"/>
    <wangtile tileid="1129" wangid="0,3,0,3,0,3,0,3"/>
    <wangtile tileid="1130" wangid="0,0,0,0,0,3,0,3"/>
    <wangtile tileid="1171" wangid="0,1,0,0,0,0,0,0"/>
    <wangtile tileid="1172" wangid="0,1,0,1,0,0,0,1"/>
    <wangtile tileid="1173" wangid="0,1,0,1,0,1,0,1"/>
    <wangtile tileid="1174" wangid="0,1,0,0,0,1,0,1"/>
    <wangtile tileid="1175" wangid="0,0,0,0,0,0,0,1"/>
    <wangtile tileid="1176" wangid="0,2,0,0,0,0,0,0"/>
    <wangtile tileid="1177" wangid="0,2,0,2,0,0,0,2"/>
    <wangtile tileid="1178" wangid="0,2,0,2,0,2,0,2"/>
    <wangtile tileid="1179" wangid="0,2,0,0,0,2,0,2"/>
    <wangtile tileid="1180" wangid="0,0,0,0,0,0,0,2"/>
    <wangtile tileid="1181" wangid="0,3,0,0,0,0,0,0"/>
    <wangtile tileid="1182" wangid="0,3,0,3,0,0,0,3"/>
    <wangtile tileid="1183" wangid="0,3,0,3,0,3,0,3"/>
    <wangtile tileid="1184" wangid="0,3,0,0,0,3,0,3"/>
    <wangtile tileid="1185" wangid="0,0,0,0,0,0,0,3"/>
    <wangtile tileid="1226" wangid="0,0,0,1,0,1,0,0"/>
    <wangtile tileid="1227" wangid="0,1,0,0,0,0,0,0"/>
    <wangtile tileid="1228" wangid="0,1,0,0,0,0,0,1"/>
    <wangtile tileid="1229" wangid="0,0,0,0,0,0,0,1"/>
    <wangtile tileid="1230" wangid="0,1,0,1,0,0,0,0"/>
    <wangtile tileid="1231" wangid="0,0,0,2,0,2,0,0"/>
    <wangtile tileid="1232" wangid="0,2,0,0,0,0,0,0"/>
    <wangtile tileid="1233" wangid="0,2,0,0,0,0,0,2"/>
    <wangtile tileid="1234" wangid="0,0,0,0,0,0,0,2"/>
    <wangtile tileid="1235" wangid="0,2,0,2,0,0,0,0"/>
    <wangtile tileid="1236" wangid="0,0,0,3,0,3,0,0"/>
    <wangtile tileid="1237" wangid="0,3,0,0,0,0,0,0"/>
    <wangtile tileid="1238" wangid="0,3,0,0,0,0,0,3"/>
    <wangtile tileid="1239" wangid="0,0,0,0,0,0,0,3"/>
    <wangtile tileid="1240" wangid="0,3,0,3,0,0,0,0"/>
    <wangtile tileid="1281" wangid="0,1,0,0,0,0,0,1"/>
    <wangtile tileid="1282" wangid="0,1,0,1,0,1,0,1"/>
    <wangtile tileid="1283" wangid="0,1,0,1,0,1,0,1"/>
    <wangtile tileid="1284" wangid="0,1,0,1,0,1,0,1"/>
    <wangtile tileid="1285" wangid="0,0,0,0,0,1,0,1"/>
    <wangtile tileid="1286" wangid="0,2,0,0,0,0,0,2"/>
    <wangtile tileid="1287" wangid="0,2,0,2,0,2,0,2"/>
    <wangtile tileid="1288" wangid="0,2,0,2,0,2,0,2"/>
    <wangtile tileid="1289" wangid="0,2,0,2,0,2,0,2"/>
    <wangtile tileid="1290" wangid="0,0,0,0,0,2,0,2"/>
    <wangtile tileid="1291" wangid="0,3,0,0,0,0,0,3"/>
    <wangtile tileid="1292" wangid="0,3,0,3,0,3,0,3"/>
    <wangtile tileid="1293" wangid="0,3,0,3,0,3,0,3"/>
    <wangtile tileid="1294" wangid="0,3,0,3,0,3,0,3"/>
    <wangtile tileid="1295" wangid="0,0,0,0,0,3,0,3"/>
    <wangtile tileid="1336" wangid="0,1,0,1,0,1,0,1"/>
    <wangtile tileid="1337" wangid="0,1,0,1,0,1,0,1"/>
    <wangtile tileid="1338" wangid="0,1,0,1,0,1,0,1"/>
    <wangtile tileid="1339" wangid="0,1,0,1,0,1,0,1"/>
    <wangtile tileid="1340" wangid="0,1,0,1,0,1,0,1"/>
    <wangtile tileid="1341" wangid="0,2,0,2,0,2,0,2"/>
    <wangtile tileid="1342" wangid="0,2,0,2,0,2,0,2"/>
    <wangtile tileid="1343" wangid="0,2,0,2,0,2,0,2"/>
    <wangtile tileid="1344" wangid="0,2,0,2,0,2,0,2"/>
    <wangtile tileid="1345" wangid="0,2,0,2,0,2,0,2"/>
    <wangtile tileid="1346" wangid="0,3,0,3,0,3,0,3"/>
    <wangtile tileid="1347" wangid="0,3,0,3,0,3,0,3"/>
    <wangtile tileid="1348" wangid="0,3,0,3,0,3,0,3"/>
    <wangtile tileid="1349" wangid="0,3,0,3,0,3,0,3"/>
    <wangtile tileid="1350" wangid="0,3,0,3,0,3,0,3"/>
    <wangtile tileid="1391" wangid="0,1,0,1,0,1,0,1"/>
    <wangtile tileid="1392" wangid="0,1,0,1,0,1,0,1"/>
    <wangtile tileid="1393" wangid="0,1,0,1,0,1,0,1"/>
    <wangtile tileid="1394" wangid="0,1,0,1,0,1,0,1"/>
    <wangtile tileid="1395" wangid="0,1,0,1,0,1,0,1"/>
    <wangtile tileid="1396" wangid="0,2,0,2,0,2,0,2"/>
    <wangtile tileid="1397" wangid="0,2,0,2,0,2,0,2"/>
    <wangtile tileid="1398" wangid="0,2,0,2,0,2,0,2"/>
    <wangtile tileid="1399" wangid="0,2,0,2,0,2,0,2"/>
    <wangtile tileid="1400" wangid="0,2,0,2,0,2,0,2"/>
    <wangtile tileid="1401" wangid="0,3,0,3,0,3,0,3"/>
    <wangtile tileid="1402" wangid="0,3,0,3,0,3,0,3"/>
    <wangtile tileid="1403" wangid="0,3,0,3,0,3,0,3"/>
    <wangtile tileid="1404" wangid="0,3,0,3,0,3,0,3"/>
    <wangtile tileid="1405" wangid="0,3,0,3,0,3,0,3"/>
    <wangtile tileid="1446" wangid="0,1,0,1,0,1,0,1"/>
    <wangtile tileid="1447" wangid="0,1,0,1,0,1,0,1"/>
    <wangtile tileid="1448" wangid="0,1,0,1,0,1,0,1"/>
    <wangtile tileid="1449" wangid="0,1,0,1,0,1,0,1"/>
    <wangtile tileid="1450" wangid="0,1,0,1,0,1,0,1"/>
    <wangtile tileid="1451" wangid="0,2,0,2,0,2,0,2"/>
    <wangtile tileid="1452" wangid="0,2,0,2,0,2,0,2"/>
    <wangtile tileid="1453" wangid="0,2,0,2,0,2,0,2"/>
    <wangtile tileid="1454" wangid="0,2,0,2,0,2,0,2"/>
    <wangtile tileid="1455" wangid="0,2,0,2,0,2,0,2"/>
    <wangtile tileid="1456" wangid="0,3,0,3,0,3,0,3"/>
    <wangtile tileid="1457" wangid="0,3,0,3,0,3,0,3"/>
    <wangtile tileid="1458" wangid="0,3,0,3,0,3,0,3"/>
    <wangtile tileid="1459" wangid="0,3,0,3,0,3,0,3"/>
    <wangtile tileid="1460" wangid="0,3,0,3,0,3,0,3"/>
    <wangtile tileid="1501" wangid="0,1,0,1,0,1,0,1"/>
    <wangtile tileid="1502" wangid="0,1,0,1,0,1,0,1"/>
    <wangtile tileid="1503" wangid="0,1,0,1,0,1,0,1"/>
    <wangtile tileid="1504" wangid="0,1,0,1,0,1,0,1"/>
    <wangtile tileid="1505" wangid="0,1,0,1,0,1,0,1"/>
    <wangtile tileid="1506" wangid="0,2,0,2,0,2,0,2"/>
    <wangtile tileid="1507" wangid="0,2,0,2,0,2,0,2"/>
    <wangtile tileid="1508" wangid="0,2,0,2,0,2,0,2"/>
    <wangtile tileid="1509" wangid="0,2,0,2,0,2,0,2"/>
    <wangtile tileid="1510" wangid="0,2,0,2,0,2,0,2"/>
    <wangtile tileid="1511" wangid="0,3,0,3,0,3,0,3"/>
    <wangtile tileid="1512" wangid="0,3,0,3,0,3,0,3"/>
    <wangtile tileid="1513" wangid="0,3,0,3,0,3,0,3"/>
    <wangtile tileid="1514" wangid="0,3,0,3,0,3,0,3"/>
    <wangtile tileid="1515" wangid="0,3,0,3,0,3,0,3"/>
    <wangtile tileid="1556" wangid="0,1,0,1,0,1,0,1"/>
    <wangtile tileid="1557" wangid="0,1,0,1,0,1,0,1"/>
    <wangtile tileid="1558" wangid="0,1,0,1,0,1,0,1"/>
    <wangtile tileid="1559" wangid="0,1,0,1,0,1,0,1"/>
    <wangtile tileid="1560" wangid="0,1,0,1,0,1,0,1"/>
    <wangtile tileid="1561" wangid="0,2,0,2,0,2,0,2"/>
    <wangtile tileid="1562" wangid="0,2,0,2,0,2,0,2"/>
    <wangtile tileid="1563" wangid="0,2,0,2,0,2,0,2"/>
    <wangtile tileid="1564" wangid="0,2,0,2,0,2,0,2"/>
    <wangtile tileid="1565" wangid="0,2,0,2,0,2,0,2"/>
    <wangtile tileid="1566" wangid="0,3,0,3,0,3,0,3"/>
    <wangtile tileid="1567" wangid="0,3,0,3,0,3,0,3"/>
    <wangtile tileid="1568" wangid="0,3,0,3,0,3,0,3"/>
    <wangtile tileid="1569" wangid="0,3,0,3,0,3,0,3"/>
    <wangtile tileid="1570" wangid="0,3,0,3,0,3,0,3"/>
    <wangtile tileid="1611" wangid="0,1,0,1,0,1,0,1"/>
    <wangtile tileid="1612" wangid="0,1,0,1,0,1,0,1"/>
    <wangtile tileid="1613" wangid="0,1,0,1,0,1,0,1"/>
    <wangtile tileid="1614" wangid="0,1,0,1,0,1,0,1"/>
    <wangtile tileid="1616" wangid="0,2,0,2,0,2,0,2"/>
    <wangtile tileid="1617" wangid="0,2,0,2,0,2,0,2"/>
    <wangtile tileid="1618" wangid="0,2,0,2,0,2,0,2"/>
    <wangtile tileid="1619" wangid="0,2,0,2,0,2,0,2"/>
    <wangtile tileid="1621" wangid="0,3,0,3,0,3,0,3"/>
    <wangtile tileid="1622" wangid="0,3,0,3,0,3,0,3"/>
    <wangtile tileid="1623" wangid="0,3,0,3,0,3,0,3"/>
    <wangtile tileid="1624" wangid="0,3,0,3,0,3,0,3"/>
    <wangtile tileid="1625" wangid="0,3,0,3,0,3,0,3"/>
    <wangtile tileid="1666" wangid="0,1,0,1,0,1,0,1"/>
    <wangtile tileid="1667" wangid="0,1,0,1,0,1,0,1"/>
    <wangtile tileid="1668" wangid="0,1,0,1,0,1,0,1"/>
    <wangtile tileid="1669" wangid="0,1,0,1,0,1,0,1"/>
    <wangtile tileid="1671" wangid="0,2,0,2,0,2,0,2"/>
    <wangtile tileid="1672" wangid="0,2,0,2,0,2,0,2"/>
    <wangtile tileid="1673" wangid="0,2,0,2,0,2,0,2"/>
    <wangtile tileid="1674" wangid="0,2,0,2,0,2,0,2"/>
    <wangtile tileid="1676" wangid="0,3,0,3,0,3,0,3"/>
    <wangtile tileid="1677" wangid="0,3,0,3,0,3,0,3"/>
    <wangtile tileid="1678" wangid="0,3,0,3,0,3,0,3"/>
    <wangtile tileid="1679" wangid="0,3,0,3,0,3,0,3"/>
    <wangtile tileid="1680" wangid="0,3,0,3,0,3,0,3"/>
    <wangtile tileid="1721" wangid="0,1,0,1,0,1,0,1"/>
    <wangtile tileid="1722" wangid="0,1,0,1,0,1,0,1"/>
    <wangtile tileid="1723" wangid="0,1,0,1,0,1,0,1"/>
    <wangtile tileid="1724" wangid="0,1,0,1,0,1,0,1"/>
    <wangtile tileid="1726" wangid="0,2,0,2,0,2,0,2"/>
    <wangtile tileid="1727" wangid="0,2,0,2,0,2,0,2"/>
    <wangtile tileid="1728" wangid="0,2,0,2,0,2,0,2"/>
    <wangtile tileid="1729" wangid="0,2,0,2,0,2,0,2"/>
    <wangtile tileid="1731" wangid="0,3,0,3,0,3,0,3"/>
    <wangtile tileid="1732" wangid="0,3,0,3,0,3,0,3"/>
    <wangtile tileid="1733" wangid="0,3,0,3,0,3,0,3"/>
    <wangtile tileid="1734" wangid="0,3,0,3,0,3,0,3"/>
    <wangtile tileid="1735" wangid="0,3,0,3,0,3,0,3"/>
   </wangset>
   <wangset name="wall3" type="corner" tile="3302">
    <wangcolor name="dirt to neutral" color="#ff0000" tile="3302" probability="1"/>
    <wangcolor name="dirt to grass" color="#00ff00" tile="3588" probability="1"/>
    <wangtile tileid="3080" wangid="0,1,0,0,0,1,0,0"/>
    <wangtile tileid="3081" wangid="0,0,0,1,0,0,0,0"/>
    <wangtile tileid="3082" wangid="0,0,0,1,0,1,0,0"/>
    <wangtile tileid="3083" wangid="0,0,0,0,0,1,0,0"/>
    <wangtile tileid="3084" wangid="0,0,0,1,0,0,0,1"/>
    <wangtile tileid="3135" wangid="0,0,0,1,0,0,0,0"/>
    <wangtile tileid="3136" wangid="0,1,0,1,0,1,0,0"/>
    <wangtile tileid="3137" wangid="0,1,0,1,0,1,0,1"/>
    <wangtile tileid="3138" wangid="0,0,0,1,0,1,0,1"/>
    <wangtile tileid="3139" wangid="0,0,0,0,0,1,0,0"/>
    <wangtile tileid="3190" wangid="0,1,0,1,0,0,0,0"/>
    <wangtile tileid="3191" wangid="0,1,0,1,0,1,0,1"/>
    <wangtile tileid="3192" wangid="0,1,0,1,0,1,0,1"/>
    <wangtile tileid="3193" wangid="0,1,0,1,0,1,0,1"/>
    <wangtile tileid="3194" wangid="0,0,0,0,0,1,0,1"/>
    <wangtile tileid="3245" wangid="0,1,0,0,0,0,0,0"/>
    <wangtile tileid="3246" wangid="0,1,0,1,0,0,0,1"/>
    <wangtile tileid="3247" wangid="0,1,0,1,0,1,0,1"/>
    <wangtile tileid="3248" wangid="0,1,0,0,0,1,0,1"/>
    <wangtile tileid="3249" wangid="0,0,0,0,0,0,0,1"/>
    <wangtile tileid="3301" wangid="0,1,0,0,0,0,0,0"/>
    <wangtile tileid="3302" wangid="0,1,0,0,0,0,0,1"/>
    <wangtile tileid="3303" wangid="0,0,0,0,0,0,0,1"/>
    <wangtile tileid="3355" wangid="0,1,0,1,0,0,0,0"/>
    <wangtile tileid="3356" wangid="0,0,0,0,0,1,0,1"/>
    <wangtile tileid="3357" wangid="0,0,0,1,0,1,0,0"/>
    <wangtile tileid="3358" wangid="0,0,0,1,0,1,0,0"/>
    <wangtile tileid="3366" wangid="0,2,0,0,0,2,0,0"/>
    <wangtile tileid="3367" wangid="0,0,0,2,0,0,0,0"/>
    <wangtile tileid="3368" wangid="0,0,0,2,0,2,0,0"/>
    <wangtile tileid="3369" wangid="0,0,0,0,0,2,0,0"/>
    <wangtile tileid="3370" wangid="0,0,0,2,0,0,0,2"/>
    <wangtile tileid="3410" wangid="0,1,0,1,0,0,0,0"/>
    <wangtile tileid="3411" wangid="0,0,0,0,0,1,0,1"/>
    <wangtile tileid="3412" wangid="0,1,0,0,0,0,0,1"/>
    <wangtile tileid="3413" wangid="0,1,0,0,0,0,0,1"/>
    <wangtile tileid="3421" wangid="0,0,0,2,0,0,0,0"/>
    <wangtile tileid="3422" wangid="0,2,0,2,0,2,0,0"/>
    <wangtile tileid="3423" wangid="0,2,0,2,0,2,0,2"/>
    <wangtile tileid="3424" wangid="0,0,0,2,0,2,0,2"/>
    <wangtile tileid="3425" wangid="0,0,0,0,0,2,0,0"/>
    <wangtile tileid="3465" wangid="0,1,0,1,0,0,0,0"/>
    <wangtile tileid="3466" wangid="0,0,0,0,0,1,0,1"/>
    <wangtile tileid="3467" wangid="0,0,0,1,0,1,0,0"/>
    <wangtile tileid="3468" wangid="0,0,0,1,0,1,0,0"/>
    <wangtile tileid="3476" wangid="0,2,0,2,0,0,0,0"/>
    <wangtile tileid="3477" wangid="0,2,0,2,0,2,0,2"/>
    <wangtile tileid="3478" wangid="0,2,0,2,0,2,0,2"/>
    <wangtile tileid="3479" wangid="0,2,0,2,0,2,0,2"/>
    <wangtile tileid="3480" wangid="0,0,0,0,0,2,0,2"/>
    <wangtile tileid="3522" wangid="0,1,0,0,0,0,0,1"/>
    <wangtile tileid="3523" wangid="0,1,0,0,0,0,0,1"/>
    <wangtile tileid="3531" wangid="0,2,0,0,0,0,0,0"/>
    <wangtile tileid="3532" wangid="0,2,0,2,0,0,0,2"/>
    <wangtile tileid="3533" wangid="0,2,0,2,0,2,0,2"/>
    <wangtile tileid="3534" wangid="0,2,0,0,0,2,0,2"/>
    <wangtile tileid="3535" wangid="0,0,0,0,0,0,0,2"/>
    <wangtile tileid="3587" wangid="0,2,0,0,0,0,0,0"/>
    <wangtile tileid="3588" wangid="0,2,0,0,0,0,0,2"/>
    <wangtile tileid="3589" wangid="0,0,0,0,0,0,0,2"/>
    <wangtile tileid="3641" wangid="0,2,0,2,0,0,0,0"/>
    <wangtile tileid="3642" wangid="0,0,0,0,0,2,0,2"/>
    <wangtile tileid="3643" wangid="0,0,0,2,0,2,0,0"/>
    <wangtile tileid="3644" wangid="0,0,0,2,0,2,0,0"/>
    <wangtile tileid="3696" wangid="0,2,0,2,0,0,0,0"/>
    <wangtile tileid="3697" wangid="0,0,0,0,0,2,0,2"/>
    <wangtile tileid="3698" wangid="0,2,0,0,0,0,0,2"/>
    <wangtile tileid="3699" wangid="0,2,0,0,0,0,0,2"/>
    <wangtile tileid="3751" wangid="0,2,0,2,0,0,0,0"/>
    <wangtile tileid="3752" wangid="0,0,0,0,0,2,0,2"/>
    <wangtile tileid="3753" wangid="0,0,0,2,0,2,0,0"/>
    <wangtile tileid="3754" wangid="0,0,0,2,0,2,0,0"/>
    <wangtile tileid="3808" wangid="0,2,0,0,0,0,0,2"/>
    <wangtile tileid="3809" wangid="0,2,0,0,0,0,0,2"/>
   </wangset>
   <wangset name="grass2 - extra shade to main grass" type="corner" tile="245">
    <wangcolor name="" color="#ff0000" tile="245" probability="1"/>
    <wangtile tileid="135" wangid="0,1,0,0,0,1,0,0"/>
    <wangtile tileid="136" wangid="0,0,0,1,0,0,0,0"/>
    <wangtile tileid="137" wangid="0,0,0,1,0,1,0,0"/>
    <wangtile tileid="138" wangid="0,0,0,0,0,1,0,0"/>
    <wangtile tileid="139" wangid="0,0,0,1,0,0,0,1"/>
    <wangtile tileid="190" wangid="0,0,0,1,0,0,0,0"/>
    <wangtile tileid="191" wangid="0,1,0,1,0,1,0,0"/>
    <wangtile tileid="192" wangid="0,1,0,1,0,1,0,1"/>
    <wangtile tileid="193" wangid="0,0,0,1,0,1,0,1"/>
    <wangtile tileid="194" wangid="0,0,0,0,0,1,0,0"/>
    <wangtile tileid="245" wangid="0,1,0,1,0,0,0,0"/>
    <wangtile tileid="246" wangid="0,1,0,1,0,1,0,1"/>
    <wangtile tileid="247" wangid="0,1,0,1,0,1,0,1"/>
    <wangtile tileid="248" wangid="0,1,0,1,0,1,0,1"/>
    <wangtile tileid="249" wangid="0,0,0,0,0,1,0,1"/>
    <wangtile tileid="300" wangid="0,1,0,0,0,0,0,0"/>
    <wangtile tileid="301" wangid="0,1,0,1,0,0,0,1"/>
    <wangtile tileid="302" wangid="0,1,0,1,0,1,0,1"/>
    <wangtile tileid="303" wangid="0,1,0,0,0,1,0,1"/>
    <wangtile tileid="304" wangid="0,0,0,0,0,0,0,1"/>
    <wangtile tileid="355" wangid="0,0,0,1,0,1,0,0"/>
    <wangtile tileid="356" wangid="0,1,0,0,0,0,0,0"/>
    <wangtile tileid="357" wangid="0,1,0,0,0,0,0,1"/>
    <wangtile tileid="358" wangid="0,0,0,0,0,0,0,1"/>
    <wangtile tileid="359" wangid="0,1,0,1,0,0,0,0"/>
    <wangtile tileid="410" wangid="0,1,0,0,0,0,0,1"/>
    <wangtile tileid="414" wangid="0,0,0,0,0,1,0,1"/>
   </wangset>
   <wangset name="dirt" type="corner" tile="1832">
    <wangcolor name="dirt1 to extra shade grass" color="#ff0000" tile="1832" probability="1"/>
    <wangcolor name="dirt1 to main grass" color="#00ff00" tile="1837" probability="1"/>
    <wangcolor name="dirt2 to extra shade grass" color="#0000ff" tile="2327" probability="1"/>
    <wangcolor name="dirt2 to main grass" color="#ff7700" tile="2332" probability="1"/>
    <wangcolor name="dirt2 to dirt1" color="#00e9ff" tile="2722" probability="1"/>
    <wangtile tileid="1830" wangid="0,1,0,0,0,1,0,0"/>
    <wangtile tileid="1831" wangid="0,0,0,1,0,0,0,0"/>
    <wangtile tileid="1832" wangid="0,0,0,1,0,1,0,0"/>
    <wangtile tileid="1833" wangid="0,0,0,0,0,1,0,0"/>
    <wangtile tileid="1834" wangid="0,0,0,1,0,0,0,1"/>
    <wangtile tileid="1835" wangid="0,2,0,0,0,2,0,0"/>
    <wangtile tileid="1836" wangid="0,0,0,2,0,0,0,0"/>
    <wangtile tileid="1837" wangid="0,0,0,2,0,2,0,0"/>
    <wangtile tileid="1838" wangid="0,0,0,0,0,2,0,0"/>
    <wangtile tileid="1839" wangid="0,0,0,2,0,0,0,2"/>
    <wangtile tileid="1885" wangid="0,0,0,1,0,0,0,0"/>
    <wangtile tileid="1886" wangid="0,1,0,1,0,1,0,0"/>
    <wangtile tileid="1887" wangid="0,1,0,1,0,1,0,1"/>
    <wangtile tileid="1888" wangid="0,0,0,1,0,1,0,1"/>
    <wangtile tileid="1889" wangid="0,0,0,0,0,1,0,0"/>
    <wangtile tileid="1890" wangid="0,0,0,2,0,0,0,0"/>
    <wangtile tileid="1891" wangid="0,2,0,2,0,2,0,0"/>
    <wangtile tileid="1892" wangid="0,2,0,2,0,2,0,2"/>
    <wangtile tileid="1893" wangid="0,0,0,2,0,2,0,2"/>
    <wangtile tileid="1894" wangid="0,0,0,0,0,2,0,0"/>
    <wangtile tileid="1940" wangid="0,1,0,1,0,0,0,0"/>
    <wangtile tileid="1941" wangid="0,1,0,1,0,1,0,1"/>
    <wangtile tileid="1942" wangid="0,1,0,1,0,1,0,1"/>
    <wangtile tileid="1943" wangid="0,1,0,1,0,1,0,1"/>
    <wangtile tileid="1944" wangid="0,0,0,0,0,1,0,1"/>
    <wangtile tileid="1945" wangid="0,2,0,2,0,0,0,0"/>
    <wangtile tileid="1946" wangid="0,2,0,2,0,2,0,2"/>
    <wangtile tileid="1947" wangid="0,2,0,2,0,2,0,2"/>
    <wangtile tileid="1948" wangid="0,2,0,2,0,2,0,2"/>
    <wangtile tileid="1949" wangid="0,0,0,0,0,2,0,2"/>
    <wangtile tileid="1995" wangid="0,1,0,0,0,0,0,0"/>
    <wangtile tileid="1996" wangid="0,1,0,1,0,0,0,1"/>
    <wangtile tileid="1997" wangid="0,1,0,1,0,1,0,1"/>
    <wangtile tileid="1998" wangid="0,1,0,0,0,1,0,1"/>
    <wangtile tileid="1999" wangid="0,0,0,0,0,0,0,1"/>
    <wangtile tileid="2000" wangid="0,2,0,0,0,0,0,0"/>
    <wangtile tileid="2001" wangid="0,2,0,2,0,0,0,2"/>
    <wangtile tileid="2002" wangid="0,2,0,2,0,2,0,2"/>
    <wangtile tileid="2003" wangid="0,2,0,0,0,2,0,2"/>
    <wangtile tileid="2004" wangid="0,0,0,0,0,0,0,2"/>
    <wangtile tileid="2050" wangid="0,1,0,1,0,0,0,1"/>
    <wangtile tileid="2051" wangid="0,1,0,0,0,0,0,0"/>
    <wangtile tileid="2052" wangid="0,1,0,0,0,0,0,1"/>
    <wangtile tileid="2053" wangid="0,0,0,0,0,0,0,1"/>
    <wangtile tileid="2054" wangid="0,1,0,0,0,1,0,1"/>
    <wangtile tileid="2055" wangid="0,2,0,2,0,0,0,2"/>
    <wangtile tileid="2056" wangid="0,2,0,0,0,0,0,0"/>
    <wangtile tileid="2057" wangid="0,2,0,0,0,0,0,2"/>
    <wangtile tileid="2058" wangid="0,0,0,0,0,0,0,2"/>
    <wangtile tileid="2059" wangid="0,2,0,0,0,2,0,2"/>
    <wangtile tileid="2105" wangid="0,0,0,1,0,1,0,1"/>
    <wangtile tileid="2106" wangid="0,1,0,1,0,1,0,0"/>
    <wangtile tileid="2107" wangid="0,0,0,0,0,1,0,1"/>
    <wangtile tileid="2108" wangid="0,1,0,1,0,0,0,0"/>
    <wangtile tileid="2110" wangid="0,0,0,2,0,2,0,2"/>
    <wangtile tileid="2111" wangid="0,2,0,2,0,2,0,0"/>
    <wangtile tileid="2112" wangid="0,0,0,0,0,2,0,2"/>
    <wangtile tileid="2113" wangid="0,2,0,2,0,0,0,0"/>
    <wangtile tileid="2160" wangid="0,0,0,1,0,1,0,1"/>
    <wangtile tileid="2161" wangid="0,1,0,1,0,1,0,0"/>
    <wangtile tileid="2162" wangid="0,0,0,0,0,1,0,1"/>
    <wangtile tileid="2163" wangid="0,1,0,1,0,0,0,0"/>
    <wangtile tileid="2165" wangid="0,0,0,2,0,2,0,2"/>
    <wangtile tileid="2166" wangid="0,2,0,2,0,2,0,0"/>
    <wangtile tileid="2167" wangid="0,0,0,0,0,2,0,2"/>
    <wangtile tileid="2168" wangid="0,2,0,2,0,0,0,0"/>
    <wangtile tileid="2215" wangid="0,0,0,1,0,1,0,1"/>
    <wangtile tileid="2216" wangid="0,1,0,1,0,1,0,0"/>
    <wangtile tileid="2217" wangid="0,0,0,0,0,1,0,1"/>
    <wangtile tileid="2218" wangid="0,1,0,1,0,0,0,0"/>
    <wangtile tileid="2220" wangid="0,0,0,2,0,2,0,2"/>
    <wangtile tileid="2221" wangid="0,2,0,2,0,2,0,0"/>
    <wangtile tileid="2222" wangid="0,0,0,0,0,2,0,2"/>
    <wangtile tileid="2223" wangid="0,2,0,2,0,0,0,0"/>
    <wangtile tileid="2270" wangid="0,0,0,1,0,1,0,0"/>
    <wangtile tileid="2271" wangid="0,0,0,1,0,1,0,0"/>
    <wangtile tileid="2272" wangid="0,1,0,0,0,0,0,1"/>
    <wangtile tileid="2273" wangid="0,1,0,0,0,0,0,1"/>
    <wangtile tileid="2274" wangid="0,1,0,0,0,0,0,1"/>
    <wangtile tileid="2275" wangid="0,0,0,2,0,2,0,0"/>
    <wangtile tileid="2276" wangid="0,0,0,2,0,2,0,0"/>
    <wangtile tileid="2277" wangid="0,2,0,0,0,0,0,2"/>
    <wangtile tileid="2278" wangid="0,2,0,0,0,0,0,2"/>
    <wangtile tileid="2279" wangid="0,2,0,0,0,0,0,2"/>
    <wangtile tileid="2325" wangid="0,3,0,0,0,3,0,0"/>
    <wangtile tileid="2326" wangid="0,0,0,3,0,0,0,0"/>
    <wangtile tileid="2327" wangid="0,0,0,3,0,3,0,0"/>
    <wangtile tileid="2328" wangid="0,0,0,0,0,3,0,0"/>
    <wangtile tileid="2329" wangid="0,0,0,3,0,0,0,3"/>
    <wangtile tileid="2330" wangid="0,4,0,0,0,4,0,0"/>
    <wangtile tileid="2331" wangid="0,0,0,4,0,0,0,0"/>
    <wangtile tileid="2332" wangid="0,0,0,4,0,4,0,0"/>
    <wangtile tileid="2333" wangid="0,0,0,0,0,4,0,0"/>
    <wangtile tileid="2334" wangid="0,0,0,4,0,0,0,4"/>
    <wangtile tileid="2380" wangid="0,0,0,3,0,0,0,0"/>
    <wangtile tileid="2381" wangid="0,3,0,3,0,3,0,0"/>
    <wangtile tileid="2382" wangid="0,3,0,3,0,3,0,3"/>
    <wangtile tileid="2383" wangid="0,0,0,3,0,3,0,3"/>
    <wangtile tileid="2384" wangid="0,0,0,0,0,3,0,0"/>
    <wangtile tileid="2385" wangid="0,0,0,4,0,0,0,0"/>
    <wangtile tileid="2386" wangid="0,4,0,4,0,4,0,0"/>
    <wangtile tileid="2387" wangid="0,4,0,4,0,4,0,4"/>
    <wangtile tileid="2388" wangid="0,0,0,4,0,4,0,4"/>
    <wangtile tileid="2389" wangid="0,0,0,0,0,4,0,0"/>
    <wangtile tileid="2435" wangid="0,3,0,3,0,0,0,0"/>
    <wangtile tileid="2436" wangid="0,3,0,3,0,3,0,3"/>
    <wangtile tileid="2437" wangid="0,3,0,3,0,3,0,3"/>
    <wangtile tileid="2438" wangid="0,3,0,3,0,3,0,3"/>
    <wangtile tileid="2439" wangid="0,0,0,0,0,3,0,3"/>
    <wangtile tileid="2440" wangid="0,4,0,4,0,0,0,0"/>
    <wangtile tileid="2441" wangid="0,4,0,4,0,4,0,4"/>
    <wangtile tileid="2442" wangid="0,4,0,4,0,4,0,4"/>
    <wangtile tileid="2443" wangid="0,4,0,4,0,4,0,4"/>
    <wangtile tileid="2444" wangid="0,0,0,0,0,4,0,4"/>
    <wangtile tileid="2490" wangid="0,3,0,0,0,0,0,0"/>
    <wangtile tileid="2491" wangid="0,3,0,3,0,0,0,3"/>
    <wangtile tileid="2492" wangid="0,3,0,3,0,3,0,3"/>
    <wangtile tileid="2493" wangid="0,3,0,0,0,3,0,3"/>
    <wangtile tileid="2494" wangid="0,0,0,0,0,0,0,3"/>
    <wangtile tileid="2495" wangid="0,4,0,0,0,0,0,0"/>
    <wangtile tileid="2496" wangid="0,4,0,4,0,0,0,4"/>
    <wangtile tileid="2497" wangid="0,4,0,4,0,4,0,4"/>
    <wangtile tileid="2498" wangid="0,4,0,0,0,4,0,4"/>
    <wangtile tileid="2499" wangid="0,0,0,0,0,0,0,4"/>
    <wangtile tileid="2500" wangid="0,5,0,0,0,5,0,0"/>
    <wangtile tileid="2501" wangid="0,0,0,5,0,0,0,0"/>
    <wangtile tileid="2502" wangid="0,0,0,5,0,5,0,0"/>
    <wangtile tileid="2503" wangid="0,0,0,0,0,5,0,0"/>
    <wangtile tileid="2504" wangid="0,0,0,5,0,0,0,5"/>
    <wangtile tileid="2545" wangid="0,3,0,3,0,0,0,3"/>
    <wangtile tileid="2546" wangid="0,3,0,0,0,0,0,0"/>
    <wangtile tileid="2547" wangid="0,3,0,0,0,0,0,3"/>
    <wangtile tileid="2548" wangid="0,0,0,0,0,0,0,3"/>
    <wangtile tileid="2549" wangid="0,3,0,0,0,3,0,3"/>
    <wangtile tileid="2550" wangid="0,4,0,4,0,0,0,4"/>
    <wangtile tileid="2551" wangid="0,4,0,0,0,0,0,0"/>
    <wangtile tileid="2552" wangid="0,4,0,0,0,0,0,4"/>
    <wangtile tileid="2553" wangid="0,0,0,0,0,0,0,4"/>
    <wangtile tileid="2554" wangid="0,4,0,0,0,4,0,4"/>
    <wangtile tileid="2555" wangid="0,0,0,5,0,0,0,0"/>
    <wangtile tileid="2556" wangid="0,5,0,5,0,5,0,0"/>
    <wangtile tileid="2557" wangid="0,5,0,5,0,5,0,5"/>
    <wangtile tileid="2558" wangid="0,0,0,5,0,5,0,5"/>
    <wangtile tileid="2559" wangid="0,0,0,0,0,5,0,0"/>
    <wangtile tileid="2600" wangid="0,0,0,3,0,3,0,3"/>
    <wangtile tileid="2601" wangid="0,3,0,3,0,3,0,0"/>
    <wangtile tileid="2602" wangid="0,0,0,0,0,3,0,3"/>
    <wangtile tileid="2603" wangid="0,3,0,3,0,0,0,0"/>
    <wangtile tileid="2604" wangid="0,3,0,3,0,3,0,3"/>
    <wangtile tileid="2605" wangid="0,0,0,4,0,4,0,4"/>
    <wangtile tileid="2606" wangid="0,4,0,4,0,4,0,0"/>
    <wangtile tileid="2607" wangid="0,0,0,0,0,4,0,4"/>
    <wangtile tileid="2608" wangid="0,4,0,4,0,0,0,0"/>
    <wangtile tileid="2609" wangid="0,4,0,4,0,4,0,4"/>
    <wangtile tileid="2610" wangid="0,5,0,5,0,0,0,0"/>
    <wangtile tileid="2611" wangid="0,5,0,5,0,5,0,5"/>
    <wangtile tileid="2612" wangid="0,5,0,5,0,5,0,5"/>
    <wangtile tileid="2613" wangid="0,5,0,5,0,5,0,5"/>
    <wangtile tileid="2614" wangid="0,0,0,0,0,5,0,5"/>
    <wangtile tileid="2615" wangid="0,5,0,5,0,5,0,5"/>
    <wangtile tileid="2655" wangid="0,0,0,3,0,3,0,3"/>
    <wangtile tileid="2656" wangid="0,3,0,3,0,3,0,0"/>
    <wangtile tileid="2657" wangid="0,0,0,0,0,3,0,3"/>
    <wangtile tileid="2658" wangid="0,3,0,3,0,0,0,0"/>
    <wangtile tileid="2659" wangid="0,3,0,3,0,3,0,3"/>
    <wangtile tileid="2660" wangid="0,0,0,4,0,4,0,4"/>
    <wangtile tileid="2661" wangid="0,4,0,4,0,4,0,0"/>
    <wangtile tileid="2662" wangid="0,0,0,0,0,4,0,4"/>
    <wangtile tileid="2663" wangid="0,4,0,4,0,0,0,0"/>
    <wangtile tileid="2664" wangid="0,4,0,4,0,4,0,4"/>
    <wangtile tileid="2665" wangid="0,5,0,0,0,0,0,0"/>
    <wangtile tileid="2666" wangid="0,5,0,5,0,0,0,5"/>
    <wangtile tileid="2667" wangid="0,5,0,5,0,5,0,5"/>
    <wangtile tileid="2668" wangid="0,5,0,0,0,5,0,5"/>
    <wangtile tileid="2669" wangid="0,0,0,0,0,0,0,5"/>
    <wangtile tileid="2670" wangid="0,5,0,5,0,5,0,5"/>
    <wangtile tileid="2710" wangid="0,0,0,3,0,3,0,3"/>
    <wangtile tileid="2711" wangid="0,3,0,3,0,3,0,0"/>
    <wangtile tileid="2712" wangid="0,0,0,0,0,3,0,3"/>
    <wangtile tileid="2713" wangid="0,3,0,3,0,0,0,0"/>
    <wangtile tileid="2714" wangid="0,3,0,3,0,3,0,3"/>
    <wangtile tileid="2715" wangid="0,0,0,4,0,4,0,4"/>
    <wangtile tileid="2716" wangid="0,4,0,4,0,4,0,0"/>
    <wangtile tileid="2717" wangid="0,0,0,0,0,4,0,4"/>
    <wangtile tileid="2718" wangid="0,4,0,4,0,0,0,0"/>
    <wangtile tileid="2719" wangid="0,4,0,4,0,4,0,4"/>
    <wangtile tileid="2721" wangid="0,5,0,0,0,0,0,0"/>
    <wangtile tileid="2722" wangid="0,5,0,0,0,0,0,5"/>
    <wangtile tileid="2723" wangid="0,0,0,0,0,0,0,5"/>
    <wangtile tileid="2725" wangid="0,5,0,5,0,5,0,5"/>
    <wangtile tileid="2765" wangid="0,0,0,3,0,3,0,0"/>
    <wangtile tileid="2766" wangid="0,0,0,3,0,3,0,0"/>
    <wangtile tileid="2767" wangid="0,3,0,0,0,0,0,3"/>
    <wangtile tileid="2768" wangid="0,3,0,0,0,0,0,3"/>
    <wangtile tileid="2769" wangid="0,3,0,0,0,0,0,3"/>
    <wangtile tileid="2770" wangid="0,0,0,4,0,4,0,0"/>
    <wangtile tileid="2771" wangid="0,0,0,4,0,4,0,0"/>
    <wangtile tileid="2772" wangid="0,4,0,0,0,0,0,4"/>
    <wangtile tileid="2773" wangid="0,4,0,0,0,0,0,4"/>
    <wangtile tileid="2774" wangid="0,4,0,0,0,0,0,4"/>
   </wangset>
   <wangset name="sand" type="corner" tile="3047">
    <wangcolor name="extra shade grass to sand" color="#ff0000" tile="3047" probability="1"/>
    <wangcolor name="grass to sand" color="#00ff00" tile="3042" probability="1"/>
    <wangtile tileid="2820" wangid="0,2,0,0,0,2,0,0"/>
    <wangtile tileid="2821" wangid="0,0,0,2,0,0,0,0"/>
    <wangtile tileid="2822" wangid="0,0,0,2,0,2,0,0"/>
    <wangtile tileid="2823" wangid="0,0,0,0,0,2,0,0"/>
    <wangtile tileid="2824" wangid="0,0,0,2,0,0,0,2"/>
    <wangtile tileid="2825" wangid="0,1,0,0,0,1,0,0"/>
    <wangtile tileid="2826" wangid="0,0,0,1,0,0,0,0"/>
    <wangtile tileid="2827" wangid="0,0,0,1,0,1,0,0"/>
    <wangtile tileid="2828" wangid="0,0,0,0,0,1,0,0"/>
    <wangtile tileid="2829" wangid="0,0,0,1,0,0,0,1"/>
    <wangtile tileid="2875" wangid="0,0,0,2,0,0,0,0"/>
    <wangtile tileid="2876" wangid="0,2,0,2,0,2,0,0"/>
    <wangtile tileid="2877" wangid="0,2,0,2,0,2,0,2"/>
    <wangtile tileid="2878" wangid="0,0,0,2,0,2,0,2"/>
    <wangtile tileid="2879" wangid="0,0,0,0,0,2,0,0"/>
    <wangtile tileid="2880" wangid="0,0,0,1,0,0,0,0"/>
    <wangtile tileid="2881" wangid="0,1,0,1,0,1,0,0"/>
    <wangtile tileid="2882" wangid="0,1,0,1,0,1,0,1"/>
    <wangtile tileid="2883" wangid="0,0,0,1,0,1,0,1"/>
    <wangtile tileid="2884" wangid="0,0,0,0,0,1,0,0"/>
    <wangtile tileid="2930" wangid="0,2,0,2,0,0,0,0"/>
    <wangtile tileid="2931" wangid="0,2,0,2,0,2,0,2"/>
    <wangtile tileid="2932" wangid="0,2,0,2,0,2,0,2"/>
    <wangtile tileid="2933" wangid="0,2,0,2,0,2,0,2"/>
    <wangtile tileid="2934" wangid="0,0,0,0,0,2,0,2"/>
    <wangtile tileid="2935" wangid="0,1,0,1,0,0,0,0"/>
    <wangtile tileid="2936" wangid="0,1,0,1,0,1,0,1"/>
    <wangtile tileid="2937" wangid="0,1,0,1,0,1,0,1"/>
    <wangtile tileid="2938" wangid="0,1,0,1,0,1,0,1"/>
    <wangtile tileid="2939" wangid="0,0,0,0,0,1,0,1"/>
    <wangtile tileid="2985" wangid="0,2,0,0,0,0,0,0"/>
    <wangtile tileid="2986" wangid="0,2,0,2,0,0,0,2"/>
    <wangtile tileid="2987" wangid="0,2,0,2,0,2,0,2"/>
    <wangtile tileid="2988" wangid="0,2,0,0,0,2,0,2"/>
    <wangtile tileid="2989" wangid="0,0,0,0,0,0,0,2"/>
    <wangtile tileid="2990" wangid="0,1,0,0,0,0,0,0"/>
    <wangtile tileid="2991" wangid="0,1,0,1,0,0,0,1"/>
    <wangtile tileid="2992" wangid="0,1,0,1,0,1,0,1"/>
    <wangtile tileid="2993" wangid="0,1,0,0,0,1,0,1"/>
    <wangtile tileid="2994" wangid="0,0,0,0,0,0,0,1"/>
    <wangtile tileid="3040" wangid="0,2,0,2,0,2,0,0"/>
    <wangtile tileid="3041" wangid="0,2,0,0,0,0,0,0"/>
    <wangtile tileid="3042" wangid="0,2,0,0,0,0,0,2"/>
    <wangtile tileid="3043" wangid="0,0,0,0,0,0,0,2"/>
    <wangtile tileid="3044" wangid="0,0,0,2,0,2,0,2"/>
    <wangtile tileid="3045" wangid="0,1,0,1,0,1,0,0"/>
    <wangtile tileid="3046" wangid="0,1,0,0,0,0,0,0"/>
    <wangtile tileid="3047" wangid="0,1,0,0,0,0,0,1"/>
    <wangtile tileid="3048" wangid="0,0,0,0,0,0,0,1"/>
    <wangtile tileid="3049" wangid="0,0,0,1,0,1,0,1"/>
    <wangtile tileid="3095" wangid="0,2,0,2,0,0,0,2"/>
    <wangtile tileid="3097" wangid="0,2,0,2,0,0,0,0"/>
    <wangtile tileid="3098" wangid="0,0,0,0,0,2,0,2"/>
    <wangtile tileid="3099" wangid="0,2,0,0,0,2,0,2"/>
    <wangtile tileid="3100" wangid="0,1,0,1,0,0,0,1"/>
    <wangtile tileid="3102" wangid="0,1,0,1,0,0,0,0"/>
    <wangtile tileid="3103" wangid="0,0,0,0,0,1,0,1"/>
    <wangtile tileid="3104" wangid="0,1,0,0,0,1,0,1"/>
    <wangtile tileid="3150" wangid="0,2,0,0,0,0,0,0"/>
    <wangtile tileid="3151" wangid="0,0,0,0,0,0,0,2"/>
    <wangtile tileid="3152" wangid="0,2,0,2,0,0,0,0"/>
    <wangtile tileid="3153" wangid="0,0,0,0,0,2,0,2"/>
    <wangtile tileid="3155" wangid="0,1,0,0,0,0,0,0"/>
    <wangtile tileid="3156" wangid="0,0,0,0,0,0,0,1"/>
    <wangtile tileid="3157" wangid="0,1,0,1,0,0,0,0"/>
    <wangtile tileid="3158" wangid="0,0,0,0,0,1,0,1"/>
    <wangtile tileid="3205" wangid="0,2,0,0,0,0,0,0"/>
    <wangtile tileid="3206" wangid="0,0,0,0,0,0,0,2"/>
    <wangtile tileid="3207" wangid="0,2,0,2,0,0,0,0"/>
    <wangtile tileid="3208" wangid="0,0,0,0,0,2,0,2"/>
    <wangtile tileid="3210" wangid="0,1,0,0,0,0,0,0"/>
    <wangtile tileid="3211" wangid="0,0,0,0,0,0,0,1"/>
    <wangtile tileid="3212" wangid="0,1,0,1,0,0,0,0"/>
    <wangtile tileid="3213" wangid="0,0,0,0,0,1,0,1"/>
    <wangtile tileid="3260" wangid="0,2,0,0,0,0,0,2"/>
    <wangtile tileid="3261" wangid="0,2,0,0,0,0,0,2"/>
    <wangtile tileid="3262" wangid="0,0,0,2,0,2,0,0"/>
    <wangtile tileid="3263" wangid="0,0,0,2,0,2,0,0"/>
    <wangtile tileid="3264" wangid="0,0,0,2,0,2,0,0"/>
    <wangtile tileid="3265" wangid="0,1,0,0,0,0,0,1"/>
    <wangtile tileid="3266" wangid="0,1,0,0,0,0,0,1"/>
    <wangtile tileid="3267" wangid="0,0,0,1,0,1,0,0"/>
    <wangtile tileid="3268" wangid="0,0,0,1,0,1,0,0"/>
    <wangtile tileid="3269" wangid="0,0,0,1,0,1,0,0"/>
   </wangset>
   <wangset name="gravel" type="corner" tile="363">
    <wangcolor name="gravel to dirt1" color="#ff0000" tile="363" probability="1"/>
    <wangcolor name="gravel to dirt2" color="#00ff00" tile="368" probability="1"/>
    <wangcolor name="gravel to main grass (gravel on top)" color="#0000ff" tile="803" probability="1"/>
    <wangcolor name="gravel to extra shade grass (gravel on top)" color="#ff7700" tile="809" probability="1"/>
    <wangcolor name="gravel to main grass (grass on top)" color="#00e9ff" tile="155" probability="1"/>
    <wangcolor name="gravel to extra shade grass (grass on top)" color="#ff00d8" tile="160" probability="1"/>
    <wangtile tileid="141" wangid="0,1,0,0,0,1,0,0"/>
    <wangtile tileid="142" wangid="0,0,0,1,0,0,0,0"/>
    <wangtile tileid="143" wangid="0,0,0,1,0,1,0,0"/>
    <wangtile tileid="144" wangid="0,0,0,0,0,1,0,0"/>
    <wangtile tileid="145" wangid="0,0,0,1,0,0,0,1"/>
    <wangtile tileid="146" wangid="0,2,0,0,0,2,0,0"/>
    <wangtile tileid="147" wangid="0,0,0,2,0,0,0,0"/>
    <wangtile tileid="148" wangid="0,0,0,2,0,2,0,0"/>
    <wangtile tileid="149" wangid="0,0,0,0,0,2,0,0"/>
    <wangtile tileid="150" wangid="0,0,0,2,0,0,0,2"/>
    <wangtile tileid="153" wangid="0,5,0,0,0,5,0,0"/>
    <wangtile tileid="154" wangid="0,0,0,5,0,0,0,0"/>
    <wangtile tileid="155" wangid="0,0,0,5,0,5,0,0"/>
    <wangtile tileid="156" wangid="0,0,0,0,0,5,0,0"/>
    <wangtile tileid="157" wangid="0,0,0,5,0,0,0,5"/>
    <wangtile tileid="158" wangid="0,6,0,0,0,6,0,0"/>
    <wangtile tileid="159" wangid="0,0,0,6,0,0,0,0"/>
    <wangtile tileid="160" wangid="0,0,0,6,0,6,0,0"/>
    <wangtile tileid="161" wangid="0,0,0,0,0,6,0,0"/>
    <wangtile tileid="162" wangid="0,0,0,6,0,0,0,6"/>
    <wangtile tileid="196" wangid="0,0,0,1,0,0,0,0"/>
    <wangtile tileid="197" wangid="0,1,0,1,0,1,0,0"/>
    <wangtile tileid="198" wangid="0,1,0,1,0,1,0,1"/>
    <wangtile tileid="199" wangid="0,0,0,1,0,1,0,1"/>
    <wangtile tileid="200" wangid="0,0,0,0,0,1,0,0"/>
    <wangtile tileid="201" wangid="0,0,0,2,0,0,0,0"/>
    <wangtile tileid="202" wangid="0,2,0,2,0,2,0,0"/>
    <wangtile tileid="203" wangid="0,2,0,2,0,2,0,2"/>
    <wangtile tileid="204" wangid="0,0,0,2,0,2,0,2"/>
    <wangtile tileid="205" wangid="0,0,0,0,0,2,0,0"/>
    <wangtile tileid="208" wangid="0,0,0,5,0,0,0,0"/>
    <wangtile tileid="209" wangid="0,5,0,5,0,5,0,0"/>
    <wangtile tileid="210" wangid="0,5,0,5,0,5,0,5"/>
    <wangtile tileid="211" wangid="0,0,0,5,0,5,0,5"/>
    <wangtile tileid="212" wangid="0,0,0,0,0,5,0,0"/>
    <wangtile tileid="213" wangid="0,0,0,6,0,0,0,0"/>
    <wangtile tileid="214" wangid="0,6,0,6,0,6,0,0"/>
    <wangtile tileid="215" wangid="0,6,0,6,0,6,0,6"/>
    <wangtile tileid="216" wangid="0,0,0,6,0,6,0,6"/>
    <wangtile tileid="217" wangid="0,0,0,0,0,6,0,0"/>
    <wangtile tileid="251" wangid="0,1,0,1,0,0,0,0"/>
    <wangtile tileid="252" wangid="0,1,0,1,0,1,0,1"/>
    <wangtile tileid="253" wangid="0,1,0,1,0,1,0,1"/>
    <wangtile tileid="254" wangid="0,1,0,1,0,1,0,1"/>
    <wangtile tileid="255" wangid="0,0,0,0,0,1,0,1"/>
    <wangtile tileid="256" wangid="0,2,0,2,0,0,0,0"/>
    <wangtile tileid="257" wangid="0,2,0,2,0,2,0,2"/>
    <wangtile tileid="258" wangid="0,2,0,2,0,2,0,2"/>
    <wangtile tileid="259" wangid="0,2,0,2,0,2,0,2"/>
    <wangtile tileid="260" wangid="0,0,0,0,0,2,0,2"/>
    <wangtile tileid="263" wangid="0,5,0,5,0,0,0,0"/>
    <wangtile tileid="264" wangid="0,5,0,5,0,5,0,5"/>
    <wangtile tileid="265" wangid="0,5,0,5,0,5,0,5"/>
    <wangtile tileid="266" wangid="0,5,0,5,0,5,0,5"/>
    <wangtile tileid="267" wangid="0,0,0,0,0,5,0,5"/>
    <wangtile tileid="268" wangid="0,6,0,6,0,0,0,0"/>
    <wangtile tileid="269" wangid="0,6,0,6,0,6,0,6"/>
    <wangtile tileid="270" wangid="0,6,0,6,0,6,0,6"/>
    <wangtile tileid="271" wangid="0,6,0,6,0,6,0,6"/>
    <wangtile tileid="272" wangid="0,0,0,0,0,6,0,6"/>
    <wangtile tileid="306" wangid="0,1,0,0,0,0,0,0"/>
    <wangtile tileid="307" wangid="0,1,0,1,0,0,0,1"/>
    <wangtile tileid="308" wangid="0,1,0,1,0,1,0,1"/>
    <wangtile tileid="309" wangid="0,1,0,0,0,1,0,1"/>
    <wangtile tileid="310" wangid="0,0,0,0,0,0,0,1"/>
    <wangtile tileid="311" wangid="0,2,0,0,0,0,0,0"/>
    <wangtile tileid="312" wangid="0,2,0,2,0,0,0,2"/>
    <wangtile tileid="313" wangid="0,2,0,2,0,2,0,2"/>
    <wangtile tileid="314" wangid="0,2,0,0,0,2,0,2"/>
    <wangtile tileid="315" wangid="0,0,0,0,0,0,0,2"/>
    <wangtile tileid="318" wangid="0,5,0,0,0,0,0,0"/>
    <wangtile tileid="319" wangid="0,5,0,5,0,0,0,5"/>
    <wangtile tileid="320" wangid="0,5,0,5,0,5,0,5"/>
    <wangtile tileid="321" wangid="0,5,0,0,0,5,0,5"/>
    <wangtile tileid="322" wangid="0,0,0,0,0,0,0,5"/>
    <wangtile tileid="323" wangid="0,6,0,0,0,0,0,0"/>
    <wangtile tileid="324" wangid="0,6,0,6,0,0,0,6"/>
    <wangtile tileid="325" wangid="0,6,0,6,0,6,0,6"/>
    <wangtile tileid="326" wangid="0,6,0,0,0,6,0,6"/>
    <wangtile tileid="327" wangid="0,0,0,0,0,0,0,6"/>
    <wangtile tileid="362" wangid="0,1,0,0,0,0,0,0"/>
    <wangtile tileid="363" wangid="0,1,0,0,0,0,0,1"/>
    <wangtile tileid="364" wangid="0,0,0,0,0,0,0,1"/>
    <wangtile tileid="367" wangid="0,2,0,0,0,0,0,0"/>
    <wangtile tileid="368" wangid="0,2,0,0,0,0,0,2"/>
    <wangtile tileid="369" wangid="0,0,0,0,0,0,0,2"/>
    <wangtile tileid="373" wangid="0,5,0,5,0,0,0,5"/>
    <wangtile tileid="374" wangid="0,5,0,0,0,0,0,0"/>
    <wangtile tileid="375" wangid="0,5,0,0,0,0,0,5"/>
    <wangtile tileid="376" wangid="0,0,0,0,0,0,0,5"/>
    <wangtile tileid="377" wangid="0,5,0,0,0,5,0,5"/>
    <wangtile tileid="378" wangid="0,6,0,6,0,0,0,6"/>
    <wangtile tileid="379" wangid="0,6,0,0,0,0,0,0"/>
    <wangtile tileid="380" wangid="0,6,0,0,0,0,0,6"/>
    <wangtile tileid="381" wangid="0,0,0,0,0,0,0,6"/>
    <wangtile tileid="382" wangid="0,6,0,0,0,6,0,6"/>
    <wangtile tileid="428" wangid="0,0,0,5,0,5,0,5"/>
    <wangtile tileid="429" wangid="0,5,0,5,0,5,0,0"/>
    <wangtile tileid="430" wangid="0,0,0,0,0,5,0,5"/>
    <wangtile tileid="431" wangid="0,5,0,5,0,0,0,0"/>
    <wangtile tileid="433" wangid="0,0,0,6,0,6,0,6"/>
    <wangtile tileid="434" wangid="0,6,0,6,0,6,0,0"/>
    <wangtile tileid="435" wangid="0,0,0,0,0,6,0,6"/>
    <wangtile tileid="436" wangid="0,6,0,6,0,0,0,0"/>
    <wangtile tileid="483" wangid="0,0,0,5,0,5,0,5"/>
    <wangtile tileid="484" wangid="0,5,0,5,0,5,0,0"/>
    <wangtile tileid="485" wangid="0,0,0,0,0,5,0,5"/>
    <wangtile tileid="486" wangid="0,5,0,5,0,0,0,0"/>
    <wangtile tileid="488" wangid="0,0,0,6,0,6,0,6"/>
    <wangtile tileid="489" wangid="0,6,0,6,0,6,0,0"/>
    <wangtile tileid="490" wangid="0,0,0,0,0,6,0,6"/>
    <wangtile tileid="491" wangid="0,6,0,6,0,0,0,0"/>
    <wangtile tileid="526" wangid="0,3,0,0,0,3,0,0"/>
    <wangtile tileid="530" wangid="0,0,0,3,0,0,0,3"/>
    <wangtile tileid="532" wangid="0,4,0,0,0,4,0,0"/>
    <wangtile tileid="536" wangid="0,0,0,4,0,0,0,4"/>
    <wangtile tileid="538" wangid="0,0,0,5,0,5,0,5"/>
    <wangtile tileid="539" wangid="0,5,0,5,0,5,0,0"/>
    <wangtile tileid="540" wangid="0,0,0,0,0,5,0,5"/>
    <wangtile tileid="541" wangid="0,5,0,5,0,0,0,0"/>
    <wangtile tileid="543" wangid="0,0,0,6,0,6,0,6"/>
    <wangtile tileid="544" wangid="0,6,0,6,0,6,0,0"/>
    <wangtile tileid="545" wangid="0,0,0,0,0,6,0,6"/>
    <wangtile tileid="546" wangid="0,6,0,6,0,0,0,0"/>
    <wangtile tileid="581" wangid="0,3,0,0,0,3,0,0"/>
    <wangtile tileid="582" wangid="0,0,0,3,0,0,0,0"/>
    <wangtile tileid="583" wangid="0,0,0,3,0,3,0,0"/>
    <wangtile tileid="584" wangid="0,0,0,0,0,3,0,0"/>
    <wangtile tileid="585" wangid="0,0,0,3,0,0,0,3"/>
    <wangtile tileid="586" wangid="0,0,0,0,0,0,0,3"/>
    <wangtile tileid="587" wangid="0,4,0,0,0,4,0,0"/>
    <wangtile tileid="588" wangid="0,0,0,4,0,0,0,0"/>
    <wangtile tileid="589" wangid="0,0,0,4,0,4,0,0"/>
    <wangtile tileid="590" wangid="0,0,0,0,0,4,0,0"/>
    <wangtile tileid="591" wangid="0,0,0,4,0,0,0,4"/>
    <wangtile tileid="592" wangid="0,0,0,0,0,0,0,4"/>
    <wangtile tileid="593" wangid="0,0,0,5,0,5,0,0"/>
    <wangtile tileid="594" wangid="0,0,0,5,0,5,0,0"/>
    <wangtile tileid="595" wangid="0,5,0,0,0,0,0,5"/>
    <wangtile tileid="596" wangid="0,5,0,0,0,0,0,5"/>
    <wangtile tileid="597" wangid="0,5,0,0,0,0,0,5"/>
    <wangtile tileid="598" wangid="0,0,0,6,0,6,0,0"/>
    <wangtile tileid="599" wangid="0,0,0,6,0,6,0,0"/>
    <wangtile tileid="600" wangid="0,6,0,0,0,0,0,6"/>
    <wangtile tileid="601" wangid="0,6,0,0,0,0,0,6"/>
    <wangtile tileid="602" wangid="0,6,0,0,0,0,0,6"/>
    <wangtile tileid="636" wangid="0,0,0,3,0,0,0,0"/>
    <wangtile tileid="637" wangid="0,3,0,3,0,3,0,0"/>
    <wangtile tileid="638" wangid="0,3,0,3,0,3,0,3"/>
    <wangtile tileid="639" wangid="0,0,0,3,0,3,0,3"/>
    <wangtile tileid="640" wangid="0,0,0,0,0,3,0,0"/>
    <wangtile tileid="641" wangid="0,0,0,0,0,0,0,3"/>
    <wangtile tileid="642" wangid="0,0,0,4,0,0,0,0"/>
    <wangtile tileid="643" wangid="0,4,0,4,0,4,0,0"/>
    <wangtile tileid="644" wangid="0,4,0,4,0,4,0,4"/>
    <wangtile tileid="645" wangid="0,0,0,4,0,4,0,4"/>
    <wangtile tileid="646" wangid="0,0,0,0,0,4,0,0"/>
    <wangtile tileid="647" wangid="0,0,0,0,0,0,0,4"/>
    <wangtile tileid="648" wangid="0,5,0,5,0,5,0,5"/>
    <wangtile tileid="649" wangid="0,5,0,5,0,5,0,5"/>
    <wangtile tileid="650" wangid="0,5,0,5,0,5,0,5"/>
    <wangtile tileid="651" wangid="0,5,0,5,0,5,0,5"/>
    <wangtile tileid="652" wangid="0,5,0,5,0,5,0,5"/>
    <wangtile tileid="653" wangid="0,6,0,6,0,6,0,6"/>
    <wangtile tileid="654" wangid="0,6,0,6,0,6,0,6"/>
    <wangtile tileid="655" wangid="0,6,0,6,0,6,0,6"/>
    <wangtile tileid="656" wangid="0,6,0,6,0,6,0,6"/>
    <wangtile tileid="657" wangid="0,6,0,6,0,6,0,6"/>
    <wangtile tileid="691" wangid="0,3,0,3,0,0,0,0"/>
    <wangtile tileid="692" wangid="0,3,0,3,0,3,0,3"/>
    <wangtile tileid="693" wangid="0,3,0,3,0,3,0,3"/>
    <wangtile tileid="694" wangid="0,3,0,3,0,3,0,3"/>
    <wangtile tileid="695" wangid="0,0,0,0,0,3,0,3"/>
    <wangtile tileid="696" wangid="0,0,0,0,0,0,0,3"/>
    <wangtile tileid="697" wangid="0,4,0,4,0,0,0,0"/>
    <wangtile tileid="698" wangid="0,4,0,4,0,4,0,4"/>
    <wangtile tileid="699" wangid="0,4,0,4,0,4,0,4"/>
    <wangtile tileid="700" wangid="0,4,0,4,0,4,0,4"/>
    <wangtile tileid="701" wangid="0,0,0,0,0,4,0,4"/>
    <wangtile tileid="702" wangid="0,0,0,0,0,0,0,4"/>
    <wangtile tileid="746" wangid="0,3,0,0,0,0,0,0"/>
    <wangtile tileid="747" wangid="0,3,0,3,0,0,0,3"/>
    <wangtile tileid="748" wangid="0,3,0,3,0,3,0,3"/>
    <wangtile tileid="749" wangid="0,3,0,0,0,3,0,3"/>
    <wangtile tileid="750" wangid="0,0,0,0,0,0,0,3"/>
    <wangtile tileid="751" wangid="0,3,0,0,0,0,0,0"/>
    <wangtile tileid="752" wangid="0,4,0,0,0,0,0,0"/>
    <wangtile tileid="753" wangid="0,4,0,4,0,0,0,4"/>
    <wangtile tileid="754" wangid="0,4,0,4,0,4,0,4"/>
    <wangtile tileid="755" wangid="0,4,0,0,0,4,0,4"/>
    <wangtile tileid="756" wangid="0,0,0,0,0,0,0,4"/>
    <wangtile tileid="757" wangid="0,4,0,0,0,0,0,0"/>
    <wangtile tileid="801" wangid="0,3,0,3,0,0,0,3"/>
    <wangtile tileid="802" wangid="0,3,0,0,0,0,0,0"/>
    <wangtile tileid="803" wangid="0,3,0,0,0,0,0,3"/>
    <wangtile tileid="804" wangid="0,0,0,0,0,0,0,3"/>
    <wangtile tileid="805" wangid="0,3,0,0,0,3,0,3"/>
    <wangtile tileid="806" wangid="0,3,0,0,0,0,0,0"/>
    <wangtile tileid="807" wangid="0,4,0,4,0,0,0,4"/>
    <wangtile tileid="808" wangid="0,4,0,0,0,0,0,0"/>
    <wangtile tileid="809" wangid="0,4,0,0,0,0,0,4"/>
    <wangtile tileid="810" wangid="0,0,0,0,0,0,0,4"/>
    <wangtile tileid="811" wangid="0,4,0,0,0,4,0,4"/>
    <wangtile tileid="812" wangid="0,4,0,0,0,0,0,0"/>
    <wangtile tileid="856" wangid="0,3,0,3,0,0,0,3"/>
    <wangtile tileid="857" wangid="0,3,0,3,0,0,0,3"/>
    <wangtile tileid="859" wangid="0,3,0,0,0,3,0,3"/>
    <wangtile tileid="860" wangid="0,3,0,0,0,3,0,3"/>
    <wangtile tileid="861" wangid="0,3,0,0,0,0,0,0"/>
    <wangtile tileid="862" wangid="0,4,0,4,0,0,0,4"/>
    <wangtile tileid="863" wangid="0,4,0,4,0,0,0,4"/>
    <wangtile tileid="865" wangid="0,4,0,0,0,4,0,4"/>
    <wangtile tileid="866" wangid="0,4,0,0,0,4,0,4"/>
    <wangtile tileid="867" wangid="0,4,0,0,0,0,0,0"/>
    <wangtile tileid="911" wangid="0,0,0,3,0,0,0,0"/>
    <wangtile tileid="912" wangid="0,0,0,3,0,0,0,0"/>
    <wangtile tileid="913" wangid="0,0,0,3,0,0,0,0"/>
    <wangtile tileid="914" wangid="0,3,0,3,0,0,0,0"/>
    <wangtile tileid="915" wangid="0,0,0,0,0,3,0,3"/>
    <wangtile tileid="916" wangid="0,0,0,3,0,3,0,0"/>
    <wangtile tileid="917" wangid="0,0,0,4,0,0,0,0"/>
    <wangtile tileid="918" wangid="0,0,0,4,0,0,0,0"/>
    <wangtile tileid="919" wangid="0,0,0,4,0,0,0,0"/>
    <wangtile tileid="920" wangid="0,4,0,4,0,0,0,0"/>
    <wangtile tileid="921" wangid="0,0,0,0,0,4,0,4"/>
    <wangtile tileid="922" wangid="0,0,0,4,0,4,0,0"/>
    <wangtile tileid="966" wangid="0,0,0,0,0,3,0,0"/>
    <wangtile tileid="967" wangid="0,0,0,0,0,3,0,0"/>
    <wangtile tileid="968" wangid="0,0,0,0,0,3,0,0"/>
    <wangtile tileid="969" wangid="0,3,0,3,0,0,0,0"/>
    <wangtile tileid="970" wangid="0,0,0,0,0,3,0,3"/>
    <wangtile tileid="971" wangid="0,0,0,3,0,3,0,0"/>
    <wangtile tileid="972" wangid="0,0,0,0,0,4,0,0"/>
    <wangtile tileid="973" wangid="0,0,0,0,0,4,0,0"/>
    <wangtile tileid="974" wangid="0,0,0,0,0,4,0,0"/>
    <wangtile tileid="975" wangid="0,4,0,4,0,0,0,0"/>
    <wangtile tileid="976" wangid="0,0,0,0,0,4,0,4"/>
    <wangtile tileid="977" wangid="0,0,0,4,0,4,0,0"/>
    <wangtile tileid="1021" wangid="0,0,0,3,0,3,0,3"/>
    <wangtile tileid="1022" wangid="0,0,0,3,0,3,0,3"/>
    <wangtile tileid="1023" wangid="0,0,0,3,0,3,0,3"/>
    <wangtile tileid="1024" wangid="0,3,0,3,0,0,0,0"/>
    <wangtile tileid="1025" wangid="0,0,0,0,0,3,0,3"/>
    <wangtile tileid="1026" wangid="0,0,0,3,0,3,0,0"/>
    <wangtile tileid="1027" wangid="0,0,0,4,0,4,0,4"/>
    <wangtile tileid="1028" wangid="0,0,0,4,0,4,0,4"/>
    <wangtile tileid="1029" wangid="0,0,0,4,0,4,0,4"/>
    <wangtile tileid="1030" wangid="0,4,0,4,0,0,0,0"/>
    <wangtile tileid="1031" wangid="0,0,0,0,0,4,0,4"/>
    <wangtile tileid="1032" wangid="0,0,0,4,0,4,0,0"/>
    <wangtile tileid="1076" wangid="0,3,0,3,0,3,0,0"/>
    <wangtile tileid="1077" wangid="0,3,0,3,0,3,0,0"/>
    <wangtile tileid="1078" wangid="0,3,0,3,0,3,0,0"/>
    <wangtile tileid="1079" wangid="0,3,0,0,0,0,0,3"/>
    <wangtile tileid="1080" wangid="0,3,0,0,0,0,0,3"/>
    <wangtile tileid="1081" wangid="0,3,0,0,0,0,0,3"/>
    <wangtile tileid="1082" wangid="0,4,0,4,0,4,0,0"/>
    <wangtile tileid="1083" wangid="0,4,0,4,0,4,0,0"/>
    <wangtile tileid="1084" wangid="0,4,0,4,0,4,0,0"/>
    <wangtile tileid="1085" wangid="0,4,0,0,0,0,0,4"/>
    <wangtile tileid="1086" wangid="0,4,0,0,0,0,0,4"/>
    <wangtile tileid="1087" wangid="0,4,0,0,0,0,0,4"/>
   </wangset>
   <wangset name="stone floor" type="corner" tile="1243">
    <wangcolor name="stone floor1 to main grass (transition style1)" color="#ff0000" tile="1243" probability="1"/>
    <wangcolor name="stone floor1 to main grass (transition style2)" color="#00ff00" tile="1518" probability="1"/>
    <wangcolor name="stone floor1 to extra shade grass (transition style1)" color="#0000ff" tile="1249" probability="1"/>
    <wangcolor name="stone floor1 to extra shade grass (transition style2)" color="#fcb0ff" tile="1524" probability="1"/>
    <wangcolor name="stone floor1 to dirt1" color="#00e9ff" tile="1640" probability="1"/>
    <wangcolor name="stone floor1 to dirt2" color="#ff00d8" tile="1915" probability="1"/>
    <wangcolor name="stone floor1 to gravel" color="#be8a07" tile="1646" probability="1"/>
    <wangcolor name="stone floor2 to main grass" color="#a000ff" tile="2062" probability="1"/>
    <wangcolor name="stone floor2 to extra shade grass" color="#00ffa1" tile="2068" probability="1"/>
    <wangcolor name="stone floor3 to transparency" color="#ffa8a8" tile="2245" probability="1"/>
    <wangcolor name="stone floor3-1 to transparency" color="#b4a8ff" tile="2251" probability="1"/>
    <wangcolor name="stone floor4 to grass" color="#121f14" tile="2074" probability="1"/>
    <wangcolor name="stone floor4 to anything" color="#06254a" tile="2624" probability="1"/>
    <wangtile tileid="1241" wangid="0,1,0,0,0,1,0,0"/>
    <wangtile tileid="1242" wangid="0,0,0,1,0,0,0,0"/>
    <wangtile tileid="1243" wangid="0,0,0,1,0,1,0,0"/>
    <wangtile tileid="1244" wangid="0,0,0,0,0,1,0,0"/>
    <wangtile tileid="1245" wangid="0,0,0,1,0,0,0,1"/>
    <wangtile tileid="1247" wangid="0,3,0,0,0,3,0,0"/>
    <wangtile tileid="1248" wangid="0,0,0,3,0,0,0,0"/>
    <wangtile tileid="1249" wangid="0,0,0,3,0,3,0,0"/>
    <wangtile tileid="1250" wangid="0,0,0,0,0,3,0,0"/>
    <wangtile tileid="1251" wangid="0,0,0,3,0,0,0,3"/>
    <wangtile tileid="1296" wangid="0,0,0,1,0,0,0,0"/>
    <wangtile tileid="1297" wangid="0,1,0,1,0,1,0,0"/>
    <wangtile tileid="1298" wangid="0,1,0,1,0,1,0,1"/>
    <wangtile tileid="1299" wangid="0,0,0,1,0,1,0,1"/>
    <wangtile tileid="1300" wangid="0,0,0,0,0,1,0,0"/>
    <wangtile tileid="1301" wangid="0,0,0,1,0,1,0,0"/>
    <wangtile tileid="1302" wangid="0,0,0,3,0,0,0,0"/>
    <wangtile tileid="1303" wangid="0,3,0,3,0,3,0,0"/>
    <wangtile tileid="1304" wangid="0,3,0,3,0,3,0,3"/>
    <wangtile tileid="1305" wangid="0,0,0,3,0,3,0,3"/>
    <wangtile tileid="1306" wangid="0,0,0,0,0,3,0,0"/>
    <wangtile tileid="1307" wangid="0,0,0,3,0,3,0,0"/>
    <wangtile tileid="1351" wangid="0,1,0,1,0,0,0,0"/>
    <wangtile tileid="1352" wangid="0,1,0,1,0,1,0,1"/>
    <wangtile tileid="1353" wangid="0,1,0,1,0,1,0,1"/>
    <wangtile tileid="1354" wangid="0,1,0,1,0,1,0,1"/>
    <wangtile tileid="1355" wangid="0,0,0,0,0,1,0,1"/>
    <wangtile tileid="1356" wangid="0,1,0,0,0,0,0,1"/>
    <wangtile tileid="1357" wangid="0,3,0,3,0,0,0,0"/>
    <wangtile tileid="1358" wangid="0,3,0,3,0,3,0,3"/>
    <wangtile tileid="1359" wangid="0,3,0,3,0,3,0,3"/>
    <wangtile tileid="1360" wangid="0,3,0,3,0,3,0,3"/>
    <wangtile tileid="1361" wangid="0,0,0,0,0,3,0,3"/>
    <wangtile tileid="1362" wangid="0,3,0,0,0,0,0,3"/>
    <wangtile tileid="1406" wangid="0,1,0,0,0,0,0,0"/>
    <wangtile tileid="1407" wangid="0,1,0,1,0,0,0,1"/>
    <wangtile tileid="1408" wangid="0,1,0,1,0,1,0,1"/>
    <wangtile tileid="1409" wangid="0,1,0,0,0,1,0,1"/>
    <wangtile tileid="1410" wangid="0,0,0,0,0,0,0,1"/>
    <wangtile tileid="1411" wangid="0,1,0,1,0,0,0,0"/>
    <wangtile tileid="1412" wangid="0,3,0,0,0,0,0,0"/>
    <wangtile tileid="1413" wangid="0,3,0,3,0,0,0,3"/>
    <wangtile tileid="1414" wangid="0,3,0,3,0,3,0,3"/>
    <wangtile tileid="1415" wangid="0,3,0,0,0,3,0,3"/>
    <wangtile tileid="1416" wangid="0,0,0,0,0,0,0,3"/>
    <wangtile tileid="1417" wangid="0,3,0,3,0,0,0,0"/>
    <wangtile tileid="1418" wangid="0,5,0,0,0,5,0,0"/>
    <wangtile tileid="1419" wangid="0,0,0,5,0,0,0,0"/>
    <wangtile tileid="1420" wangid="0,0,0,5,0,5,0,0"/>
    <wangtile tileid="1421" wangid="0,0,0,0,0,5,0,0"/>
    <wangtile tileid="1422" wangid="0,0,0,5,0,0,0,5"/>
    <wangtile tileid="1424" wangid="0,7,0,0,0,7,0,0"/>
    <wangtile tileid="1425" wangid="0,0,0,7,0,0,0,0"/>
    <wangtile tileid="1426" wangid="0,0,0,7,0,7,0,0"/>
    <wangtile tileid="1427" wangid="0,0,0,0,0,7,0,0"/>
    <wangtile tileid="1428" wangid="0,0,0,7,0,0,0,7"/>
    <wangtile tileid="1429" wangid="0,0,0,7,0,7,0,0"/>
    <wangtile tileid="1462" wangid="0,1,0,0,0,0,0,0"/>
    <wangtile tileid="1463" wangid="0,1,0,0,0,0,0,1"/>
    <wangtile tileid="1464" wangid="0,0,0,0,0,0,0,1"/>
    <wangtile tileid="1466" wangid="0,0,0,0,0,1,0,1"/>
    <wangtile tileid="1468" wangid="0,3,0,0,0,0,0,0"/>
    <wangtile tileid="1469" wangid="0,3,0,0,0,0,0,3"/>
    <wangtile tileid="1470" wangid="0,0,0,0,0,0,0,3"/>
    <wangtile tileid="1472" wangid="0,0,0,0,0,3,0,3"/>
    <wangtile tileid="1473" wangid="0,0,0,5,0,0,0,0"/>
    <wangtile tileid="1474" wangid="0,5,0,5,0,5,0,0"/>
    <wangtile tileid="1475" wangid="0,5,0,5,0,5,0,5"/>
    <wangtile tileid="1476" wangid="0,0,0,5,0,5,0,5"/>
    <wangtile tileid="1477" wangid="0,0,0,0,0,5,0,0"/>
    <wangtile tileid="1478" wangid="0,0,0,5,0,5,0,0"/>
    <wangtile tileid="1479" wangid="0,0,0,7,0,0,0,0"/>
    <wangtile tileid="1480" wangid="0,7,0,7,0,7,0,0"/>
    <wangtile tileid="1481" wangid="0,7,0,7,0,7,0,7"/>
    <wangtile tileid="1482" wangid="0,0,0,7,0,7,0,7"/>
    <wangtile tileid="1483" wangid="0,0,0,0,0,7,0,0"/>
    <wangtile tileid="1484" wangid="0,0,0,7,0,7,0,0"/>
    <wangtile tileid="1516" wangid="0,2,0,0,0,2,0,0"/>
    <wangtile tileid="1517" wangid="0,0,0,2,0,0,0,0"/>
    <wangtile tileid="1518" wangid="0,0,0,2,0,2,0,0"/>
    <wangtile tileid="1519" wangid="0,0,0,0,0,2,0,0"/>
    <wangtile tileid="1520" wangid="0,0,0,2,0,0,0,2"/>
    <wangtile tileid="1522" wangid="0,4,0,0,0,4,0,0"/>
    <wangtile tileid="1523" wangid="0,0,0,4,0,0,0,0"/>
    <wangtile tileid="1524" wangid="0,0,0,4,0,4,0,0"/>
    <wangtile tileid="1525" wangid="0,0,0,0,0,4,0,0"/>
    <wangtile tileid="1526" wangid="0,0,0,4,0,0,0,4"/>
    <wangtile tileid="1528" wangid="0,5,0,5,0,0,0,0"/>
    <wangtile tileid="1529" wangid="0,5,0,5,0,5,0,5"/>
    <wangtile tileid="1530" wangid="0,5,0,5,0,5,0,5"/>
    <wangtile tileid="1531" wangid="0,5,0,5,0,5,0,5"/>
    <wangtile tileid="1532" wangid="0,0,0,0,0,5,0,5"/>
    <wangtile tileid="1533" wangid="0,5,0,0,0,0,0,5"/>
    <wangtile tileid="1534" wangid="0,7,0,7,0,0,0,0"/>
    <wangtile tileid="1535" wangid="0,7,0,7,0,7,0,7"/>
    <wangtile tileid="1536" wangid="0,7,0,7,0,7,0,7"/>
    <wangtile tileid="1537" wangid="0,7,0,7,0,7,0,7"/>
    <wangtile tileid="1538" wangid="0,0,0,0,0,7,0,7"/>
    <wangtile tileid="1539" wangid="0,7,0,0,0,0,0,7"/>
    <wangtile tileid="1571" wangid="0,0,0,2,0,0,0,0"/>
    <wangtile tileid="1572" wangid="0,2,0,2,0,2,0,0"/>
    <wangtile tileid="1573" wangid="0,2,0,2,0,2,0,2"/>
    <wangtile tileid="1574" wangid="0,0,0,2,0,2,0,2"/>
    <wangtile tileid="1575" wangid="0,0,0,0,0,2,0,0"/>
    <wangtile tileid="1576" wangid="0,0,0,2,0,2,0,0"/>
    <wangtile tileid="1577" wangid="0,0,0,4,0,0,0,0"/>
    <wangtile tileid="1578" wangid="0,4,0,4,0,4,0,0"/>
    <wangtile tileid="1579" wangid="0,4,0,4,0,4,0,4"/>
    <wangtile tileid="1580" wangid="0,0,0,4,0,4,0,4"/>
    <wangtile tileid="1581" wangid="0,0,0,0,0,4,0,0"/>
    <wangtile tileid="1582" wangid="0,0,0,4,0,4,0,0"/>
    <wangtile tileid="1583" wangid="0,5,0,0,0,0,0,0"/>
    <wangtile tileid="1584" wangid="0,5,0,5,0,0,0,5"/>
    <wangtile tileid="1585" wangid="0,5,0,5,0,5,0,5"/>
    <wangtile tileid="1586" wangid="0,5,0,0,0,5,0,5"/>
    <wangtile tileid="1587" wangid="0,0,0,0,0,0,0,5"/>
    <wangtile tileid="1588" wangid="0,5,0,5,0,0,0,0"/>
    <wangtile tileid="1589" wangid="0,7,0,0,0,0,0,0"/>
    <wangtile tileid="1590" wangid="0,7,0,7,0,0,0,7"/>
    <wangtile tileid="1591" wangid="0,7,0,7,0,7,0,7"/>
    <wangtile tileid="1592" wangid="0,7,0,0,0,7,0,7"/>
    <wangtile tileid="1593" wangid="0,0,0,0,0,0,0,7"/>
    <wangtile tileid="1594" wangid="0,7,0,0,0,0,0,7"/>
    <wangtile tileid="1626" wangid="0,2,0,2,0,0,0,0"/>
    <wangtile tileid="1627" wangid="0,2,0,2,0,2,0,2"/>
    <wangtile tileid="1628" wangid="0,2,0,2,0,2,0,2"/>
    <wangtile tileid="1629" wangid="0,2,0,2,0,2,0,2"/>
    <wangtile tileid="1630" wangid="0,0,0,0,0,2,0,2"/>
    <wangtile tileid="1631" wangid="0,2,0,0,0,0,0,2"/>
    <wangtile tileid="1632" wangid="0,4,0,4,0,0,0,0"/>
    <wangtile tileid="1633" wangid="0,4,0,4,0,4,0,4"/>
    <wangtile tileid="1634" wangid="0,4,0,4,0,4,0,4"/>
    <wangtile tileid="1635" wangid="0,4,0,4,0,4,0,4"/>
    <wangtile tileid="1636" wangid="0,0,0,0,0,4,0,4"/>
    <wangtile tileid="1637" wangid="0,4,0,0,0,0,0,4"/>
    <wangtile tileid="1639" wangid="0,5,0,0,0,0,0,0"/>
    <wangtile tileid="1640" wangid="0,5,0,0,0,0,0,5"/>
    <wangtile tileid="1641" wangid="0,0,0,0,0,0,0,5"/>
    <wangtile tileid="1643" wangid="0,0,0,0,0,5,0,5"/>
    <wangtile tileid="1645" wangid="0,7,0,0,0,0,0,0"/>
    <wangtile tileid="1646" wangid="0,7,0,0,0,0,0,7"/>
    <wangtile tileid="1647" wangid="0,0,0,0,0,0,0,7"/>
    <wangtile tileid="1649" wangid="0,7,0,7,0,0,0,0"/>
    <wangtile tileid="1681" wangid="0,2,0,0,0,0,0,0"/>
    <wangtile tileid="1682" wangid="0,2,0,2,0,0,0,2"/>
    <wangtile tileid="1683" wangid="0,2,0,2,0,2,0,2"/>
    <wangtile tileid="1684" wangid="0,2,0,0,0,2,0,2"/>
    <wangtile tileid="1685" wangid="0,0,0,0,0,0,0,2"/>
    <wangtile tileid="1686" wangid="0,2,0,2,0,0,0,0"/>
    <wangtile tileid="1687" wangid="0,4,0,0,0,0,0,0"/>
    <wangtile tileid="1688" wangid="0,4,0,4,0,0,0,4"/>
    <wangtile tileid="1689" wangid="0,4,0,4,0,4,0,4"/>
    <wangtile tileid="1690" wangid="0,4,0,0,0,4,0,4"/>
    <wangtile tileid="1691" wangid="0,0,0,0,0,0,0,4"/>
    <wangtile tileid="1692" wangid="0,4,0,4,0,0,0,0"/>
    <wangtile tileid="1693" wangid="0,6,0,0,0,6,0,0"/>
    <wangtile tileid="1694" wangid="0,0,0,6,0,0,0,0"/>
    <wangtile tileid="1695" wangid="0,0,0,6,0,6,0,0"/>
    <wangtile tileid="1696" wangid="0,0,0,0,0,6,0,0"/>
    <wangtile tileid="1697" wangid="0,0,0,6,0,0,0,6"/>
    <wangtile tileid="1704" wangid="0,0,0,0,0,7,0,7"/>
    <wangtile tileid="1737" wangid="0,2,0,0,0,0,0,0"/>
    <wangtile tileid="1738" wangid="0,2,0,0,0,0,0,2"/>
    <wangtile tileid="1739" wangid="0,0,0,0,0,0,0,2"/>
    <wangtile tileid="1741" wangid="0,0,0,0,0,2,0,2"/>
    <wangtile tileid="1743" wangid="0,4,0,0,0,0,0,0"/>
    <wangtile tileid="1744" wangid="0,4,0,0,0,0,0,4"/>
    <wangtile tileid="1745" wangid="0,0,0,0,0,0,0,4"/>
    <wangtile tileid="1747" wangid="0,0,0,0,0,4,0,4"/>
    <wangtile tileid="1748" wangid="0,0,0,6,0,0,0,0"/>
    <wangtile tileid="1749" wangid="0,6,0,6,0,6,0,0"/>
    <wangtile tileid="1750" wangid="0,6,0,6,0,6,0,6"/>
    <wangtile tileid="1751" wangid="0,0,0,6,0,6,0,6"/>
    <wangtile tileid="1752" wangid="0,0,0,0,0,6,0,0"/>
    <wangtile tileid="1753" wangid="0,0,0,6,0,6,0,0"/>
    <wangtile tileid="1803" wangid="0,6,0,6,0,0,0,0"/>
    <wangtile tileid="1804" wangid="0,6,0,6,0,6,0,6"/>
    <wangtile tileid="1805" wangid="0,6,0,6,0,6,0,6"/>
    <wangtile tileid="1806" wangid="0,6,0,6,0,6,0,6"/>
    <wangtile tileid="1807" wangid="0,0,0,0,0,6,0,6"/>
    <wangtile tileid="1808" wangid="0,6,0,0,0,0,0,6"/>
    <wangtile tileid="1840" wangid="0,8,0,0,0,8,0,0"/>
    <wangtile tileid="1841" wangid="0,0,0,8,0,0,0,0"/>
    <wangtile tileid="1842" wangid="0,0,0,8,0,8,0,0"/>
    <wangtile tileid="1843" wangid="0,0,0,0,0,8,0,0"/>
    <wangtile tileid="1844" wangid="0,0,0,8,0,0,0,8"/>
    <wangtile tileid="1846" wangid="0,9,0,0,0,9,0,0"/>
    <wangtile tileid="1847" wangid="0,0,0,9,0,0,0,0"/>
    <wangtile tileid="1848" wangid="0,0,0,9,0,9,0,0"/>
    <wangtile tileid="1849" wangid="0,0,0,0,0,9,0,0"/>
    <wangtile tileid="1850" wangid="0,0,0,9,0,0,0,9"/>
    <wangtile tileid="1853" wangid="0,0,0,12,0,0,0,0"/>
    <wangtile tileid="1854" wangid="0,0,0,12,0,12,0,0"/>
    <wangtile tileid="1855" wangid="0,0,0,0,0,12,0,0"/>
    <wangtile tileid="1858" wangid="0,6,0,0,0,0,0,0"/>
    <wangtile tileid="1859" wangid="0,6,0,6,0,0,0,6"/>
    <wangtile tileid="1860" wangid="0,6,0,6,0,6,0,6"/>
    <wangtile tileid="1861" wangid="0,6,0,0,0,6,0,6"/>
    <wangtile tileid="1862" wangid="0,0,0,0,0,0,0,6"/>
    <wangtile tileid="1863" wangid="0,6,0,6,0,0,0,0"/>
    <wangtile tileid="1895" wangid="0,0,0,8,0,0,0,0"/>
    <wangtile tileid="1896" wangid="0,8,0,8,0,8,0,0"/>
    <wangtile tileid="1897" wangid="0,8,0,8,0,8,0,8"/>
    <wangtile tileid="1898" wangid="0,0,0,8,0,8,0,8"/>
    <wangtile tileid="1899" wangid="0,0,0,0,0,8,0,0"/>
    <wangtile tileid="1901" wangid="0,0,0,9,0,0,0,0"/>
    <wangtile tileid="1902" wangid="0,9,0,9,0,9,0,0"/>
    <wangtile tileid="1903" wangid="0,9,0,9,0,9,0,9"/>
    <wangtile tileid="1904" wangid="0,0,0,9,0,9,0,9"/>
    <wangtile tileid="1905" wangid="0,0,0,0,0,9,0,0"/>
    <wangtile tileid="1907" wangid="0,0,0,12,0,0,0,0"/>
    <wangtile tileid="1908" wangid="0,12,0,12,0,12,0,0"/>
    <wangtile tileid="1909" wangid="0,12,0,12,0,12,0,12"/>
    <wangtile tileid="1910" wangid="0,0,0,12,0,12,0,12"/>
    <wangtile tileid="1911" wangid="0,0,0,0,0,12,0,0"/>
    <wangtile tileid="1914" wangid="0,6,0,0,0,0,0,0"/>
    <wangtile tileid="1915" wangid="0,6,0,0,0,0,0,6"/>
    <wangtile tileid="1916" wangid="0,0,0,0,0,0,0,6"/>
    <wangtile tileid="1918" wangid="0,0,0,0,0,6,0,6"/>
    <wangtile tileid="1950" wangid="0,8,0,8,0,0,0,0"/>
    <wangtile tileid="1951" wangid="0,8,0,8,0,8,0,8"/>
    <wangtile tileid="1952" wangid="0,8,0,8,0,8,0,8"/>
    <wangtile tileid="1953" wangid="0,8,0,8,0,8,0,8"/>
    <wangtile tileid="1954" wangid="0,0,0,0,0,8,0,8"/>
    <wangtile tileid="1956" wangid="0,9,0,9,0,0,0,0"/>
    <wangtile tileid="1957" wangid="0,9,0,9,0,9,0,9"/>
    <wangtile tileid="1958" wangid="0,9,0,9,0,9,0,9"/>
    <wangtile tileid="1959" wangid="0,9,0,9,0,9,0,9"/>
    <wangtile tileid="1960" wangid="0,0,0,0,0,9,0,9"/>
    <wangtile tileid="1962" wangid="0,12,0,12,0,0,0,0"/>
    <wangtile tileid="1963" wangid="0,12,0,12,0,12,0,12"/>
    <wangtile tileid="1964" wangid="0,12,0,12,0,12,0,12"/>
    <wangtile tileid="1965" wangid="0,12,0,12,0,12,0,12"/>
    <wangtile tileid="1966" wangid="0,0,0,0,0,12,0,12"/>
    <wangtile tileid="2005" wangid="0,8,0,0,0,0,0,0"/>
    <wangtile tileid="2006" wangid="0,8,0,8,0,0,0,8"/>
    <wangtile tileid="2007" wangid="0,8,0,8,0,8,0,8"/>
    <wangtile tileid="2008" wangid="0,8,0,0,0,8,0,8"/>
    <wangtile tileid="2009" wangid="0,0,0,0,0,0,0,8"/>
    <wangtile tileid="2011" wangid="0,9,0,0,0,0,0,0"/>
    <wangtile tileid="2012" wangid="0,9,0,9,0,0,0,9"/>
    <wangtile tileid="2013" wangid="0,9,0,9,0,9,0,9"/>
    <wangtile tileid="2014" wangid="0,9,0,0,0,9,0,9"/>
    <wangtile tileid="2015" wangid="0,0,0,0,0,0,0,9"/>
    <wangtile tileid="2017" wangid="0,12,0,0,0,0,0,0"/>
    <wangtile tileid="2018" wangid="0,12,0,12,0,0,0,12"/>
    <wangtile tileid="2019" wangid="0,12,0,12,0,12,0,12"/>
    <wangtile tileid="2020" wangid="0,12,0,0,0,12,0,12"/>
    <wangtile tileid="2021" wangid="0,0,0,0,0,0,0,12"/>
    <wangtile tileid="2023" wangid="0,10,0,0,0,10,0,0"/>
    <wangtile tileid="2024" wangid="0,0,0,10,0,0,0,0"/>
    <wangtile tileid="2025" wangid="0,0,0,10,0,10,0,0"/>
    <wangtile tileid="2026" wangid="0,0,0,0,0,10,0,0"/>
    <wangtile tileid="2027" wangid="0,0,0,10,0,0,0,10"/>
    <wangtile tileid="2029" wangid="0,11,0,0,0,11,0,0"/>
    <wangtile tileid="2030" wangid="0,0,0,11,0,0,0,0"/>
    <wangtile tileid="2031" wangid="0,0,0,11,0,11,0,0"/>
    <wangtile tileid="2032" wangid="0,0,0,0,0,11,0,0"/>
    <wangtile tileid="2033" wangid="0,0,0,11,0,0,0,11"/>
    <wangtile tileid="2061" wangid="0,8,0,0,0,0,0,0"/>
    <wangtile tileid="2062" wangid="0,8,0,0,0,0,0,8"/>
    <wangtile tileid="2063" wangid="0,0,0,0,0,0,0,8"/>
    <wangtile tileid="2067" wangid="0,9,0,0,0,0,0,0"/>
    <wangtile tileid="2068" wangid="0,9,0,0,0,0,0,9"/>
    <wangtile tileid="2069" wangid="0,0,0,0,0,0,0,9"/>
    <wangtile tileid="2073" wangid="0,12,0,0,0,0,0,0"/>
    <wangtile tileid="2074" wangid="0,12,0,0,0,0,0,12"/>
    <wangtile tileid="2075" wangid="0,0,0,0,0,0,0,12"/>
    <wangtile tileid="2076" wangid="0,12,0,12,0,0,0,0"/>
    <wangtile tileid="2077" wangid="0,0,0,0,0,12,0,12"/>
    <wangtile tileid="2078" wangid="0,0,0,10,0,0,0,0"/>
    <wangtile tileid="2079" wangid="0,10,0,10,0,10,0,0"/>
    <wangtile tileid="2080" wangid="0,10,0,10,0,10,0,10"/>
    <wangtile tileid="2081" wangid="0,0,0,10,0,10,0,10"/>
    <wangtile tileid="2082" wangid="0,0,0,0,0,10,0,0"/>
    <wangtile tileid="2084" wangid="0,0,0,11,0,0,0,0"/>
    <wangtile tileid="2085" wangid="0,11,0,11,0,11,0,0"/>
    <wangtile tileid="2086" wangid="0,11,0,11,0,11,0,11"/>
    <wangtile tileid="2087" wangid="0,0,0,11,0,11,0,11"/>
    <wangtile tileid="2088" wangid="0,0,0,0,0,11,0,0"/>
    <wangtile tileid="2116" wangid="0,0,0,8,0,0,0,0"/>
    <wangtile tileid="2117" wangid="0,0,0,0,0,8,0,0"/>
    <wangtile tileid="2119" wangid="0,0,0,8,0,8,0,0"/>
    <wangtile tileid="2120" wangid="0,0,0,8,0,8,0,0"/>
    <wangtile tileid="2122" wangid="0,0,0,9,0,0,0,0"/>
    <wangtile tileid="2123" wangid="0,0,0,0,0,9,0,0"/>
    <wangtile tileid="2125" wangid="0,0,0,9,0,9,0,0"/>
    <wangtile tileid="2126" wangid="0,0,0,9,0,9,0,0"/>
    <wangtile tileid="2127" wangid="0,0,0,12,0,12,0,0"/>
    <wangtile tileid="2128" wangid="0,0,0,12,0,12,0,0"/>
    <wangtile tileid="2129" wangid="0,0,0,12,0,12,0,0"/>
    <wangtile tileid="2131" wangid="0,12,0,12,0,0,0,0"/>
    <wangtile tileid="2132" wangid="0,0,0,0,0,12,0,12"/>
    <wangtile tileid="2133" wangid="0,10,0,10,0,0,0,0"/>
    <wangtile tileid="2134" wangid="0,10,0,10,0,10,0,10"/>
    <wangtile tileid="2135" wangid="0,10,0,10,0,10,0,10"/>
    <wangtile tileid="2136" wangid="0,10,0,10,0,10,0,10"/>
    <wangtile tileid="2137" wangid="0,0,0,0,0,10,0,10"/>
    <wangtile tileid="2139" wangid="0,11,0,11,0,0,0,0"/>
    <wangtile tileid="2140" wangid="0,11,0,11,0,11,0,11"/>
    <wangtile tileid="2141" wangid="0,11,0,11,0,11,0,11"/>
    <wangtile tileid="2142" wangid="0,11,0,11,0,11,0,11"/>
    <wangtile tileid="2143" wangid="0,0,0,0,0,11,0,11"/>
    <wangtile tileid="2170" wangid="0,0,0,8,0,0,0,0"/>
    <wangtile tileid="2171" wangid="0,8,0,8,0,8,0,0"/>
    <wangtile tileid="2172" wangid="0,0,0,8,0,8,0,8"/>
    <wangtile tileid="2173" wangid="0,0,0,0,0,8,0,0"/>
    <wangtile tileid="2174" wangid="0,8,0,0,0,0,0,8"/>
    <wangtile tileid="2175" wangid="0,8,0,0,0,0,0,8"/>
    <wangtile tileid="2176" wangid="0,0,0,9,0,0,0,0"/>
    <wangtile tileid="2177" wangid="0,9,0,9,0,9,0,0"/>
    <wangtile tileid="2178" wangid="0,0,0,9,0,9,0,9"/>
    <wangtile tileid="2179" wangid="0,0,0,0,0,9,0,0"/>
    <wangtile tileid="2180" wangid="0,9,0,0,0,0,0,9"/>
    <wangtile tileid="2181" wangid="0,9,0,0,0,0,0,9"/>
    <wangtile tileid="2182" wangid="0,12,0,0,0,0,0,12"/>
    <wangtile tileid="2183" wangid="0,12,0,0,0,0,0,12"/>
    <wangtile tileid="2184" wangid="0,12,0,0,0,0,0,12"/>
    <wangtile tileid="2188" wangid="0,10,0,0,0,0,0,0"/>
    <wangtile tileid="2189" wangid="0,10,0,10,0,0,0,10"/>
    <wangtile tileid="2190" wangid="0,10,0,10,0,10,0,10"/>
    <wangtile tileid="2191" wangid="0,10,0,0,0,10,0,10"/>
    <wangtile tileid="2192" wangid="0,0,0,0,0,0,0,10"/>
    <wangtile tileid="2194" wangid="0,11,0,0,0,0,0,0"/>
    <wangtile tileid="2195" wangid="0,11,0,11,0,0,0,11"/>
    <wangtile tileid="2196" wangid="0,11,0,11,0,11,0,11"/>
    <wangtile tileid="2197" wangid="0,11,0,0,0,11,0,11"/>
    <wangtile tileid="2198" wangid="0,0,0,0,0,0,0,11"/>
    <wangtile tileid="2225" wangid="0,8,0,0,0,0,0,0"/>
    <wangtile tileid="2226" wangid="0,8,0,8,0,0,0,8"/>
    <wangtile tileid="2227" wangid="0,8,0,0,0,8,0,8"/>
    <wangtile tileid="2228" wangid="0,0,0,0,0,0,0,8"/>
    <wangtile tileid="2229" wangid="0,8,0,8,0,0,0,0"/>
    <wangtile tileid="2230" wangid="0,0,0,0,0,8,0,8"/>
    <wangtile tileid="2231" wangid="0,9,0,0,0,0,0,0"/>
    <wangtile tileid="2232" wangid="0,9,0,9,0,0,0,9"/>
    <wangtile tileid="2233" wangid="0,9,0,0,0,9,0,9"/>
    <wangtile tileid="2234" wangid="0,0,0,0,0,0,0,9"/>
    <wangtile tileid="2235" wangid="0,9,0,9,0,0,0,0"/>
    <wangtile tileid="2236" wangid="0,0,0,0,0,9,0,9"/>
    <wangtile tileid="2243" wangid="0,10,0,10,0,0,0,10"/>
    <wangtile tileid="2244" wangid="0,10,0,0,0,0,0,0"/>
    <wangtile tileid="2245" wangid="0,10,0,0,0,0,0,10"/>
    <wangtile tileid="2246" wangid="0,0,0,0,0,0,0,10"/>
    <wangtile tileid="2247" wangid="0,10,0,0,0,10,0,10"/>
    <wangtile tileid="2249" wangid="0,11,0,11,0,0,0,11"/>
    <wangtile tileid="2250" wangid="0,11,0,0,0,0,0,0"/>
    <wangtile tileid="2251" wangid="0,11,0,0,0,0,0,11"/>
    <wangtile tileid="2252" wangid="0,0,0,0,0,0,0,11"/>
    <wangtile tileid="2253" wangid="0,11,0,0,0,11,0,11"/>
    <wangtile tileid="2281" wangid="0,8,0,0,0,0,0,0"/>
    <wangtile tileid="2282" wangid="0,0,0,0,0,0,0,8"/>
    <wangtile tileid="2284" wangid="0,8,0,8,0,0,0,0"/>
    <wangtile tileid="2285" wangid="0,0,0,0,0,8,0,8"/>
    <wangtile tileid="2287" wangid="0,9,0,0,0,0,0,0"/>
    <wangtile tileid="2288" wangid="0,0,0,0,0,0,0,9"/>
    <wangtile tileid="2290" wangid="0,9,0,9,0,0,0,0"/>
    <wangtile tileid="2291" wangid="0,0,0,0,0,9,0,9"/>
    <wangtile tileid="2298" wangid="0,10,0,10,0,10,0,0"/>
    <wangtile tileid="2299" wangid="0,10,0,10,0,10,0,0"/>
    <wangtile tileid="2300" wangid="0,10,0,10,0,0,0,10"/>
    <wangtile tileid="2301" wangid="0,10,0,0,0,10,0,10"/>
    <wangtile tileid="2302" wangid="0,0,0,10,0,10,0,10"/>
    <wangtile tileid="2304" wangid="0,11,0,11,0,11,0,0"/>
    <wangtile tileid="2305" wangid="0,11,0,11,0,11,0,0"/>
    <wangtile tileid="2306" wangid="0,11,0,11,0,0,0,11"/>
    <wangtile tileid="2307" wangid="0,11,0,0,0,11,0,11"/>
    <wangtile tileid="2308" wangid="0,0,0,11,0,11,0,11"/>
    <wangtile tileid="2335" wangid="0,8,0,8,0,8,0,8"/>
    <wangtile tileid="2336" wangid="0,8,0,8,0,8,0,8"/>
    <wangtile tileid="2337" wangid="0,8,0,8,0,8,0,8"/>
    <wangtile tileid="2338" wangid="0,8,0,8,0,8,0,8"/>
    <wangtile tileid="2339" wangid="0,8,0,8,0,8,0,8"/>
    <wangtile tileid="2340" wangid="0,8,0,8,0,8,0,8"/>
    <wangtile tileid="2341" wangid="0,9,0,9,0,9,0,9"/>
    <wangtile tileid="2342" wangid="0,9,0,9,0,9,0,9"/>
    <wangtile tileid="2343" wangid="0,9,0,9,0,9,0,9"/>
    <wangtile tileid="2344" wangid="0,9,0,9,0,9,0,9"/>
    <wangtile tileid="2345" wangid="0,9,0,9,0,9,0,9"/>
    <wangtile tileid="2346" wangid="0,9,0,9,0,9,0,9"/>
    <wangtile tileid="2353" wangid="0,0,0,10,0,10,0,0"/>
    <wangtile tileid="2354" wangid="0,0,0,10,0,10,0,0"/>
    <wangtile tileid="2355" wangid="0,0,0,10,0,10,0,0"/>
    <wangtile tileid="2356" wangid="0,0,0,10,0,10,0,0"/>
    <wangtile tileid="2357" wangid="0,0,0,10,0,10,0,10"/>
    <wangtile tileid="2359" wangid="0,0,0,11,0,11,0,0"/>
    <wangtile tileid="2360" wangid="0,0,0,11,0,11,0,0"/>
    <wangtile tileid="2361" wangid="0,0,0,11,0,11,0,0"/>
    <wangtile tileid="2362" wangid="0,0,0,11,0,11,0,0"/>
    <wangtile tileid="2363" wangid="0,0,0,11,0,11,0,11"/>
    <wangtile tileid="2390" wangid="0,8,0,8,0,8,0,8"/>
    <wangtile tileid="2391" wangid="0,8,0,8,0,8,0,8"/>
    <wangtile tileid="2392" wangid="0,8,0,8,0,8,0,8"/>
    <wangtile tileid="2393" wangid="0,8,0,8,0,8,0,8"/>
    <wangtile tileid="2394" wangid="0,8,0,8,0,8,0,8"/>
    <wangtile tileid="2395" wangid="0,8,0,8,0,8,0,8"/>
    <wangtile tileid="2396" wangid="0,9,0,9,0,9,0,9"/>
    <wangtile tileid="2397" wangid="0,9,0,9,0,9,0,9"/>
    <wangtile tileid="2398" wangid="0,9,0,9,0,9,0,9"/>
    <wangtile tileid="2399" wangid="0,9,0,9,0,9,0,9"/>
    <wangtile tileid="2400" wangid="0,9,0,9,0,9,0,9"/>
    <wangtile tileid="2401" wangid="0,9,0,9,0,9,0,9"/>
    <wangtile tileid="2403" wangid="0,0,0,13,0,0,0,0"/>
    <wangtile tileid="2404" wangid="0,0,0,13,0,13,0,0"/>
    <wangtile tileid="2405" wangid="0,0,0,0,0,13,0,0"/>
    <wangtile tileid="2408" wangid="0,10,0,0,0,0,0,10"/>
    <wangtile tileid="2409" wangid="0,10,0,0,0,0,0,10"/>
    <wangtile tileid="2410" wangid="0,10,0,0,0,0,0,10"/>
    <wangtile tileid="2411" wangid="0,10,0,0,0,0,0,10"/>
    <wangtile tileid="2412" wangid="0,10,0,10,0,0,0,0"/>
    <wangtile tileid="2413" wangid="0,0,0,0,0,10,0,10"/>
    <wangtile tileid="2414" wangid="0,11,0,0,0,0,0,11"/>
    <wangtile tileid="2415" wangid="0,11,0,0,0,0,0,11"/>
    <wangtile tileid="2416" wangid="0,11,0,0,0,0,0,11"/>
    <wangtile tileid="2417" wangid="0,11,0,0,0,0,0,11"/>
    <wangtile tileid="2418" wangid="0,11,0,11,0,0,0,0"/>
    <wangtile tileid="2419" wangid="0,0,0,0,0,11,0,11"/>
    <wangtile tileid="2445" wangid="0,8,0,8,0,8,0,8"/>
    <wangtile tileid="2446" wangid="0,8,0,8,0,8,0,8"/>
    <wangtile tileid="2447" wangid="0,8,0,8,0,8,0,8"/>
    <wangtile tileid="2448" wangid="0,8,0,8,0,8,0,8"/>
    <wangtile tileid="2449" wangid="0,8,0,8,0,8,0,8"/>
    <wangtile tileid="2451" wangid="0,9,0,9,0,9,0,9"/>
    <wangtile tileid="2452" wangid="0,9,0,9,0,9,0,9"/>
    <wangtile tileid="2453" wangid="0,9,0,9,0,9,0,9"/>
    <wangtile tileid="2454" wangid="0,9,0,9,0,9,0,9"/>
    <wangtile tileid="2455" wangid="0,9,0,9,0,9,0,9"/>
    <wangtile tileid="2457" wangid="0,0,0,13,0,0,0,0"/>
    <wangtile tileid="2458" wangid="0,13,0,13,0,13,0,0"/>
    <wangtile tileid="2459" wangid="0,13,0,13,0,13,0,13"/>
    <wangtile tileid="2460" wangid="0,0,0,13,0,13,0,13"/>
    <wangtile tileid="2461" wangid="0,0,0,0,0,13,0,0"/>
    <wangtile tileid="2463" wangid="0,10,0,0,0,0,0,0"/>
    <wangtile tileid="2464" wangid="0,0,0,0,0,0,0,10"/>
    <wangtile tileid="2465" wangid="0,0,0,10,0,0,0,0"/>
    <wangtile tileid="2466" wangid="0,0,0,0,0,10,0,0"/>
    <wangtile tileid="2467" wangid="0,10,0,10,0,0,0,0"/>
    <wangtile tileid="2468" wangid="0,0,0,0,0,10,0,10"/>
    <wangtile tileid="2469" wangid="0,11,0,0,0,0,0,0"/>
    <wangtile tileid="2470" wangid="0,0,0,0,0,0,0,11"/>
    <wangtile tileid="2471" wangid="0,0,0,11,0,0,0,0"/>
    <wangtile tileid="2472" wangid="0,0,0,0,0,11,0,0"/>
    <wangtile tileid="2473" wangid="0,11,0,11,0,0,0,0"/>
    <wangtile tileid="2474" wangid="0,0,0,0,0,11,0,11"/>
    <wangtile tileid="2512" wangid="0,13,0,13,0,0,0,0"/>
    <wangtile tileid="2513" wangid="0,13,0,13,0,13,0,13"/>
    <wangtile tileid="2514" wangid="0,13,0,13,0,13,0,13"/>
    <wangtile tileid="2515" wangid="0,13,0,13,0,13,0,13"/>
    <wangtile tileid="2516" wangid="0,0,0,0,0,13,0,13"/>
    <wangtile tileid="2518" wangid="0,10,0,0,0,0,0,0"/>
    <wangtile tileid="2519" wangid="0,0,0,0,0,0,0,10"/>
    <wangtile tileid="2520" wangid="0,0,0,10,0,0,0,0"/>
    <wangtile tileid="2521" wangid="0,0,0,0,0,10,0,0"/>
    <wangtile tileid="2522" wangid="0,10,0,10,0,0,0,0"/>
    <wangtile tileid="2523" wangid="0,0,0,0,0,10,0,10"/>
    <wangtile tileid="2524" wangid="0,11,0,0,0,0,0,0"/>
    <wangtile tileid="2525" wangid="0,0,0,0,0,0,0,11"/>
    <wangtile tileid="2526" wangid="0,0,0,11,0,0,0,0"/>
    <wangtile tileid="2527" wangid="0,0,0,0,0,11,0,0"/>
    <wangtile tileid="2528" wangid="0,11,0,11,0,0,0,0"/>
    <wangtile tileid="2529" wangid="0,0,0,0,0,11,0,11"/>
    <wangtile tileid="2567" wangid="0,13,0,0,0,0,0,0"/>
    <wangtile tileid="2568" wangid="0,13,0,13,0,0,0,13"/>
    <wangtile tileid="2569" wangid="0,13,0,13,0,13,0,13"/>
    <wangtile tileid="2570" wangid="0,13,0,0,0,13,0,13"/>
    <wangtile tileid="2571" wangid="0,0,0,0,0,0,0,13"/>
    <wangtile tileid="2573" wangid="0,10,0,0,0,0,0,0"/>
    <wangtile tileid="2574" wangid="0,0,0,0,0,0,0,10"/>
    <wangtile tileid="2575" wangid="0,0,0,10,0,0,0,0"/>
    <wangtile tileid="2576" wangid="0,0,0,0,0,10,0,0"/>
    <wangtile tileid="2577" wangid="0,10,0,10,0,0,0,0"/>
    <wangtile tileid="2578" wangid="0,0,0,0,0,10,0,10"/>
    <wangtile tileid="2579" wangid="0,11,0,0,0,0,0,0"/>
    <wangtile tileid="2580" wangid="0,0,0,0,0,0,0,11"/>
    <wangtile tileid="2581" wangid="0,0,0,11,0,0,0,0"/>
    <wangtile tileid="2582" wangid="0,0,0,0,0,11,0,0"/>
    <wangtile tileid="2583" wangid="0,11,0,11,0,0,0,0"/>
    <wangtile tileid="2584" wangid="0,0,0,0,0,11,0,11"/>
    <wangtile tileid="2623" wangid="0,13,0,0,0,0,0,0"/>
    <wangtile tileid="2624" wangid="0,13,0,0,0,0,0,13"/>
    <wangtile tileid="2625" wangid="0,0,0,0,0,0,0,13"/>
    <wangtile tileid="2626" wangid="0,13,0,13,0,0,0,0"/>
    <wangtile tileid="2627" wangid="0,0,0,0,0,13,0,13"/>
    <wangtile tileid="2628" wangid="0,10,0,10,0,10,0,10"/>
    <wangtile tileid="2629" wangid="0,10,0,10,0,10,0,10"/>
    <wangtile tileid="2630" wangid="0,10,0,10,0,10,0,10"/>
    <wangtile tileid="2631" wangid="0,10,0,10,0,10,0,10"/>
    <wangtile tileid="2632" wangid="0,10,0,10,0,10,0,10"/>
    <wangtile tileid="2633" wangid="0,10,0,10,0,10,0,10"/>
    <wangtile tileid="2634" wangid="0,11,0,11,0,11,0,11"/>
    <wangtile tileid="2635" wangid="0,11,0,11,0,11,0,11"/>
    <wangtile tileid="2636" wangid="0,11,0,11,0,11,0,11"/>
    <wangtile tileid="2637" wangid="0,11,0,11,0,11,0,11"/>
    <wangtile tileid="2638" wangid="0,11,0,11,0,11,0,11"/>
    <wangtile tileid="2639" wangid="0,11,0,11,0,11,0,11"/>
    <wangtile tileid="2677" wangid="0,0,0,13,0,13,0,0"/>
    <wangtile tileid="2678" wangid="0,0,0,13,0,13,0,0"/>
    <wangtile tileid="2679" wangid="0,0,0,13,0,13,0,0"/>
    <wangtile tileid="2681" wangid="0,13,0,13,0,0,0,0"/>
    <wangtile tileid="2682" wangid="0,0,0,0,0,13,0,13"/>
    <wangtile tileid="2683" wangid="0,10,0,10,0,10,0,10"/>
    <wangtile tileid="2684" wangid="0,10,0,10,0,10,0,10"/>
    <wangtile tileid="2685" wangid="0,10,0,10,0,10,0,10"/>
    <wangtile tileid="2686" wangid="0,10,0,10,0,10,0,10"/>
    <wangtile tileid="2687" wangid="0,10,0,10,0,10,0,10"/>
    <wangtile tileid="2688" wangid="0,10,0,10,0,10,0,10"/>
    <wangtile tileid="2689" wangid="0,11,0,11,0,11,0,11"/>
    <wangtile tileid="2690" wangid="0,11,0,11,0,11,0,11"/>
    <wangtile tileid="2691" wangid="0,11,0,11,0,11,0,11"/>
    <wangtile tileid="2692" wangid="0,11,0,11,0,11,0,11"/>
    <wangtile tileid="2693" wangid="0,11,0,11,0,11,0,11"/>
    <wangtile tileid="2694" wangid="0,11,0,11,0,11,0,11"/>
    <wangtile tileid="2732" wangid="0,13,0,0,0,0,0,13"/>
    <wangtile tileid="2733" wangid="0,13,0,0,0,0,0,13"/>
    <wangtile tileid="2734" wangid="0,13,0,0,0,0,0,13"/>
    <wangtile tileid="2738" wangid="0,10,0,10,0,10,0,10"/>
    <wangtile tileid="2739" wangid="0,10,0,10,0,10,0,10"/>
    <wangtile tileid="2740" wangid="0,10,0,10,0,10,0,10"/>
    <wangtile tileid="2741" wangid="0,10,0,10,0,10,0,10"/>
    <wangtile tileid="2742" wangid="0,10,0,10,0,10,0,10"/>
    <wangtile tileid="2743" wangid="0,10,0,10,0,10,0,10"/>
    <wangtile tileid="2744" wangid="0,11,0,11,0,11,0,11"/>
    <wangtile tileid="2745" wangid="0,11,0,11,0,11,0,11"/>
    <wangtile tileid="2746" wangid="0,11,0,11,0,11,0,11"/>
    <wangtile tileid="2747" wangid="0,11,0,11,0,11,0,11"/>
    <wangtile tileid="2748" wangid="0,11,0,11,0,11,0,11"/>
    <wangtile tileid="2749" wangid="0,11,0,11,0,11,0,11"/>
    <wangtile tileid="2793" wangid="0,10,0,10,0,10,0,10"/>
    <wangtile tileid="2794" wangid="0,10,0,10,0,10,0,10"/>
    <wangtile tileid="2795" wangid="0,10,0,10,0,10,0,10"/>
    <wangtile tileid="2796" wangid="0,10,0,10,0,10,0,10"/>
    <wangtile tileid="2797" wangid="0,10,0,10,0,10,0,10"/>
    <wangtile tileid="2798" wangid="0,10,0,10,0,10,0,10"/>
    <wangtile tileid="2799" wangid="0,11,0,11,0,11,0,11"/>
    <wangtile tileid="2800" wangid="0,11,0,11,0,11,0,11"/>
    <wangtile tileid="2801" wangid="0,11,0,11,0,11,0,11"/>
    <wangtile tileid="2802" wangid="0,11,0,11,0,11,0,11"/>
    <wangtile tileid="2803" wangid="0,11,0,11,0,11,0,11"/>
    <wangtile tileid="2804" wangid="0,11,0,11,0,11,0,11"/>
    <wangtile tileid="2848" wangid="0,10,0,10,0,10,0,10"/>
    <wangtile tileid="2849" wangid="0,10,0,10,0,10,0,10"/>
    <wangtile tileid="2850" wangid="0,10,0,10,0,10,0,10"/>
    <wangtile tileid="2851" wangid="0,10,0,10,0,10,0,10"/>
    <wangtile tileid="2854" wangid="0,11,0,11,0,11,0,11"/>
    <wangtile tileid="2855" wangid="0,11,0,11,0,11,0,11"/>
    <wangtile tileid="2856" wangid="0,11,0,11,0,11,0,11"/>
    <wangtile tileid="2857" wangid="0,11,0,11,0,11,0,11"/>
   </wangset>
  </wangsets>
 </tileset>
 <tileset firstgid="7222" name="Atlas-Props-sheet1-sprites" tilewidth="192" tileheight="224" tilecount="639" columns="0" objectalignment="bottom">
  <grid orientation="orthogonal" width="1" height="1"/>
  <tile id="0">
   <image source="tiled/ERW-Grassland 2.0/Props/Static props/sheet1-sprites/3.png" width="32" height="64"/>
  </tile>
  <tile id="1">
   <image source="tiled/ERW-Grassland 2.0/Props/Static props/sheet1-sprites/barrel 1 - no grass.png" width="32" height="64"/>
  </tile>
  <tile id="2">
   <image source="tiled/ERW-Grassland 2.0/Props/Static props/sheet1-sprites/barrel 1.png" width="32" height="64"/>
  </tile>
  <tile id="3">
   <image source="tiled/ERW-Grassland 2.0/Props/Static props/sheet1-sprites/barrel 2 - no grass.png" width="32" height="64"/>
  </tile>
  <tile id="4">
   <image source="tiled/ERW-Grassland 2.0/Props/Static props/sheet1-sprites/barrel 2.png" width="32" height="64"/>
  </tile>
  <tile id="5">
   <image source="tiled/ERW-Grassland 2.0/Props/Static props/sheet1-sprites/barrel 3 - no grass.png" width="32" height="64"/>
  </tile>
  <tile id="6">
   <image source="tiled/ERW-Grassland 2.0/Props/Static props/sheet1-sprites/barrel 3.png" width="32" height="64"/>
  </tile>
  <tile id="7">
   <image source="tiled/ERW-Grassland 2.0/Props/Static props/sheet1-sprites/barrel 4 - no grass.png" width="32" height="64"/>
  </tile>
  <tile id="8">
   <image source="tiled/ERW-Grassland 2.0/Props/Static props/sheet1-sprites/barrel 4.png" width="32" height="64"/>
  </tile>
  <tile id="9">
   <image source="tiled/ERW-Grassland 2.0/Props/Static props/sheet1-sprites/barrel 5 - no grass.png" width="32" height="64"/>
  </tile>
  <tile id="10">
   <image source="tiled/ERW-Grassland 2.0/Props/Static props/sheet1-sprites/barrel 5.png" width="32" height="64"/>
  </tile>
  <tile id="11">
   <image source="tiled/ERW-Grassland 2.0/Props/Static props/sheet1-sprites/barrel 6 - no grass.png" width="32" height="64"/>
  </tile>
  <tile id="12">
   <image source="tiled/ERW-Grassland 2.0/Props/Static props/sheet1-sprites/barrel 6.png" width="32" height="64"/>
  </tile>
  <tile id="13">
   <image source="tiled/ERW-Grassland 2.0/Props/Static props/sheet1-sprites/barrel 7 - no grass.png" width="32" height="64"/>
  </tile>
  <tile id="14">
   <image source="tiled/ERW-Grassland 2.0/Props/Static props/sheet1-sprites/barrel 7.png" width="32" height="64"/>
  </tile>
  <tile id="15">
   <image source="tiled/ERW-Grassland 2.0/Props/Static props/sheet1-sprites/barrel 8 - no grass.png" width="32" height="64"/>
  </tile>
  <tile id="16">
   <image source="tiled/ERW-Grassland 2.0/Props/Static props/sheet1-sprites/barrel 8.png" width="32" height="64"/>
  </tile>
  <tile id="17">
   <image source="tiled/ERW-Grassland 2.0/Props/Static props/sheet1-sprites/barrel 9 - no grass.png" width="32" height="64"/>
  </tile>
  <tile id="18">
   <image source="tiled/ERW-Grassland 2.0/Props/Static props/sheet1-sprites/barrel 9.png" width="32" height="64"/>
  </tile>
  <tile id="19">
   <image source="tiled/ERW-Grassland 2.0/Props/Static props/sheet1-sprites/barrel 10 - no grass.png" width="32" height="64"/>
  </tile>
  <tile id="20">
   <image source="tiled/ERW-Grassland 2.0/Props/Static props/sheet1-sprites/barrel 10.png" width="32" height="64"/>
  </tile>
  <tile id="21">
   <image source="tiled/ERW-Grassland 2.0/Props/Static props/sheet1-sprites/beach detail 1.png" width="32" height="32"/>
  </tile>
  <tile id="22">
   <image source="tiled/ERW-Grassland 2.0/Props/Static props/sheet1-sprites/beach detail 2.png" width="32" height="32"/>
  </tile>
  <tile id="23">
   <image source="tiled/ERW-Grassland 2.0/Props/Static props/sheet1-sprites/beach detail 3.png" width="32" height="32"/>
  </tile>
  <tile id="24">
   <image source="tiled/ERW-Grassland 2.0/Props/Static props/sheet1-sprites/beach detail 4.png" width="32" height="32"/>
  </tile>
  <tile id="25">
   <image source="tiled/ERW-Grassland 2.0/Props/Static props/sheet1-sprites/beach detail 5.png" width="32" height="32"/>
  </tile>
  <tile id="26">
   <image source="tiled/ERW-Grassland 2.0/Props/Static props/sheet1-sprites/beach detail 6.png" width="32" height="32"/>
  </tile>
  <tile id="27">
   <image source="tiled/ERW-Grassland 2.0/Props/Static props/sheet1-sprites/beach detail 7.png" width="32" height="32"/>
  </tile>
  <tile id="28">
   <image source="tiled/ERW-Grassland 2.0/Props/Static props/sheet1-sprites/beach detail 8.png" width="32" height="32"/>
  </tile>
  <tile id="29">
   <image source="tiled/ERW-Grassland 2.0/Props/Static props/sheet1-sprites/beach detail 9.png" width="32" height="32"/>
  </tile>
  <tile id="30">
   <image source="tiled/ERW-Grassland 2.0/Props/Static props/sheet1-sprites/beach detail 10.png" width="32" height="32"/>
  </tile>
  <tile id="31">
   <image source="tiled/ERW-Grassland 2.0/Props/Static props/sheet1-sprites/beach detail 11.png" width="32" height="32"/>
  </tile>
  <tile id="32">
   <image source="tiled/ERW-Grassland 2.0/Props/Static props/sheet1-sprites/beach detail 12.png" width="32" height="32"/>
  </tile>
  <tile id="33">
   <image source="tiled/ERW-Grassland 2.0/Props/Static props/sheet1-sprites/beach detail 13.png" width="32" height="32"/>
  </tile>
  <tile id="34">
   <image source="tiled/ERW-Grassland 2.0/Props/Static props/sheet1-sprites/beach detail 14.png" width="32" height="32"/>
  </tile>
  <tile id="35">
   <image source="tiled/ERW-Grassland 2.0/Props/Static props/sheet1-sprites/beach detail 15.png" width="32" height="32"/>
  </tile>
  <tile id="36">
   <image source="tiled/ERW-Grassland 2.0/Props/Static props/sheet1-sprites/beach detail 16.png" width="32" height="32"/>
  </tile>
  <tile id="37">
   <image source="tiled/ERW-Grassland 2.0/Props/Static props/sheet1-sprites/beach detail 17.png" width="32" height="32"/>
  </tile>
  <tile id="38">
   <image source="tiled/ERW-Grassland 2.0/Props/Static props/sheet1-sprites/beach detail 18.png" width="32" height="32"/>
  </tile>
  <tile id="39">
   <image source="tiled/ERW-Grassland 2.0/Props/Static props/sheet1-sprites/beach detail 19.png" width="32" height="32"/>
  </tile>
  <tile id="40">
   <image source="tiled/ERW-Grassland 2.0/Props/Static props/sheet1-sprites/beach detail 20.png" width="32" height="32"/>
  </tile>
  <tile id="41">
   <image source="tiled/ERW-Grassland 2.0/Props/Static props/sheet1-sprites/beach detail 21.png" width="32" height="32"/>
  </tile>
  <tile id="42">
   <image source="tiled/ERW-Grassland 2.0/Props/Static props/sheet1-sprites/beach detail 22.png" width="32" height="32"/>
  </tile>
  <tile id="43">
   <image source="tiled/ERW-Grassland 2.0/Props/Static props/sheet1-sprites/beach detail 23.png" width="32" height="32"/>
  </tile>
  <tile id="44">
   <image source="tiled/ERW-Grassland 2.0/Props/Static props/sheet1-sprites/beach detail 24.png" width="32" height="32"/>
  </tile>
  <tile id="45">
   <image source="tiled/ERW-Grassland 2.0/Props/Static props/sheet1-sprites/beach detail 25.png" width="32" height="32"/>
  </tile>
  <tile id="46">
   <image source="tiled/ERW-Grassland 2.0/Props/Static props/sheet1-sprites/beach detail 26.png" width="32" height="32"/>
  </tile>
  <tile id="47">
   <image source="tiled/ERW-Grassland 2.0/Props/Static props/sheet1-sprites/beach detail 27.png" width="32" height="32"/>
  </tile>
  <tile id="48">
   <image source="tiled/ERW-Grassland 2.0/Props/Static props/sheet1-sprites/beach detail 28.png" width="32" height="32"/>
  </tile>
  <tile id="49">
   <image source="tiled/ERW-Grassland 2.0/Props/Static props/sheet1-sprites/bucket - smaller - 1.png" width="32" height="32"/>
  </tile>
  <tile id="50">
   <image source="tiled/ERW-Grassland 2.0/Props/Static props/sheet1-sprites/bucket - smaller - 2.png" width="32" height="32"/>
  </tile>
  <tile id="51">
   <image source="tiled/ERW-Grassland 2.0/Props/Static props/sheet1-sprites/bucket - smaller - 3.png" width="32" height="32"/>
  </tile>
  <tile id="52">
   <image source="tiled/ERW-Grassland 2.0/Props/Static props/sheet1-sprites/bucket - smaller - 4.png" width="32" height="32"/>
  </tile>
  <tile id="53">
   <image source="tiled/ERW-Grassland 2.0/Props/Static props/sheet1-sprites/bucket 1 - no grass.png" width="32" height="32"/>
  </tile>
  <tile id="54">
   <image source="tiled/ERW-Grassland 2.0/Props/Static props/sheet1-sprites/bucket 1.png" width="32" height="32"/>
  </tile>
  <tile id="55">
   <image source="tiled/ERW-Grassland 2.0/Props/Static props/sheet1-sprites/bucket 2 - no grass.png" width="32" height="32"/>
  </tile>
  <tile id="56">
   <image source="tiled/ERW-Grassland 2.0/Props/Static props/sheet1-sprites/bucket 2.png" width="32" height="32"/>
  </tile>
  <tile id="57">
   <image source="tiled/ERW-Grassland 2.0/Props/Static props/sheet1-sprites/bucket 3 - no grass.png" width="32" height="32"/>
  </tile>
  <tile id="58">
   <image source="tiled/ERW-Grassland 2.0/Props/Static props/sheet1-sprites/bucket 3.png" width="32" height="32"/>
  </tile>
  <tile id="59">
   <image source="tiled/ERW-Grassland 2.0/Props/Static props/sheet1-sprites/bucket 4 - no grass.png" width="32" height="32"/>
  </tile>
  <tile id="60">
   <image source="tiled/ERW-Grassland 2.0/Props/Static props/sheet1-sprites/bucket 4.png" width="32" height="32"/>
  </tile>
  <tile id="61">
   <image source="tiled/ERW-Grassland 2.0/Props/Static props/sheet1-sprites/bucket 5.png" width="32" height="32"/>
  </tile>
  <tile id="62">
   <image source="tiled/ERW-Grassland 2.0/Props/Static props/sheet1-sprites/bucket 6.png" width="32" height="32"/>
  </tile>
  <tile id="63">
   <image source="tiled/ERW-Grassland 2.0/Props/Static props/sheet1-sprites/bush 1.png" width="64" height="64"/>
  </tile>
  <tile id="64">
   <image source="tiled/ERW-Grassland 2.0/Props/Static props/sheet1-sprites/bush 2.png" width="96" height="64"/>
  </tile>
  <tile id="65">
   <image source="tiled/ERW-Grassland 2.0/Props/Static props/sheet1-sprites/bush 3.png" width="96" height="64"/>
  </tile>
  <tile id="66">
   <image source="tiled/ERW-Grassland 2.0/Props/Static props/sheet1-sprites/bush 4.png" width="96" height="64"/>
  </tile>
  <tile id="67">
   <image source="tiled/ERW-Grassland 2.0/Props/Static props/sheet1-sprites/bush 5.png" width="64" height="64"/>
  </tile>
  <tile id="68">
   <image source="tiled/ERW-Grassland 2.0/Props/Static props/sheet1-sprites/bush 6.png" width="64" height="64"/>
  </tile>
  <tile id="69">
   <image source="tiled/ERW-Grassland 2.0/Props/Static props/sheet1-sprites/bush 7.png" width="64" height="64"/>
  </tile>
  <tile id="70">
   <image source="tiled/ERW-Grassland 2.0/Props/Static props/sheet1-sprites/bush 8.png" width="96" height="64"/>
  </tile>
  <tile id="71">
   <image source="tiled/ERW-Grassland 2.0/Props/Static props/sheet1-sprites/bush 9.png" width="96" height="64"/>
  </tile>
  <tile id="72">
   <image source="tiled/ERW-Grassland 2.0/Props/Static props/sheet1-sprites/bush 10.png" width="96" height="64"/>
  </tile>
  <tile id="73">
   <image source="tiled/ERW-Grassland 2.0/Props/Static props/sheet1-sprites/bush 11.png" width="64" height="64"/>
  </tile>
  <tile id="74">
   <image source="tiled/ERW-Grassland 2.0/Props/Static props/sheet1-sprites/bush 12.png" width="64" height="64"/>
  </tile>
  <tile id="75">
   <image source="tiled/ERW-Grassland 2.0/Props/Static props/sheet1-sprites/bush 13.png" width="96" height="64"/>
  </tile>
  <tile id="76">
   <image source="tiled/ERW-Grassland 2.0/Props/Static props/sheet1-sprites/bush 14.png" width="96" height="64"/>
  </tile>
  <tile id="77">
   <image source="tiled/ERW-Grassland 2.0/Props/Static props/sheet1-sprites/bush 15.png" width="96" height="64"/>
  </tile>
  <tile id="78">
   <image source="tiled/ERW-Grassland 2.0/Props/Static props/sheet1-sprites/bush 16.png" width="96" height="64"/>
  </tile>
  <tile id="79">
   <image source="tiled/ERW-Grassland 2.0/Props/Static props/sheet1-sprites/bush 17.png" width="64" height="64"/>
  </tile>
  <tile id="80">
   <image source="tiled/ERW-Grassland 2.0/Props/Static props/sheet1-sprites/bush 18.png" width="64" height="64"/>
  </tile>
  <tile id="81">
   <image source="tiled/ERW-Grassland 2.0/Props/Static props/sheet1-sprites/bush 19.png" width="96" height="64"/>
  </tile>
  <tile id="82">
   <image source="tiled/ERW-Grassland 2.0/Props/Static props/sheet1-sprites/bush 20.png" width="96" height="64"/>
  </tile>
  <tile id="83">
   <image source="tiled/ERW-Grassland 2.0/Props/Static props/sheet1-sprites/bush 21.png" width="96" height="64"/>
  </tile>
  <tile id="84">
   <image source="tiled/ERW-Grassland 2.0/Props/Static props/sheet1-sprites/bush 22.png" width="96" height="64"/>
  </tile>
  <tile id="85">
   <image source="tiled/ERW-Grassland 2.0/Props/Static props/sheet1-sprites/bush 23.png" width="64" height="64"/>
  </tile>
  <tile id="86">
   <image source="tiled/ERW-Grassland 2.0/Props/Static props/sheet1-sprites/bush 24.png" width="64" height="64"/>
  </tile>
  <tile id="87">
   <image source="tiled/ERW-Grassland 2.0/Props/Static props/sheet1-sprites/bush 25.png" width="96" height="64"/>
  </tile>
  <tile id="88">
   <image source="tiled/ERW-Grassland 2.0/Props/Static props/sheet1-sprites/campfire 1.png" width="64" height="64"/>
  </tile>
  <tile id="89">
   <image source="tiled/ERW-Grassland 2.0/Props/Static props/sheet1-sprites/campfire 2.png" width="64" height="64"/>
  </tile>
  <tile id="90">
   <image source="tiled/ERW-Grassland 2.0/Props/Static props/sheet1-sprites/campfire 3.png" width="64" height="64"/>
  </tile>
  <tile id="91">
   <image source="tiled/ERW-Grassland 2.0/Props/Static props/sheet1-sprites/campfire 4.png" width="64" height="64"/>
  </tile>
  <tile id="92">
   <image source="tiled/ERW-Grassland 2.0/Props/Static props/sheet1-sprites/campfire 5.png" width="64" height="64"/>
  </tile>
  <tile id="93">
   <image source="tiled/ERW-Grassland 2.0/Props/Static props/sheet1-sprites/campfire 6.png" width="64" height="64"/>
  </tile>
  <tile id="94">
   <image source="tiled/ERW-Grassland 2.0/Props/Static props/sheet1-sprites/campfire 7.png" width="96" height="96"/>
  </tile>
  <tile id="95">
   <image source="tiled/ERW-Grassland 2.0/Props/Static props/sheet1-sprites/campfire 8.png" width="96" height="96"/>
  </tile>
  <tile id="96">
   <image source="tiled/ERW-Grassland 2.0/Props/Static props/sheet1-sprites/campfire 9.png" width="96" height="96"/>
  </tile>
  <tile id="97">
   <image source="tiled/ERW-Grassland 2.0/Props/Static props/sheet1-sprites/campfire 10.png" width="96" height="96"/>
  </tile>
  <tile id="98">
   <image source="tiled/ERW-Grassland 2.0/Props/Static props/sheet1-sprites/campfire 11.png" width="96" height="96"/>
  </tile>
  <tile id="99">
   <image source="tiled/ERW-Grassland 2.0/Props/Static props/sheet1-sprites/campfire 12.png" width="96" height="96"/>
  </tile>
  <tile id="100">
   <image source="tiled/ERW-Grassland 2.0/Props/Static props/sheet1-sprites/campfire 13.png" width="96" height="96"/>
  </tile>
  <tile id="101">
   <image source="tiled/ERW-Grassland 2.0/Props/Static props/sheet1-sprites/campfire 14.png" width="96" height="96"/>
  </tile>
  <tile id="102">
   <image source="tiled/ERW-Grassland 2.0/Props/Static props/sheet1-sprites/campfire 15.png" width="96" height="96"/>
  </tile>
  <tile id="103">
   <image source="tiled/ERW-Grassland 2.0/Props/Static props/sheet1-sprites/campfire 16.png" width="96" height="96"/>
  </tile>
  <tile id="104">
   <image source="tiled/ERW-Grassland 2.0/Props/Static props/sheet1-sprites/campfire 17.png" width="96" height="96"/>
  </tile>
  <tile id="105">
   <image source="tiled/ERW-Grassland 2.0/Props/Static props/sheet1-sprites/campfire 18.png" width="96" height="96"/>
  </tile>
  <tile id="106">
   <image source="tiled/ERW-Grassland 2.0/Props/Static props/sheet1-sprites/campfire 19.png" width="96" height="96"/>
  </tile>
  <tile id="107">
   <image source="tiled/ERW-Grassland 2.0/Props/Static props/sheet1-sprites/crate 1 - no grass.png" width="32" height="64"/>
  </tile>
  <tile id="108">
   <image source="tiled/ERW-Grassland 2.0/Props/Static props/sheet1-sprites/crate 1.png" width="32" height="64"/>
  </tile>
  <tile id="109">
   <image source="tiled/ERW-Grassland 2.0/Props/Static props/sheet1-sprites/crate 2 - no grass.png" width="32" height="64"/>
  </tile>
  <tile id="110">
   <image source="tiled/ERW-Grassland 2.0/Props/Static props/sheet1-sprites/crate 2.png" width="32" height="64"/>
  </tile>
  <tile id="111">
   <image source="tiled/ERW-Grassland 2.0/Props/Static props/sheet1-sprites/crate 3 - no grass.png" width="32" height="64"/>
  </tile>
  <tile id="112">
   <image source="tiled/ERW-Grassland 2.0/Props/Static props/sheet1-sprites/crate 4 - no grass.png" width="32" height="64"/>
  </tile>
  <tile id="113">
   <image source="tiled/ERW-Grassland 2.0/Props/Static props/sheet1-sprites/crate 4.png" width="32" height="64"/>
  </tile>
  <tile id="114">
   <image source="tiled/ERW-Grassland 2.0/Props/Static props/sheet1-sprites/crate 5 - no grass.png" width="32" height="64"/>
  </tile>
  <tile id="115">
   <image source="tiled/ERW-Grassland 2.0/Props/Static props/sheet1-sprites/crate 5.png" width="32" height="64"/>
  </tile>
  <tile id="116">
   <image source="tiled/ERW-Grassland 2.0/Props/Static props/sheet1-sprites/crate 6 - no grass.png" width="32" height="64"/>
  </tile>
  <tile id="117">
   <image source="tiled/ERW-Grassland 2.0/Props/Static props/sheet1-sprites/crate 6.png" width="32" height="64"/>
  </tile>
  <tile id="118">
   <image source="tiled/ERW-Grassland 2.0/Props/Static props/sheet1-sprites/crate 7 - no grass.png" width="32" height="64"/>
  </tile>
  <tile id="119">
   <image source="tiled/ERW-Grassland 2.0/Props/Static props/sheet1-sprites/crate 7.png" width="32" height="64"/>
  </tile>
  <tile id="120">
   <image source="tiled/ERW-Grassland 2.0/Props/Static props/sheet1-sprites/crate 8 - no grass.png" width="32" height="64"/>
  </tile>
  <tile id="121">
   <image source="tiled/ERW-Grassland 2.0/Props/Static props/sheet1-sprites/crate 8.png" width="32" height="64"/>
  </tile>
  <tile id="122">
   <image source="tiled/ERW-Grassland 2.0/Props/Static props/sheet1-sprites/crate 9 - no grass.png" width="32" height="64"/>
  </tile>
  <tile id="123">
   <image source="tiled/ERW-Grassland 2.0/Props/Static props/sheet1-sprites/crate 9.png" width="32" height="64"/>
  </tile>
  <tile id="124">
   <image source="tiled/ERW-Grassland 2.0/Props/Static props/sheet1-sprites/crate 10 - no grass.png" width="32" height="64"/>
  </tile>
  <tile id="125">
   <image source="tiled/ERW-Grassland 2.0/Props/Static props/sheet1-sprites/crate 10.png" width="32" height="64"/>
  </tile>
  <tile id="126">
   <image source="tiled/ERW-Grassland 2.0/Props/Static props/sheet1-sprites/crate 11 - no grass.png" width="32" height="64"/>
  </tile>
  <tile id="127">
   <image source="tiled/ERW-Grassland 2.0/Props/Static props/sheet1-sprites/crate 11.png" width="32" height="64"/>
  </tile>
  <tile id="128">
   <image source="tiled/ERW-Grassland 2.0/Props/Static props/sheet1-sprites/crate 12 - no grass.png" width="32" height="64"/>
  </tile>
  <tile id="129">
   <image source="tiled/ERW-Grassland 2.0/Props/Static props/sheet1-sprites/crate 12.png" width="32" height="64"/>
  </tile>
  <tile id="130">
   <image source="tiled/ERW-Grassland 2.0/Props/Static props/sheet1-sprites/crate 13 - no grass.png" width="32" height="64"/>
  </tile>
  <tile id="131">
   <image source="tiled/ERW-Grassland 2.0/Props/Static props/sheet1-sprites/crate 13.png" width="32" height="64"/>
  </tile>
  <tile id="132">
   <image source="tiled/ERW-Grassland 2.0/Props/Static props/sheet1-sprites/crate 14 - no grass.png" width="32" height="64"/>
  </tile>
  <tile id="133">
   <image source="tiled/ERW-Grassland 2.0/Props/Static props/sheet1-sprites/crate 14.png" width="32" height="64"/>
  </tile>
  <tile id="134">
   <image source="tiled/ERW-Grassland 2.0/Props/Static props/sheet1-sprites/crate 15 - no grass.png" width="32" height="64"/>
  </tile>
  <tile id="135">
   <image source="tiled/ERW-Grassland 2.0/Props/Static props/sheet1-sprites/crate 15.png" width="32" height="64"/>
  </tile>
  <tile id="136">
   <image source="tiled/ERW-Grassland 2.0/Props/Static props/sheet1-sprites/crate 16 - no grass.png" width="32" height="64"/>
  </tile>
  <tile id="137">
   <image source="tiled/ERW-Grassland 2.0/Props/Static props/sheet1-sprites/crate 16.png" width="32" height="64"/>
  </tile>
  <tile id="138">
   <image source="tiled/ERW-Grassland 2.0/Props/Static props/sheet1-sprites/crate 17 - no grass.png" width="32" height="64"/>
  </tile>
  <tile id="139">
   <image source="tiled/ERW-Grassland 2.0/Props/Static props/sheet1-sprites/crate 17.png" width="32" height="64"/>
  </tile>
  <tile id="140">
   <image source="tiled/ERW-Grassland 2.0/Props/Static props/sheet1-sprites/crate 18 - no grass.png" width="32" height="64"/>
  </tile>
  <tile id="141">
   <image source="tiled/ERW-Grassland 2.0/Props/Static props/sheet1-sprites/crate 18.png" width="32" height="64"/>
  </tile>
  <tile id="142">
   <image source="tiled/ERW-Grassland 2.0/Props/Static props/sheet1-sprites/doorway - entrance - gateway.png" width="128" height="96"/>
  </tile>
  <tile id="143">
   <image source="tiled/ERW-Grassland 2.0/Props/Static props/sheet1-sprites/fence - gateway - closed - left.png" width="32" height="32"/>
  </tile>
  <tile id="144">
   <image source="tiled/ERW-Grassland 2.0/Props/Static props/sheet1-sprites/fence - gateway - closed - middle.png" width="32" height="32"/>
  </tile>
  <tile id="145">
   <image source="tiled/ERW-Grassland 2.0/Props/Static props/sheet1-sprites/fence - gateway - closed - right.png" width="32" height="32"/>
  </tile>
  <tile id="146">
   <image source="tiled/ERW-Grassland 2.0/Props/Static props/sheet1-sprites/fence - gateway - left.png" width="32" height="64"/>
  </tile>
  <tile id="147">
   <image source="tiled/ERW-Grassland 2.0/Props/Static props/sheet1-sprites/fence - gateway - right.png" width="32" height="64"/>
  </tile>
  <tile id="148">
   <image source="tiled/ERW-Grassland 2.0/Props/Static props/sheet1-sprites/fence - gateway2 - left.png" width="32" height="64"/>
  </tile>
  <tile id="149">
   <image source="tiled/ERW-Grassland 2.0/Props/Static props/sheet1-sprites/fence - gateway2 - right.png" width="32" height="64"/>
  </tile>
  <tile id="150">
   <image source="tiled/ERW-Grassland 2.0/Props/Static props/sheet1-sprites/fence - left - down - up.png" width="32" height="32"/>
  </tile>
  <tile id="151">
   <image source="tiled/ERW-Grassland 2.0/Props/Static props/sheet1-sprites/fence - left - down.png" width="32" height="32"/>
  </tile>
  <tile id="152">
   <image source="tiled/ERW-Grassland 2.0/Props/Static props/sheet1-sprites/fence - left - end - 2.png" width="32" height="32"/>
  </tile>
  <tile id="153">
   <image source="tiled/ERW-Grassland 2.0/Props/Static props/sheet1-sprites/fence - left - end.png" width="32" height="32"/>
  </tile>
  <tile id="154">
   <image source="tiled/ERW-Grassland 2.0/Props/Static props/sheet1-sprites/fence - left - right - 1.png" width="32" height="32"/>
  </tile>
  <tile id="155">
   <image source="tiled/ERW-Grassland 2.0/Props/Static props/sheet1-sprites/fence - left - right - 2.png" width="32" height="32"/>
  </tile>
  <tile id="156">
   <image source="tiled/ERW-Grassland 2.0/Props/Static props/sheet1-sprites/fence - left - right - 3.png" width="32" height="32"/>
  </tile>
  <tile id="157">
   <image source="tiled/ERW-Grassland 2.0/Props/Static props/sheet1-sprites/fence - left - right - 4.png" width="32" height="32"/>
  </tile>
  <tile id="158">
   <image source="tiled/ERW-Grassland 2.0/Props/Static props/sheet1-sprites/fence - left - right - 5.png" width="32" height="32"/>
  </tile>
  <tile id="159">
   <image source="tiled/ERW-Grassland 2.0/Props/Static props/sheet1-sprites/fence - left - right - 6.png" width="32" height="32"/>
  </tile>
  <tile id="160">
   <image source="tiled/ERW-Grassland 2.0/Props/Static props/sheet1-sprites/fence - left - right - 7.png" width="32" height="32"/>
  </tile>
  <tile id="161">
   <image source="tiled/ERW-Grassland 2.0/Props/Static props/sheet1-sprites/fence - left - right - 8.png" width="32" height="32"/>
  </tile>
  <tile id="162">
   <image source="tiled/ERW-Grassland 2.0/Props/Static props/sheet1-sprites/fence - left - right - 9.png" width="32" height="32"/>
  </tile>
  <tile id="163">
   <image source="tiled/ERW-Grassland 2.0/Props/Static props/sheet1-sprites/fence - left - right - 10.png" width="32" height="32"/>
  </tile>
  <tile id="164">
   <image source="tiled/ERW-Grassland 2.0/Props/Static props/sheet1-sprites/fence - left - right - 11.png" width="32" height="32"/>
  </tile>
  <tile id="165">
   <image source="tiled/ERW-Grassland 2.0/Props/Static props/sheet1-sprites/fence - left - right - 12.png" width="32" height="32"/>
  </tile>
  <tile id="166">
   <image source="tiled/ERW-Grassland 2.0/Props/Static props/sheet1-sprites/fence - left - right - down - up.png" width="32" height="32"/>
  </tile>
  <tile id="167">
   <image source="tiled/ERW-Grassland 2.0/Props/Static props/sheet1-sprites/fence - left - up.png" width="32" height="32"/>
  </tile>
  <tile id="168">
   <image source="tiled/ERW-Grassland 2.0/Props/Static props/sheet1-sprites/fence - left.png" width="32" height="32"/>
  </tile>
  <tile id="169">
   <image source="tiled/ERW-Grassland 2.0/Props/Static props/sheet1-sprites/fence - right - down - up.png" width="32" height="32"/>
  </tile>
  <tile id="170">
   <image source="tiled/ERW-Grassland 2.0/Props/Static props/sheet1-sprites/fence - right - down.png" width="32" height="32"/>
  </tile>
  <tile id="171">
   <image source="tiled/ERW-Grassland 2.0/Props/Static props/sheet1-sprites/fence - right - end - 2.png" width="32" height="32"/>
  </tile>
  <tile id="172">
   <image source="tiled/ERW-Grassland 2.0/Props/Static props/sheet1-sprites/fence - right - end.png" width="32" height="32"/>
  </tile>
  <tile id="173">
   <image source="tiled/ERW-Grassland 2.0/Props/Static props/sheet1-sprites/fence - right - up.png" width="32" height="32"/>
  </tile>
  <tile id="174">
   <image source="tiled/ERW-Grassland 2.0/Props/Static props/sheet1-sprites/fence - right.png" width="32" height="32"/>
  </tile>
  <tile id="175">
   <image source="tiled/ERW-Grassland 2.0/Props/Static props/sheet1-sprites/fence - up - down.png" width="32" height="32"/>
  </tile>
  <tile id="176">
   <image source="tiled/ERW-Grassland 2.0/Props/Static props/sheet1-sprites/fence - up.png" width="32" height="32"/>
  </tile>
  <tile id="177">
   <image source="tiled/ERW-Grassland 2.0/Props/Static props/sheet1-sprites/fence.png" width="32" height="32"/>
  </tile>
  <tile id="178">
   <image source="tiled/ERW-Grassland 2.0/Props/Static props/sheet1-sprites/fence2 -  up.png" width="32" height="32"/>
  </tile>
  <tile id="179">
   <image source="tiled/ERW-Grassland 2.0/Props/Static props/sheet1-sprites/fence2 - down - up.png" width="32" height="32"/>
  </tile>
  <tile id="180">
   <image source="tiled/ERW-Grassland 2.0/Props/Static props/sheet1-sprites/fence2 - gateway - closed - left.png" width="32" height="32"/>
  </tile>
  <tile id="181">
   <image source="tiled/ERW-Grassland 2.0/Props/Static props/sheet1-sprites/fence2 - gateway - closed - middle.png" width="32" height="32"/>
  </tile>
  <tile id="182">
   <image source="tiled/ERW-Grassland 2.0/Props/Static props/sheet1-sprites/fence2 - gateway - closed - right.png" width="32" height="32"/>
  </tile>
  <tile id="183">
   <image source="tiled/ERW-Grassland 2.0/Props/Static props/sheet1-sprites/fence2 - gateway - left.png" width="32" height="64"/>
  </tile>
  <tile id="184">
   <image source="tiled/ERW-Grassland 2.0/Props/Static props/sheet1-sprites/fence2 - gateway - right.png" width="32" height="64"/>
  </tile>
  <tile id="185">
   <image source="tiled/ERW-Grassland 2.0/Props/Static props/sheet1-sprites/fence2 - gateway2 - left.png" width="32" height="64"/>
  </tile>
  <tile id="186">
   <image source="tiled/ERW-Grassland 2.0/Props/Static props/sheet1-sprites/fence2 - gateway2 - right.png" width="32" height="64"/>
  </tile>
  <tile id="187">
   <image source="tiled/ERW-Grassland 2.0/Props/Static props/sheet1-sprites/fence2 - left - down - up.png" width="32" height="32"/>
  </tile>
  <tile id="188">
   <image source="tiled/ERW-Grassland 2.0/Props/Static props/sheet1-sprites/fence2 - left - down.png" width="32" height="32"/>
  </tile>
  <tile id="189">
   <image source="tiled/ERW-Grassland 2.0/Props/Static props/sheet1-sprites/fence2 - left - end - 2.png" width="32" height="32"/>
  </tile>
  <tile id="190">
   <image source="tiled/ERW-Grassland 2.0/Props/Static props/sheet1-sprites/fence2 - left - end.png" width="32" height="32"/>
  </tile>
  <tile id="191">
   <image source="tiled/ERW-Grassland 2.0/Props/Static props/sheet1-sprites/fence2 - left - right - 1.png" width="32" height="32"/>
  </tile>
  <tile id="192">
   <image source="tiled/ERW-Grassland 2.0/Props/Static props/sheet1-sprites/fence2 - left - right - 2.png" width="32" height="32"/>
  </tile>
  <tile id="193">
   <image source="tiled/ERW-Grassland 2.0/Props/Static props/sheet1-sprites/fence2 - left - right - 3.png" width="32" height="32"/>
  </tile>
  <tile id="194">
   <image source="tiled/ERW-Grassland 2.0/Props/Static props/sheet1-sprites/fence2 - left - right - 4.png" width="32" height="32"/>
  </tile>
  <tile id="195">
   <image source="tiled/ERW-Grassland 2.0/Props/Static props/sheet1-sprites/fence2 - left - right - 5.png" width="32" height="32"/>
  </tile>
  <tile id="196">
   <image source="tiled/ERW-Grassland 2.0/Props/Static props/sheet1-sprites/fence2 - left - right - 6.png" width="32" height="32"/>
  </tile>
  <tile id="197">
   <image source="tiled/ERW-Grassland 2.0/Props/Static props/sheet1-sprites/fence2 - left - right - 7.png" width="32" height="32"/>
  </tile>
  <tile id="198">
   <image source="tiled/ERW-Grassland 2.0/Props/Static props/sheet1-sprites/fence2 - left - right - 8.png" width="32" height="32"/>
  </tile>
  <tile id="199">
   <image source="tiled/ERW-Grassland 2.0/Props/Static props/sheet1-sprites/fence2 - left - right - 9.png" width="32" height="32"/>
  </tile>
  <tile id="200">
   <image source="tiled/ERW-Grassland 2.0/Props/Static props/sheet1-sprites/fence2 - left - right - 10.png" width="32" height="32"/>
  </tile>
  <tile id="201">
   <image source="tiled/ERW-Grassland 2.0/Props/Static props/sheet1-sprites/fence2 - left - right - 11.png" width="32" height="32"/>
  </tile>
  <tile id="202">
   <image source="tiled/ERW-Grassland 2.0/Props/Static props/sheet1-sprites/fence2 - left - right - 12.png" width="32" height="32"/>
  </tile>
  <tile id="203">
   <image source="tiled/ERW-Grassland 2.0/Props/Static props/sheet1-sprites/fence2 - left - right - down - up.png" width="32" height="32"/>
  </tile>
  <tile id="204">
   <image source="tiled/ERW-Grassland 2.0/Props/Static props/sheet1-sprites/fence2 - left - up.png" width="32" height="32"/>
  </tile>
  <tile id="205">
   <image source="tiled/ERW-Grassland 2.0/Props/Static props/sheet1-sprites/fence2 - left.png" width="32" height="32"/>
  </tile>
  <tile id="206">
   <image source="tiled/ERW-Grassland 2.0/Props/Static props/sheet1-sprites/fence2 - right - down  - up.png" width="32" height="32"/>
  </tile>
  <tile id="207">
   <image source="tiled/ERW-Grassland 2.0/Props/Static props/sheet1-sprites/fence2 - right - down.png" width="32" height="32"/>
  </tile>
  <tile id="208">
   <image source="tiled/ERW-Grassland 2.0/Props/Static props/sheet1-sprites/fence2 - right - end - 2.png" width="32" height="32"/>
  </tile>
  <tile id="209">
   <image source="tiled/ERW-Grassland 2.0/Props/Static props/sheet1-sprites/fence2 - right - end.png" width="32" height="32"/>
  </tile>
  <tile id="210">
   <image source="tiled/ERW-Grassland 2.0/Props/Static props/sheet1-sprites/fence2 - right - up.png" width="32" height="32"/>
  </tile>
  <tile id="211">
   <image source="tiled/ERW-Grassland 2.0/Props/Static props/sheet1-sprites/fence2 - right.png" width="32" height="32"/>
  </tile>
  <tile id="212">
   <image source="tiled/ERW-Grassland 2.0/Props/Static props/sheet1-sprites/lamp post 1 - lamp - no grass.png" width="64" height="96"/>
  </tile>
  <tile id="213">
   <image source="tiled/ERW-Grassland 2.0/Props/Static props/sheet1-sprites/lamp post 1 - lamp.png" width="64" height="96"/>
  </tile>
  <tile id="214">
   <image source="tiled/ERW-Grassland 2.0/Props/Static props/sheet1-sprites/lamp post 1 - no lamp - no grass.png" width="64" height="96"/>
  </tile>
  <tile id="215">
   <image source="tiled/ERW-Grassland 2.0/Props/Static props/sheet1-sprites/lamp post 1 - no lamp.png" width="64" height="96"/>
  </tile>
  <tile id="216">
   <image source="tiled/ERW-Grassland 2.0/Props/Static props/sheet1-sprites/lamp post 2 - lamp - no grass.png" width="64" height="96"/>
  </tile>
  <tile id="217">
   <image source="tiled/ERW-Grassland 2.0/Props/Static props/sheet1-sprites/lamp post 2 - lamp.png" width="64" height="96"/>
  </tile>
  <tile id="218">
   <image source="tiled/ERW-Grassland 2.0/Props/Static props/sheet1-sprites/lamp post 2 - no lamp - no grass.png" width="64" height="96"/>
  </tile>
  <tile id="219">
   <image source="tiled/ERW-Grassland 2.0/Props/Static props/sheet1-sprites/lamp post 2 - no lamp.png" width="64" height="96"/>
  </tile>
  <tile id="220">
   <image source="tiled/ERW-Grassland 2.0/Props/Static props/sheet1-sprites/lamp post 3 - lamp - no grass.png" width="64" height="96"/>
  </tile>
  <tile id="221">
   <image source="tiled/ERW-Grassland 2.0/Props/Static props/sheet1-sprites/lamp post 3 - lamp.png" width="64" height="96"/>
  </tile>
  <tile id="222">
   <image source="tiled/ERW-Grassland 2.0/Props/Static props/sheet1-sprites/lamp post 3 - no lamp - no grass.png" width="64" height="96"/>
  </tile>
  <tile id="223">
   <image source="tiled/ERW-Grassland 2.0/Props/Static props/sheet1-sprites/lamp post 3 - no lamp.png" width="64" height="96"/>
  </tile>
  <tile id="224">
   <image source="tiled/ERW-Grassland 2.0/Props/Static props/sheet1-sprites/lamp post 4 - lamp - no grass.png" width="64" height="96"/>
  </tile>
  <tile id="225">
   <image source="tiled/ERW-Grassland 2.0/Props/Static props/sheet1-sprites/lamp post 4 - lamp.png" width="64" height="96"/>
  </tile>
  <tile id="226">
   <image source="tiled/ERW-Grassland 2.0/Props/Static props/sheet1-sprites/lamp post 4 - no lamp - no grass.png" width="64" height="96"/>
  </tile>
  <tile id="227">
   <image source="tiled/ERW-Grassland 2.0/Props/Static props/sheet1-sprites/lamp post 4 - no lamp.png" width="64" height="96"/>
  </tile>
  <tile id="228">
   <image source="tiled/ERW-Grassland 2.0/Props/Static props/sheet1-sprites/lamp post 5 - lamp - no grass.png" width="64" height="96"/>
  </tile>
  <tile id="229">
   <image source="tiled/ERW-Grassland 2.0/Props/Static props/sheet1-sprites/lamp post 5 - lamp.png" width="64" height="96"/>
  </tile>
  <tile id="230">
   <image source="tiled/ERW-Grassland 2.0/Props/Static props/sheet1-sprites/lamp post 5 - no lamp - no grass.png" width="64" height="96"/>
  </tile>
  <tile id="231">
   <image source="tiled/ERW-Grassland 2.0/Props/Static props/sheet1-sprites/lamp post 5 - no lamp.png" width="64" height="96"/>
  </tile>
  <tile id="232">
   <image source="tiled/ERW-Grassland 2.0/Props/Static props/sheet1-sprites/lamp post 6 - lamp - no grass.png" width="64" height="96"/>
  </tile>
  <tile id="233">
   <image source="tiled/ERW-Grassland 2.0/Props/Static props/sheet1-sprites/lamp post 6 - lamp.png" width="64" height="96"/>
  </tile>
  <tile id="234">
   <image source="tiled/ERW-Grassland 2.0/Props/Static props/sheet1-sprites/lamp post 6 - no lamp - no grass.png" width="64" height="96"/>
  </tile>
  <tile id="235">
   <image source="tiled/ERW-Grassland 2.0/Props/Static props/sheet1-sprites/lamp post 6 - no lamp.png" width="64" height="96"/>
  </tile>
  <tile id="236">
   <image source="tiled/ERW-Grassland 2.0/Props/Static props/sheet1-sprites/lamp post 7 - lamp - no grass.png" width="64" height="96"/>
  </tile>
  <tile id="237">
   <image source="tiled/ERW-Grassland 2.0/Props/Static props/sheet1-sprites/lamp post 7 - lamp.png" width="64" height="96"/>
  </tile>
  <tile id="238">
   <image source="tiled/ERW-Grassland 2.0/Props/Static props/sheet1-sprites/lamp post 7 - no lamp - no grass.png" width="64" height="96"/>
  </tile>
  <tile id="239">
   <image source="tiled/ERW-Grassland 2.0/Props/Static props/sheet1-sprites/lamp post 7 - no lamp.png" width="64" height="96"/>
  </tile>
  <tile id="240">
   <image source="tiled/ERW-Grassland 2.0/Props/Static props/sheet1-sprites/lamp post 8 - lamp - no grass.png" width="64" height="96"/>
  </tile>
  <tile id="241">
   <image source="tiled/ERW-Grassland 2.0/Props/Static props/sheet1-sprites/lamp post 8 - lamp.png" width="64" height="96"/>
  </tile>
  <tile id="242">
   <image source="tiled/ERW-Grassland 2.0/Props/Static props/sheet1-sprites/lamp post 8 - no lamp - no grass.png" width="64" height="96"/>
  </tile>
  <tile id="243">
   <image source="tiled/ERW-Grassland 2.0/Props/Static props/sheet1-sprites/lamp post 8 - no lamp.png" width="64" height="96"/>
  </tile>
  <tile id="244">
   <image source="tiled/ERW-Grassland 2.0/Props/Static props/sheet1-sprites/lamp post details 1.png" width="32" height="32"/>
  </tile>
  <tile id="245">
   <image source="tiled/ERW-Grassland 2.0/Props/Static props/sheet1-sprites/lamp post details 2.png" width="32" height="32"/>
  </tile>
  <tile id="246">
   <image source="tiled/ERW-Grassland 2.0/Props/Static props/sheet1-sprites/lamp post details 3.png" width="32" height="32"/>
  </tile>
  <tile id="247">
   <image source="tiled/ERW-Grassland 2.0/Props/Static props/sheet1-sprites/lamp post details 4.png" width="32" height="32"/>
  </tile>
  <tile id="248">
   <image source="tiled/ERW-Grassland 2.0/Props/Static props/sheet1-sprites/lamp post details 5.png" width="32" height="32"/>
  </tile>
  <tile id="249">
   <image source="tiled/ERW-Grassland 2.0/Props/Static props/sheet1-sprites/lamp post details 6.png" width="32" height="32"/>
  </tile>
  <tile id="250">
   <image source="tiled/ERW-Grassland 2.0/Props/Static props/sheet1-sprites/lamp post details 7.png" width="32" height="32"/>
  </tile>
  <tile id="251">
   <image source="tiled/ERW-Grassland 2.0/Props/Static props/sheet1-sprites/lamp post details 8.png" width="32" height="32"/>
  </tile>
  <tile id="252">
   <image source="tiled/ERW-Grassland 2.0/Props/Static props/sheet1-sprites/palm tree 1 - base only.png" width="64" height="32"/>
  </tile>
  <tile id="253">
   <image source="tiled/ERW-Grassland 2.0/Props/Static props/sheet1-sprites/palm tree 1 - on grass.png" width="96" height="160"/>
  </tile>
  <tile id="254">
   <image source="tiled/ERW-Grassland 2.0/Props/Static props/sheet1-sprites/palm tree 1 - on sand.png" width="96" height="160"/>
  </tile>
  <tile id="255">
   <image source="tiled/ERW-Grassland 2.0/Props/Static props/sheet1-sprites/palm tree 1 - only foliage - with coconuts.png" width="96" height="64"/>
  </tile>
  <tile id="256">
   <image source="tiled/ERW-Grassland 2.0/Props/Static props/sheet1-sprites/palm tree 1 - only foliage.png" width="96" height="64"/>
  </tile>
  <tile id="257">
   <image source="tiled/ERW-Grassland 2.0/Props/Static props/sheet1-sprites/palm tree 1 - only trunk.png" width="64" height="96"/>
  </tile>
  <tile id="258">
   <image source="tiled/ERW-Grassland 2.0/Props/Static props/sheet1-sprites/palm tree 2 - base only.png" width="32" height="32"/>
  </tile>
  <tile id="259">
   <image source="tiled/ERW-Grassland 2.0/Props/Static props/sheet1-sprites/palm tree 2 - on grass.png" width="96" height="160"/>
  </tile>
  <tile id="260">
   <image source="tiled/ERW-Grassland 2.0/Props/Static props/sheet1-sprites/palm tree 2 - on sand.png" width="96" height="160"/>
  </tile>
  <tile id="261">
   <image source="tiled/ERW-Grassland 2.0/Props/Static props/sheet1-sprites/palm tree 2 - only foliage - with coconuts.png" width="96" height="64"/>
  </tile>
  <tile id="262">
   <image source="tiled/ERW-Grassland 2.0/Props/Static props/sheet1-sprites/palm tree 2 - only foliage.png" width="96" height="64"/>
  </tile>
  <tile id="263">
   <image source="tiled/ERW-Grassland 2.0/Props/Static props/sheet1-sprites/palm tree 2 - only trunk.png" width="32" height="96"/>
  </tile>
  <tile id="264">
   <image source="tiled/ERW-Grassland 2.0/Props/Static props/sheet1-sprites/palm tree 3 - base only.png" width="64" height="32"/>
  </tile>
  <tile id="265">
   <image source="tiled/ERW-Grassland 2.0/Props/Static props/sheet1-sprites/palm tree 3 - on grass.png" width="160" height="192"/>
  </tile>
  <tile id="266">
   <image source="tiled/ERW-Grassland 2.0/Props/Static props/sheet1-sprites/palm tree 3 - on sand.png" width="160" height="192"/>
  </tile>
  <tile id="267">
   <image source="tiled/ERW-Grassland 2.0/Props/Static props/sheet1-sprites/palm tree 3 - only foliage - with coconuts.png" width="96" height="96"/>
  </tile>
  <tile id="268">
   <image source="tiled/ERW-Grassland 2.0/Props/Static props/sheet1-sprites/palm tree 3 - only foliage.png" width="96" height="96"/>
  </tile>
  <tile id="269">
   <image source="tiled/ERW-Grassland 2.0/Props/Static props/sheet1-sprites/palm tree 3 - only trunk.png" width="96" height="128"/>
  </tile>
  <tile id="270">
   <image source="tiled/ERW-Grassland 2.0/Props/Static props/sheet1-sprites/palm tree 4 - base only.png" width="32" height="32"/>
  </tile>
  <tile id="271">
   <image source="tiled/ERW-Grassland 2.0/Props/Static props/sheet1-sprites/palm tree 4 - on grass.png" width="128" height="160"/>
  </tile>
  <tile id="272">
   <image source="tiled/ERW-Grassland 2.0/Props/Static props/sheet1-sprites/palm tree 4 - on sand.png" width="128" height="192"/>
  </tile>
  <tile id="273">
   <image source="tiled/ERW-Grassland 2.0/Props/Static props/sheet1-sprites/palm tree 4 - only foliage - with coconuts.png" width="96" height="64"/>
  </tile>
  <tile id="274">
   <image source="tiled/ERW-Grassland 2.0/Props/Static props/sheet1-sprites/palm tree 4 - only foliage.png" width="96" height="64"/>
  </tile>
  <tile id="275">
   <image source="tiled/ERW-Grassland 2.0/Props/Static props/sheet1-sprites/palm tree 4 - only trunk.png" width="96" height="96"/>
  </tile>
  <tile id="276">
   <image source="tiled/ERW-Grassland 2.0/Props/Static props/sheet1-sprites/palm tree 5 - base only.png" width="64" height="32"/>
  </tile>
  <tile id="277">
   <image source="tiled/ERW-Grassland 2.0/Props/Static props/sheet1-sprites/palm tree 5 - on grass.png" width="96" height="160"/>
  </tile>
  <tile id="278">
   <image source="tiled/ERW-Grassland 2.0/Props/Static props/sheet1-sprites/palm tree 5 - on sand.png" width="96" height="192"/>
  </tile>
  <tile id="279">
   <image source="tiled/ERW-Grassland 2.0/Props/Static props/sheet1-sprites/palm tree 5 - only foliage - with coconuts.png" width="64" height="64"/>
  </tile>
  <tile id="280">
   <image source="tiled/ERW-Grassland 2.0/Props/Static props/sheet1-sprites/palm tree 5 - only foliage.png" width="64" height="64"/>
  </tile>
  <tile id="281">
   <image source="tiled/ERW-Grassland 2.0/Props/Static props/sheet1-sprites/palm tree 5 - only trunk.png" width="64" height="128"/>
  </tile>
  <tile id="282">
   <image source="tiled/ERW-Grassland 2.0/Props/Static props/sheet1-sprites/palm tree 6 - base only.png" width="32" height="32"/>
  </tile>
  <tile id="283">
   <image source="tiled/ERW-Grassland 2.0/Props/Static props/sheet1-sprites/palm tree 6 - on grass.png" width="96" height="192"/>
  </tile>
  <tile id="284">
   <image source="tiled/ERW-Grassland 2.0/Props/Static props/sheet1-sprites/palm tree 6 - on sand.png" width="96" height="192"/>
  </tile>
  <tile id="285">
   <image source="tiled/ERW-Grassland 2.0/Props/Static props/sheet1-sprites/palm tree 6 - only foliage - with coconuts.png" width="96" height="96"/>
  </tile>
  <tile id="286">
   <image source="tiled/ERW-Grassland 2.0/Props/Static props/sheet1-sprites/palm tree 6 - only foliage.png" width="96" height="96"/>
  </tile>
  <tile id="287">
   <image source="tiled/ERW-Grassland 2.0/Props/Static props/sheet1-sprites/palm tree 6 - only trunk.png" width="64" height="128"/>
  </tile>
  <tile id="288">
   <image source="tiled/ERW-Grassland 2.0/Props/Static props/sheet1-sprites/rocks - color scheme 1 - 1.png" width="96" height="64"/>
  </tile>
  <tile id="289">
   <image source="tiled/ERW-Grassland 2.0/Props/Static props/sheet1-sprites/rocks - color scheme 1 - 2.png" width="64" height="64"/>
  </tile>
  <tile id="290">
   <image source="tiled/ERW-Grassland 2.0/Props/Static props/sheet1-sprites/rocks - color scheme 1 - 3.png" width="96" height="64"/>
  </tile>
  <tile id="291">
   <image source="tiled/ERW-Grassland 2.0/Props/Static props/sheet1-sprites/rocks - color scheme 1 - 4.png" width="96" height="64"/>
  </tile>
  <tile id="292">
   <image source="tiled/ERW-Grassland 2.0/Props/Static props/sheet1-sprites/rocks - color scheme 1 - 5.png" width="64" height="64"/>
  </tile>
  <tile id="293">
   <image source="tiled/ERW-Grassland 2.0/Props/Static props/sheet1-sprites/rocks - color scheme 1 - 6.png" width="64" height="64"/>
  </tile>
  <tile id="294">
   <image source="tiled/ERW-Grassland 2.0/Props/Static props/sheet1-sprites/rocks - color scheme 1 - 7.png" width="64" height="32"/>
  </tile>
  <tile id="295">
   <image source="tiled/ERW-Grassland 2.0/Props/Static props/sheet1-sprites/rocks - color scheme 1 - 8.png" width="64" height="32"/>
  </tile>
  <tile id="296">
   <image source="tiled/ERW-Grassland 2.0/Props/Static props/sheet1-sprites/rocks - color scheme 1 - 9.png" width="32" height="32"/>
  </tile>
  <tile id="297">
   <image source="tiled/ERW-Grassland 2.0/Props/Static props/sheet1-sprites/rocks - color scheme 1 - 10.png" width="32" height="32"/>
  </tile>
  <tile id="298">
   <image source="tiled/ERW-Grassland 2.0/Props/Static props/sheet1-sprites/rocks - color scheme 1 - 11.png" width="32" height="32"/>
  </tile>
  <tile id="299">
   <image source="tiled/ERW-Grassland 2.0/Props/Static props/sheet1-sprites/rocks - color scheme 1 - 12.png" width="32" height="32"/>
  </tile>
  <tile id="300">
   <image source="tiled/ERW-Grassland 2.0/Props/Static props/sheet1-sprites/rocks - color scheme 1 - 13.png" width="32" height="32"/>
  </tile>
  <tile id="301">
   <image source="tiled/ERW-Grassland 2.0/Props/Static props/sheet1-sprites/rocks - color scheme 1 - 14.png" width="64" height="32"/>
  </tile>
  <tile id="302">
   <image source="tiled/ERW-Grassland 2.0/Props/Static props/sheet1-sprites/rocks - color scheme 1 - 15.png" width="32" height="32"/>
  </tile>
  <tile id="303">
   <image source="tiled/ERW-Grassland 2.0/Props/Static props/sheet1-sprites/rocks - color scheme 1 - 16.png" width="32" height="32"/>
  </tile>
  <tile id="304">
   <image source="tiled/ERW-Grassland 2.0/Props/Static props/sheet1-sprites/rocks - color scheme 1 - 17.png" width="32" height="32"/>
  </tile>
  <tile id="305">
   <image source="tiled/ERW-Grassland 2.0/Props/Static props/sheet1-sprites/rocks - color scheme 1 - 18.png" width="32" height="32"/>
  </tile>
  <tile id="306">
   <image source="tiled/ERW-Grassland 2.0/Props/Static props/sheet1-sprites/rocks - color scheme 1 - 19.png" width="32" height="32"/>
  </tile>
  <tile id="307">
   <image source="tiled/ERW-Grassland 2.0/Props/Static props/sheet1-sprites/rocks - color scheme 1 - 20.png" width="32" height="32"/>
  </tile>
  <tile id="308">
   <image source="tiled/ERW-Grassland 2.0/Props/Static props/sheet1-sprites/rocks - color scheme 1 - 21.png" width="32" height="32"/>
  </tile>
  <tile id="309">
   <image source="tiled/ERW-Grassland 2.0/Props/Static props/sheet1-sprites/rocks - color scheme 1 - 22.png" width="32" height="32"/>
  </tile>
  <tile id="310">
   <image source="tiled/ERW-Grassland 2.0/Props/Static props/sheet1-sprites/rocks - color scheme 1 - 23.png" width="32" height="32"/>
  </tile>
  <tile id="311">
   <image source="tiled/ERW-Grassland 2.0/Props/Static props/sheet1-sprites/rocks - color scheme 1 - 24.png" width="32" height="32"/>
  </tile>
  <tile id="312">
   <image source="tiled/ERW-Grassland 2.0/Props/Static props/sheet1-sprites/rocks - color scheme 1 - 25.png" width="32" height="32"/>
  </tile>
  <tile id="313">
   <image source="tiled/ERW-Grassland 2.0/Props/Static props/sheet1-sprites/rocks - color scheme 1 - 26.png" width="32" height="32"/>
  </tile>
  <tile id="314">
   <image source="tiled/ERW-Grassland 2.0/Props/Static props/sheet1-sprites/rocks - color scheme 1 - 27.png" width="32" height="32"/>
  </tile>
  <tile id="315">
   <image source="tiled/ERW-Grassland 2.0/Props/Static props/sheet1-sprites/rocks - color scheme 1 - 28.png" width="32" height="32"/>
  </tile>
  <tile id="316">
   <image source="tiled/ERW-Grassland 2.0/Props/Static props/sheet1-sprites/rocks - color scheme 1 - 29.png" width="32" height="32"/>
  </tile>
  <tile id="317">
   <image source="tiled/ERW-Grassland 2.0/Props/Static props/sheet1-sprites/rocks - color scheme 1 - 30.png" width="32" height="32"/>
  </tile>
  <tile id="318">
   <image source="tiled/ERW-Grassland 2.0/Props/Static props/sheet1-sprites/rocks - color scheme 1 - 31.png" width="32" height="32"/>
  </tile>
  <tile id="319">
   <image source="tiled/ERW-Grassland 2.0/Props/Static props/sheet1-sprites/rocks - color scheme 1 - 32.png" width="32" height="32"/>
  </tile>
  <tile id="320">
   <image source="tiled/ERW-Grassland 2.0/Props/Static props/sheet1-sprites/rocks - color scheme 2 - 1.png" width="96" height="64"/>
  </tile>
  <tile id="321">
   <image source="tiled/ERW-Grassland 2.0/Props/Static props/sheet1-sprites/rocks - color scheme 2 - 2.png" width="64" height="64"/>
  </tile>
  <tile id="322">
   <image source="tiled/ERW-Grassland 2.0/Props/Static props/sheet1-sprites/rocks - color scheme 2 - 3.png" width="96" height="64"/>
  </tile>
  <tile id="323">
   <image source="tiled/ERW-Grassland 2.0/Props/Static props/sheet1-sprites/rocks - color scheme 2 - 4.png" width="96" height="64"/>
  </tile>
  <tile id="324">
   <image source="tiled/ERW-Grassland 2.0/Props/Static props/sheet1-sprites/rocks - color scheme 2 - 5.png" width="64" height="64"/>
  </tile>
  <tile id="325">
   <image source="tiled/ERW-Grassland 2.0/Props/Static props/sheet1-sprites/rocks - color scheme 2 - 6.png" width="64" height="64"/>
  </tile>
  <tile id="326">
   <image source="tiled/ERW-Grassland 2.0/Props/Static props/sheet1-sprites/rocks - color scheme 2 - 7.png" width="64" height="32"/>
  </tile>
  <tile id="327">
   <image source="tiled/ERW-Grassland 2.0/Props/Static props/sheet1-sprites/rocks - color scheme 2 - 8.png" width="64" height="32"/>
  </tile>
  <tile id="328">
   <image source="tiled/ERW-Grassland 2.0/Props/Static props/sheet1-sprites/rocks - color scheme 2 - 9.png" width="32" height="32"/>
  </tile>
  <tile id="329">
   <image source="tiled/ERW-Grassland 2.0/Props/Static props/sheet1-sprites/rocks - color scheme 2 - 10.png" width="32" height="32"/>
  </tile>
  <tile id="330">
   <image source="tiled/ERW-Grassland 2.0/Props/Static props/sheet1-sprites/rocks - color scheme 2 - 11.png" width="32" height="32"/>
  </tile>
  <tile id="331">
   <image source="tiled/ERW-Grassland 2.0/Props/Static props/sheet1-sprites/rocks - color scheme 2 - 12.png" width="32" height="32"/>
  </tile>
  <tile id="332">
   <image source="tiled/ERW-Grassland 2.0/Props/Static props/sheet1-sprites/rocks - color scheme 2 - 13.png" width="32" height="32"/>
  </tile>
  <tile id="333">
   <image source="tiled/ERW-Grassland 2.0/Props/Static props/sheet1-sprites/rocks - color scheme 2 - 14.png" width="64" height="32"/>
  </tile>
  <tile id="334">
   <image source="tiled/ERW-Grassland 2.0/Props/Static props/sheet1-sprites/rocks - color scheme 2 - 15.png" width="32" height="32"/>
  </tile>
  <tile id="335">
   <image source="tiled/ERW-Grassland 2.0/Props/Static props/sheet1-sprites/rocks - color scheme 2 - 16.png" width="32" height="32"/>
  </tile>
  <tile id="336">
   <image source="tiled/ERW-Grassland 2.0/Props/Static props/sheet1-sprites/rocks - color scheme 2 - 17.png" width="32" height="32"/>
  </tile>
  <tile id="337">
   <image source="tiled/ERW-Grassland 2.0/Props/Static props/sheet1-sprites/rocks - color scheme 2 - 18.png" width="32" height="32"/>
  </tile>
  <tile id="338">
   <image source="tiled/ERW-Grassland 2.0/Props/Static props/sheet1-sprites/rocks - color scheme 2 - 19.png" width="32" height="32"/>
  </tile>
  <tile id="339">
   <image source="tiled/ERW-Grassland 2.0/Props/Static props/sheet1-sprites/rocks - color scheme 2 - 20.png" width="32" height="32"/>
  </tile>
  <tile id="340">
   <image source="tiled/ERW-Grassland 2.0/Props/Static props/sheet1-sprites/rocks - color scheme 2 - 21.png" width="32" height="32"/>
  </tile>
  <tile id="341">
   <image source="tiled/ERW-Grassland 2.0/Props/Static props/sheet1-sprites/rocks - color scheme 2 - 22.png" width="32" height="32"/>
  </tile>
  <tile id="342">
   <image source="tiled/ERW-Grassland 2.0/Props/Static props/sheet1-sprites/rocks - color scheme 2 - 23.png" width="32" height="32"/>
  </tile>
  <tile id="343">
   <image source="tiled/ERW-Grassland 2.0/Props/Static props/sheet1-sprites/rocks - color scheme 2 - 24.png" width="32" height="32"/>
  </tile>
  <tile id="344">
   <image source="tiled/ERW-Grassland 2.0/Props/Static props/sheet1-sprites/rocks - color scheme 2 - 25.png" width="32" height="32"/>
  </tile>
  <tile id="345">
   <image source="tiled/ERW-Grassland 2.0/Props/Static props/sheet1-sprites/rocks - color scheme 2 - 26.png" width="32" height="32"/>
  </tile>
  <tile id="346">
   <image source="tiled/ERW-Grassland 2.0/Props/Static props/sheet1-sprites/rocks - color scheme 2 - 27.png" width="32" height="32"/>
  </tile>
  <tile id="347">
   <image source="tiled/ERW-Grassland 2.0/Props/Static props/sheet1-sprites/rocks - color scheme 2 - 28.png" width="32" height="32"/>
  </tile>
  <tile id="348">
   <image source="tiled/ERW-Grassland 2.0/Props/Static props/sheet1-sprites/rocks - color scheme 2 - 29.png" width="32" height="32"/>
  </tile>
  <tile id="349">
   <image source="tiled/ERW-Grassland 2.0/Props/Static props/sheet1-sprites/rocks - color scheme 2 - 30.png" width="32" height="32"/>
  </tile>
  <tile id="350">
   <image source="tiled/ERW-Grassland 2.0/Props/Static props/sheet1-sprites/rocks - color scheme 2 - 31.png" width="32" height="32"/>
  </tile>
  <tile id="351">
   <image source="tiled/ERW-Grassland 2.0/Props/Static props/sheet1-sprites/rocks - color scheme 2 - 32.png" width="32" height="32"/>
  </tile>
  <tile id="352">
   <image source="tiled/ERW-Grassland 2.0/Props/Static props/sheet1-sprites/rocks on grass - color scheme 1 - 1.png" width="96" height="64"/>
  </tile>
  <tile id="353">
   <image source="tiled/ERW-Grassland 2.0/Props/Static props/sheet1-sprites/rocks on grass - color scheme 1 - 2.png" width="64" height="64"/>
  </tile>
  <tile id="354">
   <image source="tiled/ERW-Grassland 2.0/Props/Static props/sheet1-sprites/rocks on grass - color scheme 1 - 3.png" width="96" height="64"/>
  </tile>
  <tile id="355">
   <image source="tiled/ERW-Grassland 2.0/Props/Static props/sheet1-sprites/rocks on grass - color scheme 1 - 4.png" width="96" height="64"/>
  </tile>
  <tile id="356">
   <image source="tiled/ERW-Grassland 2.0/Props/Static props/sheet1-sprites/rocks on grass - color scheme 1 - 5.png" width="64" height="64"/>
  </tile>
  <tile id="357">
   <image source="tiled/ERW-Grassland 2.0/Props/Static props/sheet1-sprites/rocks on grass - color scheme 1 - 6.png" width="64" height="64"/>
  </tile>
  <tile id="358">
   <image source="tiled/ERW-Grassland 2.0/Props/Static props/sheet1-sprites/rocks on grass - color scheme 1 - 7.png" width="64" height="32"/>
  </tile>
  <tile id="359">
   <image source="tiled/ERW-Grassland 2.0/Props/Static props/sheet1-sprites/rocks on grass - color scheme 1 - 8.png" width="64" height="32"/>
  </tile>
  <tile id="360">
   <image source="tiled/ERW-Grassland 2.0/Props/Static props/sheet1-sprites/rocks on grass - color scheme 1 - 9.png" width="32" height="32"/>
  </tile>
  <tile id="361">
   <image source="tiled/ERW-Grassland 2.0/Props/Static props/sheet1-sprites/rocks on grass - color scheme 1 - 10.png" width="32" height="32"/>
  </tile>
  <tile id="362">
   <image source="tiled/ERW-Grassland 2.0/Props/Static props/sheet1-sprites/rocks on grass - color scheme 1 - 11.png" width="32" height="32"/>
  </tile>
  <tile id="363">
   <image source="tiled/ERW-Grassland 2.0/Props/Static props/sheet1-sprites/rocks on grass - color scheme 1 - 12.png" width="32" height="32"/>
  </tile>
  <tile id="364">
   <image source="tiled/ERW-Grassland 2.0/Props/Static props/sheet1-sprites/rocks on grass - color scheme 1 - 13.png" width="32" height="32"/>
  </tile>
  <tile id="365">
   <image source="tiled/ERW-Grassland 2.0/Props/Static props/sheet1-sprites/rocks on grass - color scheme 1 - 14.png" width="64" height="32"/>
  </tile>
  <tile id="366">
   <image source="tiled/ERW-Grassland 2.0/Props/Static props/sheet1-sprites/rocks on grass - color scheme 1 - 15.png" width="32" height="32"/>
  </tile>
  <tile id="367">
   <image source="tiled/ERW-Grassland 2.0/Props/Static props/sheet1-sprites/rocks on grass - color scheme 1 - 16.png" width="32" height="32"/>
  </tile>
  <tile id="368">
   <image source="tiled/ERW-Grassland 2.0/Props/Static props/sheet1-sprites/rocks on grass - color scheme 1 - 17.png" width="32" height="32"/>
  </tile>
  <tile id="369">
   <image source="tiled/ERW-Grassland 2.0/Props/Static props/sheet1-sprites/rocks on grass - color scheme 1 - 18.png" width="32" height="32"/>
  </tile>
  <tile id="370">
   <image source="tiled/ERW-Grassland 2.0/Props/Static props/sheet1-sprites/rocks on grass - color scheme 1 - 19.png" width="32" height="32"/>
  </tile>
  <tile id="371">
   <image source="tiled/ERW-Grassland 2.0/Props/Static props/sheet1-sprites/rocks on grass - color scheme 1 - 20.png" width="32" height="32"/>
  </tile>
  <tile id="372">
   <image source="tiled/ERW-Grassland 2.0/Props/Static props/sheet1-sprites/rocks on grass - color scheme 1 - 21.png" width="32" height="32"/>
  </tile>
  <tile id="373">
   <image source="tiled/ERW-Grassland 2.0/Props/Static props/sheet1-sprites/rocks on grass - color scheme 1 - 22.png" width="32" height="32"/>
  </tile>
  <tile id="374">
   <image source="tiled/ERW-Grassland 2.0/Props/Static props/sheet1-sprites/rocks on grass - color scheme 1 - 23.png" width="32" height="32"/>
  </tile>
  <tile id="375">
   <image source="tiled/ERW-Grassland 2.0/Props/Static props/sheet1-sprites/rocks on grass - color scheme 1 - 24.png" width="32" height="32"/>
  </tile>
  <tile id="376">
   <image source="tiled/ERW-Grassland 2.0/Props/Static props/sheet1-sprites/rocks on grass - color scheme 1 - 25.png" width="32" height="32"/>
  </tile>
  <tile id="377">
   <image source="tiled/ERW-Grassland 2.0/Props/Static props/sheet1-sprites/rocks on grass - color scheme 1 - 26.png" width="32" height="32"/>
  </tile>
  <tile id="378">
   <image source="tiled/ERW-Grassland 2.0/Props/Static props/sheet1-sprites/rocks on grass - color scheme 1 - 27.png" width="32" height="32"/>
  </tile>
  <tile id="379">
   <image source="tiled/ERW-Grassland 2.0/Props/Static props/sheet1-sprites/rocks on grass - color scheme 1 - 28.png" width="32" height="32"/>
  </tile>
  <tile id="380">
   <image source="tiled/ERW-Grassland 2.0/Props/Static props/sheet1-sprites/rocks on grass - color scheme 1 - 29.png" width="32" height="32"/>
  </tile>
  <tile id="381">
   <image source="tiled/ERW-Grassland 2.0/Props/Static props/sheet1-sprites/rocks on grass - color scheme 1 - 30.png" width="32" height="32"/>
  </tile>
  <tile id="382">
   <image source="tiled/ERW-Grassland 2.0/Props/Static props/sheet1-sprites/rocks on grass - color scheme 1 - 31.png" width="32" height="32"/>
  </tile>
  <tile id="383">
   <image source="tiled/ERW-Grassland 2.0/Props/Static props/sheet1-sprites/rocks on grass - color scheme 1 - 32.png" width="32" height="32"/>
  </tile>
  <tile id="384">
   <image source="tiled/ERW-Grassland 2.0/Props/Static props/sheet1-sprites/rocks on grass - color scheme 2 - 1.png" width="96" height="64"/>
  </tile>
  <tile id="385">
   <image source="tiled/ERW-Grassland 2.0/Props/Static props/sheet1-sprites/rocks on grass - color scheme 2 - 2.png" width="64" height="64"/>
  </tile>
  <tile id="386">
   <image source="tiled/ERW-Grassland 2.0/Props/Static props/sheet1-sprites/rocks on grass - color scheme 2 - 3.png" width="96" height="64"/>
  </tile>
  <tile id="387">
   <image source="tiled/ERW-Grassland 2.0/Props/Static props/sheet1-sprites/rocks on grass - color scheme 2 - 4.png" width="96" height="64"/>
  </tile>
  <tile id="388">
   <image source="tiled/ERW-Grassland 2.0/Props/Static props/sheet1-sprites/rocks on grass - color scheme 2 - 5.png" width="64" height="64"/>
  </tile>
  <tile id="389">
   <image source="tiled/ERW-Grassland 2.0/Props/Static props/sheet1-sprites/rocks on grass - color scheme 2 - 6.png" width="64" height="64"/>
  </tile>
  <tile id="390">
   <image source="tiled/ERW-Grassland 2.0/Props/Static props/sheet1-sprites/rocks on grass - color scheme 2 - 7.png" width="64" height="32"/>
  </tile>
  <tile id="391">
   <image source="tiled/ERW-Grassland 2.0/Props/Static props/sheet1-sprites/rocks on grass - color scheme 2 - 8.png" width="64" height="32"/>
  </tile>
  <tile id="392">
   <image source="tiled/ERW-Grassland 2.0/Props/Static props/sheet1-sprites/rocks on grass - color scheme 2 - 9.png" width="32" height="32"/>
  </tile>
  <tile id="393">
   <image source="tiled/ERW-Grassland 2.0/Props/Static props/sheet1-sprites/rocks on grass - color scheme 2 - 10.png" width="32" height="32"/>
  </tile>
  <tile id="394">
   <image source="tiled/ERW-Grassland 2.0/Props/Static props/sheet1-sprites/rocks on grass - color scheme 2 - 11.png" width="32" height="32"/>
  </tile>
  <tile id="395">
   <image source="tiled/ERW-Grassland 2.0/Props/Static props/sheet1-sprites/rocks on grass - color scheme 2 - 12.png" width="32" height="32"/>
  </tile>
  <tile id="396">
   <image source="tiled/ERW-Grassland 2.0/Props/Static props/sheet1-sprites/rocks on grass - color scheme 2 - 13.png" width="32" height="32"/>
  </tile>
  <tile id="397">
   <image source="tiled/ERW-Grassland 2.0/Props/Static props/sheet1-sprites/rocks on grass - color scheme 2 - 14.png" width="64" height="32"/>
  </tile>
  <tile id="398">
   <image source="tiled/ERW-Grassland 2.0/Props/Static props/sheet1-sprites/rocks on grass - color scheme 2 - 15.png" width="32" height="32"/>
  </tile>
  <tile id="399">
   <image source="tiled/ERW-Grassland 2.0/Props/Static props/sheet1-sprites/rocks on grass - color scheme 2 - 16.png" width="32" height="32"/>
  </tile>
  <tile id="400">
   <image source="tiled/ERW-Grassland 2.0/Props/Static props/sheet1-sprites/rocks on grass - color scheme 2 - 17.png" width="32" height="32"/>
  </tile>
  <tile id="401">
   <image source="tiled/ERW-Grassland 2.0/Props/Static props/sheet1-sprites/rocks on grass - color scheme 2 - 18.png" width="32" height="32"/>
  </tile>
  <tile id="402">
   <image source="tiled/ERW-Grassland 2.0/Props/Static props/sheet1-sprites/rocks on grass - color scheme 2 - 19.png" width="32" height="32"/>
  </tile>
  <tile id="403">
   <image source="tiled/ERW-Grassland 2.0/Props/Static props/sheet1-sprites/rocks on grass - color scheme 2 - 20.png" width="32" height="32"/>
  </tile>
  <tile id="404">
   <image source="tiled/ERW-Grassland 2.0/Props/Static props/sheet1-sprites/rocks on grass - color scheme 2 - 21.png" width="32" height="32"/>
  </tile>
  <tile id="405">
   <image source="tiled/ERW-Grassland 2.0/Props/Static props/sheet1-sprites/rocks on grass - color scheme 2 - 22.png" width="32" height="32"/>
  </tile>
  <tile id="406">
   <image source="tiled/ERW-Grassland 2.0/Props/Static props/sheet1-sprites/rocks on grass - color scheme 2 - 23.png" width="32" height="32"/>
  </tile>
  <tile id="407">
   <image source="tiled/ERW-Grassland 2.0/Props/Static props/sheet1-sprites/rocks on grass - color scheme 2 - 24.png" width="32" height="32"/>
  </tile>
  <tile id="408">
   <image source="tiled/ERW-Grassland 2.0/Props/Static props/sheet1-sprites/rocks on grass - color scheme 2 - 25.png" width="32" height="32"/>
  </tile>
  <tile id="409">
   <image source="tiled/ERW-Grassland 2.0/Props/Static props/sheet1-sprites/rocks on grass - color scheme 2 - 26.png" width="32" height="32"/>
  </tile>
  <tile id="410">
   <image source="tiled/ERW-Grassland 2.0/Props/Static props/sheet1-sprites/rocks on grass - color scheme 2 - 27.png" width="32" height="32"/>
  </tile>
  <tile id="411">
   <image source="tiled/ERW-Grassland 2.0/Props/Static props/sheet1-sprites/rocks on grass - color scheme 2 - 28.png" width="32" height="32"/>
  </tile>
  <tile id="412">
   <image source="tiled/ERW-Grassland 2.0/Props/Static props/sheet1-sprites/rocks on grass - color scheme 2 - 29.png" width="32" height="32"/>
  </tile>
  <tile id="413">
   <image source="tiled/ERW-Grassland 2.0/Props/Static props/sheet1-sprites/rocks on grass - color scheme 2 - 30.png" width="32" height="32"/>
  </tile>
  <tile id="414">
   <image source="tiled/ERW-Grassland 2.0/Props/Static props/sheet1-sprites/rocks on grass - color scheme 2 - 31.png" width="32" height="32"/>
  </tile>
  <tile id="415">
   <image source="tiled/ERW-Grassland 2.0/Props/Static props/sheet1-sprites/rocks on grass - color scheme 2 - 32.png" width="32" height="32"/>
  </tile>
  <tile id="416">
   <image source="tiled/ERW-Grassland 2.0/Props/Static props/sheet1-sprites/rocks on grass - color scheme 3 - 1.png" width="96" height="64"/>
  </tile>
  <tile id="417">
   <image source="tiled/ERW-Grassland 2.0/Props/Static props/sheet1-sprites/rocks on grass - color scheme 3 - 2.png" width="64" height="64"/>
  </tile>
  <tile id="418">
   <image source="tiled/ERW-Grassland 2.0/Props/Static props/sheet1-sprites/rocks on grass - color scheme 3 - 3.png" width="96" height="64"/>
  </tile>
  <tile id="419">
   <image source="tiled/ERW-Grassland 2.0/Props/Static props/sheet1-sprites/rocks on grass - color scheme 3 - 4.png" width="96" height="64"/>
  </tile>
  <tile id="420">
   <image source="tiled/ERW-Grassland 2.0/Props/Static props/sheet1-sprites/rocks on grass - color scheme 3 - 5.png" width="64" height="64"/>
  </tile>
  <tile id="421">
   <image source="tiled/ERW-Grassland 2.0/Props/Static props/sheet1-sprites/rocks on grass - color scheme 3 - 6.png" width="64" height="64"/>
  </tile>
  <tile id="422">
   <image source="tiled/ERW-Grassland 2.0/Props/Static props/sheet1-sprites/rocks on grass - color scheme 3 - 7.png" width="64" height="32"/>
  </tile>
  <tile id="423">
   <image source="tiled/ERW-Grassland 2.0/Props/Static props/sheet1-sprites/rocks on grass - color scheme 3 - 8.png" width="64" height="32"/>
  </tile>
  <tile id="424">
   <image source="tiled/ERW-Grassland 2.0/Props/Static props/sheet1-sprites/rocks on grass - color scheme 3 - 9.png" width="32" height="32"/>
  </tile>
  <tile id="425">
   <image source="tiled/ERW-Grassland 2.0/Props/Static props/sheet1-sprites/rocks on grass - color scheme 3 - 10.png" width="32" height="32"/>
  </tile>
  <tile id="426">
   <image source="tiled/ERW-Grassland 2.0/Props/Static props/sheet1-sprites/rocks on grass - color scheme 3 - 11.png" width="32" height="32"/>
  </tile>
  <tile id="427">
   <image source="tiled/ERW-Grassland 2.0/Props/Static props/sheet1-sprites/rocks on grass - color scheme 3 - 12.png" width="32" height="32"/>
  </tile>
  <tile id="428">
   <image source="tiled/ERW-Grassland 2.0/Props/Static props/sheet1-sprites/rocks on grass - color scheme 3 - 13.png" width="32" height="32"/>
  </tile>
  <tile id="429">
   <image source="tiled/ERW-Grassland 2.0/Props/Static props/sheet1-sprites/rocks on grass - color scheme 3 - 14.png" width="64" height="32"/>
  </tile>
  <tile id="430">
   <image source="tiled/ERW-Grassland 2.0/Props/Static props/sheet1-sprites/rocks on grass - color scheme 3 - 15.png" width="32" height="32"/>
  </tile>
  <tile id="431">
   <image source="tiled/ERW-Grassland 2.0/Props/Static props/sheet1-sprites/rocks on grass - color scheme 3 - 16.png" width="32" height="32"/>
  </tile>
  <tile id="432">
   <image source="tiled/ERW-Grassland 2.0/Props/Static props/sheet1-sprites/rocks on grass - color scheme 3 - 17.png" width="32" height="32"/>
  </tile>
  <tile id="433">
   <image source="tiled/ERW-Grassland 2.0/Props/Static props/sheet1-sprites/rocks on grass - color scheme 3 - 18.png" width="32" height="32"/>
  </tile>
  <tile id="434">
   <image source="tiled/ERW-Grassland 2.0/Props/Static props/sheet1-sprites/rocks on grass - color scheme 3 - 19.png" width="32" height="32"/>
  </tile>
  <tile id="435">
   <image source="tiled/ERW-Grassland 2.0/Props/Static props/sheet1-sprites/rocks on grass - color scheme 3 - 20.png" width="32" height="32"/>
  </tile>
  <tile id="436">
   <image source="tiled/ERW-Grassland 2.0/Props/Static props/sheet1-sprites/rocks on grass - color scheme 3 - 21.png" width="32" height="32"/>
  </tile>
  <tile id="437">
   <image source="tiled/ERW-Grassland 2.0/Props/Static props/sheet1-sprites/rocks on grass - color scheme 3 - 22.png" width="32" height="32"/>
  </tile>
  <tile id="438">
   <image source="tiled/ERW-Grassland 2.0/Props/Static props/sheet1-sprites/rocks on grass - color scheme 3 - 23.png" width="32" height="32"/>
  </tile>
  <tile id="439">
   <image source="tiled/ERW-Grassland 2.0/Props/Static props/sheet1-sprites/rocks on grass - color scheme 3 - 24.png" width="32" height="32"/>
  </tile>
  <tile id="440">
   <image source="tiled/ERW-Grassland 2.0/Props/Static props/sheet1-sprites/rocks on grass - color scheme 3 - 25.png" width="32" height="32"/>
  </tile>
  <tile id="441">
   <image source="tiled/ERW-Grassland 2.0/Props/Static props/sheet1-sprites/rocks on grass - color scheme 3 - 26.png" width="32" height="32"/>
  </tile>
  <tile id="442">
   <image source="tiled/ERW-Grassland 2.0/Props/Static props/sheet1-sprites/rocks on grass - color scheme 3 - 27.png" width="32" height="32"/>
  </tile>
  <tile id="443">
   <image source="tiled/ERW-Grassland 2.0/Props/Static props/sheet1-sprites/rocks on grass - color scheme 3 - 28.png" width="32" height="32"/>
  </tile>
  <tile id="444">
   <image source="tiled/ERW-Grassland 2.0/Props/Static props/sheet1-sprites/rocks on grass - color scheme 3 - 29.png" width="32" height="32"/>
  </tile>
  <tile id="445">
   <image source="tiled/ERW-Grassland 2.0/Props/Static props/sheet1-sprites/rocks on grass - color scheme 3 - 30.png" width="32" height="32"/>
  </tile>
  <tile id="446">
   <image source="tiled/ERW-Grassland 2.0/Props/Static props/sheet1-sprites/rocks on grass - color scheme 3 - 31.png" width="32" height="32"/>
  </tile>
  <tile id="447">
   <image source="tiled/ERW-Grassland 2.0/Props/Static props/sheet1-sprites/rocks on grass - color scheme 3 - 32.png" width="32" height="32"/>
  </tile>
  <tile id="448">
   <image source="tiled/ERW-Grassland 2.0/Props/Static props/sheet1-sprites/rocks on sand - color scheme 2 - 1.png" width="96" height="64"/>
  </tile>
  <tile id="449">
   <image source="tiled/ERW-Grassland 2.0/Props/Static props/sheet1-sprites/rocks on sand - color scheme 2 - 2.png" width="64" height="64"/>
  </tile>
  <tile id="450">
   <image source="tiled/ERW-Grassland 2.0/Props/Static props/sheet1-sprites/rocks on sand - color scheme 2 - 3.png" width="96" height="64"/>
  </tile>
  <tile id="451">
   <image source="tiled/ERW-Grassland 2.0/Props/Static props/sheet1-sprites/rocks on sand - color scheme 2 - 4.png" width="96" height="64"/>
  </tile>
  <tile id="452">
   <image source="tiled/ERW-Grassland 2.0/Props/Static props/sheet1-sprites/rocks on sand - color scheme 2 - 5.png" width="64" height="64"/>
  </tile>
  <tile id="453">
   <image source="tiled/ERW-Grassland 2.0/Props/Static props/sheet1-sprites/rocks on sand - color scheme 2 - 6.png" width="64" height="64"/>
  </tile>
  <tile id="454">
   <image source="tiled/ERW-Grassland 2.0/Props/Static props/sheet1-sprites/rocks on sand - color scheme 2 - 7.png" width="64" height="64"/>
  </tile>
  <tile id="455">
   <image source="tiled/ERW-Grassland 2.0/Props/Static props/sheet1-sprites/rocks on sand - color scheme 2 - 8.png" width="64" height="32"/>
  </tile>
  <tile id="456">
   <image source="tiled/ERW-Grassland 2.0/Props/Static props/sheet1-sprites/rocks on sand - color scheme 2 - 9.png" width="32" height="32"/>
  </tile>
  <tile id="457">
   <image source="tiled/ERW-Grassland 2.0/Props/Static props/sheet1-sprites/rocks on sand - color scheme 2 - 10.png" width="32" height="32"/>
  </tile>
  <tile id="458">
   <image source="tiled/ERW-Grassland 2.0/Props/Static props/sheet1-sprites/rocks on sand - color scheme 2 - 11.png" width="32" height="32"/>
  </tile>
  <tile id="459">
   <image source="tiled/ERW-Grassland 2.0/Props/Static props/sheet1-sprites/rocks on sand - color scheme 2 - 12.png" width="32" height="32"/>
  </tile>
  <tile id="460">
   <image source="tiled/ERW-Grassland 2.0/Props/Static props/sheet1-sprites/rocks on sand - color scheme 2 - 13.png" width="32" height="32"/>
  </tile>
  <tile id="461">
   <image source="tiled/ERW-Grassland 2.0/Props/Static props/sheet1-sprites/rocks on sand - color scheme 2 - 14.png" width="64" height="32"/>
  </tile>
  <tile id="462">
   <image source="tiled/ERW-Grassland 2.0/Props/Static props/sheet1-sprites/rocks on sand - color scheme 2 - 15.png" width="32" height="32"/>
  </tile>
  <tile id="463">
   <image source="tiled/ERW-Grassland 2.0/Props/Static props/sheet1-sprites/rocks on sand - color scheme 2 - 16.png" width="32" height="32"/>
  </tile>
  <tile id="464">
   <image source="tiled/ERW-Grassland 2.0/Props/Static props/sheet1-sprites/rocks on sand - color scheme 2 - 17.png" width="32" height="32"/>
  </tile>
  <tile id="465">
   <image source="tiled/ERW-Grassland 2.0/Props/Static props/sheet1-sprites/rocks on sand - color scheme 2 - 18.png" width="32" height="32"/>
  </tile>
  <tile id="466">
   <image source="tiled/ERW-Grassland 2.0/Props/Static props/sheet1-sprites/rocks on sand - color scheme 2 - 19.png" width="32" height="32"/>
  </tile>
  <tile id="467">
   <image source="tiled/ERW-Grassland 2.0/Props/Static props/sheet1-sprites/rocks on sand - color scheme 2 - 20.png" width="32" height="32"/>
  </tile>
  <tile id="468">
   <image source="tiled/ERW-Grassland 2.0/Props/Static props/sheet1-sprites/rocks on sand - color scheme 2 - 21.png" width="32" height="32"/>
  </tile>
  <tile id="469">
   <image source="tiled/ERW-Grassland 2.0/Props/Static props/sheet1-sprites/rocks on sand - color scheme 2 - 22.png" width="32" height="32"/>
  </tile>
  <tile id="470">
   <image source="tiled/ERW-Grassland 2.0/Props/Static props/sheet1-sprites/rocks on sand - color scheme 2 - 23.png" width="32" height="32"/>
  </tile>
  <tile id="471">
   <image source="tiled/ERW-Grassland 2.0/Props/Static props/sheet1-sprites/rocks on sand - color scheme 2 - 24.png" width="32" height="32"/>
  </tile>
  <tile id="472">
   <image source="tiled/ERW-Grassland 2.0/Props/Static props/sheet1-sprites/rocks on sand - color scheme 2 - 25.png" width="32" height="32"/>
  </tile>
  <tile id="473">
   <image source="tiled/ERW-Grassland 2.0/Props/Static props/sheet1-sprites/rocks on sand - color scheme 2 - 26.png" width="32" height="32"/>
  </tile>
  <tile id="474">
   <image source="tiled/ERW-Grassland 2.0/Props/Static props/sheet1-sprites/rocks on sand - color scheme 2 - 27.png" width="32" height="32"/>
  </tile>
  <tile id="475">
   <image source="tiled/ERW-Grassland 2.0/Props/Static props/sheet1-sprites/rocks on sand - color scheme 2 - 28.png" width="32" height="32"/>
  </tile>
  <tile id="476">
   <image source="tiled/ERW-Grassland 2.0/Props/Static props/sheet1-sprites/rocks on sand - color scheme 2 - 29.png" width="32" height="32"/>
  </tile>
  <tile id="477">
   <image source="tiled/ERW-Grassland 2.0/Props/Static props/sheet1-sprites/rocks on sand - color scheme 2 - 30.png" width="32" height="32"/>
  </tile>
  <tile id="478">
   <image source="tiled/ERW-Grassland 2.0/Props/Static props/sheet1-sprites/rocks on sand - color scheme 2 - 31.png" width="32" height="32"/>
  </tile>
  <tile id="479">
   <image source="tiled/ERW-Grassland 2.0/Props/Static props/sheet1-sprites/rocks on sand - color scheme 2 - 32.png" width="32" height="32"/>
  </tile>
  <tile id="480">
   <image source="tiled/ERW-Grassland 2.0/Props/Static props/sheet1-sprites/sign 1.png" width="32" height="32"/>
  </tile>
  <tile id="481">
   <image source="tiled/ERW-Grassland 2.0/Props/Static props/sheet1-sprites/sign 2.png" width="32" height="32"/>
  </tile>
  <tile id="482">
   <image source="tiled/ERW-Grassland 2.0/Props/Static props/sheet1-sprites/sign 3.png" width="32" height="32"/>
  </tile>
  <tile id="483">
   <image source="tiled/ERW-Grassland 2.0/Props/Static props/sheet1-sprites/sign 4 - no grass.png" width="32" height="32"/>
  </tile>
  <tile id="484">
   <image source="tiled/ERW-Grassland 2.0/Props/Static props/sheet1-sprites/sign 4.png" width="32" height="32"/>
  </tile>
  <tile id="485">
   <image source="tiled/ERW-Grassland 2.0/Props/Static props/sheet1-sprites/sign 5 - no grass.png" width="32" height="32"/>
  </tile>
  <tile id="486">
   <image source="tiled/ERW-Grassland 2.0/Props/Static props/sheet1-sprites/sign 5.png" width="32" height="32"/>
  </tile>
  <tile id="487">
   <image source="tiled/ERW-Grassland 2.0/Props/Static props/sheet1-sprites/sign 6 - no grass.png" width="32" height="32"/>
  </tile>
  <tile id="488">
   <image source="tiled/ERW-Grassland 2.0/Props/Static props/sheet1-sprites/sign 6.png" width="32" height="32"/>
  </tile>
  <tile id="489">
   <image source="tiled/ERW-Grassland 2.0/Props/Static props/sheet1-sprites/sign 7 - no grass.png" width="32" height="32"/>
  </tile>
  <tile id="490">
   <image source="tiled/ERW-Grassland 2.0/Props/Static props/sheet1-sprites/sign 7.png" width="32" height="32"/>
  </tile>
  <tile id="491">
   <image source="tiled/ERW-Grassland 2.0/Props/Static props/sheet1-sprites/sign 8 - no grass.png" width="32" height="32"/>
  </tile>
  <tile id="492">
   <image source="tiled/ERW-Grassland 2.0/Props/Static props/sheet1-sprites/sign 8.png" width="32" height="32"/>
  </tile>
  <tile id="493">
   <image source="tiled/ERW-Grassland 2.0/Props/Static props/sheet1-sprites/sign 9 - no grass.png" width="32" height="32"/>
  </tile>
  <tile id="494">
   <image source="tiled/ERW-Grassland 2.0/Props/Static props/sheet1-sprites/sign 9.png" width="32" height="32"/>
  </tile>
  <tile id="495">
   <image source="tiled/ERW-Grassland 2.0/Props/Static props/sheet1-sprites/sign 10 - no grass.png" width="32" height="32"/>
  </tile>
  <tile id="496">
   <image source="tiled/ERW-Grassland 2.0/Props/Static props/sheet1-sprites/sign 10.png" width="32" height="32"/>
  </tile>
  <tile id="497">
   <image source="tiled/ERW-Grassland 2.0/Props/Static props/sheet1-sprites/sign 11 - no grass.png" width="32" height="32"/>
  </tile>
  <tile id="498">
   <image source="tiled/ERW-Grassland 2.0/Props/Static props/sheet1-sprites/sign 11.png" width="32" height="32"/>
  </tile>
  <tile id="499">
   <image source="tiled/ERW-Grassland 2.0/Props/Static props/sheet1-sprites/sign detail 1.png" width="32" height="32"/>
  </tile>
  <tile id="500">
   <image source="tiled/ERW-Grassland 2.0/Props/Static props/sheet1-sprites/sign detail 2.png" width="32" height="32"/>
  </tile>
  <tile id="501">
   <image source="tiled/ERW-Grassland 2.0/Props/Static props/sheet1-sprites/sign detail 3.png" width="32" height="32"/>
  </tile>
  <tile id="502">
   <image source="tiled/ERW-Grassland 2.0/Props/Static props/sheet1-sprites/sign detail 4.png" width="32" height="32"/>
  </tile>
  <tile id="503">
   <image source="tiled/ERW-Grassland 2.0/Props/Static props/sheet1-sprites/sign detail 5.png" width="32" height="32"/>
  </tile>
  <tile id="504">
   <image source="tiled/ERW-Grassland 2.0/Props/Static props/sheet1-sprites/sign post.png" width="64" height="96"/>
  </tile>
  <tile id="505">
   <image source="tiled/ERW-Grassland 2.0/Props/Static props/sheet1-sprites/Slice 76.png" width="32" height="32"/>
  </tile>
  <tile id="506">
   <image source="tiled/ERW-Grassland 2.0/Props/Static props/sheet1-sprites/small woodplanks 1 - no grass.png" width="32" height="32"/>
  </tile>
  <tile id="507">
   <image source="tiled/ERW-Grassland 2.0/Props/Static props/sheet1-sprites/small woodplanks 1.png" width="32" height="32"/>
  </tile>
  <tile id="508">
   <image source="tiled/ERW-Grassland 2.0/Props/Static props/sheet1-sprites/small woodplanks 2 - no grass.png" width="32" height="32"/>
  </tile>
  <tile id="509">
   <image source="tiled/ERW-Grassland 2.0/Props/Static props/sheet1-sprites/small woodplanks 2.png" width="32" height="32"/>
  </tile>
  <tile id="510">
   <image source="tiled/ERW-Grassland 2.0/Props/Static props/sheet1-sprites/small woodplanks 3 - no grass.png" width="32" height="32"/>
  </tile>
  <tile id="511">
   <image source="tiled/ERW-Grassland 2.0/Props/Static props/sheet1-sprites/small woodplanks 3.png" width="32" height="32"/>
  </tile>
  <tile id="512">
   <image source="tiled/ERW-Grassland 2.0/Props/Static props/sheet1-sprites/small woodplanks 4 - no grass.png" width="32" height="32"/>
  </tile>
  <tile id="513">
   <image source="tiled/ERW-Grassland 2.0/Props/Static props/sheet1-sprites/small woodplanks 4.png" width="32" height="32"/>
  </tile>
  <tile id="514">
   <image source="tiled/ERW-Grassland 2.0/Props/Static props/sheet1-sprites/small woodplanks 5 - no grass.png" width="32" height="32"/>
  </tile>
  <tile id="515">
   <image source="tiled/ERW-Grassland 2.0/Props/Static props/sheet1-sprites/small woodplanks 5.png" width="32" height="32"/>
  </tile>
  <tile id="516">
   <image source="tiled/ERW-Grassland 2.0/Props/Static props/sheet1-sprites/small woodplanks 6 - no grass.png" width="32" height="32"/>
  </tile>
  <tile id="517">
   <image source="tiled/ERW-Grassland 2.0/Props/Static props/sheet1-sprites/small woodplanks 6.png" width="32" height="32"/>
  </tile>
  <tile id="518">
   <image source="tiled/ERW-Grassland 2.0/Props/Static props/sheet1-sprites/tree - color scheme 1 - 1.png" width="192" height="192"/>
  </tile>
  <tile id="519">
   <image source="tiled/ERW-Grassland 2.0/Props/Static props/sheet1-sprites/tree - color scheme 1 - 2.png" width="128" height="224"/>
  </tile>
  <tile id="520">
   <image source="tiled/ERW-Grassland 2.0/Props/Static props/sheet1-sprites/tree - color scheme 1 - 3.png" width="128" height="224"/>
  </tile>
  <tile id="521">
   <image source="tiled/ERW-Grassland 2.0/Props/Static props/sheet1-sprites/tree - color scheme 2 - 1.png" width="192" height="160"/>
  </tile>
  <tile id="522">
   <image source="tiled/ERW-Grassland 2.0/Props/Static props/sheet1-sprites/tree - color scheme 2 - 2.png" width="128" height="224"/>
  </tile>
  <tile id="523">
   <image source="tiled/ERW-Grassland 2.0/Props/Static props/sheet1-sprites/tree - color scheme 2 - 3.png" width="128" height="224"/>
  </tile>
  <tile id="524">
   <image source="tiled/ERW-Grassland 2.0/Props/Static props/sheet1-sprites/tree - color scheme 3 - 1.png" width="192" height="160"/>
  </tile>
  <tile id="525">
   <image source="tiled/ERW-Grassland 2.0/Props/Static props/sheet1-sprites/tree - color scheme 3 - 2.png" width="128" height="224"/>
  </tile>
  <tile id="526">
   <image source="tiled/ERW-Grassland 2.0/Props/Static props/sheet1-sprites/tree - color scheme 3 - 3.png" width="128" height="224"/>
  </tile>
  <tile id="527">
   <image source="tiled/ERW-Grassland 2.0/Props/Static props/sheet1-sprites/tree - color scheme 4 - 1.png" width="192" height="160"/>
  </tile>
  <tile id="528">
   <image source="tiled/ERW-Grassland 2.0/Props/Static props/sheet1-sprites/tree - color scheme 4 - 2.png" width="128" height="224"/>
  </tile>
  <tile id="529">
   <image source="tiled/ERW-Grassland 2.0/Props/Static props/sheet1-sprites/tree - color scheme 4 - 3.png" width="128" height="224"/>
  </tile>
  <tile id="530">
   <image source="tiled/ERW-Grassland 2.0/Props/Static props/sheet1-sprites/tree - color scheme 5 - 1.png" width="192" height="160"/>
  </tile>
  <tile id="531">
   <image source="tiled/ERW-Grassland 2.0/Props/Static props/sheet1-sprites/tree - color scheme 5 - 2.png" width="128" height="224"/>
  </tile>
  <tile id="532">
   <image source="tiled/ERW-Grassland 2.0/Props/Static props/sheet1-sprites/tree - color scheme 5 - 3.png" width="128" height="224"/>
  </tile>
  <tile id="533">
   <image source="tiled/ERW-Grassland 2.0/Props/Static props/sheet1-sprites/tree - naked - shadow 1.png" width="96" height="64"/>
  </tile>
  <tile id="534">
   <image source="tiled/ERW-Grassland 2.0/Props/Static props/sheet1-sprites/tree - naked - shadow 2.png" width="96" height="64"/>
  </tile>
  <tile id="535">
   <image source="tiled/ERW-Grassland 2.0/Props/Static props/sheet1-sprites/tree - naked - shadow 3.png" width="96" height="64"/>
  </tile>
  <tile id="536">
   <image source="tiled/ERW-Grassland 2.0/Props/Static props/sheet1-sprites/tree - naked - small - no shadow and grass 1.png" width="64" height="96"/>
  </tile>
  <tile id="537">
   <image source="tiled/ERW-Grassland 2.0/Props/Static props/sheet1-sprites/tree - naked - small - no shadow and grass 2.png" width="96" height="96"/>
  </tile>
  <tile id="538">
   <image source="tiled/ERW-Grassland 2.0/Props/Static props/sheet1-sprites/tree - naked - small - no shadow and grass 3.png" width="64" height="96"/>
  </tile>
  <tile id="539">
   <image source="tiled/ERW-Grassland 2.0/Props/Static props/sheet1-sprites/tree - naked - small - no shadow and grass 4.png" width="64" height="96"/>
  </tile>
  <tile id="540">
   <image source="tiled/ERW-Grassland 2.0/Props/Static props/sheet1-sprites/tree - naked - small 1.png" width="64" height="96"/>
  </tile>
  <tile id="541">
   <image source="tiled/ERW-Grassland 2.0/Props/Static props/sheet1-sprites/tree - naked - small 2.png" width="96" height="128"/>
  </tile>
  <tile id="542">
   <image source="tiled/ERW-Grassland 2.0/Props/Static props/sheet1-sprites/tree - naked - small 3.png" width="64" height="128"/>
  </tile>
  <tile id="543">
   <image source="tiled/ERW-Grassland 2.0/Props/Static props/sheet1-sprites/tree - naked - small 4.png" width="64" height="96"/>
  </tile>
  <tile id="544">
   <image source="tiled/ERW-Grassland 2.0/Props/Static props/sheet1-sprites/tree - naked 1.png" width="160" height="160"/>
  </tile>
  <tile id="545">
   <image source="tiled/ERW-Grassland 2.0/Props/Static props/sheet1-sprites/tree - naked 2.png" width="96" height="160"/>
  </tile>
  <tile id="546">
   <image source="tiled/ERW-Grassland 2.0/Props/Static props/sheet1-sprites/tree - naked 3.png" width="96" height="160"/>
  </tile>
  <tile id="547">
   <image source="tiled/ERW-Grassland 2.0/Props/Static props/sheet1-sprites/tree - shadow - 1.png" width="192" height="96"/>
  </tile>
  <tile id="548">
   <image source="tiled/ERW-Grassland 2.0/Props/Static props/sheet1-sprites/tree - shadow - 2.png" width="128" height="64"/>
  </tile>
  <tile id="549">
   <image source="tiled/ERW-Grassland 2.0/Props/Static props/sheet1-sprites/tree - shadow - 3.png" width="128" height="64"/>
  </tile>
  <tile id="550">
   <image source="tiled/ERW-Grassland 2.0/Props/Static props/sheet1-sprites/tree - trunk 1.png" width="96" height="32"/>
  </tile>
  <tile id="551">
   <image source="tiled/ERW-Grassland 2.0/Props/Static props/sheet1-sprites/tree - trunk 2.png" width="32" height="32"/>
  </tile>
  <tile id="552">
   <image source="tiled/ERW-Grassland 2.0/Props/Static props/sheet1-sprites/tree - trunk 3.png" width="32" height="32"/>
  </tile>
  <tile id="553">
   <image source="tiled/ERW-Grassland 2.0/Props/Static props/sheet1-sprites/trunk 1.png" width="64" height="64"/>
  </tile>
  <tile id="554">
   <image source="tiled/ERW-Grassland 2.0/Props/Static props/sheet1-sprites/trunk 2.png" width="32" height="64"/>
  </tile>
  <tile id="555">
   <image source="tiled/ERW-Grassland 2.0/Props/Static props/sheet1-sprites/trunk 3.png" width="32" height="32"/>
  </tile>
  <tile id="556">
   <image source="tiled/ERW-Grassland 2.0/Props/Static props/sheet1-sprites/trunk 4.png" width="32" height="32"/>
  </tile>
  <tile id="557">
   <image source="tiled/ERW-Grassland 2.0/Props/Static props/sheet1-sprites/trunk 5.png" width="32" height="32"/>
  </tile>
  <tile id="558">
   <image source="tiled/ERW-Grassland 2.0/Props/Static props/sheet1-sprites/trunk 6.png" width="64" height="64"/>
  </tile>
  <tile id="559">
   <image source="tiled/ERW-Grassland 2.0/Props/Static props/sheet1-sprites/trunk 7.png" width="64" height="64"/>
  </tile>
  <tile id="560">
   <image source="tiled/ERW-Grassland 2.0/Props/Static props/sheet1-sprites/trunk 8.png" width="32" height="32"/>
  </tile>
  <tile id="561">
   <image source="tiled/ERW-Grassland 2.0/Props/Static props/sheet1-sprites/trunk 9.png" width="32" height="32"/>
  </tile>
  <tile id="562">
   <image source="tiled/ERW-Grassland 2.0/Props/Static props/sheet1-sprites/trunk 10.png" width="32" height="32"/>
  </tile>
  <tile id="563">
   <image source="tiled/ERW-Grassland 2.0/Props/Static props/sheet1-sprites/vegetation 1.png" width="64" height="64"/>
  </tile>
  <tile id="564">
   <image source="tiled/ERW-Grassland 2.0/Props/Static props/sheet1-sprites/vegetation 2.png" width="64" height="64"/>
  </tile>
  <tile id="565">
   <image source="tiled/ERW-Grassland 2.0/Props/Static props/sheet1-sprites/vegetation 3.png" width="64" height="64"/>
  </tile>
  <tile id="566">
   <image source="tiled/ERW-Grassland 2.0/Props/Static props/sheet1-sprites/vegetation 4.png" width="64" height="64"/>
  </tile>
  <tile id="567">
   <image source="tiled/ERW-Grassland 2.0/Props/Static props/sheet1-sprites/vegetation 5.png" width="64" height="64"/>
  </tile>
  <tile id="568">
   <image source="tiled/ERW-Grassland 2.0/Props/Static props/sheet1-sprites/vegetation 6.png" width="64" height="64"/>
  </tile>
  <tile id="569">
   <image source="tiled/ERW-Grassland 2.0/Props/Static props/sheet1-sprites/vegetation 7.png" width="64" height="64"/>
  </tile>
  <tile id="570">
   <image source="tiled/ERW-Grassland 2.0/Props/Static props/sheet1-sprites/vegetation 8.png" width="64" height="64"/>
  </tile>
  <tile id="571">
   <image source="tiled/ERW-Grassland 2.0/Props/Static props/sheet1-sprites/vegetation 9.png" width="64" height="64"/>
  </tile>
  <tile id="572">
   <image source="tiled/ERW-Grassland 2.0/Props/Static props/sheet1-sprites/waterwell - broken - no grass - no grass.png" width="96" height="128"/>
  </tile>
  <tile id="573">
   <image source="tiled/ERW-Grassland 2.0/Props/Static props/sheet1-sprites/waterwell - broken.png" width="96" height="96"/>
  </tile>
  <tile id="574">
   <image source="tiled/ERW-Grassland 2.0/Props/Static props/sheet1-sprites/waterwell - no rope - to place the roof - no grass.png" width="96" height="128"/>
  </tile>
  <tile id="575">
   <image source="tiled/ERW-Grassland 2.0/Props/Static props/sheet1-sprites/waterwell - no rope - to place the roof.png" width="96" height="128"/>
  </tile>
  <tile id="576">
   <image source="tiled/ERW-Grassland 2.0/Props/Static props/sheet1-sprites/waterwell - no support - no grass.png" width="96" height="64"/>
  </tile>
  <tile id="577">
   <image source="tiled/ERW-Grassland 2.0/Props/Static props/sheet1-sprites/waterwell - no support.png" width="96" height="64"/>
  </tile>
  <tile id="578">
   <image source="tiled/ERW-Grassland 2.0/Props/Static props/sheet1-sprites/waterwell - roof.png" width="96" height="96"/>
  </tile>
  <tile id="579">
   <image source="tiled/ERW-Grassland 2.0/Props/Static props/sheet1-sprites/waterwell - roof2.png" width="96" height="96"/>
  </tile>
  <tile id="580">
   <image source="tiled/ERW-Grassland 2.0/Props/Static props/sheet1-sprites/waterwell - rope - no grass.png" width="96" height="128"/>
  </tile>
  <tile id="581">
   <image source="tiled/ERW-Grassland 2.0/Props/Static props/sheet1-sprites/waterwell - rope - to place the roof - no grass.png" width="96" height="128"/>
  </tile>
  <tile id="582">
   <image source="tiled/ERW-Grassland 2.0/Props/Static props/sheet1-sprites/waterwell - rope - to place the roof.png" width="96" height="128"/>
  </tile>
  <tile id="583">
   <image source="tiled/ERW-Grassland 2.0/Props/Static props/sheet1-sprites/waterwell - rope.png" width="96" height="96"/>
  </tile>
  <tile id="584">
   <image source="tiled/ERW-Grassland 2.0/Props/Static props/sheet1-sprites/waterwell 2 - broken - no grass.png" width="96" height="64"/>
  </tile>
  <tile id="585">
   <image source="tiled/ERW-Grassland 2.0/Props/Static props/sheet1-sprites/waterwell 2 - broken.png" width="96" height="64"/>
  </tile>
  <tile id="586">
   <image source="tiled/ERW-Grassland 2.0/Props/Static props/sheet1-sprites/waterwell 2 - no rope - no grass.png" width="96" height="64"/>
  </tile>
  <tile id="587">
   <image source="tiled/ERW-Grassland 2.0/Props/Static props/sheet1-sprites/waterwell 2 - no rope.png" width="96" height="64"/>
  </tile>
  <tile id="588">
   <image source="tiled/ERW-Grassland 2.0/Props/Static props/sheet1-sprites/waterwell 2 - no support - no grass.png" width="96" height="64"/>
  </tile>
  <tile id="589">
   <image source="tiled/ERW-Grassland 2.0/Props/Static props/sheet1-sprites/waterwell 2 - no support.png" width="96" height="64"/>
  </tile>
  <tile id="590">
   <image source="tiled/ERW-Grassland 2.0/Props/Static props/sheet1-sprites/waterwell 2 - rope - no grass.png" width="96" height="64"/>
  </tile>
  <tile id="591">
   <image source="tiled/ERW-Grassland 2.0/Props/Static props/sheet1-sprites/waterwell 2 - rope.png" width="96" height="64"/>
  </tile>
  <tile id="592">
   <image source="tiled/ERW-Grassland 2.0/Props/Static props/sheet1-sprites/wood log 1.png" width="64" height="32"/>
  </tile>
  <tile id="593">
   <image source="tiled/ERW-Grassland 2.0/Props/Static props/sheet1-sprites/wood log 2.png" width="64" height="32"/>
  </tile>
  <tile id="594">
   <image source="tiled/ERW-Grassland 2.0/Props/Static props/sheet1-sprites/wood log 3.png" width="32" height="64"/>
  </tile>
  <tile id="595">
   <image source="tiled/ERW-Grassland 2.0/Props/Static props/sheet1-sprites/wood log 4.png" width="32" height="64"/>
  </tile>
  <tile id="596">
   <image source="tiled/ERW-Grassland 2.0/Props/Static props/sheet1-sprites/wood log 5.png" width="64" height="64"/>
  </tile>
  <tile id="597">
   <image source="tiled/ERW-Grassland 2.0/Props/Static props/sheet1-sprites/wood log 6.png" width="64" height="64"/>
  </tile>
  <tile id="598">
   <image source="tiled/ERW-Grassland 2.0/Props/Static props/sheet1-sprites/wood log 7.png" width="64" height="32"/>
  </tile>
  <tile id="599">
   <image source="tiled/ERW-Grassland 2.0/Props/Static props/sheet1-sprites/wood log 8.png" width="64" height="32"/>
  </tile>
  <tile id="600">
   <image source="tiled/ERW-Grassland 2.0/Props/Static props/sheet1-sprites/wood log 9.png" width="32" height="64"/>
  </tile>
  <tile id="601">
   <image source="tiled/ERW-Grassland 2.0/Props/Static props/sheet1-sprites/wood log 10.png" width="32" height="64"/>
  </tile>
  <tile id="602">
   <image source="tiled/ERW-Grassland 2.0/Props/Static props/sheet1-sprites/wood log 11.png" width="64" height="64"/>
  </tile>
  <tile id="603">
   <image source="tiled/ERW-Grassland 2.0/Props/Static props/sheet1-sprites/wood log 12.png" width="64" height="64"/>
  </tile>
  <tile id="604">
   <image source="tiled/ERW-Grassland 2.0/Props/Static props/sheet1-sprites/wood log 13.png" width="64" height="32"/>
  </tile>
  <tile id="605">
   <image source="tiled/ERW-Grassland 2.0/Props/Static props/sheet1-sprites/wood log 14.png" width="64" height="32"/>
  </tile>
  <tile id="606">
   <image source="tiled/ERW-Grassland 2.0/Props/Static props/sheet1-sprites/wood log 15.png" width="32" height="64"/>
  </tile>
  <tile id="607">
   <image source="tiled/ERW-Grassland 2.0/Props/Static props/sheet1-sprites/wood log 16.png" width="32" height="64"/>
  </tile>
  <tile id="608">
   <image source="tiled/ERW-Grassland 2.0/Props/Static props/sheet1-sprites/wood log 17.png" width="64" height="64"/>
  </tile>
  <tile id="609">
   <image source="tiled/ERW-Grassland 2.0/Props/Static props/sheet1-sprites/wood log 18.png" width="64" height="64"/>
  </tile>
  <tile id="610">
   <image source="tiled/ERW-Grassland 2.0/Props/Static props/sheet1-sprites/wood log 19.png" width="64" height="64"/>
  </tile>
  <tile id="611">
   <image source="tiled/ERW-Grassland 2.0/Props/Static props/sheet1-sprites/wood log 20.png" width="64" height="64"/>
  </tile>
  <tile id="612">
   <image source="tiled/ERW-Grassland 2.0/Props/Static props/sheet1-sprites/wood log 21.png" width="64" height="64"/>
  </tile>
  <tile id="613">
   <image source="tiled/ERW-Grassland 2.0/Props/Static props/sheet1-sprites/wood log 22.png" width="32" height="64"/>
  </tile>
  <tile id="614">
   <image source="tiled/ERW-Grassland 2.0/Props/Static props/sheet1-sprites/wood log 23.png" width="32" height="64"/>
  </tile>
  <tile id="615">
   <image source="tiled/ERW-Grassland 2.0/Props/Static props/sheet1-sprites/wood log 24.png" width="64" height="64"/>
  </tile>
  <tile id="616">
   <image source="tiled/ERW-Grassland 2.0/Props/Static props/sheet1-sprites/wood log 25.png" width="64" height="64"/>
  </tile>
  <tile id="617">
   <image source="tiled/ERW-Grassland 2.0/Props/Static props/sheet1-sprites/wood log 26.png" width="64" height="64"/>
  </tile>
  <tile id="618">
   <image source="tiled/ERW-Grassland 2.0/Props/Static props/sheet1-sprites/wood log 27.png" width="96" height="64"/>
  </tile>
  <tile id="619">
   <image source="tiled/ERW-Grassland 2.0/Props/Static props/sheet1-sprites/wood log 28.png" width="96" height="64"/>
  </tile>
  <tile id="620">
   <image source="tiled/ERW-Grassland 2.0/Props/Static props/sheet1-sprites/wood log 29.png" width="64" height="32"/>
  </tile>
  <tile id="621">
   <image source="tiled/ERW-Grassland 2.0/Props/Static props/sheet1-sprites/wood log 30.png" width="96" height="32"/>
  </tile>
  <tile id="622">
   <image source="tiled/ERW-Grassland 2.0/Props/Static props/sheet1-sprites/wood log 31.png" width="32" height="32"/>
  </tile>
  <tile id="623">
   <image source="tiled/ERW-Grassland 2.0/Props/Static props/sheet1-sprites/wood log 32.png" width="32" height="32"/>
  </tile>
  <tile id="624">
   <image source="tiled/ERW-Grassland 2.0/Props/Static props/sheet1-sprites/wood log 33.png" width="32" height="32"/>
  </tile>
  <tile id="625">
   <image source="tiled/ERW-Grassland 2.0/Props/Static props/sheet1-sprites/wood log 34.png" width="32" height="32"/>
  </tile>
  <tile id="626">
   <image source="tiled/ERW-Grassland 2.0/Props/Static props/sheet1-sprites/wood log 35.png" width="32" height="32"/>
  </tile>
  <tile id="627">
   <image source="tiled/ERW-Grassland 2.0/Props/Static props/sheet1-sprites/wood log 36.png" width="32" height="32"/>
  </tile>
  <tile id="628">
   <image source="tiled/ERW-Grassland 2.0/Props/Static props/sheet1-sprites/wood log 37.png" width="32" height="32"/>
  </tile>
  <tile id="629">
   <image source="tiled/ERW-Grassland 2.0/Props/Static props/sheet1-sprites/wood log 38.png" width="32" height="32"/>
  </tile>
  <tile id="630">
   <image source="tiled/ERW-Grassland 2.0/Props/Static props/sheet1-sprites/woodplank.png" width="64" height="32"/>
  </tile>
  <tile id="631">
   <image source="tiled/ERW-Grassland 2.0/Props/Static props/sheet1-sprites/woodplank2.png" width="64" height="32"/>
  </tile>
  <tile id="632">
   <image source="tiled/ERW-Grassland 2.0/Props/Static props/sheet1-sprites/woodplank3.png" width="32" height="32"/>
  </tile>
  <tile id="633">
   <image source="tiled/ERW-Grassland 2.0/Props/Static props/sheet1-sprites/woodplank4.png" width="32" height="32"/>
  </tile>
  <tile id="634">
   <image source="tiled/ERW-Grassland 2.0/Props/Static props/sheet1-sprites/woodplank5.png" width="32" height="32"/>
  </tile>
  <tile id="635">
   <image source="tiled/ERW-Grassland 2.0/Props/Static props/sheet1-sprites/woodplank6.png" width="32" height="32"/>
  </tile>
  <tile id="636">
   <image source="tiled/ERW-Grassland 2.0/Props/Static props/sheet1-sprites/woodplank7.png" width="32" height="32"/>
  </tile>
  <tile id="637">
   <image source="tiled/ERW-Grassland 2.0/Props/Static props/sheet1-sprites/woodplank8.png" width="64" height="32"/>
  </tile>
  <tile id="638">
   <image source="tiled/ERW-Grassland 2.0/Props/Static props/sheet1-sprites/woodplank9.png" width="32" height="32"/>
  </tile>
 </tileset>
 <layer id="1" name="Camada de Blocos 1" width="40" height="40">
  <data encoding="csv">
0,0,0,0,0,0,0,0,0,0,0,0,0,0,0,0,0,0,0,0,0,0,0,0,0,0,0,0,0,0,0,0,0,0,0,0,0,0,0,0,
0,0,0,0,0,0,0,0,0,0,0,0,0,0,0,0,0,0,0,0,0,0,0,0,0,0,0,0,0,0,0,0,0,0,0,0,0,0,0,0,
0,0,0,0,0,0,0,0,0,0,0,0,0,0,0,0,0,0,0,0,0,0,0,0,0,0,0,0,0,0,0,0,0,0,0,0,0,0,0,0,
0,0,0,0,0,0,0,0,0,0,0,0,0,0,0,0,0,0,0,0,0,0,0,0,0,0,0,0,0,0,0,0,0,0,0,0,0,0,0,0,
0,0,0,0,0,0,0,0,0,0,0,0,0,0,0,0,0,0,0,0,0,0,0,0,0,0,0,0,0,0,0,0,0,0,0,0,0,0,0,0,
0,0,0,0,0,0,0,0,0,0,0,0,0,0,0,0,0,0,0,0,0,0,0,0,0,0,0,0,0,0,0,0,0,0,0,0,0,0,0,0,
0,0,0,0,0,0,0,0,0,0,0,0,0,0,0,0,0,0,0,0,0,0,0,0,0,0,0,0,0,0,0,0,0,0,0,0,0,0,0,0,
0,0,0,0,0,0,0,0,0,0,0,0,0,0,0,0,0,0,0,0,0,0,0,0,0,0,0,0,0,0,0,0,0,0,0,0,0,0,0,0,
0,0,0,0,0,0,0,0,0,0,0,0,0,0,0,0,0,0,0,0,0,0,0,0,0,0,0,0,0,0,0,0,0,0,0,0,0,0,0,0,
0,0,0,0,0,0,0,0,0,0,0,0,0,0,0,0,0,0,0,0,0,0,0,0,0,0,0,0,0,0,0,0,0,0,0,0,0,0,0,0,
0,0,0,0,0,0,0,0,0,0,0,0,0,0,0,0,0,0,0,0,0,0,0,0,0,0,0,0,0,0,0,0,0,0,0,0,0,0,0,0,
0,0,0,0,0,0,0,0,0,0,0,0,0,0,0,0,0,0,0,0,0,0,0,0,0,0,0,0,0,0,0,0,0,0,0,0,0,0,0,0,
0,0,0,0,0,0,0,0,0,0,0,0,0,0,0,0,0,0,0,0,0,0,0,0,0,0,0,0,0,0,0,0,0,0,0,0,0,0,0,0,
0,0,0,0,0,0,0,0,0,0,0,0,0,0,0,0,0,0,0,0,0,0,0,0,0,0,0,0,0,0,0,0,0,0,0,0,0,0,0,0,
0,0,0,0,0,0,0,0,0,0,0,0,0,0,0,0,0,0,0,0,0,0,0,0,0,0,0,0,0,0,0,0,0,0,0,0,0,0,0,0,
0,0,0,0,0,0,0,0,0,0,0,0,0,0,0,0,0,0,0,0,0,0,0,0,0,0,0,0,0,0,0,0,0,0,0,0,0,0,0,0,
0,0,0,0,0,0,0,0,0,0,0,0,0,0,0,0,0,0,0,0,0,0,0,0,0,0,0,0,0,0,0,0,0,0,0,0,0,0,0,0,
0,0,0,0,0,0,0,0,0,0,0,0,0,0,0,0,0,0,0,0,0,0,0,0,0,0,0,0,0,0,0,0,0,0,0,0,0,0,0,0,
0,0,0,0,0,0,0,0,0,0,0,0,0,0,0,0,0,0,0,0,0,0,0,0,0,0,0,0,0,0,0,0,0,0,0,0,0,0,0,0,
0,0,0,0,0,0,0,0,0,0,0,0,0,0,0,0,0,0,0,0,0,0,0,0,0,0,0,0,0,0,0,0,0,0,0,0,0,0,0,0,
0,0,0,0,0,0,0,0,0,0,0,0,0,0,0,0,0,0,0,0,0,0,0,0,0,0,0,0,0,0,0,0,0,0,0,0,0,0,0,0,
0,0,0,0,0,0,0,0,0,0,0,0,0,0,0,0,0,0,0,0,0,0,0,0,0,0,0,0,0,0,0,0,0,0,0,0,0,0,0,0,
0,0,0,0,0,0,0,0,0,0,0,0,0,0,0,0,0,0,0,0,0,0,0,0,0,0,0,0,0,0,0,0,0,0,0,0,0,0,0,0,
0,0,0,0,0,0,0,0,0,0,0,0,0,0,0,0,0,0,0,0,0,0,0,0,0,0,0,0,0,0,0,0,0,0,0,0,0,0,0,0,
0,0,0,0,0,0,0,0,0,0,0,0,0,0,0,0,0,0,0,0,0,0,0,0,0,0,0,0,0,0,0,0,0,0,0,0,0,0,0,0,
0,0,0,0,0,0,0,0,0,0,0,0,0,0,0,0,0,0,0,0,0,0,0,0,0,0,0,0,0,0,0,0,0,0,0,0,0,0,0,0,
0,0,0,0,0,0,0,0,0,0,0,0,0,0,0,0,0,0,0,0,0,0,0,0,0,0,0,0,0,0,0,0,0,0,0,0,0,0,0,0,
0,0,0,0,0,0,0,0,0,0,0,0,0,0,0,0,0,0,0,0,0,0,0,0,0,0,0,0,0,0,0,0,0,0,0,0,0,0,0,0,
0,0,0,0,0,0,0,0,0,0,0,0,0,0,0,0,0,0,0,0,0,0,0,0,0,0,0,0,0,0,0,0,0,0,0,0,0,0,0,0,
0,0,0,0,0,0,0,0,0,0,0,0,0,0,0,0,0,0,0,0,0,0,0,0,0,0,0,0,0,0,0,0,0,0,0,0,0,0,0,0,
0,0,0,0,0,0,0,0,0,0,0,0,0,0,0,0,0,0,0,0,0,0,0,0,0,0,0,0,0,0,0,0,0,0,0,0,0,0,0,0,
0,0,0,0,0,0,0,0,0,0,0,0,0,0,0,0,0,0,0,0,0,0,0,0,0,0,0,0,0,0,0,0,0,0,0,0,0,0,0,0,
0,0,0,0,0,0,0,0,0,0,0,0,0,0,0,0,0,0,0,0,0,0,0,0,0,0,0,0,0,0,0,0,0,0,0,0,0,0,0,0,
0,0,0,0,0,0,0,0,0,0,0,0,0,0,0,0,0,0,0,0,0,0,0,0,0,0,0,0,0,0,0,0,0,0,0,0,0,0,0,0,
0,0,0,0,0,0,0,0,0,0,0,0,0,0,0,0,0,0,0,0,0,0,0,0,0,0,0,0,0,0,0,0,0,0,0,0,0,0,0,0,
0,0,0,0,0,0,0,0,0,0,0,0,0,0,0,0,0,0,0,0,0,0,0,0,0,0,0,0,0,0,0,0,0,0,0,0,0,0,0,0,
0,0,0,0,0,0,0,0,0,0,0,0,0,0,0,0,0,0,0,0,0,0,0,0,0,0,0,0,0,0,0,0,0,0,0,0,0,0,0,0,
0,0,0,0,0,0,0,0,0,0,0,0,0,0,0,0,0,0,0,0,0,0,0,0,0,0,0,0,0,0,0,0,0,0,0,0,0,0,0,0,
0,0,0,0,0,0,0,0,0,0,0,0,0,0,0,0,0,0,0,0,0,0,0,0,0,0,0,0,0,0,0,0,0,0,0,0,0,0,0,0,
0,0,0,0,0,0,0,0,0,0,0,0,0,0,0,0,0,0,0,0,0,0,0,0,0,0,0,0,0,0,0,0,0,0,0,0,0,0,0,0
</data>
 </layer>
 <layer id="2" name="Grama" width="40" height="40">
  <data encoding="csv">
3562,3619,3672,3620,3449,3447,3394,3562,3672,3619,3619,3619,3672,3619,3672,3566,3449,3393,3447,3394,3374,3430,3429,3374,3374,3429,3430,3429,3374,3429,3430,3428,3429,3428,3428,3428,3428,3374,3484,3374,
3447,3392,3449,3448,3392,3393,3392,3393,3392,3393,3392,3447,3447,3392,3449,3449,3449,3449,3392,3447,3374,3429,3484,3484,3484,3429,3429,3429,3374,3374,3484,3429,3429,3430,3428,3374,3428,3428,3430,3429,
3394,3449,3447,3393,3394,3447,3449,3449,3393,3448,3449,3394,3393,3447,3447,3392,3392,3394,3392,3394,3430,3429,3374,3429,3429,3374,3429,3484,3374,3484,3428,3430,3429,3429,3428,3374,3484,3484,3428,3484,
3448,3393,3447,3393,3393,3447,3394,3392,3449,3448,3447,3394,3393,3448,3449,3394,3447,3447,3392,3392,3447,3428,3429,3429,3484,3374,3429,3430,3430,3428,3374,3374,3430,3429,3429,3484,3428,3429,3428,3430,
3394,3392,3393,3393,3447,3394,3449,3449,3392,3393,3449,3449,3449,3392,3447,3392,3394,3393,3392,3448,3447,3392,3484,3484,3428,3374,3429,3428,3428,3428,3374,3484,3429,3430,3429,3428,3484,3484,3430,3374,
3447,3447,3449,3447,3393,3449,3449,3392,3447,3448,3394,3393,3393,3449,3449,3393,3448,3447,3393,3448,3448,3447,3394,3374,3430,3484,3484,3374,3429,3484,3484,3430,3428,3374,3374,3430,3430,3428,3428,3428,
3392,3394,3447,3448,3392,3447,3392,3393,3394,3449,3392,3449,3393,3393,3448,3393,3392,3449,3448,3449,3392,3447,3447,3374,3430,3429,3429,3374,3429,3374,3484,3429,3428,3430,3374,3428,3429,3430,3374,3429,
3394,3448,3447,3392,3394,3448,3394,3392,3392,3449,3393,3392,3394,3394,3392,3394,3448,3394,3394,3448,3393,3447,3449,3449,3394,3429,3429,3428,3428,3374,3484,3484,3430,3374,3374,3428,3428,3430,3484,3374,
3449,3448,3449,3394,3393,3447,3448,3392,3392,3393,3449,3449,3392,3394,3393,3449,3447,3394,3392,3448,3394,3448,3448,3448,3448,3447,3428,3484,3430,3430,3429,3374,3430,3430,3430,3374,3430,3430,3429,3428,
3392,3393,3392,3449,3448,3394,3448,3392,3393,3447,3394,3393,3392,3394,3394,3393,3448,3392,3392,3447,3448,3449,3392,3449,3394,3447,3428,4668,3428,3430,3374,3429,3484,3484,3429,3430,3429,3374,3428,3374,
3447,3394,3394,3447,3448,3394,3449,3447,3447,3447,3394,3393,3392,3393,3392,3394,3447,3394,3392,3392,3448,3448,3393,3392,3394,3449,3447,3484,3484,3484,3374,3430,3429,3430,3428,3428,3428,3428,3428,3428,
3393,3447,3392,3449,3393,3448,3448,3448,3449,3448,3393,3394,3447,3392,3394,3392,3448,3393,3448,3393,3392,3448,3393,3393,3447,3449,3392,3430,3448,3448,3374,3374,3429,3374,3430,3429,3428,3374,3484,3429,
3393,3448,3394,3448,3448,3449,3392,3394,3393,3447,3448,3449,3447,3447,3448,3449,3447,3449,3447,3393,3447,3448,3447,3447,3449,3394,3394,3449,3394,3448,3447,3448,3394,3428,3448,3374,3392,3394,3429,3484,
3392,3394,3449,3393,3447,3394,3392,3447,3447,3392,3449,3393,3448,3449,3394,3392,3393,3447,3392,3393,3447,3394,3393,3392,3449,3449,3447,3393,3447,3392,3449,3393,3394,3394,3393,3394,3392,3448,3428,3374,
3393,3447,3447,3449,3449,3449,3448,3394,3392,3393,3393,3449,3448,3447,3393,3447,3394,3392,3393,3394,3392,3393,3447,3449,3392,3447,3449,3448,3448,3449,3448,3392,3448,3447,3447,3393,3393,3449,3428,3374,
3448,3393,3448,3392,3448,3393,3447,3448,3448,3392,3449,3394,3447,3394,3448,3393,3393,3394,3448,3448,3448,3448,3394,3394,3393,3448,3392,3393,3449,3394,3394,3449,3447,3447,3392,3392,3393,3393,3429,3430,
3447,3448,3448,3449,3448,3448,3393,3393,3392,3393,3447,3447,3393,3393,3393,3447,3392,3447,3392,3392,3449,3447,3393,3447,3394,3394,3447,3392,3447,3448,3449,3392,3393,3447,3447,3393,3392,3428,3484,3374,
3392,3447,3449,3392,3448,3449,3448,3394,3448,3393,3449,3447,3448,3448,3393,3448,3392,3392,3448,3392,3393,3393,3448,3447,3447,3393,3393,3448,3448,3393,3393,3449,3448,3447,3447,3393,3447,3429,3429,3428,
3449,3449,3447,3393,3393,3394,3392,3447,3392,3392,3393,3448,3449,3392,3447,3448,3448,3448,3392,3394,3447,3448,3449,3448,3392,3393,3393,3392,3393,3447,3447,3393,3393,3392,3447,3392,3448,3429,3428,3428,
3393,3392,3392,3392,3447,3394,3392,3448,3447,3449,3392,3447,3392,3392,3392,3394,3448,3393,3448,3447,3394,3394,3394,3392,3448,3394,3447,3393,3449,3448,3393,3448,3393,3449,3448,3392,3449,3428,3484,3484,
3394,3447,3448,3394,3449,3447,3392,3449,3447,3392,458,3394,3449,3449,3393,3449,3393,3393,3449,3447,3393,3447,3447,3394,3394,3392,3394,3393,3447,3392,3447,3449,3447,3393,3447,3393,3392,3374,3484,3484,
3447,3393,3394,3394,3447,3393,3394,3449,3393,3448,3447,3449,3394,3394,3448,3447,3448,3448,3447,3447,3449,3447,3447,3447,3448,3448,3448,3392,3449,3392,3393,3392,3393,3392,3449,3393,3448,3374,3430,3430,
3448,3448,3448,3449,3448,3447,3392,3392,3447,3449,3392,3392,3392,3394,3392,3392,3394,3392,3447,3392,3449,3448,3448,3393,3447,3393,3393,3449,3393,3394,3448,3393,3448,3394,3447,3392,3447,3449,3484,3428,
3447,3449,3448,3393,3394,3447,3447,3394,3447,3448,3394,3393,3393,3393,3392,3394,3392,3448,3394,3447,3392,3392,3448,3393,3449,3394,3394,3392,3447,3392,3393,3394,3394,3449,3449,3394,3393,3448,3429,3484,
3392,3394,3447,3447,3394,287,573,573,344,403,403,401,3447,3449,3449,3447,3447,3392,3394,3447,3392,3392,3392,3448,3449,3392,3447,3449,3392,3448,3448,3393,3448,3392,3447,3392,3394,3448,3374,3374,
3393,3447,3393,3447,3448,571,459,401,459,401,403,401,403,3392,3448,3394,3448,3394,3393,3447,3448,3393,3392,3447,3394,3393,3447,3448,3392,3393,3448,3392,3449,3393,3392,3447,3447,3393,3428,3484,
3449,3447,3392,3394,3448,515,631,630,631,630,630,631,630,516,461,3447,3449,3393,3448,3447,3394,3449,3393,3392,3448,3448,3393,3392,3392,3392,3449,3448,3449,3447,3393,3393,3449,3393,3430,3429,
3447,3447,3392,3392,3447,3448,3448,3392,3447,3393,3447,3448,3392,3392,3449,3449,3394,3448,3394,3392,3447,3392,3394,3448,3394,3393,3393,3393,3393,3448,3449,3392,3447,3394,3392,3394,3447,3392,3484,3430,
3394,3392,3392,3449,3393,3394,3394,3393,3394,3394,3393,3449,3393,3393,3448,3394,3448,3448,3394,3449,3392,3448,3448,3449,3393,3447,3392,3449,3448,3447,3448,3392,3448,3392,3449,3394,3394,3447,3484,3428,
3393,3394,3392,3394,3392,3392,3394,3393,3447,3392,3392,3392,3392,3448,3449,3392,3448,3394,3394,3447,3449,3393,3392,3448,3447,3448,3394,3394,3449,3394,3449,3392,3447,3394,3449,3392,3447,3392,3428,3428,
3392,3394,3448,3392,3449,3393,3447,3393,3394,3394,3447,3447,3394,3393,3449,3393,3448,3448,3393,3392,3394,3393,3447,3447,3447,3392,3448,3393,3448,3449,3394,3394,3447,3393,3449,3393,3448,3392,3428,3374,
3392,3393,3449,3448,3449,3392,3447,3392,3392,3392,3392,3448,3393,3448,3393,3449,3393,3392,3393,3449,3392,3394,3448,3448,3449,3394,3448,3448,3449,3447,3394,3392,3447,3449,3393,3392,3447,3393,3430,3484,
3393,3447,3392,3449,3449,3448,3392,3448,3394,3447,3449,3448,3394,3449,3394,3449,3447,3392,3448,3394,3392,3447,3394,3392,3448,3447,3394,3448,3392,3447,3447,3393,3447,3392,3447,3392,3394,3449,3484,3428,
3393,3394,3449,3448,3447,3392,3394,3449,3447,3393,3447,3448,3449,3392,3449,3392,3392,3448,3449,3448,3448,3449,3447,3449,3449,3448,3392,3392,3448,3393,3393,3448,3447,3393,3449,3392,3394,3393,3484,3484,
3394,3394,3447,3393,3394,3392,3392,3448,3449,3447,3392,3393,3449,3394,3447,3448,3393,3447,3393,3448,3448,3447,3393,3448,3449,3394,3449,3447,3393,3448,3448,3392,3448,3392,3393,3392,3392,3447,3429,3429,
3392,3392,3394,3449,3393,3449,3449,3447,3448,3393,3449,3392,3392,3392,3449,3449,3394,3449,3449,3448,3447,3447,3393,3447,3448,3447,3393,3394,3447,3448,3392,3393,3394,3448,3392,3449,3393,3394,3429,3484,
3393,3449,3447,3448,3394,3448,3393,3393,3392,3448,3447,3394,3449,3448,3447,3392,3448,3392,3394,3448,3394,3394,3394,3393,3393,3392,3393,3448,3447,3448,3448,3394,3447,3449,3447,3449,3392,3447,3430,3374,
3448,3392,3394,3394,3449,3394,3393,3394,3392,3449,3447,3392,3447,3394,3392,3394,3447,3392,3447,3394,3392,3449,3448,3447,3448,3392,3447,3449,3449,3394,3447,3394,3448,3392,3394,3449,3393,3447,3374,3430,
3394,3449,3393,3449,3393,3448,3394,3394,3449,3449,3448,3393,3392,3448,3447,3449,3448,3449,3447,3449,3393,3393,3449,3392,3448,3393,3449,3447,3393,3447,3393,3393,3449,3447,3393,3392,3393,3394,3429,3428,
3447,3392,3393,3448,3448,3447,3393,3392,3447,3393,3449,3447,3394,3393,3393,3393,3447,3393,3394,3394,3394,3448,3447,3448,3393,3393,3448,3448,3393,3448,3392,3393,3447,3447,3449,3394,3392,3394,3428,3430
</data>
 </layer>
 <layer id="3" name="pedrasGuardiao" width="40" height="40">
  <data encoding="csv">
0,0,0,0,0,0,0,0,0,0,0,0,0,0,0,0,0,0,0,0,0,0,0,0,0,0,0,0,0,0,5292,5621,5623,5621,5621,5734,0,0,0,0,
0,0,0,0,0,0,0,0,0,0,0,0,0,0,0,0,0,0,0,0,0,0,0,0,0,0,0,0,0,5346,5566,5458,5348,5403,5404,5625,5789,0,0,0,
0,0,0,0,0,0,0,0,0,0,0,0,0,0,0,0,0,0,0,0,0,0,0,0,0,0,0,0,5346,5566,5348,5955,5348,5402,5404,6006,5846,0,0,0,
0,0,0,0,0,0,0,0,0,0,0,0,0,0,0,0,0,0,0,0,0,0,0,0,0,0,0,0,5680,5900,6063,5404,5952,6065,5898,5900,5791,0,0,0,
0,0,0,0,0,0,0,0,0,0,0,0,0,0,0,0,0,0,0,0,0,0,0,0,0,0,0,5788,5347,5348,5458,5402,5348,5403,5403,5896,5681,0,0,0,
0,0,0,0,5782,5287,5288,0,0,0,0,0,0,0,0,0,0,0,0,0,0,0,0,0,0,0,0,5401,5402,5348,5899,5404,5901,6061,5404,5569,5787,0,0,0,
0,5727,5615,5618,5341,5396,5564,5288,0,0,0,0,0,0,0,0,0,0,0,0,0,0,0,0,0,0,0,5731,5457,5955,5403,5402,5348,5404,5515,5787,0,0,0,0,
0,5674,5452,5948,5396,6057,5342,5343,5288,0,0,0,0,0,0,0,0,0,0,0,0,0,0,0,0,0,0,5346,5566,5404,5458,5515,5513,5677,5460,0,0,0,0,0,
5837,5341,6059,5949,5342,5947,5397,5342,5399,0,0,0,0,0,0,0,0,0,0,0,0,0,0,0,0,0,5843,5347,5569,5677,5513,5732,0,0,0,0,0,0,0,0,
5784,5452,5894,5398,5950,5891,5342,6057,5564,5618,5615,5618,5838,0,0,0,0,0,0,0,0,0,0,0,0,5733,5347,6066,5736,0,0,0,0,0,0,0,0,0,0,0,
5674,5398,5397,5396,5452,5396,5342,5396,5563,5673,5671,5505,5619,5618,5615,5617,5783,0,0,0,0,0,0,0,0,5845,5569,5513,5732,0,0,0,0,0,0,0,0,0,0,0,
5450,5562,6057,5396,5946,6110,6002,5563,5781,0,0,5506,5672,5671,5670,5562,5564,5344,0,0,0,0,0,0,0,5790,5791,0,0,0,0,0,0,0,0,0,0,0,0,0,
0,5450,5672,5670,5671,5671,5672,5508,0,0,0,0,0,0,0,5780,5505,5675,0,0,0,0,0,0,5346,5566,5846,0,0,0,0,0,0,0,0,0,0,0,0,0,
0,0,0,0,0,0,0,0,0,0,0,0,0,0,0,0,5450,5781,5788,5624,5621,5789,0,0,5845,5459,5514,0,0,0,0,0,0,0,0,0,0,0,0,0,
0,0,0,0,0,0,0,0,0,0,0,0,0,0,0,0,0,5843,5347,5569,5568,5570,5624,5623,5566,5736,0,0,0,0,0,0,0,0,0,0,0,0,0,0,
0,0,0,0,0,0,0,0,0,0,0,0,0,0,0,0,5346,5566,5459,5514,5512,5678,5568,5402,5459,5842,0,0,0,0,0,0,0,0,0,0,0,0,0,0,
0,0,0,0,0,0,0,0,0,0,0,0,0,0,0,0,5845,5459,5787,0,0,0,5786,5676,5842,0,0,0,0,0,0,0,0,0,0,0,0,0,0,0,
0,0,0,0,0,0,0,0,0,0,0,0,0,0,0,0,5790,5570,5350,0,0,0,0,0,0,0,0,0,0,0,0,0,0,0,0,0,0,0,0,0,
0,0,0,0,0,0,0,0,0,0,0,0,0,0,0,0,5786,5457,5349,5844,0,0,0,0,0,0,0,0,0,0,0,0,0,0,0,0,0,0,0,0,
0,0,0,0,0,0,0,0,0,0,0,0,0,0,0,0,0,5841,5568,5570,5621,5734,0,0,0,0,0,0,0,0,0,0,0,0,0,0,0,0,0,0,
0,0,0,0,0,0,0,0,0,0,0,0,0,0,0,0,0,0,5456,5513,5568,5570,5294,0,0,0,0,0,0,0,0,0,0,0,0,0,0,0,0,0,
0,0,0,0,0,0,0,0,0,0,0,0,0,0,0,0,0,0,0,0,5786,5511,5625,5294,0,0,0,0,0,0,0,0,0,0,0,0,0,0,0,0,
0,0,0,0,0,0,0,0,0,0,0,0,0,0,0,0,0,0,0,0,0,5786,5568,5570,5294,0,0,0,0,0,0,0,0,0,0,0,0,0,0,0,
0,0,0,0,0,0,0,0,0,0,0,0,0,0,0,0,0,0,0,0,0,0,5731,5568,5736,0,0,0,0,0,0,0,0,0,0,0,0,0,0,0,
0,0,0,0,0,0,5378,5382,5381,5381,5382,5161,0,5292,5623,5623,5624,5621,5844,0,0,0,0,5401,5846,0,0,0,0,0,0,0,0,0,0,0,0,0,0,0,
0,0,0,0,5378,5382,5433,5653,5215,5597,5711,5434,5435,5841,5679,5513,5679,5568,5625,5621,5789,0,0,5680,5570,5844,0,0,0,0,0,0,0,0,0,0,0,0,0,0,
0,0,0,0,5212,5707,5213,5215,5709,5600,5269,5215,5160,5104,5105,0,0,5512,5679,5568,5625,5294,5843,5347,5515,5514,0,0,0,0,0,0,0,0,0,0,0,0,0,0,
0,0,0,5432,5158,5213,5159,5600,5215,5710,5269,5597,5269,5214,5216,0,0,0,0,5731,5568,5349,5566,5459,5842,0,0,0,0,0,0,0,0,0,0,0,0,0,0,0,
0,0,0,5491,5656,5269,5653,5214,5270,5488,5653,5215,5159,5710,5547,0,0,0,0,0,5786,5678,5677,5842,0,0,0,0,0,0,0,0,0,0,0,0,0,0,0,0,
0,0,5157,5433,5214,5215,5657,5597,5434,5433,5159,5711,5711,5213,5434,5105,0,0,0,0,0,0,0,0,0,0,0,0,0,0,0,0,0,0,0,0,0,0,0,0,
0,0,5212,5214,5598,5269,5213,5602,5269,5214,5710,5214,5159,5159,5215,5160,5435,0,0,0,0,0,0,0,0,0,0,0,0,0,0,0,0,0,0,0,0,0,0,0,
0,0,5546,5214,5213,5652,5597,5215,5214,5215,5213,5599,5654,5214,5657,5602,5216,0,0,0,0,0,0,0,0,0,0,0,0,0,0,0,0,0,0,0,0,0,0,0,
0,0,5491,5215,5215,5159,5707,5159,5159,5215,5711,5215,5214,5215,5215,5159,5216,0,0,0,0,0,0,0,0,0,0,0,0,0,0,0,0,0,0,0,0,0,0,0,
0,0,5546,5597,5601,5269,5213,5269,5213,5213,5215,5710,5213,5159,5652,5215,5216,0,0,0,0,0,0,0,0,0,0,0,0,0,0,0,0,0,0,0,0,0,0,0,
0,0,5491,5657,5215,5711,5213,5215,5215,5159,5711,5214,5711,5159,5269,5489,5271,0,0,0,0,0,0,0,0,0,0,0,0,0,0,0,0,0,0,0,0,0,0,0,
0,0,5323,5268,5159,5214,5213,5215,5215,5597,5269,5159,5159,5269,5269,5492,0,0,0,0,0,0,0,0,0,0,0,0,0,0,0,0,0,0,0,0,0,0,0,0,
0,0,0,5543,5268,5269,5159,5708,5213,5709,5269,5269,5269,5489,5436,5544,0,0,0,0,0,0,0,0,0,0,0,0,0,0,0,0,0,0,0,0,0,0,0,0,
0,0,0,0,5543,5324,5437,5437,5436,5436,5437,5436,5324,5271,0,0,0,0,0,0,0,0,0,0,0,0,0,0,0,0,0,0,0,0,0,0,0,0,0,0,
0,0,0,0,0,0,0,0,0,0,0,0,0,0,0,0,0,0,0,0,0,0,0,0,0,0,0,0,0,0,0,0,0,0,0,0,0,0,0,0,
0,0,0,0,0,0,0,0,0,0,0,0,0,0,0,0,0,0,0,0,0,0,0,0,0,0,0,0,0,0,0,0,0,0,0,0,0,0,0,0
</data>
 </layer>
 <layer id="4" name="Mato" width="40" height="40">
  <data encoding="csv">
0,0,0,0,0,0,0,0,3777,0,0,0,0,0,0,0,0,0,0,0,0,0,0,0,0,0,0,0,0,0,0,0,0,0,0,0,0,0,0,0,
0,0,4054,4107,0,0,0,0,0,0,0,0,0,4054,4110,0,3833,4053,3776,0,0,0,0,0,0,0,0,0,0,0,0,0,0,0,0,0,0,0,0,0,
0,3945,3832,0,0,0,0,0,3835,0,0,0,0,0,0,0,0,0,0,0,3890,0,0,0,0,0,0,0,0,0,0,0,0,0,0,0,0,0,0,0,
0,3780,0,3888,0,0,0,0,0,4052,0,0,0,0,0,0,4055,0,0,0,3998,0,0,0,0,0,0,0,0,0,0,0,0,0,0,0,0,0,0,0,
0,0,0,3835,0,0,0,0,0,3889,0,0,0,3941,0,0,0,0,0,0,3997,0,0,0,0,0,0,0,0,0,0,0,0,0,0,0,0,0,0,0,
0,0,0,0,0,0,0,0,0,3889,4109,0,0,3831,4108,0,0,3834,3832,3834,0,0,0,0,0,0,0,0,0,0,0,0,0,0,0,0,0,0,0,0,
0,0,0,0,0,0,0,0,0,0,4051,0,0,3831,0,0,4000,3942,0,0,0,0,4106,0,0,0,0,0,0,0,0,0,0,0,0,0,0,0,0,0,
0,0,0,0,0,0,0,0,0,0,0,3889,4106,0,0,0,0,4106,0,0,0,0,3779,4051,4107,0,0,0,0,0,0,0,0,0,0,0,0,0,0,0,
0,0,0,0,0,0,0,0,0,0,0,0,0,4051,0,0,0,0,0,3833,0,0,4054,0,4000,0,0,0,0,0,0,0,0,0,0,0,0,0,0,0,
0,0,0,0,0,0,0,0,0,0,0,0,0,0,0,0,0,0,0,3779,0,0,0,0,3779,0,0,0,0,0,0,0,0,0,0,0,0,0,0,0,
0,0,0,0,0,0,0,0,0,0,0,0,0,0,0,0,0,3777,3779,4054,0,0,0,0,0,0,0,0,0,0,0,0,0,0,0,0,0,0,0,0,
0,0,0,0,0,0,0,0,0,0,0,0,0,0,0,0,0,0,0,0,0,0,3832,0,4051,0,0,0,3886,3997,0,0,0,0,0,0,0,0,0,0,
0,0,0,0,0,0,0,0,0,0,0,0,0,0,0,0,0,0,0,0,0,3779,0,0,0,0,0,0,0,4051,4108,3997,3779,0,0,0,0,0,0,0,
0,0,0,0,0,0,0,3834,0,4051,0,4107,3887,0,0,3834,0,0,0,0,0,0,0,0,0,0,0,0,3779,3778,0,0,3780,4055,0,0,0,0,0,0,
0,0,0,0,0,0,0,0,0,0,0,0,0,0,0,0,0,0,0,0,0,0,0,0,0,0,0,0,0,0,0,0,0,0,0,0,0,0,0,0,
0,0,3780,0,0,0,0,0,0,0,0,0,4109,0,0,0,0,0,0,0,0,0,0,0,0,0,0,0,3776,0,0,0,0,0,0,0,0,0,0,0,
0,0,0,0,0,0,3998,0,0,4000,0,0,0,0,0,0,0,0,0,0,0,0,0,0,0,0,0,0,4055,0,0,0,0,4053,0,0,0,0,0,0,
0,0,0,0,3834,0,0,0,0,0,4109,0,0,0,0,0,0,0,0,0,4109,3941,0,4107,0,0,0,0,3889,3943,3945,0,0,4000,3886,0,0,0,0,0,
0,0,0,0,4110,0,0,0,0,0,0,0,0,3890,3944,0,0,0,0,0,0,0,0,0,3778,0,3890,0,4107,4054,3780,3889,0,0,4052,0,0,0,0,0,
0,0,0,0,0,0,0,0,0,0,0,0,0,0,0,0,0,0,0,0,0,4106,0,3941,3780,0,0,0,3944,0,0,0,0,4108,0,0,0,0,0,0,
0,0,4053,4107,0,0,0,0,3831,0,0,0,0,3777,0,0,0,0,0,0,0,0,0,0,0,4055,3943,0,3779,0,4106,4053,0,4106,0,0,0,0,0,0,
0,0,0,0,0,3777,0,0,0,3941,0,0,0,0,0,0,0,0,0,0,0,0,0,0,0,0,4054,0,0,0,0,0,0,3776,3996,0,3886,0,0,0,
0,0,3780,0,0,0,4108,0,0,0,4106,3942,4055,3778,0,0,0,0,0,0,0,0,0,0,0,0,0,0,0,3780,4110,0,0,0,0,0,3945,3996,0,0,
0,0,0,0,0,0,0,0,0,0,0,0,0,4054,0,0,0,0,0,0,0,0,0,0,0,0,0,4109,0,0,0,0,4000,0,4000,4108,0,3834,0,0,
0,0,0,0,0,0,0,0,0,0,0,0,0,0,0,0,0,0,0,0,0,0,0,0,0,0,0,3999,0,0,0,3942,3779,3889,0,0,0,0,0,0,
0,0,3888,4110,0,0,0,0,0,0,0,0,0,0,0,0,0,0,0,0,0,0,0,0,0,0,0,0,0,0,0,0,4109,4110,0,0,0,0,0,0,
3942,0,0,3780,0,0,0,0,4110,0,0,0,0,0,0,0,0,0,0,0,0,0,0,0,0,0,3886,0,0,3998,0,3889,3890,0,0,0,0,0,0,0,
3943,0,3887,0,0,0,0,0,0,0,0,0,0,0,0,0,4110,0,0,0,0,0,0,0,0,0,0,0,0,0,0,0,0,0,0,3996,3999,0,0,0,
0,4051,4053,0,0,0,0,0,0,0,0,0,0,0,0,0,3776,0,0,0,0,0,0,0,0,0,3889,0,0,3780,0,0,0,0,0,3943,3776,0,0,0,
0,3831,0,0,0,0,0,0,0,0,4107,0,0,0,0,0,0,0,3780,0,0,0,0,0,0,0,0,0,3999,4108,4109,4052,4109,0,0,3833,0,0,0,0,
0,3832,0,0,0,0,3944,0,0,0,0,0,0,0,0,0,0,4052,4000,3997,0,0,3999,3832,3888,0,4052,0,3944,3944,0,3997,0,0,0,3777,0,0,0,0,
0,3996,0,0,0,0,0,0,0,0,0,0,0,0,0,0,0,0,3835,3889,3776,3831,4055,3943,0,0,0,3998,3887,3778,0,0,3833,0,0,3835,0,0,0,0,
0,0,3779,0,0,0,0,0,0,0,0,0,0,0,0,0,0,0,3886,0,0,4110,0,3999,0,0,0,0,0,0,0,0,0,0,4108,0,0,0,0,0,
0,3999,3778,0,0,0,3779,3777,0,0,0,0,0,0,0,0,0,0,3833,0,0,0,0,3998,0,0,3833,3776,0,0,0,4000,3834,4108,0,0,3890,0,0,0,
0,4000,0,0,0,0,0,0,0,0,3945,0,0,0,3833,0,0,0,3832,0,0,3831,0,0,0,0,0,3890,0,0,3941,4000,4053,0,0,0,3997,0,0,0,
0,4110,0,0,0,0,0,0,0,0,0,0,0,0,0,0,0,4000,0,0,0,3943,0,4109,0,3890,0,3943,0,0,3997,0,0,3776,4107,0,3777,0,0,0,
0,3942,0,0,0,0,0,0,0,0,0,0,0,0,0,0,0,0,0,3778,0,3780,0,3944,0,4054,0,0,0,0,4109,0,0,3835,4107,0,0,0,0,0,
0,4051,3945,0,0,0,0,0,0,0,0,0,0,0,0,0,3945,3945,3835,4000,0,3888,3886,3777,3886,0,0,4052,0,0,3833,0,3888,0,0,3943,0,0,0,0,
0,0,0,0,4107,4052,3780,0,0,0,3943,0,0,0,3776,4000,3833,0,0,0,3886,3780,3832,0,4055,0,0,3778,4108,3780,3831,0,4109,0,3888,3997,0,0,0,0,
0,0,0,0,0,3890,3831,3943,0,0,3831,4053,3835,4000,4054,0,0,0,0,0,0,0,0,0,0,0,0,0,0,0,0,0,0,0,0,0,0,0,0,0
</data>
 </layer>
 <layer id="5" name="Arbusto/Pedra" width="40" height="40">
  <data encoding="csv">
0,0,0,0,0,0,0,0,0,0,0,0,0,0,0,0,0,0,0,0,0,0,0,0,0,0,0,0,0,0,0,0,0,0,0,0,0,0,0,0,
0,0,0,0,0,0,0,0,0,0,0,0,0,0,0,0,0,0,0,0,0,0,0,0,0,0,0,0,0,0,0,0,0,0,0,0,0,0,0,0,
0,0,7514,0,0,0,0,0,0,7286,7536,0,0,0,0,0,0,0,0,0,0,0,0,0,0,0,0,0,0,0,0,0,0,0,0,0,0,0,0,0,
0,0,0,7290,0,0,0,0,0,0,0,0,0,7536,0,0,0,0,0,0,0,0,0,0,0,0,0,0,0,0,0,0,0,0,0,0,0,0,0,0,
0,0,0,0,0,0,0,0,0,0,0,0,7288,0,0,0,0,0,0,0,0,7526,0,0,0,0,0,0,0,0,0,0,0,0,0,0,0,0,0,0,
0,0,0,0,0,0,0,0,0,0,0,0,0,0,0,0,0,0,0,0,7297,0,0,0,0,0,0,0,0,0,0,0,0,0,0,0,0,0,0,0,
0,0,0,0,0,0,0,0,0,0,0,0,7289,0,0,0,0,0,0,0,0,0,0,0,0,0,0,0,0,0,0,0,0,0,0,0,0,0,0,0,
0,0,0,0,0,0,0,0,0,0,0,0,0,0,0,0,0,0,0,0,0,0,0,0,0,0,0,0,0,0,0,0,0,0,0,0,0,0,0,0,
0,0,0,0,0,0,7513,0,0,0,0,0,0,0,0,0,0,0,0,0,0,0,0,0,0,0,0,0,0,0,0,0,0,0,0,0,0,0,0,0,
0,0,0,0,0,0,0,0,0,0,0,0,0,0,0,0,0,0,0,7285,0,0,0,0,0,0,0,0,0,0,0,0,0,0,0,0,0,0,0,0,
0,0,0,0,0,0,0,0,0,0,0,0,0,0,0,0,0,0,0,0,0,0,0,0,0,0,0,0,0,0,0,0,0,0,0,0,0,0,0,0,
0,0,0,7511,0,0,0,0,0,0,0,0,0,0,0,0,0,0,0,0,0,0,0,7521,0,0,0,0,0,0,0,0,0,0,0,0,0,0,0,0,
0,0,0,0,0,0,0,0,0,0,0,0,0,0,0,0,0,0,0,0,0,0,0,0,0,0,0,0,0,0,0,0,0,0,0,0,0,0,0,0,
0,0,0,0,0,0,0,0,0,0,0,0,0,0,0,0,0,0,0,0,0,7304,0,0,0,0,0,0,0,0,0,0,0,0,0,0,0,0,0,0,
0,0,0,0,0,0,0,0,7289,7291,0,0,0,0,0,0,0,0,0,0,0,0,0,0,0,0,0,0,0,0,0,0,0,0,0,0,0,0,0,0,
0,0,0,0,0,0,0,0,0,0,0,0,0,0,0,0,0,0,0,0,0,0,0,0,0,0,0,0,0,0,0,0,7510,0,0,0,0,0,0,0,
0,0,0,0,0,0,0,0,0,0,0,0,7527,0,0,0,0,0,0,0,0,0,0,0,0,0,0,0,0,0,7304,0,0,0,0,0,0,0,0,0,
0,0,0,0,0,0,0,0,0,0,0,0,7306,7292,7531,0,0,0,0,0,0,0,0,0,0,0,0,0,0,0,0,0,0,0,0,0,0,0,0,0,
0,0,7290,0,0,0,0,0,0,0,0,0,0,7304,0,0,0,0,0,0,0,0,0,0,0,0,0,0,0,0,0,0,0,0,0,0,0,0,0,0,
0,0,0,0,0,0,0,0,0,0,0,0,0,0,0,0,0,0,0,0,0,0,0,0,0,7511,0,0,0,0,0,0,0,0,0,0,0,0,0,0,
0,0,0,0,0,0,0,0,0,0,0,0,0,0,0,0,0,0,0,0,0,0,0,0,7293,0,0,0,0,0,0,0,0,0,0,0,0,0,0,0,
0,0,0,0,0,0,0,0,0,0,0,0,0,0,0,0,0,0,0,0,0,0,0,0,0,0,0,0,0,0,0,0,0,0,0,0,0,0,0,0,
0,0,0,7526,7288,7531,0,0,0,0,0,7289,0,0,0,0,0,0,0,0,0,0,0,0,0,0,0,0,0,0,0,7523,0,0,0,0,0,0,0,0,
0,0,0,7290,7290,0,0,0,0,0,0,0,0,0,0,0,0,0,0,7290,7511,0,0,0,0,0,0,0,0,0,7285,7303,0,0,0,0,0,0,0,0,
0,0,0,0,0,0,0,0,0,0,0,0,0,0,0,0,0,0,0,0,0,0,0,0,0,0,0,0,0,0,7303,0,0,0,0,0,0,0,0,0,
0,0,0,0,0,0,0,0,0,0,0,0,0,0,0,0,0,0,0,0,0,0,0,0,0,0,0,0,0,0,0,0,0,0,0,0,0,0,0,0,
0,0,0,0,0,0,0,0,0,0,0,0,0,0,0,0,0,0,0,0,0,0,0,0,0,0,0,0,0,0,0,0,0,0,0,0,0,0,0,0,
0,0,0,0,0,0,0,0,0,0,0,0,0,0,0,0,0,0,0,0,0,0,0,0,0,0,0,0,0,0,0,0,0,0,0,0,0,0,0,0,
0,0,0,0,0,0,0,0,0,0,0,0,0,0,0,0,0,0,0,0,0,0,0,0,0,0,0,0,7512,0,0,0,0,0,0,0,0,0,0,0,
0,0,0,0,0,0,0,0,0,0,0,0,0,0,0,0,0,0,0,0,0,0,0,0,0,0,0,0,0,0,0,0,0,0,0,0,0,0,0,0,
0,0,0,0,0,0,0,0,0,0,0,0,0,0,0,0,0,0,0,0,0,0,0,0,0,0,0,7291,0,0,0,0,0,0,0,0,0,0,0,0,
0,0,0,0,0,0,0,0,0,0,0,0,0,0,0,0,0,0,0,0,0,0,0,0,0,0,0,0,0,0,0,0,0,0,0,0,7526,0,0,0,
0,0,0,0,0,0,0,0,0,0,0,0,0,0,0,0,0,0,0,0,0,0,0,0,0,0,0,0,0,0,0,0,0,0,0,7292,0,0,0,0,
0,0,0,0,0,0,0,0,0,0,0,0,0,0,0,0,0,0,0,0,0,0,0,0,0,0,0,0,0,0,0,0,0,0,0,0,0,0,0,0,
0,0,0,0,0,0,0,0,0,0,0,0,0,0,0,0,0,0,0,0,0,0,0,0,0,0,0,0,0,0,0,0,0,0,0,0,0,0,0,0,
0,0,0,0,0,0,0,0,0,0,0,0,0,0,0,0,0,0,0,0,7290,0,0,0,0,0,0,0,0,0,0,0,0,0,0,0,0,0,0,0,
0,0,0,0,0,0,0,0,0,0,0,0,0,0,0,0,0,0,0,0,0,0,0,0,0,0,0,0,0,0,0,0,0,0,0,0,0,0,0,0,
0,0,0,0,0,0,0,0,0,0,0,0,0,0,0,0,0,0,0,0,0,0,0,7295,7532,0,7513,0,0,0,0,0,0,0,0,0,0,0,0,0,
0,0,0,0,0,0,0,0,0,0,0,0,0,0,0,0,0,0,7524,0,0,0,0,0,7309,0,7286,0,0,0,0,0,0,0,0,0,7515,0,0,0,
0,0,0,0,0,0,0,0,0,0,0,0,0,0,0,0,7292,0,0,0,0,0,0,0,0,0,0,0,0,0,0,0,0,0,0,0,0,0,0,0
</data>
 </layer>
 <layer id="6" name="Arvore" width="40" height="40">
  <data encoding="csv">
0,0,0,0,0,0,0,0,0,0,0,0,0,0,0,0,0,0,0,0,0,0,0,0,0,0,0,0,0,0,0,0,0,0,0,0,0,0,0,0,
0,0,0,0,0,0,0,0,0,0,0,0,0,0,0,0,0,0,0,0,0,0,0,0,0,0,0,0,0,0,0,0,0,0,0,0,0,0,0,0,
0,0,0,0,0,0,0,0,0,0,0,0,0,0,0,0,0,0,0,0,0,0,0,0,0,0,0,0,0,0,0,0,0,0,0,0,0,0,0,0,
0,0,0,0,0,0,0,0,0,0,0,0,0,0,0,0,0,0,0,0,0,0,0,0,0,0,0,0,0,0,0,0,0,0,0,0,0,0,0,0,
0,0,0,0,0,0,0,0,0,0,7740,0,0,0,0,0,0,0,0,0,0,0,0,0,0,7744,0,0,0,0,0,0,0,0,0,0,0,0,0,0,
0,0,0,0,0,0,0,0,0,0,0,0,0,7745,0,0,0,0,0,0,0,0,0,0,0,0,0,0,0,0,0,0,0,0,0,0,0,0,0,0,
0,0,0,0,0,0,0,0,0,0,0,0,0,0,0,0,0,0,0,0,0,0,0,0,0,0,0,0,0,0,0,0,0,0,0,0,7745,0,0,0,
0,0,0,0,0,0,0,0,0,0,0,0,0,0,0,0,7745,0,0,0,0,0,0,0,0,0,0,0,0,0,0,0,0,0,0,0,0,0,0,0,
0,0,0,0,0,0,0,0,0,0,0,0,0,0,7740,0,0,0,0,0,0,7745,0,0,0,0,0,0,0,0,0,0,0,0,0,0,0,0,0,0,
0,0,0,0,0,0,0,0,0,7748,0,0,0,0,0,0,0,0,0,0,0,0,0,0,0,0,0,0,0,0,0,0,0,0,0,0,0,0,0,0,
0,0,0,0,0,0,0,0,0,0,0,0,0,0,0,0,0,0,0,0,0,0,0,0,0,0,0,0,0,0,0,0,0,0,0,0,0,0,0,0,
0,0,0,0,0,0,0,0,0,0,0,0,0,0,0,0,0,0,0,0,0,0,0,0,0,0,0,0,0,0,0,0,0,0,7749,0,0,0,0,0,
0,0,0,0,0,0,0,0,0,0,0,0,0,0,0,0,7746,0,0,0,0,0,0,0,0,0,0,0,0,0,0,0,0,0,0,0,0,0,0,0,
0,0,0,0,0,0,0,0,0,0,0,0,0,0,0,0,0,0,0,0,0,0,0,0,0,0,0,0,0,0,0,0,0,0,0,0,0,0,0,0,
0,0,0,0,0,0,0,0,0,0,0,0,0,0,0,0,0,0,0,0,0,0,0,0,0,0,0,0,7744,0,0,0,0,0,0,0,0,0,0,0,
0,0,0,0,0,0,0,0,0,0,7743,0,0,0,0,0,0,0,0,0,0,0,0,0,0,0,0,0,0,0,0,0,0,0,0,0,0,0,0,0,
0,0,0,0,0,0,0,0,0,0,0,0,0,0,0,0,0,0,0,0,0,0,0,0,0,0,0,0,0,0,0,0,0,0,0,0,0,0,0,0,
0,7740,0,0,0,0,0,0,0,0,0,0,0,0,0,0,0,0,0,0,0,0,0,0,0,0,0,0,0,0,0,0,0,7743,0,0,0,0,0,0,
0,0,0,0,0,0,0,0,0,0,0,0,0,0,0,0,0,0,0,0,0,0,0,0,0,0,0,0,0,0,0,0,0,0,0,0,0,0,0,0,
7743,0,0,0,7745,0,0,0,0,0,0,0,0,0,0,0,0,0,0,7743,0,0,0,0,0,0,7745,0,0,0,0,0,0,0,0,0,0,0,0,0,
0,0,0,0,0,0,0,0,0,0,0,0,0,0,0,0,0,0,0,0,0,0,0,0,0,0,0,0,7747,0,0,0,0,0,0,0,0,0,0,0,
0,0,0,0,0,0,0,7740,0,0,0,0,0,0,0,0,0,0,0,0,0,0,0,0,0,7740,0,0,0,7743,0,0,0,0,0,0,7746,0,0,0,
0,0,0,0,0,0,0,0,0,0,0,0,0,0,0,0,0,0,0,0,0,0,0,0,0,0,0,0,0,0,0,0,0,0,0,0,0,0,0,0,
0,0,0,0,0,0,7743,0,0,0,7747,0,0,0,0,0,0,0,0,0,0,0,0,0,0,0,0,0,0,0,0,0,0,0,0,0,0,0,0,0,
0,0,0,0,0,7751,0,0,0,0,0,0,0,7754,0,0,0,0,0,0,0,0,0,0,0,0,0,0,0,0,0,0,0,0,0,0,0,0,0,0,
0,0,0,0,0,0,0,0,0,0,0,0,0,0,0,0,0,0,0,0,0,0,0,0,0,7740,0,0,0,0,0,0,0,0,0,0,0,0,0,0,
0,7749,0,0,0,0,0,0,0,0,0,0,0,0,0,0,0,0,0,0,0,0,0,0,0,0,0,0,0,0,0,0,0,0,0,0,0,0,0,0,
0,0,0,0,0,0,0,0,0,0,0,0,0,0,0,0,0,0,0,0,0,0,0,0,0,0,0,0,0,0,0,0,0,0,7746,0,0,0,0,0,
0,0,0,0,0,0,0,0,0,0,0,0,0,0,0,0,0,0,0,0,0,0,0,0,0,0,0,0,0,0,0,0,7741,0,0,0,0,0,0,0,
0,0,0,0,0,0,0,0,0,0,0,0,0,0,0,7741,0,0,0,0,0,0,0,0,0,0,0,0,0,0,0,0,0,0,0,0,0,0,0,0,
7744,0,0,0,0,0,0,0,0,0,0,0,0,0,0,0,0,0,0,0,0,0,0,7744,0,0,0,0,0,0,0,0,0,0,0,0,0,0,0,0,
0,0,0,0,0,0,0,0,0,0,0,0,0,0,0,0,7745,0,0,0,7746,0,0,0,0,0,0,0,0,0,0,0,0,0,0,0,0,0,0,0,
0,0,0,0,0,0,0,0,0,0,0,0,0,0,0,0,0,0,0,0,0,0,0,0,0,0,0,0,0,0,0,0,0,0,0,0,0,0,0,0,
0,0,0,0,0,0,0,0,0,0,0,0,0,0,0,0,0,0,0,0,0,0,0,0,0,0,0,7747,0,0,7745,0,0,0,0,0,0,0,0,0,
0,0,0,0,0,0,0,0,0,0,0,0,0,0,0,0,0,0,0,0,0,0,0,0,0,0,0,0,7740,0,0,0,0,0,0,0,0,0,0,0,
0,0,0,0,0,0,0,0,0,0,0,0,0,0,0,0,0,0,0,0,0,0,0,0,0,0,0,0,0,0,0,0,0,0,0,0,0,0,0,0,
0,7747,0,0,0,0,0,0,0,0,0,0,0,0,0,0,0,0,0,0,0,0,0,0,0,0,0,0,0,0,0,0,0,0,0,0,0,0,0,0,
0,0,0,0,0,0,0,0,0,0,0,0,0,0,0,0,7743,0,0,0,0,0,0,0,0,0,0,0,0,0,0,0,0,0,0,0,0,0,0,0,
0,0,7752,0,0,0,0,0,0,0,0,7746,0,0,0,7747,0,0,0,0,0,0,0,0,0,0,0,0,0,0,0,0,0,0,0,0,0,0,0,0,
0,0,0,0,0,0,7748,0,0,0,0,0,0,0,0,0,0,0,0,0,0,0,0,0,0,0,0,0,0,0,0,0,0,0,0,0,0,0,0,0
</data>
 </layer>
 <layer id="7" name="Objetos" width="40" height="40">
  <data encoding="csv">
0,0,0,0,0,0,0,0,0,0,0,0,0,0,0,0,0,0,0,0,0,0,0,0,0,0,0,0,0,0,0,0,0,0,0,0,0,0,0,0,
0,0,0,0,0,0,0,0,0,0,0,0,0,0,0,0,0,0,0,0,0,0,0,0,0,0,0,0,0,0,0,0,0,0,0,0,0,0,0,0,
0,0,0,0,0,0,0,0,0,0,0,0,0,0,0,0,0,0,0,0,0,0,0,0,0,0,0,0,0,0,0,0,0,0,0,0,0,0,0,0,
0,0,0,0,0,0,0,0,0,0,0,0,0,0,0,0,0,0,0,0,0,0,0,0,0,0,0,0,0,0,0,0,0,0,0,0,0,0,0,0,
0,0,0,0,0,0,0,0,0,0,0,0,0,0,0,0,0,0,0,0,0,0,0,0,0,0,0,0,0,0,0,0,0,0,0,0,0,0,0,0,
0,0,0,0,0,0,0,0,0,0,0,0,0,0,0,0,0,0,0,0,0,0,0,0,0,0,0,0,0,0,0,0,0,0,0,0,0,0,0,0,
0,0,0,0,0,0,0,0,0,0,0,0,0,0,0,0,0,0,0,0,0,0,0,0,0,0,0,0,0,0,0,0,0,0,0,0,0,0,0,0,
0,0,2147491083,0,0,0,0,0,0,0,0,0,0,0,0,0,0,0,0,0,0,0,0,0,0,0,0,0,0,0,0,0,0,0,0,0,0,0,0,0,
0,0,0,0,0,0,0,0,0,0,0,0,0,0,0,0,0,0,0,0,0,0,0,0,0,0,0,0,0,0,0,0,0,0,0,0,0,0,0,0,
0,0,0,0,7310,0,0,0,0,0,0,0,0,0,0,0,0,0,0,0,0,0,0,0,0,0,0,0,0,0,0,0,0,0,0,0,0,0,0,0,
0,0,0,0,0,0,0,0,0,0,0,0,0,0,0,0,0,0,0,0,0,0,0,0,0,0,0,0,0,0,0,0,0,0,0,0,0,0,0,0,
7802,0,0,0,0,0,0,0,0,0,0,0,0,0,0,0,0,0,0,0,0,0,0,0,0,0,0,0,0,0,0,0,0,0,0,0,0,0,0,0,
0,0,0,0,0,0,0,0,0,0,0,0,0,0,0,0,0,0,0,0,0,0,0,0,0,0,0,0,0,0,0,0,0,0,0,0,0,0,0,0,
0,0,0,0,0,0,0,0,0,0,0,0,0,0,0,0,0,0,0,0,0,0,0,0,0,0,0,0,0,0,0,0,0,0,0,0,0,0,0,0,
0,0,0,0,0,0,0,0,0,0,0,0,0,0,0,0,0,0,0,0,0,0,0,0,0,0,0,0,0,0,0,0,0,0,0,0,0,0,0,0,
0,0,0,0,0,0,0,0,0,0,0,0,0,0,0,0,0,0,0,0,0,0,0,0,0,0,0,0,0,0,0,0,0,0,0,0,0,0,0,0,
0,0,0,0,0,0,0,0,0,0,0,0,0,0,0,0,0,0,0,0,0,0,0,0,0,0,0,0,0,0,0,0,0,0,0,0,0,0,0,0,
0,0,0,0,0,0,0,0,0,0,0,0,0,0,0,0,0,0,0,0,0,0,0,0,0,0,0,0,0,0,0,0,0,0,0,0,0,0,0,0,
0,0,0,0,0,0,0,0,0,0,0,0,0,0,0,0,0,0,0,0,0,0,0,0,0,0,0,0,0,0,0,0,0,0,0,0,0,0,0,0,
0,0,0,0,0,0,0,0,0,0,0,0,0,0,0,0,0,0,0,0,0,0,0,0,0,0,0,0,0,0,0,0,0,0,0,0,0,0,0,0,
0,0,0,0,0,0,0,0,0,0,0,0,0,0,0,0,0,0,0,0,0,0,0,0,0,0,0,0,0,0,0,0,0,0,0,0,0,0,0,0,
0,0,0,0,0,0,0,0,0,0,0,0,0,0,0,0,0,0,0,0,0,0,0,0,0,0,0,0,0,0,0,0,0,0,0,0,0,0,0,0,
0,0,0,0,0,0,0,0,0,0,0,0,0,0,0,0,0,0,0,0,0,0,0,0,0,0,0,0,0,0,0,0,0,0,0,0,0,0,0,0,
0,0,0,0,0,0,0,0,0,0,0,0,0,0,0,0,0,0,0,0,0,0,0,0,0,0,0,0,0,0,0,0,0,0,0,0,0,0,0,0,
0,0,0,0,0,0,0,0,0,0,0,0,0,0,0,0,0,0,0,0,0,0,0,0,0,0,0,0,0,0,0,0,0,0,0,0,0,0,0,0,
0,0,0,0,0,0,0,0,0,0,0,0,0,0,0,0,0,0,0,0,0,0,0,0,0,0,0,0,0,0,0,0,0,0,0,0,0,0,0,0,
0,0,0,0,0,0,0,0,0,0,0,0,0,0,0,0,0,0,0,0,0,0,0,0,0,0,0,0,0,0,0,0,0,0,0,0,0,0,0,0,
0,0,0,0,0,0,0,0,0,0,0,0,0,0,0,0,0,0,0,0,0,0,0,0,0,0,0,0,0,0,0,0,0,0,0,0,0,0,0,0,
0,0,0,0,0,0,0,0,0,0,0,0,0,0,0,0,0,0,0,0,0,0,0,0,0,0,0,0,0,0,0,0,0,0,0,0,0,0,0,0,
0,0,0,0,0,0,0,0,0,0,0,0,0,0,0,0,0,0,0,0,0,0,0,0,0,0,0,0,0,0,0,0,0,0,0,0,0,0,0,0,
0,0,0,0,0,0,0,0,0,0,0,0,0,0,0,0,0,0,0,0,0,0,0,0,0,0,0,0,0,0,0,0,0,0,0,0,0,0,0,0,
0,0,0,0,0,0,0,0,0,0,0,0,0,0,0,0,0,0,0,0,0,0,0,0,0,0,0,0,0,0,0,0,0,0,0,0,0,0,0,0,
0,0,0,0,0,0,0,0,0,0,0,0,0,0,0,0,0,0,0,0,0,0,0,0,0,0,0,0,0,0,0,0,0,0,0,0,0,0,0,0,
0,0,0,0,0,0,0,0,0,0,0,0,0,0,0,0,0,0,0,0,0,0,0,0,0,0,0,0,0,0,0,0,0,0,0,0,0,0,0,0,
0,0,0,0,0,0,0,0,0,0,0,0,0,0,0,0,0,0,0,0,0,0,0,0,0,0,0,0,0,0,0,0,0,0,0,0,0,0,0,0,
0,0,0,0,0,0,0,0,0,0,0,0,0,0,0,0,0,0,0,0,0,0,0,0,0,0,0,0,0,0,0,0,0,0,0,0,0,0,0,0,
0,0,0,0,0,0,0,0,0,0,0,0,0,0,0,0,0,0,0,0,0,0,0,0,0,0,0,0,0,0,0,0,0,0,0,0,0,0,0,0,
0,0,0,0,0,0,0,0,0,0,0,0,0,0,0,0,0,0,0,0,0,0,0,0,0,0,0,0,0,0,0,0,0,0,0,0,0,0,0,0,
0,0,0,0,0,0,0,0,0,0,0,0,0,0,0,0,0,0,0,0,0,0,0,0,0,0,0,0,0,0,0,0,0,0,0,0,0,0,0,0,
0,0,0,0,0,0,0,0,0,0,0,0,0,0,0,0,0,0,0,0,0,0,0,0,0,0,0,0,0,0,0,0,0,0,0,0,0,0,0,0
</data>
 </layer>
 <layer id="8" name="Objetos_2" width="40" height="40">
  <data encoding="csv">
0,0,0,0,0,0,0,0,0,0,0,0,0,0,0,0,0,0,0,0,0,0,0,0,0,0,0,0,0,0,0,0,0,0,0,0,0,0,0,0,
0,0,0,0,0,0,0,0,0,0,0,0,0,0,0,0,0,0,0,0,0,0,0,0,0,0,0,0,0,0,0,0,0,0,0,0,0,0,0,0,
0,0,0,0,0,0,0,0,0,0,0,0,0,0,0,0,0,0,0,0,0,0,0,0,0,0,0,0,0,0,0,0,0,0,0,0,0,0,0,0,
0,0,0,0,0,0,0,0,0,0,0,0,0,0,0,0,0,0,0,0,0,0,0,0,0,0,0,0,0,0,0,0,0,0,0,0,0,0,0,0,
0,0,0,0,0,0,0,0,0,0,0,0,0,0,0,0,0,0,0,0,0,0,0,0,0,0,0,0,0,0,0,0,0,0,0,0,0,0,0,0,
0,0,0,0,0,0,0,0,0,0,0,0,0,0,0,0,0,0,0,0,0,0,0,0,0,0,0,0,0,0,0,0,0,0,0,0,0,0,0,0,
0,0,0,0,3022,0,0,0,0,0,0,0,0,0,0,0,0,0,0,0,0,0,0,0,0,0,0,0,0,0,0,0,0,0,0,0,0,0,0,0,
0,0,0,0,0,0,0,0,0,0,0,0,0,0,0,0,0,0,0,0,0,0,0,0,0,0,0,0,0,0,0,0,0,0,0,0,0,0,0,0,
0,0,0,0,0,0,0,0,0,0,0,0,0,0,0,0,0,0,0,0,0,0,0,0,0,0,0,0,0,0,0,0,0,0,0,0,0,0,0,0,
7801,0,0,0,0,0,0,0,0,0,0,0,0,0,0,0,0,0,0,0,0,0,0,0,0,0,0,0,0,0,0,0,0,0,0,0,0,0,0,0,
0,0,0,0,0,0,0,0,0,0,0,0,0,0,0,0,0,0,0,0,0,0,0,0,0,0,0,0,0,0,0,0,0,0,0,0,0,0,0,0,
0,0,0,0,0,0,0,0,0,0,0,0,0,0,0,0,0,0,0,0,0,0,0,0,0,0,0,0,0,0,0,0,0,0,0,0,0,0,0,0,
0,0,0,0,0,0,0,0,0,0,0,0,0,0,0,0,0,0,0,0,0,0,0,0,0,0,0,0,0,0,0,0,0,0,0,0,0,0,0,0,
0,0,0,0,0,0,0,0,0,0,0,0,0,0,0,0,0,0,0,0,0,0,0,0,0,0,0,0,0,0,0,0,0,0,0,0,0,0,0,0,
0,0,0,0,0,0,0,0,0,0,0,0,0,0,0,0,0,0,0,0,0,0,0,0,0,0,0,0,0,0,0,0,0,0,0,0,0,0,0,0,
0,0,0,0,0,0,0,0,0,0,0,0,0,0,0,0,0,0,0,0,0,0,0,0,0,0,0,0,0,0,0,0,0,0,0,0,0,0,0,0,
0,0,0,0,0,0,0,0,0,0,0,0,0,0,0,0,0,0,0,0,0,0,0,0,0,0,0,0,0,0,0,0,0,0,0,0,0,0,0,0,
0,0,0,0,0,0,0,0,0,0,0,0,0,0,0,0,0,0,0,0,0,0,0,0,0,0,0,0,0,0,0,0,0,0,0,0,0,0,0,0,
0,0,0,0,0,0,0,0,0,0,0,0,0,0,0,0,0,0,0,0,0,0,0,0,0,0,0,0,0,0,0,0,0,0,0,0,0,0,0,0,
0,0,0,0,0,0,0,0,0,0,0,0,0,0,0,0,0,0,0,0,0,0,0,0,0,0,0,0,0,0,0,0,0,0,0,0,0,0,0,0,
0,0,0,0,0,0,0,0,0,0,0,0,0,0,0,0,0,0,0,0,0,0,0,0,0,0,0,0,0,0,0,0,0,0,0,0,0,0,0,0,
0,0,0,0,0,0,0,0,0,0,0,0,0,0,0,0,0,0,0,0,0,0,0,0,0,0,0,0,0,0,0,0,0,0,0,0,0,0,0,0,
0,0,0,0,0,0,0,0,0,0,0,0,0,0,0,0,0,0,0,0,0,0,0,0,0,0,0,0,0,0,0,0,0,0,0,0,0,0,0,0,
0,0,0,0,0,0,0,0,0,0,0,0,0,0,0,0,0,0,0,0,0,0,0,0,0,0,0,0,0,0,0,0,0,0,0,0,0,0,0,0,
0,0,0,0,0,0,0,0,0,0,0,0,0,0,0,0,0,0,0,0,0,0,0,0,0,0,0,0,0,0,0,0,0,0,0,0,0,0,0,0,
0,0,0,0,0,0,0,0,0,0,0,0,0,0,0,0,0,0,0,0,0,0,0,0,0,0,0,0,0,0,0,0,0,0,0,0,0,0,0,0,
0,0,0,0,0,0,0,0,0,0,0,0,0,0,0,0,0,0,0,0,0,0,0,0,0,0,0,0,0,0,0,0,0,0,0,0,0,0,0,0,
0,0,0,0,0,0,0,0,0,0,0,0,0,0,0,0,0,0,0,0,0,0,0,0,0,0,0,0,0,0,0,0,0,0,0,0,0,0,0,0,
0,0,0,0,0,0,0,0,0,0,0,0,0,0,0,0,0,0,0,0,0,0,0,0,0,0,0,0,0,0,0,0,0,0,0,0,0,0,0,0,
0,0,0,0,0,0,0,0,0,0,0,0,0,0,0,0,0,0,0,0,0,0,0,0,0,0,0,0,0,0,0,0,0,0,0,0,0,0,0,0,
0,0,0,0,0,0,0,0,0,0,0,0,0,0,0,0,0,0,0,0,0,0,0,0,0,0,0,0,0,0,0,0,0,0,0,0,0,0,0,0,
0,0,0,0,0,0,3081,0,0,0,0,0,0,0,0,0,0,0,0,0,0,0,0,0,0,0,0,0,0,0,0,0,0,0,0,0,0,0,0,0,
0,0,0,0,0,0,0,0,0,0,0,0,0,0,0,0,0,0,0,0,0,0,0,0,0,0,0,0,0,0,0,0,0,0,0,0,0,0,0,0,
0,0,0,0,0,0,0,0,0,0,0,0,0,0,0,0,0,0,0,0,0,0,0,0,0,0,0,0,0,0,0,0,0,0,0,0,0,0,0,0,
0,0,0,0,0,0,0,0,0,0,0,0,0,0,0,0,0,0,0,0,0,0,0,0,0,0,0,0,0,0,0,0,0,0,0,0,0,0,0,0,
0,0,0,0,0,0,0,0,0,0,0,0,0,0,0,0,0,0,0,0,0,0,0,0,0,0,0,0,0,0,0,0,0,0,0,0,0,0,0,0,
0,0,0,0,0,0,0,0,0,0,0,0,0,0,0,0,0,0,0,0,0,0,0,0,0,0,0,0,0,0,0,0,0,0,0,0,0,0,0,0,
0,0,0,0,0,0,0,0,0,0,0,0,0,0,0,0,0,0,0,0,0,0,0,0,0,0,0,0,0,0,0,0,0,0,0,0,0,0,0,0,
0,0,0,0,0,0,0,0,0,0,0,0,0,0,0,0,0,0,0,0,0,0,0,0,0,0,0,0,0,0,0,0,0,0,0,0,0,0,0,0,
0,0,0,0,0,0,0,0,0,0,0,0,0,0,0,0,0,0,0,0,0,0,0,0,0,0,0,0,0,0,0,0,0,0,0,0,0,0,0,0
</data>
 </layer>
 <objectgroup id="9" name="portal">
  <object id="3" name="portal" type="portal" x="891.333" y="38" width="290" height="192">
   <properties>
    <property name="targetMap" value="mapa_neve.json"/>
   </properties>
  </object>
 </objectgroup>
</map>
