<?xml version="1.0" encoding="UTF-8"?>
<map version="1.10" tiledversion="1.12.2" orientation="orthogonal" renderorder="right-down" width="100" height="100" tilewidth="32" tileheight="32" infinite="0" nextlayerid="13" nextobjectid="1">
 <editorsettings>
  <export target="teste_mapa.json" format="json"/>
 </editorsettings>
 <tileset firstgid="1" name="Tileset - Terrain - new grass2" tilewidth="32" tileheight="32" tilecount="3960" columns="55">
  <image source="tiled/ERW-Grassland 2.0/Tilesets/Tileset-Terrain-new grass.png" width="1760" height="2304"/>
  <tile id="416" probability="0.25"/>
  <tile id="417" probability="0.25"/>
  <tile id="418" probability="0.25"/>
  <tile id="419" probability="0.25"/>
  <tile id="420" probability="0.25"/>
  <tile id="421" probability="0.25"/>
  <tile id="422" probability="0.25"/>
  <tile id="423" probability="0.25"/>
  <tile id="424" probability="0.25"/>
  <tile id="425" probability="0.25"/>
  <tile id="471" probability="0.25"/>
  <tile id="472" probability="0.25"/>
  <tile id="473" probability="0.25"/>
  <tile id="474" probability="0.25"/>
  <tile id="475" probability="0.25"/>
  <tile id="476" probability="0.25"/>
  <tile id="477" probability="0.25"/>
  <tile id="478" probability="0.25"/>
  <tile id="479" probability="0.25"/>
  <tile id="480" probability="0.25"/>
  <tile id="648" probability="0.25"/>
  <tile id="649" probability="0.25"/>
  <tile id="650" probability="0.25"/>
  <tile id="651" probability="0.25"/>
  <tile id="652" probability="0.25"/>
  <tile id="653" probability="0.25"/>
  <tile id="654" probability="0.25"/>
  <tile id="655" probability="0.25"/>
  <tile id="656" probability="0.25"/>
  <tile id="657" probability="0.25"/>
  <tile id="1131" probability="0.25"/>
  <tile id="1132" probability="0.25"/>
  <tile id="1133" probability="0.25"/>
  <tile id="1134" probability="0.25"/>
  <tile id="1135" probability="0.25"/>
  <tile id="1136" probability="0.25"/>
  <tile id="1137" probability="0.25"/>
  <tile id="1138" probability="0.25"/>
  <tile id="1139" probability="0.25"/>
  <tile id="1140" probability="0.25"/>
  <tile id="1141" probability="0.25"/>
  <tile id="1142" probability="0.25"/>
  <tile id="1186" probability="0.25"/>
  <tile id="1187" probability="0.25"/>
  <tile id="1188" probability="0.25"/>
  <tile id="1189" probability="0.25"/>
  <tile id="1190" probability="0.25"/>
  <tile id="1191" probability="0.25"/>
  <tile id="1192" probability="0.25"/>
  <tile id="1193" probability="0.25"/>
  <tile id="1194" probability="0.25"/>
  <tile id="1195" probability="0.25"/>
  <tile id="1196" probability="0.25"/>
  <tile id="1197" probability="0.25"/>
  <tile id="2335" probability="0.2"/>
  <tile id="2336" probability="0.2"/>
  <tile id="2337" probability="0.2"/>
  <tile id="2338" probability="0.2"/>
  <tile id="2339" probability="0.2"/>
  <tile id="2340" probability="0.2"/>
  <tile id="2341" probability="0.2"/>
  <tile id="2342" probability="0.2"/>
  <tile id="2343" probability="0.2"/>
  <tile id="2344" probability="0.2"/>
  <tile id="2345" probability="0.2"/>
  <tile id="2346" probability="0.2"/>
  <tile id="2390" probability="0.2"/>
  <tile id="2391" probability="0.2"/>
  <tile id="2392" probability="0.2"/>
  <tile id="2393" probability="0.2"/>
  <tile id="2394" probability="0.2"/>
  <tile id="2395" probability="0.2"/>
  <tile id="2396" probability="0.2"/>
  <tile id="2397" probability="0.2"/>
  <tile id="2398" probability="0.2"/>
  <tile id="2399" probability="0.2"/>
  <tile id="2400" probability="0.2"/>
  <tile id="2401" probability="0.2"/>
  <tile id="2445" probability="0.2"/>
  <tile id="2446" probability="0.2"/>
  <tile id="2447" probability="0.2"/>
  <tile id="2448" probability="0.2"/>
  <tile id="2449" probability="0.2"/>
  <tile id="2450" probability="0.2"/>
  <tile id="2451" probability="0.2"/>
  <tile id="2452" probability="0.2"/>
  <tile id="2453" probability="0.2"/>
  <tile id="2454" probability="0.2"/>
  <tile id="2455" probability="0.2"/>
  <tile id="2456" probability="0.2"/>
  <tile id="2628" probability="0.15"/>
  <tile id="2629" probability="0.15"/>
  <tile id="2630" probability="0.15"/>
  <tile id="2631" probability="0.15"/>
  <tile id="2632" probability="0.15"/>
  <tile id="2633" probability="0.15"/>
  <tile id="2634" probability="0.15"/>
  <tile id="2635" probability="0.15"/>
  <tile id="2636" probability="0.15"/>
  <tile id="2637" probability="0.15"/>
  <tile id="2638" probability="0.15"/>
  <tile id="2639" probability="0.15"/>
  <tile id="2683" probability="0.15"/>
  <tile id="2684" probability="0.15"/>
  <tile id="2685" probability="0.15"/>
  <tile id="2686" probability="0.15"/>
  <tile id="2687" probability="0.15"/>
  <tile id="2688" probability="0.15"/>
  <tile id="2689" probability="0.15"/>
  <tile id="2690" probability="0.15"/>
  <tile id="2691" probability="0.15"/>
  <tile id="2692" probability="0.15"/>
  <tile id="2693" probability="0.15"/>
  <tile id="2694" probability="0.15"/>
  <tile id="2738" probability="0.15"/>
  <tile id="2739" probability="0.15"/>
  <tile id="2740" probability="0.15"/>
  <tile id="2741" probability="0.15"/>
  <tile id="2742" probability="0.15"/>
  <tile id="2743" probability="0.15"/>
  <tile id="2744" probability="0.15"/>
  <tile id="2745" probability="0.15"/>
  <tile id="2746" probability="0.15"/>
  <tile id="2747" probability="0.15"/>
  <tile id="2748" probability="0.15"/>
  <tile id="2749" probability="0.15"/>
  <tile id="2793" probability="0.15"/>
  <tile id="2794" probability="0.15"/>
  <tile id="2795" probability="0.15"/>
  <tile id="2796" probability="0.15"/>
  <tile id="2797" probability="0.15"/>
  <tile id="2798" probability="0.15"/>
  <tile id="2799" probability="0.15"/>
  <tile id="2800" probability="0.15"/>
  <tile id="2801" probability="0.15"/>
  <tile id="2802" probability="0.15"/>
  <tile id="2803" probability="0.15"/>
  <tile id="2804" probability="0.15"/>
  <tile id="2848" probability="0.15"/>
  <tile id="2849" probability="0.15"/>
  <tile id="2850" probability="0.15"/>
  <tile id="2851" probability="0.15"/>
  <tile id="2852" probability="0.15"/>
  <tile id="2853" probability="0.15"/>
  <tile id="2854" probability="0.15"/>
  <tile id="2855" probability="0.15"/>
  <tile id="2856" probability="0.15"/>
  <tile id="2857" probability="0.15"/>
  <tile id="2858" probability="0.15"/>
  <tile id="2859" probability="0.15"/>
  <wangsets>
   <wangset name="wall2" type="corner" tile="277">
    <wangcolor name="grass2 to grass" color="#ff0000" tile="277" probability="1"/>
    <wangcolor name="grass to neutral transition" color="#00ff00" tile="2807" probability="1"/>
    <wangtile tileid="55" wangid="0,1,0,0,0,1,0,0"/>
    <wangtile tileid="56" wangid="0,0,0,1,0,0,0,0"/>
    <wangtile tileid="57" wangid="0,0,0,1,0,1,0,0"/>
    <wangtile tileid="58" wangid="0,0,0,0,0,1,0,0"/>
    <wangtile tileid="59" wangid="0,0,0,1,0,0,0,1"/>
    <wangtile tileid="110" wangid="0,0,0,1,0,0,0,0"/>
    <wangtile tileid="111" wangid="0,1,0,1,0,1,0,0"/>
    <wangtile tileid="112" wangid="0,1,0,1,0,1,0,1"/>
    <wangtile tileid="113" wangid="0,0,0,1,0,1,0,1"/>
    <wangtile tileid="114" wangid="0,0,0,0,0,1,0,0"/>
    <wangtile tileid="165" wangid="0,1,0,1,0,0,0,0"/>
    <wangtile tileid="166" wangid="0,1,0,1,0,1,0,1"/>
    <wangtile tileid="167" wangid="0,1,0,1,0,1,0,1"/>
    <wangtile tileid="168" wangid="0,1,0,1,0,1,0,1"/>
    <wangtile tileid="169" wangid="0,0,0,0,0,1,0,1"/>
    <wangtile tileid="220" wangid="0,1,0,0,0,0,0,0"/>
    <wangtile tileid="221" wangid="0,1,0,1,0,0,0,1"/>
    <wangtile tileid="222" wangid="0,1,0,1,0,1,0,1"/>
    <wangtile tileid="223" wangid="0,1,0,0,0,1,0,1"/>
    <wangtile tileid="224" wangid="0,0,0,0,0,0,0,1"/>
    <wangtile tileid="276" wangid="0,1,0,0,0,0,0,0"/>
    <wangtile tileid="277" wangid="0,1,0,0,0,0,0,1"/>
    <wangtile tileid="278" wangid="0,0,0,0,0,0,0,1"/>
    <wangtile tileid="330" wangid="0,1,0,1,0,0,0,0"/>
    <wangtile tileid="331" wangid="0,0,0,0,0,1,0,1"/>
    <wangtile tileid="332" wangid="0,0,0,1,0,1,0,0"/>
    <wangtile tileid="333" wangid="0,0,0,1,0,1,0,0"/>
    <wangtile tileid="385" wangid="0,1,0,1,0,0,0,0"/>
    <wangtile tileid="386" wangid="0,0,0,0,0,1,0,1"/>
    <wangtile tileid="387" wangid="0,1,0,0,0,0,0,1"/>
    <wangtile tileid="388" wangid="0,1,0,0,0,0,0,1"/>
    <wangtile tileid="440" wangid="0,1,0,1,0,0,0,0"/>
    <wangtile tileid="441" wangid="0,0,0,0,0,1,0,1"/>
    <wangtile tileid="442" wangid="0,0,0,1,0,1,0,0"/>
    <wangtile tileid="443" wangid="0,0,0,1,0,1,0,0"/>
    <wangtile tileid="497" wangid="0,1,0,0,0,0,0,1"/>
    <wangtile tileid="498" wangid="0,1,0,0,0,0,0,1"/>
    <wangtile tileid="2585" wangid="0,2,0,0,0,2,0,0"/>
    <wangtile tileid="2586" wangid="0,0,0,2,0,0,0,0"/>
    <wangtile tileid="2587" wangid="0,0,0,2,0,2,0,0"/>
    <wangtile tileid="2588" wangid="0,0,0,0,0,2,0,0"/>
    <wangtile tileid="2589" wangid="0,0,0,2,0,0,0,2"/>
    <wangtile tileid="2640" wangid="0,0,0,2,0,0,0,0"/>
    <wangtile tileid="2641" wangid="0,2,0,2,0,2,0,0"/>
    <wangtile tileid="2642" wangid="0,2,0,2,0,2,0,2"/>
    <wangtile tileid="2643" wangid="0,0,0,2,0,2,0,2"/>
    <wangtile tileid="2644" wangid="0,0,0,0,0,2,0,0"/>
    <wangtile tileid="2695" wangid="0,2,0,2,0,0,0,0"/>
    <wangtile tileid="2696" wangid="0,2,0,2,0,2,0,2"/>
    <wangtile tileid="2697" wangid="0,2,0,2,0,2,0,2"/>
    <wangtile tileid="2698" wangid="0,2,0,2,0,2,0,2"/>
    <wangtile tileid="2699" wangid="0,0,0,0,0,2,0,2"/>
    <wangtile tileid="2750" wangid="0,2,0,0,0,0,0,0"/>
    <wangtile tileid="2751" wangid="0,2,0,2,0,0,0,2"/>
    <wangtile tileid="2752" wangid="0,2,0,2,0,2,0,2"/>
    <wangtile tileid="2753" wangid="0,2,0,0,0,2,0,2"/>
    <wangtile tileid="2754" wangid="0,0,0,0,0,0,0,2"/>
    <wangtile tileid="2806" wangid="0,2,0,0,0,0,0,0"/>
    <wangtile tileid="2807" wangid="0,2,0,0,0,0,0,2"/>
    <wangtile tileid="2808" wangid="0,0,0,0,0,0,0,2"/>
    <wangtile tileid="2860" wangid="0,2,0,2,0,0,0,0"/>
    <wangtile tileid="2861" wangid="0,0,0,0,0,2,0,2"/>
    <wangtile tileid="2862" wangid="0,0,0,2,0,2,0,0"/>
    <wangtile tileid="2863" wangid="0,0,0,2,0,2,0,0"/>
    <wangtile tileid="2915" wangid="0,2,0,2,0,0,0,0"/>
    <wangtile tileid="2916" wangid="0,0,0,0,0,2,0,2"/>
    <wangtile tileid="2917" wangid="0,2,0,0,0,0,0,2"/>
    <wangtile tileid="2918" wangid="0,2,0,0,0,0,0,2"/>
    <wangtile tileid="2970" wangid="0,2,0,2,0,0,0,0"/>
    <wangtile tileid="2971" wangid="0,0,0,0,0,2,0,2"/>
    <wangtile tileid="2972" wangid="0,0,0,2,0,2,0,0"/>
    <wangtile tileid="2973" wangid="0,0,0,2,0,2,0,0"/>
    <wangtile tileid="3027" wangid="0,2,0,0,0,0,0,2"/>
    <wangtile tileid="3028" wangid="0,2,0,0,0,0,0,2"/>
   </wangset>
   <wangset name="tall grass - cartoonish style" type="corner" tile="1228">
    <wangcolor name="style 1" color="#ff0000" tile="1118" probability="1"/>
    <wangcolor name="style 2" color="#00ff00" tile="1178" probability="1"/>
    <wangcolor name="style 3" color="#0000ff" tile="1183" probability="1"/>
    <wangtile tileid="1006" wangid="0,1,0,0,0,1,0,0"/>
    <wangtile tileid="1007" wangid="0,0,0,1,0,0,0,0"/>
    <wangtile tileid="1008" wangid="0,0,0,1,0,1,0,0"/>
    <wangtile tileid="1009" wangid="0,0,0,0,0,1,0,0"/>
    <wangtile tileid="1010" wangid="0,0,0,1,0,0,0,1"/>
    <wangtile tileid="1011" wangid="0,2,0,0,0,2,0,0"/>
    <wangtile tileid="1012" wangid="0,0,0,2,0,0,0,0"/>
    <wangtile tileid="1013" wangid="0,0,0,2,0,2,0,0"/>
    <wangtile tileid="1014" wangid="0,0,0,0,0,2,0,0"/>
    <wangtile tileid="1015" wangid="0,0,0,2,0,0,0,2"/>
    <wangtile tileid="1016" wangid="0,3,0,0,0,3,0,0"/>
    <wangtile tileid="1017" wangid="0,0,0,3,0,0,0,0"/>
    <wangtile tileid="1018" wangid="0,0,0,3,0,3,0,0"/>
    <wangtile tileid="1019" wangid="0,0,0,0,0,3,0,0"/>
    <wangtile tileid="1020" wangid="0,0,0,3,0,0,0,3"/>
    <wangtile tileid="1061" wangid="0,0,0,1,0,0,0,0"/>
    <wangtile tileid="1062" wangid="0,1,0,1,0,1,0,0"/>
    <wangtile tileid="1063" wangid="0,1,0,1,0,1,0,1"/>
    <wangtile tileid="1064" wangid="0,0,0,1,0,1,0,1"/>
    <wangtile tileid="1065" wangid="0,0,0,0,0,1,0,0"/>
    <wangtile tileid="1066" wangid="0,0,0,2,0,0,0,0"/>
    <wangtile tileid="1067" wangid="0,2,0,2,0,2,0,0"/>
    <wangtile tileid="1068" wangid="0,2,0,2,0,2,0,2"/>
    <wangtile tileid="1069" wangid="0,0,0,2,0,2,0,2"/>
    <wangtile tileid="1070" wangid="0,0,0,0,0,2,0,0"/>
    <wangtile tileid="1071" wangid="0,0,0,3,0,0,0,0"/>
    <wangtile tileid="1072" wangid="0,3,0,3,0,3,0,0"/>
    <wangtile tileid="1073" wangid="0,3,0,3,0,3,0,3"/>
    <wangtile tileid="1074" wangid="0,0,0,3,0,3,0,3"/>
    <wangtile tileid="1075" wangid="0,0,0,0,0,3,0,0"/>
    <wangtile tileid="1116" wangid="0,1,0,1,0,0,0,0"/>
    <wangtile tileid="1117" wangid="0,1,0,1,0,1,0,1"/>
    <wangtile tileid="1118" wangid="0,1,0,1,0,1,0,1"/>
    <wangtile tileid="1119" wangid="0,1,0,1,0,1,0,1"/>
    <wangtile tileid="1120" wangid="0,0,0,0,0,1,0,1"/>
    <wangtile tileid="1121" wangid="0,2,0,2,0,0,0,0"/>
    <wangtile tileid="1122" wangid="0,2,0,2,0,2,0,2"/>
    <wangtile tileid="1123" wangid="0,2,0,2,0,2,0,2"/>
    <wangtile tileid="1124" wangid="0,2,0,2,0,2,0,2"/>
    <wangtile tileid="1125" wangid="0,0,0,0,0,2,0,2"/>
    <wangtile tileid="1126" wangid="0,3,0,3,0,0,0,0"/>
    <wangtile tileid="1127" wangid="0,3,0,3,0,3,0,3"/>
    <wangtile tileid="1128" wangid="0,3,0,3,0,3,0,3"/>
    <wangtile tileid="1129" wangid="0,3,0,3,0,3,0,3"/>
    <wangtile tileid="1130" wangid="0,0,0,0,0,3,0,3"/>
    <wangtile tileid="1171" wangid="0,1,0,0,0,0,0,0"/>
    <wangtile tileid="1172" wangid="0,1,0,1,0,0,0,1"/>
    <wangtile tileid="1173" wangid="0,1,0,1,0,1,0,1"/>
    <wangtile tileid="1174" wangid="0,1,0,0,0,1,0,1"/>
    <wangtile tileid="1175" wangid="0,0,0,0,0,0,0,1"/>
    <wangtile tileid="1176" wangid="0,2,0,0,0,0,0,0"/>
    <wangtile tileid="1177" wangid="0,2,0,2,0,0,0,2"/>
    <wangtile tileid="1178" wangid="0,2,0,2,0,2,0,2"/>
    <wangtile tileid="1179" wangid="0,2,0,0,0,2,0,2"/>
    <wangtile tileid="1180" wangid="0,0,0,0,0,0,0,2"/>
    <wangtile tileid="1181" wangid="0,3,0,0,0,0,0,0"/>
    <wangtile tileid="1182" wangid="0,3,0,3,0,0,0,3"/>
    <wangtile tileid="1183" wangid="0,3,0,3,0,3,0,3"/>
    <wangtile tileid="1184" wangid="0,3,0,0,0,3,0,3"/>
    <wangtile tileid="1185" wangid="0,0,0,0,0,0,0,3"/>
    <wangtile tileid="1226" wangid="0,0,0,1,0,1,0,0"/>
    <wangtile tileid="1227" wangid="0,1,0,0,0,0,0,0"/>
    <wangtile tileid="1228" wangid="0,1,0,0,0,0,0,1"/>
    <wangtile tileid="1229" wangid="0,0,0,0,0,0,0,1"/>
    <wangtile tileid="1230" wangid="0,1,0,1,0,0,0,0"/>
    <wangtile tileid="1231" wangid="0,0,0,2,0,2,0,0"/>
    <wangtile tileid="1232" wangid="0,2,0,0,0,0,0,0"/>
    <wangtile tileid="1233" wangid="0,2,0,0,0,0,0,2"/>
    <wangtile tileid="1234" wangid="0,0,0,0,0,0,0,2"/>
    <wangtile tileid="1235" wangid="0,2,0,2,0,0,0,0"/>
    <wangtile tileid="1236" wangid="0,0,0,3,0,3,0,0"/>
    <wangtile tileid="1237" wangid="0,3,0,0,0,0,0,0"/>
    <wangtile tileid="1238" wangid="0,3,0,0,0,0,0,3"/>
    <wangtile tileid="1239" wangid="0,0,0,0,0,0,0,3"/>
    <wangtile tileid="1240" wangid="0,3,0,3,0,0,0,0"/>
    <wangtile tileid="1281" wangid="0,1,0,0,0,0,0,1"/>
    <wangtile tileid="1282" wangid="0,1,0,1,0,1,0,1"/>
    <wangtile tileid="1283" wangid="0,1,0,1,0,1,0,1"/>
    <wangtile tileid="1284" wangid="0,1,0,1,0,1,0,1"/>
    <wangtile tileid="1285" wangid="0,0,0,0,0,1,0,1"/>
    <wangtile tileid="1286" wangid="0,2,0,0,0,0,0,2"/>
    <wangtile tileid="1287" wangid="0,2,0,2,0,2,0,2"/>
    <wangtile tileid="1288" wangid="0,2,0,2,0,2,0,2"/>
    <wangtile tileid="1289" wangid="0,2,0,2,0,2,0,2"/>
    <wangtile tileid="1290" wangid="0,0,0,0,0,2,0,2"/>
    <wangtile tileid="1291" wangid="0,3,0,0,0,0,0,3"/>
    <wangtile tileid="1292" wangid="0,3,0,3,0,3,0,3"/>
    <wangtile tileid="1293" wangid="0,3,0,3,0,3,0,3"/>
    <wangtile tileid="1294" wangid="0,3,0,3,0,3,0,3"/>
    <wangtile tileid="1295" wangid="0,0,0,0,0,3,0,3"/>
    <wangtile tileid="1336" wangid="0,1,0,1,0,1,0,1"/>
    <wangtile tileid="1337" wangid="0,1,0,1,0,1,0,1"/>
    <wangtile tileid="1338" wangid="0,1,0,1,0,1,0,1"/>
    <wangtile tileid="1339" wangid="0,1,0,1,0,1,0,1"/>
    <wangtile tileid="1340" wangid="0,1,0,1,0,1,0,1"/>
    <wangtile tileid="1341" wangid="0,2,0,2,0,2,0,2"/>
    <wangtile tileid="1342" wangid="0,2,0,2,0,2,0,2"/>
    <wangtile tileid="1343" wangid="0,2,0,2,0,2,0,2"/>
    <wangtile tileid="1344" wangid="0,2,0,2,0,2,0,2"/>
    <wangtile tileid="1345" wangid="0,2,0,2,0,2,0,2"/>
    <wangtile tileid="1346" wangid="0,3,0,3,0,3,0,3"/>
    <wangtile tileid="1347" wangid="0,3,0,3,0,3,0,3"/>
    <wangtile tileid="1348" wangid="0,3,0,3,0,3,0,3"/>
    <wangtile tileid="1349" wangid="0,3,0,3,0,3,0,3"/>
    <wangtile tileid="1350" wangid="0,3,0,3,0,3,0,3"/>
    <wangtile tileid="1391" wangid="0,1,0,1,0,1,0,1"/>
    <wangtile tileid="1392" wangid="0,1,0,1,0,1,0,1"/>
    <wangtile tileid="1393" wangid="0,1,0,1,0,1,0,1"/>
    <wangtile tileid="1394" wangid="0,1,0,1,0,1,0,1"/>
    <wangtile tileid="1395" wangid="0,1,0,1,0,1,0,1"/>
    <wangtile tileid="1396" wangid="0,2,0,2,0,2,0,2"/>
    <wangtile tileid="1397" wangid="0,2,0,2,0,2,0,2"/>
    <wangtile tileid="1398" wangid="0,2,0,2,0,2,0,2"/>
    <wangtile tileid="1399" wangid="0,2,0,2,0,2,0,2"/>
    <wangtile tileid="1400" wangid="0,2,0,2,0,2,0,2"/>
    <wangtile tileid="1401" wangid="0,3,0,3,0,3,0,3"/>
    <wangtile tileid="1402" wangid="0,3,0,3,0,3,0,3"/>
    <wangtile tileid="1403" wangid="0,3,0,3,0,3,0,3"/>
    <wangtile tileid="1404" wangid="0,3,0,3,0,3,0,3"/>
    <wangtile tileid="1405" wangid="0,3,0,3,0,3,0,3"/>
    <wangtile tileid="1446" wangid="0,1,0,1,0,1,0,1"/>
    <wangtile tileid="1447" wangid="0,1,0,1,0,1,0,1"/>
    <wangtile tileid="1448" wangid="0,1,0,1,0,1,0,1"/>
    <wangtile tileid="1449" wangid="0,1,0,1,0,1,0,1"/>
    <wangtile tileid="1450" wangid="0,1,0,1,0,1,0,1"/>
    <wangtile tileid="1451" wangid="0,2,0,2,0,2,0,2"/>
    <wangtile tileid="1452" wangid="0,2,0,2,0,2,0,2"/>
    <wangtile tileid="1453" wangid="0,2,0,2,0,2,0,2"/>
    <wangtile tileid="1454" wangid="0,2,0,2,0,2,0,2"/>
    <wangtile tileid="1455" wangid="0,2,0,2,0,2,0,2"/>
    <wangtile tileid="1456" wangid="0,3,0,3,0,3,0,3"/>
    <wangtile tileid="1457" wangid="0,3,0,3,0,3,0,3"/>
    <wangtile tileid="1458" wangid="0,3,0,3,0,3,0,3"/>
    <wangtile tileid="1459" wangid="0,3,0,3,0,3,0,3"/>
    <wangtile tileid="1460" wangid="0,3,0,3,0,3,0,3"/>
    <wangtile tileid="1501" wangid="0,1,0,1,0,1,0,1"/>
    <wangtile tileid="1502" wangid="0,1,0,1,0,1,0,1"/>
    <wangtile tileid="1503" wangid="0,1,0,1,0,1,0,1"/>
    <wangtile tileid="1504" wangid="0,1,0,1,0,1,0,1"/>
    <wangtile tileid="1505" wangid="0,1,0,1,0,1,0,1"/>
    <wangtile tileid="1506" wangid="0,2,0,2,0,2,0,2"/>
    <wangtile tileid="1507" wangid="0,2,0,2,0,2,0,2"/>
    <wangtile tileid="1508" wangid="0,2,0,2,0,2,0,2"/>
    <wangtile tileid="1509" wangid="0,2,0,2,0,2,0,2"/>
    <wangtile tileid="1510" wangid="0,2,0,2,0,2,0,2"/>
    <wangtile tileid="1511" wangid="0,3,0,3,0,3,0,3"/>
    <wangtile tileid="1512" wangid="0,3,0,3,0,3,0,3"/>
    <wangtile tileid="1513" wangid="0,3,0,3,0,3,0,3"/>
    <wangtile tileid="1514" wangid="0,3,0,3,0,3,0,3"/>
    <wangtile tileid="1515" wangid="0,3,0,3,0,3,0,3"/>
    <wangtile tileid="1556" wangid="0,1,0,1,0,1,0,1"/>
    <wangtile tileid="1557" wangid="0,1,0,1,0,1,0,1"/>
    <wangtile tileid="1558" wangid="0,1,0,1,0,1,0,1"/>
    <wangtile tileid="1559" wangid="0,1,0,1,0,1,0,1"/>
    <wangtile tileid="1560" wangid="0,1,0,1,0,1,0,1"/>
    <wangtile tileid="1561" wangid="0,2,0,2,0,2,0,2"/>
    <wangtile tileid="1562" wangid="0,2,0,2,0,2,0,2"/>
    <wangtile tileid="1563" wangid="0,2,0,2,0,2,0,2"/>
    <wangtile tileid="1564" wangid="0,2,0,2,0,2,0,2"/>
    <wangtile tileid="1565" wangid="0,2,0,2,0,2,0,2"/>
    <wangtile tileid="1566" wangid="0,3,0,3,0,3,0,3"/>
    <wangtile tileid="1567" wangid="0,3,0,3,0,3,0,3"/>
    <wangtile tileid="1568" wangid="0,3,0,3,0,3,0,3"/>
    <wangtile tileid="1569" wangid="0,3,0,3,0,3,0,3"/>
    <wangtile tileid="1570" wangid="0,3,0,3,0,3,0,3"/>
    <wangtile tileid="1611" wangid="0,1,0,1,0,1,0,1"/>
    <wangtile tileid="1612" wangid="0,1,0,1,0,1,0,1"/>
    <wangtile tileid="1613" wangid="0,1,0,1,0,1,0,1"/>
    <wangtile tileid="1614" wangid="0,1,0,1,0,1,0,1"/>
    <wangtile tileid="1616" wangid="0,2,0,2,0,2,0,2"/>
    <wangtile tileid="1617" wangid="0,2,0,2,0,2,0,2"/>
    <wangtile tileid="1618" wangid="0,2,0,2,0,2,0,2"/>
    <wangtile tileid="1619" wangid="0,2,0,2,0,2,0,2"/>
    <wangtile tileid="1621" wangid="0,3,0,3,0,3,0,3"/>
    <wangtile tileid="1622" wangid="0,3,0,3,0,3,0,3"/>
    <wangtile tileid="1623" wangid="0,3,0,3,0,3,0,3"/>
    <wangtile tileid="1624" wangid="0,3,0,3,0,3,0,3"/>
    <wangtile tileid="1625" wangid="0,3,0,3,0,3,0,3"/>
    <wangtile tileid="1666" wangid="0,1,0,1,0,1,0,1"/>
    <wangtile tileid="1667" wangid="0,1,0,1,0,1,0,1"/>
    <wangtile tileid="1668" wangid="0,1,0,1,0,1,0,1"/>
    <wangtile tileid="1669" wangid="0,1,0,1,0,1,0,1"/>
    <wangtile tileid="1671" wangid="0,2,0,2,0,2,0,2"/>
    <wangtile tileid="1672" wangid="0,2,0,2,0,2,0,2"/>
    <wangtile tileid="1673" wangid="0,2,0,2,0,2,0,2"/>
    <wangtile tileid="1674" wangid="0,2,0,2,0,2,0,2"/>
    <wangtile tileid="1676" wangid="0,3,0,3,0,3,0,3"/>
    <wangtile tileid="1677" wangid="0,3,0,3,0,3,0,3"/>
    <wangtile tileid="1678" wangid="0,3,0,3,0,3,0,3"/>
    <wangtile tileid="1679" wangid="0,3,0,3,0,3,0,3"/>
    <wangtile tileid="1680" wangid="0,3,0,3,0,3,0,3"/>
    <wangtile tileid="1721" wangid="0,1,0,1,0,1,0,1"/>
    <wangtile tileid="1722" wangid="0,1,0,1,0,1,0,1"/>
    <wangtile tileid="1723" wangid="0,1,0,1,0,1,0,1"/>
    <wangtile tileid="1724" wangid="0,1,0,1,0,1,0,1"/>
    <wangtile tileid="1726" wangid="0,2,0,2,0,2,0,2"/>
    <wangtile tileid="1727" wangid="0,2,0,2,0,2,0,2"/>
    <wangtile tileid="1728" wangid="0,2,0,2,0,2,0,2"/>
    <wangtile tileid="1729" wangid="0,2,0,2,0,2,0,2"/>
    <wangtile tileid="1731" wangid="0,3,0,3,0,3,0,3"/>
    <wangtile tileid="1732" wangid="0,3,0,3,0,3,0,3"/>
    <wangtile tileid="1733" wangid="0,3,0,3,0,3,0,3"/>
    <wangtile tileid="1734" wangid="0,3,0,3,0,3,0,3"/>
    <wangtile tileid="1735" wangid="0,3,0,3,0,3,0,3"/>
   </wangset>
   <wangset name="wall3" type="corner" tile="3302">
    <wangcolor name="dirt to neutral" color="#ff0000" tile="3302" probability="1"/>
    <wangcolor name="dirt to grass" color="#00ff00" tile="3588" probability="1"/>
    <wangtile tileid="3080" wangid="0,1,0,0,0,1,0,0"/>
    <wangtile tileid="3081" wangid="0,0,0,1,0,0,0,0"/>
    <wangtile tileid="3082" wangid="0,0,0,1,0,1,0,0"/>
    <wangtile tileid="3083" wangid="0,0,0,0,0,1,0,0"/>
    <wangtile tileid="3084" wangid="0,0,0,1,0,0,0,1"/>
    <wangtile tileid="3135" wangid="0,0,0,1,0,0,0,0"/>
    <wangtile tileid="3136" wangid="0,1,0,1,0,1,0,0"/>
    <wangtile tileid="3137" wangid="0,1,0,1,0,1,0,1"/>
    <wangtile tileid="3138" wangid="0,0,0,1,0,1,0,1"/>
    <wangtile tileid="3139" wangid="0,0,0,0,0,1,0,0"/>
    <wangtile tileid="3190" wangid="0,1,0,1,0,0,0,0"/>
    <wangtile tileid="3191" wangid="0,1,0,1,0,1,0,1"/>
    <wangtile tileid="3192" wangid="0,1,0,1,0,1,0,1"/>
    <wangtile tileid="3193" wangid="0,1,0,1,0,1,0,1"/>
    <wangtile tileid="3194" wangid="0,0,0,0,0,1,0,1"/>
    <wangtile tileid="3245" wangid="0,1,0,0,0,0,0,0"/>
    <wangtile tileid="3246" wangid="0,1,0,1,0,0,0,1"/>
    <wangtile tileid="3247" wangid="0,1,0,1,0,1,0,1"/>
    <wangtile tileid="3248" wangid="0,1,0,0,0,1,0,1"/>
    <wangtile tileid="3249" wangid="0,0,0,0,0,0,0,1"/>
    <wangtile tileid="3301" wangid="0,1,0,0,0,0,0,0"/>
    <wangtile tileid="3302" wangid="0,1,0,0,0,0,0,1"/>
    <wangtile tileid="3303" wangid="0,0,0,0,0,0,0,1"/>
    <wangtile tileid="3355" wangid="0,1,0,1,0,0,0,0"/>
    <wangtile tileid="3356" wangid="0,0,0,0,0,1,0,1"/>
    <wangtile tileid="3357" wangid="0,0,0,1,0,1,0,0"/>
    <wangtile tileid="3358" wangid="0,0,0,1,0,1,0,0"/>
    <wangtile tileid="3366" wangid="0,2,0,0,0,2,0,0"/>
    <wangtile tileid="3367" wangid="0,0,0,2,0,0,0,0"/>
    <wangtile tileid="3368" wangid="0,0,0,2,0,2,0,0"/>
    <wangtile tileid="3369" wangid="0,0,0,0,0,2,0,0"/>
    <wangtile tileid="3370" wangid="0,0,0,2,0,0,0,2"/>
    <wangtile tileid="3410" wangid="0,1,0,1,0,0,0,0"/>
    <wangtile tileid="3411" wangid="0,0,0,0,0,1,0,1"/>
    <wangtile tileid="3412" wangid="0,1,0,0,0,0,0,1"/>
    <wangtile tileid="3413" wangid="0,1,0,0,0,0,0,1"/>
    <wangtile tileid="3421" wangid="0,0,0,2,0,0,0,0"/>
    <wangtile tileid="3422" wangid="0,2,0,2,0,2,0,0"/>
    <wangtile tileid="3423" wangid="0,2,0,2,0,2,0,2"/>
    <wangtile tileid="3424" wangid="0,0,0,2,0,2,0,2"/>
    <wangtile tileid="3425" wangid="0,0,0,0,0,2,0,0"/>
    <wangtile tileid="3465" wangid="0,1,0,1,0,0,0,0"/>
    <wangtile tileid="3466" wangid="0,0,0,0,0,1,0,1"/>
    <wangtile tileid="3467" wangid="0,0,0,1,0,1,0,0"/>
    <wangtile tileid="3468" wangid="0,0,0,1,0,1,0,0"/>
    <wangtile tileid="3476" wangid="0,2,0,2,0,0,0,0"/>
    <wangtile tileid="3477" wangid="0,2,0,2,0,2,0,2"/>
    <wangtile tileid="3478" wangid="0,2,0,2,0,2,0,2"/>
    <wangtile tileid="3479" wangid="0,2,0,2,0,2,0,2"/>
    <wangtile tileid="3480" wangid="0,0,0,0,0,2,0,2"/>
    <wangtile tileid="3522" wangid="0,1,0,0,0,0,0,1"/>
    <wangtile tileid="3523" wangid="0,1,0,0,0,0,0,1"/>
    <wangtile tileid="3531" wangid="0,2,0,0,0,0,0,0"/>
    <wangtile tileid="3532" wangid="0,2,0,2,0,0,0,2"/>
    <wangtile tileid="3533" wangid="0,2,0,2,0,2,0,2"/>
    <wangtile tileid="3534" wangid="0,2,0,0,0,2,0,2"/>
    <wangtile tileid="3535" wangid="0,0,0,0,0,0,0,2"/>
    <wangtile tileid="3587" wangid="0,2,0,0,0,0,0,0"/>
    <wangtile tileid="3588" wangid="0,2,0,0,0,0,0,2"/>
    <wangtile tileid="3589" wangid="0,0,0,0,0,0,0,2"/>
    <wangtile tileid="3641" wangid="0,2,0,2,0,0,0,0"/>
    <wangtile tileid="3642" wangid="0,0,0,0,0,2,0,2"/>
    <wangtile tileid="3643" wangid="0,0,0,2,0,2,0,0"/>
    <wangtile tileid="3644" wangid="0,0,0,2,0,2,0,0"/>
    <wangtile tileid="3696" wangid="0,2,0,2,0,0,0,0"/>
    <wangtile tileid="3697" wangid="0,0,0,0,0,2,0,2"/>
    <wangtile tileid="3698" wangid="0,2,0,0,0,0,0,2"/>
    <wangtile tileid="3699" wangid="0,2,0,0,0,0,0,2"/>
    <wangtile tileid="3751" wangid="0,2,0,2,0,0,0,0"/>
    <wangtile tileid="3752" wangid="0,0,0,0,0,2,0,2"/>
    <wangtile tileid="3753" wangid="0,0,0,2,0,2,0,0"/>
    <wangtile tileid="3754" wangid="0,0,0,2,0,2,0,0"/>
    <wangtile tileid="3808" wangid="0,2,0,0,0,0,0,2"/>
    <wangtile tileid="3809" wangid="0,2,0,0,0,0,0,2"/>
   </wangset>
   <wangset name="grass2 - extra shade to main grass" type="corner" tile="245">
    <wangcolor name="" color="#ff0000" tile="245" probability="1"/>
    <wangtile tileid="135" wangid="0,1,0,0,0,1,0,0"/>
    <wangtile tileid="136" wangid="0,0,0,1,0,0,0,0"/>
    <wangtile tileid="137" wangid="0,0,0,1,0,1,0,0"/>
    <wangtile tileid="138" wangid="0,0,0,0,0,1,0,0"/>
    <wangtile tileid="139" wangid="0,0,0,1,0,0,0,1"/>
    <wangtile tileid="190" wangid="0,0,0,1,0,0,0,0"/>
    <wangtile tileid="191" wangid="0,1,0,1,0,1,0,0"/>
    <wangtile tileid="192" wangid="0,1,0,1,0,1,0,1"/>
    <wangtile tileid="193" wangid="0,0,0,1,0,1,0,1"/>
    <wangtile tileid="194" wangid="0,0,0,0,0,1,0,0"/>
    <wangtile tileid="245" wangid="0,1,0,1,0,0,0,0"/>
    <wangtile tileid="246" wangid="0,1,0,1,0,1,0,1"/>
    <wangtile tileid="247" wangid="0,1,0,1,0,1,0,1"/>
    <wangtile tileid="248" wangid="0,1,0,1,0,1,0,1"/>
    <wangtile tileid="249" wangid="0,0,0,0,0,1,0,1"/>
    <wangtile tileid="300" wangid="0,1,0,0,0,0,0,0"/>
    <wangtile tileid="301" wangid="0,1,0,1,0,0,0,1"/>
    <wangtile tileid="302" wangid="0,1,0,1,0,1,0,1"/>
    <wangtile tileid="303" wangid="0,1,0,0,0,1,0,1"/>
    <wangtile tileid="304" wangid="0,0,0,0,0,0,0,1"/>
    <wangtile tileid="355" wangid="0,0,0,1,0,1,0,0"/>
    <wangtile tileid="356" wangid="0,1,0,0,0,0,0,0"/>
    <wangtile tileid="357" wangid="0,1,0,0,0,0,0,1"/>
    <wangtile tileid="358" wangid="0,0,0,0,0,0,0,1"/>
    <wangtile tileid="359" wangid="0,1,0,1,0,0,0,0"/>
    <wangtile tileid="410" wangid="0,1,0,0,0,0,0,1"/>
    <wangtile tileid="414" wangid="0,0,0,0,0,1,0,1"/>
   </wangset>
   <wangset name="dirt" type="corner" tile="1832">
    <wangcolor name="dirt1 to extra shade grass" color="#ff0000" tile="1832" probability="1"/>
    <wangcolor name="dirt1 to main grass" color="#00ff00" tile="1837" probability="1"/>
    <wangcolor name="dirt2 to extra shade grass" color="#0000ff" tile="2327" probability="1"/>
    <wangcolor name="dirt2 to main grass" color="#ff7700" tile="2332" probability="1"/>
    <wangcolor name="dirt2 to dirt1" color="#00e9ff" tile="2722" probability="1"/>
    <wangtile tileid="1830" wangid="0,1,0,0,0,1,0,0"/>
    <wangtile tileid="1831" wangid="0,0,0,1,0,0,0,0"/>
    <wangtile tileid="1832" wangid="0,0,0,1,0,1,0,0"/>
    <wangtile tileid="1833" wangid="0,0,0,0,0,1,0,0"/>
    <wangtile tileid="1834" wangid="0,0,0,1,0,0,0,1"/>
    <wangtile tileid="1835" wangid="0,2,0,0,0,2,0,0"/>
    <wangtile tileid="1836" wangid="0,0,0,2,0,0,0,0"/>
    <wangtile tileid="1837" wangid="0,0,0,2,0,2,0,0"/>
    <wangtile tileid="1838" wangid="0,0,0,0,0,2,0,0"/>
    <wangtile tileid="1839" wangid="0,0,0,2,0,0,0,2"/>
    <wangtile tileid="1885" wangid="0,0,0,1,0,0,0,0"/>
    <wangtile tileid="1886" wangid="0,1,0,1,0,1,0,0"/>
    <wangtile tileid="1887" wangid="0,1,0,1,0,1,0,1"/>
    <wangtile tileid="1888" wangid="0,0,0,1,0,1,0,1"/>
    <wangtile tileid="1889" wangid="0,0,0,0,0,1,0,0"/>
    <wangtile tileid="1890" wangid="0,0,0,2,0,0,0,0"/>
    <wangtile tileid="1891" wangid="0,2,0,2,0,2,0,0"/>
    <wangtile tileid="1892" wangid="0,2,0,2,0,2,0,2"/>
    <wangtile tileid="1893" wangid="0,0,0,2,0,2,0,2"/>
    <wangtile tileid="1894" wangid="0,0,0,0,0,2,0,0"/>
    <wangtile tileid="1940" wangid="0,1,0,1,0,0,0,0"/>
    <wangtile tileid="1941" wangid="0,1,0,1,0,1,0,1"/>
    <wangtile tileid="1942" wangid="0,1,0,1,0,1,0,1"/>
    <wangtile tileid="1943" wangid="0,1,0,1,0,1,0,1"/>
    <wangtile tileid="1944" wangid="0,0,0,0,0,1,0,1"/>
    <wangtile tileid="1945" wangid="0,2,0,2,0,0,0,0"/>
    <wangtile tileid="1946" wangid="0,2,0,2,0,2,0,2"/>
    <wangtile tileid="1947" wangid="0,2,0,2,0,2,0,2"/>
    <wangtile tileid="1948" wangid="0,2,0,2,0,2,0,2"/>
    <wangtile tileid="1949" wangid="0,0,0,0,0,2,0,2"/>
    <wangtile tileid="1995" wangid="0,1,0,0,0,0,0,0"/>
    <wangtile tileid="1996" wangid="0,1,0,1,0,0,0,1"/>
    <wangtile tileid="1997" wangid="0,1,0,1,0,1,0,1"/>
    <wangtile tileid="1998" wangid="0,1,0,0,0,1,0,1"/>
    <wangtile tileid="1999" wangid="0,0,0,0,0,0,0,1"/>
    <wangtile tileid="2000" wangid="0,2,0,0,0,0,0,0"/>
    <wangtile tileid="2001" wangid="0,2,0,2,0,0,0,2"/>
    <wangtile tileid="2002" wangid="0,2,0,2,0,2,0,2"/>
    <wangtile tileid="2003" wangid="0,2,0,0,0,2,0,2"/>
    <wangtile tileid="2004" wangid="0,0,0,0,0,0,0,2"/>
    <wangtile tileid="2050" wangid="0,1,0,1,0,0,0,1"/>
    <wangtile tileid="2051" wangid="0,1,0,0,0,0,0,0"/>
    <wangtile tileid="2052" wangid="0,1,0,0,0,0,0,1"/>
    <wangtile tileid="2053" wangid="0,0,0,0,0,0,0,1"/>
    <wangtile tileid="2054" wangid="0,1,0,0,0,1,0,1"/>
    <wangtile tileid="2055" wangid="0,2,0,2,0,0,0,2"/>
    <wangtile tileid="2056" wangid="0,2,0,0,0,0,0,0"/>
    <wangtile tileid="2057" wangid="0,2,0,0,0,0,0,2"/>
    <wangtile tileid="2058" wangid="0,0,0,0,0,0,0,2"/>
    <wangtile tileid="2059" wangid="0,2,0,0,0,2,0,2"/>
    <wangtile tileid="2105" wangid="0,0,0,1,0,1,0,1"/>
    <wangtile tileid="2106" wangid="0,1,0,1,0,1,0,0"/>
    <wangtile tileid="2107" wangid="0,0,0,0,0,1,0,1"/>
    <wangtile tileid="2108" wangid="0,1,0,1,0,0,0,0"/>
    <wangtile tileid="2110" wangid="0,0,0,2,0,2,0,2"/>
    <wangtile tileid="2111" wangid="0,2,0,2,0,2,0,0"/>
    <wangtile tileid="2112" wangid="0,0,0,0,0,2,0,2"/>
    <wangtile tileid="2113" wangid="0,2,0,2,0,0,0,0"/>
    <wangtile tileid="2160" wangid="0,0,0,1,0,1,0,1"/>
    <wangtile tileid="2161" wangid="0,1,0,1,0,1,0,0"/>
    <wangtile tileid="2162" wangid="0,0,0,0,0,1,0,1"/>
    <wangtile tileid="2163" wangid="0,1,0,1,0,0,0,0"/>
    <wangtile tileid="2165" wangid="0,0,0,2,0,2,0,2"/>
    <wangtile tileid="2166" wangid="0,2,0,2,0,2,0,0"/>
    <wangtile tileid="2167" wangid="0,0,0,0,0,2,0,2"/>
    <wangtile tileid="2168" wangid="0,2,0,2,0,0,0,0"/>
    <wangtile tileid="2215" wangid="0,0,0,1,0,1,0,1"/>
    <wangtile tileid="2216" wangid="0,1,0,1,0,1,0,0"/>
    <wangtile tileid="2217" wangid="0,0,0,0,0,1,0,1"/>
    <wangtile tileid="2218" wangid="0,1,0,1,0,0,0,0"/>
    <wangtile tileid="2220" wangid="0,0,0,2,0,2,0,2"/>
    <wangtile tileid="2221" wangid="0,2,0,2,0,2,0,0"/>
    <wangtile tileid="2222" wangid="0,0,0,0,0,2,0,2"/>
    <wangtile tileid="2223" wangid="0,2,0,2,0,0,0,0"/>
    <wangtile tileid="2270" wangid="0,0,0,1,0,1,0,0"/>
    <wangtile tileid="2271" wangid="0,0,0,1,0,1,0,0"/>
    <wangtile tileid="2272" wangid="0,1,0,0,0,0,0,1"/>
    <wangtile tileid="2273" wangid="0,1,0,0,0,0,0,1"/>
    <wangtile tileid="2274" wangid="0,1,0,0,0,0,0,1"/>
    <wangtile tileid="2275" wangid="0,0,0,2,0,2,0,0"/>
    <wangtile tileid="2276" wangid="0,0,0,2,0,2,0,0"/>
    <wangtile tileid="2277" wangid="0,2,0,0,0,0,0,2"/>
    <wangtile tileid="2278" wangid="0,2,0,0,0,0,0,2"/>
    <wangtile tileid="2279" wangid="0,2,0,0,0,0,0,2"/>
    <wangtile tileid="2325" wangid="0,3,0,0,0,3,0,0"/>
    <wangtile tileid="2326" wangid="0,0,0,3,0,0,0,0"/>
    <wangtile tileid="2327" wangid="0,0,0,3,0,3,0,0"/>
    <wangtile tileid="2328" wangid="0,0,0,0,0,3,0,0"/>
    <wangtile tileid="2329" wangid="0,0,0,3,0,0,0,3"/>
    <wangtile tileid="2330" wangid="0,4,0,0,0,4,0,0"/>
    <wangtile tileid="2331" wangid="0,0,0,4,0,0,0,0"/>
    <wangtile tileid="2332" wangid="0,0,0,4,0,4,0,0"/>
    <wangtile tileid="2333" wangid="0,0,0,0,0,4,0,0"/>
    <wangtile tileid="2334" wangid="0,0,0,4,0,0,0,4"/>
    <wangtile tileid="2380" wangid="0,0,0,3,0,0,0,0"/>
    <wangtile tileid="2381" wangid="0,3,0,3,0,3,0,0"/>
    <wangtile tileid="2382" wangid="0,3,0,3,0,3,0,3"/>
    <wangtile tileid="2383" wangid="0,0,0,3,0,3,0,3"/>
    <wangtile tileid="2384" wangid="0,0,0,0,0,3,0,0"/>
    <wangtile tileid="2385" wangid="0,0,0,4,0,0,0,0"/>
    <wangtile tileid="2386" wangid="0,4,0,4,0,4,0,0"/>
    <wangtile tileid="2387" wangid="0,4,0,4,0,4,0,4"/>
    <wangtile tileid="2388" wangid="0,0,0,4,0,4,0,4"/>
    <wangtile tileid="2389" wangid="0,0,0,0,0,4,0,0"/>
    <wangtile tileid="2435" wangid="0,3,0,3,0,0,0,0"/>
    <wangtile tileid="2436" wangid="0,3,0,3,0,3,0,3"/>
    <wangtile tileid="2437" wangid="0,3,0,3,0,3,0,3"/>
    <wangtile tileid="2438" wangid="0,3,0,3,0,3,0,3"/>
    <wangtile tileid="2439" wangid="0,0,0,0,0,3,0,3"/>
    <wangtile tileid="2440" wangid="0,4,0,4,0,0,0,0"/>
    <wangtile tileid="2441" wangid="0,4,0,4,0,4,0,4"/>
    <wangtile tileid="2442" wangid="0,4,0,4,0,4,0,4"/>
    <wangtile tileid="2443" wangid="0,4,0,4,0,4,0,4"/>
    <wangtile tileid="2444" wangid="0,0,0,0,0,4,0,4"/>
    <wangtile tileid="2490" wangid="0,3,0,0,0,0,0,0"/>
    <wangtile tileid="2491" wangid="0,3,0,3,0,0,0,3"/>
    <wangtile tileid="2492" wangid="0,3,0,3,0,3,0,3"/>
    <wangtile tileid="2493" wangid="0,3,0,0,0,3,0,3"/>
    <wangtile tileid="2494" wangid="0,0,0,0,0,0,0,3"/>
    <wangtile tileid="2495" wangid="0,4,0,0,0,0,0,0"/>
    <wangtile tileid="2496" wangid="0,4,0,4,0,0,0,4"/>
    <wangtile tileid="2497" wangid="0,4,0,4,0,4,0,4"/>
    <wangtile tileid="2498" wangid="0,4,0,0,0,4,0,4"/>
    <wangtile tileid="2499" wangid="0,0,0,0,0,0,0,4"/>
    <wangtile tileid="2500" wangid="0,5,0,0,0,5,0,0"/>
    <wangtile tileid="2501" wangid="0,0,0,5,0,0,0,0"/>
    <wangtile tileid="2502" wangid="0,0,0,5,0,5,0,0"/>
    <wangtile tileid="2503" wangid="0,0,0,0,0,5,0,0"/>
    <wangtile tileid="2504" wangid="0,0,0,5,0,0,0,5"/>
    <wangtile tileid="2545" wangid="0,3,0,3,0,0,0,3"/>
    <wangtile tileid="2546" wangid="0,3,0,0,0,0,0,0"/>
    <wangtile tileid="2547" wangid="0,3,0,0,0,0,0,3"/>
    <wangtile tileid="2548" wangid="0,0,0,0,0,0,0,3"/>
    <wangtile tileid="2549" wangid="0,3,0,0,0,3,0,3"/>
    <wangtile tileid="2550" wangid="0,4,0,4,0,0,0,4"/>
    <wangtile tileid="2551" wangid="0,4,0,0,0,0,0,0"/>
    <wangtile tileid="2552" wangid="0,4,0,0,0,0,0,4"/>
    <wangtile tileid="2553" wangid="0,0,0,0,0,0,0,4"/>
    <wangtile tileid="2554" wangid="0,4,0,0,0,4,0,4"/>
    <wangtile tileid="2555" wangid="0,0,0,5,0,0,0,0"/>
    <wangtile tileid="2556" wangid="0,5,0,5,0,5,0,0"/>
    <wangtile tileid="2557" wangid="0,5,0,5,0,5,0,5"/>
    <wangtile tileid="2558" wangid="0,0,0,5,0,5,0,5"/>
    <wangtile tileid="2559" wangid="0,0,0,0,0,5,0,0"/>
    <wangtile tileid="2600" wangid="0,0,0,3,0,3,0,3"/>
    <wangtile tileid="2601" wangid="0,3,0,3,0,3,0,0"/>
    <wangtile tileid="2602" wangid="0,0,0,0,0,3,0,3"/>
    <wangtile tileid="2603" wangid="0,3,0,3,0,0,0,0"/>
    <wangtile tileid="2604" wangid="0,3,0,3,0,3,0,3"/>
    <wangtile tileid="2605" wangid="0,0,0,4,0,4,0,4"/>
    <wangtile tileid="2606" wangid="0,4,0,4,0,4,0,0"/>
    <wangtile tileid="2607" wangid="0,0,0,0,0,4,0,4"/>
    <wangtile tileid="2608" wangid="0,4,0,4,0,0,0,0"/>
    <wangtile tileid="2609" wangid="0,4,0,4,0,4,0,4"/>
    <wangtile tileid="2610" wangid="0,5,0,5,0,0,0,0"/>
    <wangtile tileid="2611" wangid="0,5,0,5,0,5,0,5"/>
    <wangtile tileid="2612" wangid="0,5,0,5,0,5,0,5"/>
    <wangtile tileid="2613" wangid="0,5,0,5,0,5,0,5"/>
    <wangtile tileid="2614" wangid="0,0,0,0,0,5,0,5"/>
    <wangtile tileid="2615" wangid="0,5,0,5,0,5,0,5"/>
    <wangtile tileid="2655" wangid="0,0,0,3,0,3,0,3"/>
    <wangtile tileid="2656" wangid="0,3,0,3,0,3,0,0"/>
    <wangtile tileid="2657" wangid="0,0,0,0,0,3,0,3"/>
    <wangtile tileid="2658" wangid="0,3,0,3,0,0,0,0"/>
    <wangtile tileid="2659" wangid="0,3,0,3,0,3,0,3"/>
    <wangtile tileid="2660" wangid="0,0,0,4,0,4,0,4"/>
    <wangtile tileid="2661" wangid="0,4,0,4,0,4,0,0"/>
    <wangtile tileid="2662" wangid="0,0,0,0,0,4,0,4"/>
    <wangtile tileid="2663" wangid="0,4,0,4,0,0,0,0"/>
    <wangtile tileid="2664" wangid="0,4,0,4,0,4,0,4"/>
    <wangtile tileid="2665" wangid="0,5,0,0,0,0,0,0"/>
    <wangtile tileid="2666" wangid="0,5,0,5,0,0,0,5"/>
    <wangtile tileid="2667" wangid="0,5,0,5,0,5,0,5"/>
    <wangtile tileid="2668" wangid="0,5,0,0,0,5,0,5"/>
    <wangtile tileid="2669" wangid="0,0,0,0,0,0,0,5"/>
    <wangtile tileid="2670" wangid="0,5,0,5,0,5,0,5"/>
    <wangtile tileid="2710" wangid="0,0,0,3,0,3,0,3"/>
    <wangtile tileid="2711" wangid="0,3,0,3,0,3,0,0"/>
    <wangtile tileid="2712" wangid="0,0,0,0,0,3,0,3"/>
    <wangtile tileid="2713" wangid="0,3,0,3,0,0,0,0"/>
    <wangtile tileid="2714" wangid="0,3,0,3,0,3,0,3"/>
    <wangtile tileid="2715" wangid="0,0,0,4,0,4,0,4"/>
    <wangtile tileid="2716" wangid="0,4,0,4,0,4,0,0"/>
    <wangtile tileid="2717" wangid="0,0,0,0,0,4,0,4"/>
    <wangtile tileid="2718" wangid="0,4,0,4,0,0,0,0"/>
    <wangtile tileid="2719" wangid="0,4,0,4,0,4,0,4"/>
    <wangtile tileid="2721" wangid="0,5,0,0,0,0,0,0"/>
    <wangtile tileid="2722" wangid="0,5,0,0,0,0,0,5"/>
    <wangtile tileid="2723" wangid="0,0,0,0,0,0,0,5"/>
    <wangtile tileid="2725" wangid="0,5,0,5,0,5,0,5"/>
    <wangtile tileid="2765" wangid="0,0,0,3,0,3,0,0"/>
    <wangtile tileid="2766" wangid="0,0,0,3,0,3,0,0"/>
    <wangtile tileid="2767" wangid="0,3,0,0,0,0,0,3"/>
    <wangtile tileid="2768" wangid="0,3,0,0,0,0,0,3"/>
    <wangtile tileid="2769" wangid="0,3,0,0,0,0,0,3"/>
    <wangtile tileid="2770" wangid="0,0,0,4,0,4,0,0"/>
    <wangtile tileid="2771" wangid="0,0,0,4,0,4,0,0"/>
    <wangtile tileid="2772" wangid="0,4,0,0,0,0,0,4"/>
    <wangtile tileid="2773" wangid="0,4,0,0,0,0,0,4"/>
    <wangtile tileid="2774" wangid="0,4,0,0,0,0,0,4"/>
   </wangset>
   <wangset name="sand" type="corner" tile="3047">
    <wangcolor name="extra shade grass to sand" color="#ff0000" tile="3047" probability="1"/>
    <wangcolor name="grass to sand" color="#00ff00" tile="3042" probability="1"/>
    <wangtile tileid="2820" wangid="0,2,0,0,0,2,0,0"/>
    <wangtile tileid="2821" wangid="0,0,0,2,0,0,0,0"/>
    <wangtile tileid="2822" wangid="0,0,0,2,0,2,0,0"/>
    <wangtile tileid="2823" wangid="0,0,0,0,0,2,0,0"/>
    <wangtile tileid="2824" wangid="0,0,0,2,0,0,0,2"/>
    <wangtile tileid="2825" wangid="0,1,0,0,0,1,0,0"/>
    <wangtile tileid="2826" wangid="0,0,0,1,0,0,0,0"/>
    <wangtile tileid="2827" wangid="0,0,0,1,0,1,0,0"/>
    <wangtile tileid="2828" wangid="0,0,0,0,0,1,0,0"/>
    <wangtile tileid="2829" wangid="0,0,0,1,0,0,0,1"/>
    <wangtile tileid="2875" wangid="0,0,0,2,0,0,0,0"/>
    <wangtile tileid="2876" wangid="0,2,0,2,0,2,0,0"/>
    <wangtile tileid="2877" wangid="0,2,0,2,0,2,0,2"/>
    <wangtile tileid="2878" wangid="0,0,0,2,0,2,0,2"/>
    <wangtile tileid="2879" wangid="0,0,0,0,0,2,0,0"/>
    <wangtile tileid="2880" wangid="0,0,0,1,0,0,0,0"/>
    <wangtile tileid="2881" wangid="0,1,0,1,0,1,0,0"/>
    <wangtile tileid="2882" wangid="0,1,0,1,0,1,0,1"/>
    <wangtile tileid="2883" wangid="0,0,0,1,0,1,0,1"/>
    <wangtile tileid="2884" wangid="0,0,0,0,0,1,0,0"/>
    <wangtile tileid="2930" wangid="0,2,0,2,0,0,0,0"/>
    <wangtile tileid="2931" wangid="0,2,0,2,0,2,0,2"/>
    <wangtile tileid="2932" wangid="0,2,0,2,0,2,0,2"/>
    <wangtile tileid="2933" wangid="0,2,0,2,0,2,0,2"/>
    <wangtile tileid="2934" wangid="0,0,0,0,0,2,0,2"/>
    <wangtile tileid="2935" wangid="0,1,0,1,0,0,0,0"/>
    <wangtile tileid="2936" wangid="0,1,0,1,0,1,0,1"/>
    <wangtile tileid="2937" wangid="0,1,0,1,0,1,0,1"/>
    <wangtile tileid="2938" wangid="0,1,0,1,0,1,0,1"/>
    <wangtile tileid="2939" wangid="0,0,0,0,0,1,0,1"/>
    <wangtile tileid="2985" wangid="0,2,0,0,0,0,0,0"/>
    <wangtile tileid="2986" wangid="0,2,0,2,0,0,0,2"/>
    <wangtile tileid="2987" wangid="0,2,0,2,0,2,0,2"/>
    <wangtile tileid="2988" wangid="0,2,0,0,0,2,0,2"/>
    <wangtile tileid="2989" wangid="0,0,0,0,0,0,0,2"/>
    <wangtile tileid="2990" wangid="0,1,0,0,0,0,0,0"/>
    <wangtile tileid="2991" wangid="0,1,0,1,0,0,0,1"/>
    <wangtile tileid="2992" wangid="0,1,0,1,0,1,0,1"/>
    <wangtile tileid="2993" wangid="0,1,0,0,0,1,0,1"/>
    <wangtile tileid="2994" wangid="0,0,0,0,0,0,0,1"/>
    <wangtile tileid="3040" wangid="0,2,0,2,0,2,0,0"/>
    <wangtile tileid="3041" wangid="0,2,0,0,0,0,0,0"/>
    <wangtile tileid="3042" wangid="0,2,0,0,0,0,0,2"/>
    <wangtile tileid="3043" wangid="0,0,0,0,0,0,0,2"/>
    <wangtile tileid="3044" wangid="0,0,0,2,0,2,0,2"/>
    <wangtile tileid="3045" wangid="0,1,0,1,0,1,0,0"/>
    <wangtile tileid="3046" wangid="0,1,0,0,0,0,0,0"/>
    <wangtile tileid="3047" wangid="0,1,0,0,0,0,0,1"/>
    <wangtile tileid="3048" wangid="0,0,0,0,0,0,0,1"/>
    <wangtile tileid="3049" wangid="0,0,0,1,0,1,0,1"/>
    <wangtile tileid="3095" wangid="0,2,0,2,0,0,0,2"/>
    <wangtile tileid="3097" wangid="0,2,0,2,0,0,0,0"/>
    <wangtile tileid="3098" wangid="0,0,0,0,0,2,0,2"/>
    <wangtile tileid="3099" wangid="0,2,0,0,0,2,0,2"/>
    <wangtile tileid="3100" wangid="0,1,0,1,0,0,0,1"/>
    <wangtile tileid="3102" wangid="0,1,0,1,0,0,0,0"/>
    <wangtile tileid="3103" wangid="0,0,0,0,0,1,0,1"/>
    <wangtile tileid="3104" wangid="0,1,0,0,0,1,0,1"/>
    <wangtile tileid="3150" wangid="0,2,0,0,0,0,0,0"/>
    <wangtile tileid="3151" wangid="0,0,0,0,0,0,0,2"/>
    <wangtile tileid="3152" wangid="0,2,0,2,0,0,0,0"/>
    <wangtile tileid="3153" wangid="0,0,0,0,0,2,0,2"/>
    <wangtile tileid="3155" wangid="0,1,0,0,0,0,0,0"/>
    <wangtile tileid="3156" wangid="0,0,0,0,0,0,0,1"/>
    <wangtile tileid="3157" wangid="0,1,0,1,0,0,0,0"/>
    <wangtile tileid="3158" wangid="0,0,0,0,0,1,0,1"/>
    <wangtile tileid="3205" wangid="0,2,0,0,0,0,0,0"/>
    <wangtile tileid="3206" wangid="0,0,0,0,0,0,0,2"/>
    <wangtile tileid="3207" wangid="0,2,0,2,0,0,0,0"/>
    <wangtile tileid="3208" wangid="0,0,0,0,0,2,0,2"/>
    <wangtile tileid="3210" wangid="0,1,0,0,0,0,0,0"/>
    <wangtile tileid="3211" wangid="0,0,0,0,0,0,0,1"/>
    <wangtile tileid="3212" wangid="0,1,0,1,0,0,0,0"/>
    <wangtile tileid="3213" wangid="0,0,0,0,0,1,0,1"/>
    <wangtile tileid="3260" wangid="0,2,0,0,0,0,0,2"/>
    <wangtile tileid="3261" wangid="0,2,0,0,0,0,0,2"/>
    <wangtile tileid="3262" wangid="0,0,0,2,0,2,0,0"/>
    <wangtile tileid="3263" wangid="0,0,0,2,0,2,0,0"/>
    <wangtile tileid="3264" wangid="0,0,0,2,0,2,0,0"/>
    <wangtile tileid="3265" wangid="0,1,0,0,0,0,0,1"/>
    <wangtile tileid="3266" wangid="0,1,0,0,0,0,0,1"/>
    <wangtile tileid="3267" wangid="0,0,0,1,0,1,0,0"/>
    <wangtile tileid="3268" wangid="0,0,0,1,0,1,0,0"/>
    <wangtile tileid="3269" wangid="0,0,0,1,0,1,0,0"/>
   </wangset>
   <wangset name="gravel" type="corner" tile="363">
    <wangcolor name="gravel to dirt1" color="#ff0000" tile="363" probability="1"/>
    <wangcolor name="gravel to dirt2" color="#00ff00" tile="368" probability="1"/>
    <wangcolor name="gravel to main grass (gravel on top)" color="#0000ff" tile="803" probability="1"/>
    <wangcolor name="gravel to extra shade grass (gravel on top)" color="#ff7700" tile="809" probability="1"/>
    <wangcolor name="gravel to main grass (grass on top)" color="#00e9ff" tile="155" probability="1"/>
    <wangcolor name="gravel to extra shade grass (grass on top)" color="#ff00d8" tile="160" probability="1"/>
    <wangtile tileid="141" wangid="0,1,0,0,0,1,0,0"/>
    <wangtile tileid="142" wangid="0,0,0,1,0,0,0,0"/>
    <wangtile tileid="143" wangid="0,0,0,1,0,1,0,0"/>
    <wangtile tileid="144" wangid="0,0,0,0,0,1,0,0"/>
    <wangtile tileid="145" wangid="0,0,0,1,0,0,0,1"/>
    <wangtile tileid="146" wangid="0,2,0,0,0,2,0,0"/>
    <wangtile tileid="147" wangid="0,0,0,2,0,0,0,0"/>
    <wangtile tileid="148" wangid="0,0,0,2,0,2,0,0"/>
    <wangtile tileid="149" wangid="0,0,0,0,0,2,0,0"/>
    <wangtile tileid="150" wangid="0,0,0,2,0,0,0,2"/>
    <wangtile tileid="153" wangid="0,5,0,0,0,5,0,0"/>
    <wangtile tileid="154" wangid="0,0,0,5,0,0,0,0"/>
    <wangtile tileid="155" wangid="0,0,0,5,0,5,0,0"/>
    <wangtile tileid="156" wangid="0,0,0,0,0,5,0,0"/>
    <wangtile tileid="157" wangid="0,0,0,5,0,0,0,5"/>
    <wangtile tileid="158" wangid="0,6,0,0,0,6,0,0"/>
    <wangtile tileid="159" wangid="0,0,0,6,0,0,0,0"/>
    <wangtile tileid="160" wangid="0,0,0,6,0,6,0,0"/>
    <wangtile tileid="161" wangid="0,0,0,0,0,6,0,0"/>
    <wangtile tileid="162" wangid="0,0,0,6,0,0,0,6"/>
    <wangtile tileid="196" wangid="0,0,0,1,0,0,0,0"/>
    <wangtile tileid="197" wangid="0,1,0,1,0,1,0,0"/>
    <wangtile tileid="198" wangid="0,1,0,1,0,1,0,1"/>
    <wangtile tileid="199" wangid="0,0,0,1,0,1,0,1"/>
    <wangtile tileid="200" wangid="0,0,0,0,0,1,0,0"/>
    <wangtile tileid="201" wangid="0,0,0,2,0,0,0,0"/>
    <wangtile tileid="202" wangid="0,2,0,2,0,2,0,0"/>
    <wangtile tileid="203" wangid="0,2,0,2,0,2,0,2"/>
    <wangtile tileid="204" wangid="0,0,0,2,0,2,0,2"/>
    <wangtile tileid="205" wangid="0,0,0,0,0,2,0,0"/>
    <wangtile tileid="208" wangid="0,0,0,5,0,0,0,0"/>
    <wangtile tileid="209" wangid="0,5,0,5,0,5,0,0"/>
    <wangtile tileid="210" wangid="0,5,0,5,0,5,0,5"/>
    <wangtile tileid="211" wangid="0,0,0,5,0,5,0,5"/>
    <wangtile tileid="212" wangid="0,0,0,0,0,5,0,0"/>
    <wangtile tileid="213" wangid="0,0,0,6,0,0,0,0"/>
    <wangtile tileid="214" wangid="0,6,0,6,0,6,0,0"/>
    <wangtile tileid="215" wangid="0,6,0,6,0,6,0,6"/>
    <wangtile tileid="216" wangid="0,0,0,6,0,6,0,6"/>
    <wangtile tileid="217" wangid="0,0,0,0,0,6,0,0"/>
    <wangtile tileid="251" wangid="0,1,0,1,0,0,0,0"/>
    <wangtile tileid="252" wangid="0,1,0,1,0,1,0,1"/>
    <wangtile tileid="253" wangid="0,1,0,1,0,1,0,1"/>
    <wangtile tileid="254" wangid="0,1,0,1,0,1,0,1"/>
    <wangtile tileid="255" wangid="0,0,0,0,0,1,0,1"/>
    <wangtile tileid="256" wangid="0,2,0,2,0,0,0,0"/>
    <wangtile tileid="257" wangid="0,2,0,2,0,2,0,2"/>
    <wangtile tileid="258" wangid="0,2,0,2,0,2,0,2"/>
    <wangtile tileid="259" wangid="0,2,0,2,0,2,0,2"/>
    <wangtile tileid="260" wangid="0,0,0,0,0,2,0,2"/>
    <wangtile tileid="263" wangid="0,5,0,5,0,0,0,0"/>
    <wangtile tileid="264" wangid="0,5,0,5,0,5,0,5"/>
    <wangtile tileid="265" wangid="0,5,0,5,0,5,0,5"/>
    <wangtile tileid="266" wangid="0,5,0,5,0,5,0,5"/>
    <wangtile tileid="267" wangid="0,0,0,0,0,5,0,5"/>
    <wangtile tileid="268" wangid="0,6,0,6,0,0,0,0"/>
    <wangtile tileid="269" wangid="0,6,0,6,0,6,0,6"/>
    <wangtile tileid="270" wangid="0,6,0,6,0,6,0,6"/>
    <wangtile tileid="271" wangid="0,6,0,6,0,6,0,6"/>
    <wangtile tileid="272" wangid="0,0,0,0,0,6,0,6"/>
    <wangtile tileid="306" wangid="0,1,0,0,0,0,0,0"/>
    <wangtile tileid="307" wangid="0,1,0,1,0,0,0,1"/>
    <wangtile tileid="308" wangid="0,1,0,1,0,1,0,1"/>
    <wangtile tileid="309" wangid="0,1,0,0,0,1,0,1"/>
    <wangtile tileid="310" wangid="0,0,0,0,0,0,0,1"/>
    <wangtile tileid="311" wangid="0,2,0,0,0,0,0,0"/>
    <wangtile tileid="312" wangid="0,2,0,2,0,0,0,2"/>
    <wangtile tileid="313" wangid="0,2,0,2,0,2,0,2"/>
    <wangtile tileid="314" wangid="0,2,0,0,0,2,0,2"/>
    <wangtile tileid="315" wangid="0,0,0,0,0,0,0,2"/>
    <wangtile tileid="318" wangid="0,5,0,0,0,0,0,0"/>
    <wangtile tileid="319" wangid="0,5,0,5,0,0,0,5"/>
    <wangtile tileid="320" wangid="0,5,0,5,0,5,0,5"/>
    <wangtile tileid="321" wangid="0,5,0,0,0,5,0,5"/>
    <wangtile tileid="322" wangid="0,0,0,0,0,0,0,5"/>
    <wangtile tileid="323" wangid="0,6,0,0,0,0,0,0"/>
    <wangtile tileid="324" wangid="0,6,0,6,0,0,0,6"/>
    <wangtile tileid="325" wangid="0,6,0,6,0,6,0,6"/>
    <wangtile tileid="326" wangid="0,6,0,0,0,6,0,6"/>
    <wangtile tileid="327" wangid="0,0,0,0,0,0,0,6"/>
    <wangtile tileid="362" wangid="0,1,0,0,0,0,0,0"/>
    <wangtile tileid="363" wangid="0,1,0,0,0,0,0,1"/>
    <wangtile tileid="364" wangid="0,0,0,0,0,0,0,1"/>
    <wangtile tileid="367" wangid="0,2,0,0,0,0,0,0"/>
    <wangtile tileid="368" wangid="0,2,0,0,0,0,0,2"/>
    <wangtile tileid="369" wangid="0,0,0,0,0,0,0,2"/>
    <wangtile tileid="373" wangid="0,5,0,5,0,0,0,5"/>
    <wangtile tileid="374" wangid="0,5,0,0,0,0,0,0"/>
    <wangtile tileid="375" wangid="0,5,0,0,0,0,0,5"/>
    <wangtile tileid="376" wangid="0,0,0,0,0,0,0,5"/>
    <wangtile tileid="377" wangid="0,5,0,0,0,5,0,5"/>
    <wangtile tileid="378" wangid="0,6,0,6,0,0,0,6"/>
    <wangtile tileid="379" wangid="0,6,0,0,0,0,0,0"/>
    <wangtile tileid="380" wangid="0,6,0,0,0,0,0,6"/>
    <wangtile tileid="381" wangid="0,0,0,0,0,0,0,6"/>
    <wangtile tileid="382" wangid="0,6,0,0,0,6,0,6"/>
    <wangtile tileid="428" wangid="0,0,0,5,0,5,0,5"/>
    <wangtile tileid="429" wangid="0,5,0,5,0,5,0,0"/>
    <wangtile tileid="430" wangid="0,0,0,0,0,5,0,5"/>
    <wangtile tileid="431" wangid="0,5,0,5,0,0,0,0"/>
    <wangtile tileid="433" wangid="0,0,0,6,0,6,0,6"/>
    <wangtile tileid="434" wangid="0,6,0,6,0,6,0,0"/>
    <wangtile tileid="435" wangid="0,0,0,0,0,6,0,6"/>
    <wangtile tileid="436" wangid="0,6,0,6,0,0,0,0"/>
    <wangtile tileid="483" wangid="0,0,0,5,0,5,0,5"/>
    <wangtile tileid="484" wangid="0,5,0,5,0,5,0,0"/>
    <wangtile tileid="485" wangid="0,0,0,0,0,5,0,5"/>
    <wangtile tileid="486" wangid="0,5,0,5,0,0,0,0"/>
    <wangtile tileid="488" wangid="0,0,0,6,0,6,0,6"/>
    <wangtile tileid="489" wangid="0,6,0,6,0,6,0,0"/>
    <wangtile tileid="490" wangid="0,0,0,0,0,6,0,6"/>
    <wangtile tileid="491" wangid="0,6,0,6,0,0,0,0"/>
    <wangtile tileid="526" wangid="0,3,0,0,0,3,0,0"/>
    <wangtile tileid="530" wangid="0,0,0,3,0,0,0,3"/>
    <wangtile tileid="532" wangid="0,4,0,0,0,4,0,0"/>
    <wangtile tileid="536" wangid="0,0,0,4,0,0,0,4"/>
    <wangtile tileid="538" wangid="0,0,0,5,0,5,0,5"/>
    <wangtile tileid="539" wangid="0,5,0,5,0,5,0,0"/>
    <wangtile tileid="540" wangid="0,0,0,0,0,5,0,5"/>
    <wangtile tileid="541" wangid="0,5,0,5,0,0,0,0"/>
    <wangtile tileid="543" wangid="0,0,0,6,0,6,0,6"/>
    <wangtile tileid="544" wangid="0,6,0,6,0,6,0,0"/>
    <wangtile tileid="545" wangid="0,0,0,0,0,6,0,6"/>
    <wangtile tileid="546" wangid="0,6,0,6,0,0,0,0"/>
    <wangtile tileid="581" wangid="0,3,0,0,0,3,0,0"/>
    <wangtile tileid="582" wangid="0,0,0,3,0,0,0,0"/>
    <wangtile tileid="583" wangid="0,0,0,3,0,3,0,0"/>
    <wangtile tileid="584" wangid="0,0,0,0,0,3,0,0"/>
    <wangtile tileid="585" wangid="0,0,0,3,0,0,0,3"/>
    <wangtile tileid="586" wangid="0,0,0,0,0,0,0,3"/>
    <wangtile tileid="587" wangid="0,4,0,0,0,4,0,0"/>
    <wangtile tileid="588" wangid="0,0,0,4,0,0,0,0"/>
    <wangtile tileid="589" wangid="0,0,0,4,0,4,0,0"/>
    <wangtile tileid="590" wangid="0,0,0,0,0,4,0,0"/>
    <wangtile tileid="591" wangid="0,0,0,4,0,0,0,4"/>
    <wangtile tileid="592" wangid="0,0,0,0,0,0,0,4"/>
    <wangtile tileid="593" wangid="0,0,0,5,0,5,0,0"/>
    <wangtile tileid="594" wangid="0,0,0,5,0,5,0,0"/>
    <wangtile tileid="595" wangid="0,5,0,0,0,0,0,5"/>
    <wangtile tileid="596" wangid="0,5,0,0,0,0,0,5"/>
    <wangtile tileid="597" wangid="0,5,0,0,0,0,0,5"/>
    <wangtile tileid="598" wangid="0,0,0,6,0,6,0,0"/>
    <wangtile tileid="599" wangid="0,0,0,6,0,6,0,0"/>
    <wangtile tileid="600" wangid="0,6,0,0,0,0,0,6"/>
    <wangtile tileid="601" wangid="0,6,0,0,0,0,0,6"/>
    <wangtile tileid="602" wangid="0,6,0,0,0,0,0,6"/>
    <wangtile tileid="636" wangid="0,0,0,3,0,0,0,0"/>
    <wangtile tileid="637" wangid="0,3,0,3,0,3,0,0"/>
    <wangtile tileid="638" wangid="0,3,0,3,0,3,0,3"/>
    <wangtile tileid="639" wangid="0,0,0,3,0,3,0,3"/>
    <wangtile tileid="640" wangid="0,0,0,0,0,3,0,0"/>
    <wangtile tileid="641" wangid="0,0,0,0,0,0,0,3"/>
    <wangtile tileid="642" wangid="0,0,0,4,0,0,0,0"/>
    <wangtile tileid="643" wangid="0,4,0,4,0,4,0,0"/>
    <wangtile tileid="644" wangid="0,4,0,4,0,4,0,4"/>
    <wangtile tileid="645" wangid="0,0,0,4,0,4,0,4"/>
    <wangtile tileid="646" wangid="0,0,0,0,0,4,0,0"/>
    <wangtile tileid="647" wangid="0,0,0,0,0,0,0,4"/>
    <wangtile tileid="648" wangid="0,5,0,5,0,5,0,5"/>
    <wangtile tileid="649" wangid="0,5,0,5,0,5,0,5"/>
    <wangtile tileid="650" wangid="0,5,0,5,0,5,0,5"/>
    <wangtile tileid="651" wangid="0,5,0,5,0,5,0,5"/>
    <wangtile tileid="652" wangid="0,5,0,5,0,5,0,5"/>
    <wangtile tileid="653" wangid="0,6,0,6,0,6,0,6"/>
    <wangtile tileid="654" wangid="0,6,0,6,0,6,0,6"/>
    <wangtile tileid="655" wangid="0,6,0,6,0,6,0,6"/>
    <wangtile tileid="656" wangid="0,6,0,6,0,6,0,6"/>
    <wangtile tileid="657" wangid="0,6,0,6,0,6,0,6"/>
    <wangtile tileid="691" wangid="0,3,0,3,0,0,0,0"/>
    <wangtile tileid="692" wangid="0,3,0,3,0,3,0,3"/>
    <wangtile tileid="693" wangid="0,3,0,3,0,3,0,3"/>
    <wangtile tileid="694" wangid="0,3,0,3,0,3,0,3"/>
    <wangtile tileid="695" wangid="0,0,0,0,0,3,0,3"/>
    <wangtile tileid="696" wangid="0,0,0,0,0,0,0,3"/>
    <wangtile tileid="697" wangid="0,4,0,4,0,0,0,0"/>
    <wangtile tileid="698" wangid="0,4,0,4,0,4,0,4"/>
    <wangtile tileid="699" wangid="0,4,0,4,0,4,0,4"/>
    <wangtile tileid="700" wangid="0,4,0,4,0,4,0,4"/>
    <wangtile tileid="701" wangid="0,0,0,0,0,4,0,4"/>
    <wangtile tileid="702" wangid="0,0,0,0,0,0,0,4"/>
    <wangtile tileid="746" wangid="0,3,0,0,0,0,0,0"/>
    <wangtile tileid="747" wangid="0,3,0,3,0,0,0,3"/>
    <wangtile tileid="748" wangid="0,3,0,3,0,3,0,3"/>
    <wangtile tileid="749" wangid="0,3,0,0,0,3,0,3"/>
    <wangtile tileid="750" wangid="0,0,0,0,0,0,0,3"/>
    <wangtile tileid="751" wangid="0,3,0,0,0,0,0,0"/>
    <wangtile tileid="752" wangid="0,4,0,0,0,0,0,0"/>
    <wangtile tileid="753" wangid="0,4,0,4,0,0,0,4"/>
    <wangtile tileid="754" wangid="0,4,0,4,0,4,0,4"/>
    <wangtile tileid="755" wangid="0,4,0,0,0,4,0,4"/>
    <wangtile tileid="756" wangid="0,0,0,0,0,0,0,4"/>
    <wangtile tileid="757" wangid="0,4,0,0,0,0,0,0"/>
    <wangtile tileid="801" wangid="0,3,0,3,0,0,0,3"/>
    <wangtile tileid="802" wangid="0,3,0,0,0,0,0,0"/>
    <wangtile tileid="803" wangid="0,3,0,0,0,0,0,3"/>
    <wangtile tileid="804" wangid="0,0,0,0,0,0,0,3"/>
    <wangtile tileid="805" wangid="0,3,0,0,0,3,0,3"/>
    <wangtile tileid="806" wangid="0,3,0,0,0,0,0,0"/>
    <wangtile tileid="807" wangid="0,4,0,4,0,0,0,4"/>
    <wangtile tileid="808" wangid="0,4,0,0,0,0,0,0"/>
    <wangtile tileid="809" wangid="0,4,0,0,0,0,0,4"/>
    <wangtile tileid="810" wangid="0,0,0,0,0,0,0,4"/>
    <wangtile tileid="811" wangid="0,4,0,0,0,4,0,4"/>
    <wangtile tileid="812" wangid="0,4,0,0,0,0,0,0"/>
    <wangtile tileid="856" wangid="0,3,0,3,0,0,0,3"/>
    <wangtile tileid="857" wangid="0,3,0,3,0,0,0,3"/>
    <wangtile tileid="859" wangid="0,3,0,0,0,3,0,3"/>
    <wangtile tileid="860" wangid="0,3,0,0,0,3,0,3"/>
    <wangtile tileid="861" wangid="0,3,0,0,0,0,0,0"/>
    <wangtile tileid="862" wangid="0,4,0,4,0,0,0,4"/>
    <wangtile tileid="863" wangid="0,4,0,4,0,0,0,4"/>
    <wangtile tileid="865" wangid="0,4,0,0,0,4,0,4"/>
    <wangtile tileid="866" wangid="0,4,0,0,0,4,0,4"/>
    <wangtile tileid="867" wangid="0,4,0,0,0,0,0,0"/>
    <wangtile tileid="911" wangid="0,0,0,3,0,0,0,0"/>
    <wangtile tileid="912" wangid="0,0,0,3,0,0,0,0"/>
    <wangtile tileid="913" wangid="0,0,0,3,0,0,0,0"/>
    <wangtile tileid="914" wangid="0,3,0,3,0,0,0,0"/>
    <wangtile tileid="915" wangid="0,0,0,0,0,3,0,3"/>
    <wangtile tileid="916" wangid="0,0,0,3,0,3,0,0"/>
    <wangtile tileid="917" wangid="0,0,0,4,0,0,0,0"/>
    <wangtile tileid="918" wangid="0,0,0,4,0,0,0,0"/>
    <wangtile tileid="919" wangid="0,0,0,4,0,0,0,0"/>
    <wangtile tileid="920" wangid="0,4,0,4,0,0,0,0"/>
    <wangtile tileid="921" wangid="0,0,0,0,0,4,0,4"/>
    <wangtile tileid="922" wangid="0,0,0,4,0,4,0,0"/>
    <wangtile tileid="966" wangid="0,0,0,0,0,3,0,0"/>
    <wangtile tileid="967" wangid="0,0,0,0,0,3,0,0"/>
    <wangtile tileid="968" wangid="0,0,0,0,0,3,0,0"/>
    <wangtile tileid="969" wangid="0,3,0,3,0,0,0,0"/>
    <wangtile tileid="970" wangid="0,0,0,0,0,3,0,3"/>
    <wangtile tileid="971" wangid="0,0,0,3,0,3,0,0"/>
    <wangtile tileid="972" wangid="0,0,0,0,0,4,0,0"/>
    <wangtile tileid="973" wangid="0,0,0,0,0,4,0,0"/>
    <wangtile tileid="974" wangid="0,0,0,0,0,4,0,0"/>
    <wangtile tileid="975" wangid="0,4,0,4,0,0,0,0"/>
    <wangtile tileid="976" wangid="0,0,0,0,0,4,0,4"/>
    <wangtile tileid="977" wangid="0,0,0,4,0,4,0,0"/>
    <wangtile tileid="1021" wangid="0,0,0,3,0,3,0,3"/>
    <wangtile tileid="1022" wangid="0,0,0,3,0,3,0,3"/>
    <wangtile tileid="1023" wangid="0,0,0,3,0,3,0,3"/>
    <wangtile tileid="1024" wangid="0,3,0,3,0,0,0,0"/>
    <wangtile tileid="1025" wangid="0,0,0,0,0,3,0,3"/>
    <wangtile tileid="1026" wangid="0,0,0,3,0,3,0,0"/>
    <wangtile tileid="1027" wangid="0,0,0,4,0,4,0,4"/>
    <wangtile tileid="1028" wangid="0,0,0,4,0,4,0,4"/>
    <wangtile tileid="1029" wangid="0,0,0,4,0,4,0,4"/>
    <wangtile tileid="1030" wangid="0,4,0,4,0,0,0,0"/>
    <wangtile tileid="1031" wangid="0,0,0,0,0,4,0,4"/>
    <wangtile tileid="1032" wangid="0,0,0,4,0,4,0,0"/>
    <wangtile tileid="1076" wangid="0,3,0,3,0,3,0,0"/>
    <wangtile tileid="1077" wangid="0,3,0,3,0,3,0,0"/>
    <wangtile tileid="1078" wangid="0,3,0,3,0,3,0,0"/>
    <wangtile tileid="1079" wangid="0,3,0,0,0,0,0,3"/>
    <wangtile tileid="1080" wangid="0,3,0,0,0,0,0,3"/>
    <wangtile tileid="1081" wangid="0,3,0,0,0,0,0,3"/>
    <wangtile tileid="1082" wangid="0,4,0,4,0,4,0,0"/>
    <wangtile tileid="1083" wangid="0,4,0,4,0,4,0,0"/>
    <wangtile tileid="1084" wangid="0,4,0,4,0,4,0,0"/>
    <wangtile tileid="1085" wangid="0,4,0,0,0,0,0,4"/>
    <wangtile tileid="1086" wangid="0,4,0,0,0,0,0,4"/>
    <wangtile tileid="1087" wangid="0,4,0,0,0,0,0,4"/>
   </wangset>
   <wangset name="stone floor" type="corner" tile="1243">
    <wangcolor name="stone floor1 to main grass (transition style1)" color="#ff0000" tile="1243" probability="1"/>
    <wangcolor name="stone floor1 to main grass (transition style2)" color="#00ff00" tile="1518" probability="1"/>
    <wangcolor name="stone floor1 to extra shade grass (transition style1)" color="#0000ff" tile="1249" probability="1"/>
    <wangcolor name="stone floor1 to extra shade grass (transition style2)" color="#fcb0ff" tile="1524" probability="1"/>
    <wangcolor name="stone floor1 to dirt1" color="#00e9ff" tile="1640" probability="1"/>
    <wangcolor name="stone floor1 to dirt2" color="#ff00d8" tile="1915" probability="1"/>
    <wangcolor name="stone floor1 to gravel" color="#be8a07" tile="1646" probability="1"/>
    <wangcolor name="stone floor2 to main grass" color="#a000ff" tile="2062" probability="1"/>
    <wangcolor name="stone floor2 to extra shade grass" color="#00ffa1" tile="2068" probability="1"/>
    <wangcolor name="stone floor3 to transparency" color="#ffa8a8" tile="2245" probability="1"/>
    <wangcolor name="stone floor3-1 to transparency" color="#b4a8ff" tile="2251" probability="1"/>
    <wangcolor name="stone floor4 to grass" color="#121f14" tile="2074" probability="1"/>
    <wangcolor name="stone floor4 to anything" color="#06254a" tile="2624" probability="1"/>
    <wangtile tileid="1241" wangid="0,1,0,0,0,1,0,0"/>
    <wangtile tileid="1242" wangid="0,0,0,1,0,0,0,0"/>
    <wangtile tileid="1243" wangid="0,0,0,1,0,1,0,0"/>
    <wangtile tileid="1244" wangid="0,0,0,0,0,1,0,0"/>
    <wangtile tileid="1245" wangid="0,0,0,1,0,0,0,1"/>
    <wangtile tileid="1247" wangid="0,3,0,0,0,3,0,0"/>
    <wangtile tileid="1248" wangid="0,0,0,3,0,0,0,0"/>
    <wangtile tileid="1249" wangid="0,0,0,3,0,3,0,0"/>
    <wangtile tileid="1250" wangid="0,0,0,0,0,3,0,0"/>
    <wangtile tileid="1251" wangid="0,0,0,3,0,0,0,3"/>
    <wangtile tileid="1296" wangid="0,0,0,1,0,0,0,0"/>
    <wangtile tileid="1297" wangid="0,1,0,1,0,1,0,0"/>
    <wangtile tileid="1298" wangid="0,1,0,1,0,1,0,1"/>
    <wangtile tileid="1299" wangid="0,0,0,1,0,1,0,1"/>
    <wangtile tileid="1300" wangid="0,0,0,0,0,1,0,0"/>
    <wangtile tileid="1301" wangid="0,0,0,1,0,1,0,0"/>
    <wangtile tileid="1302" wangid="0,0,0,3,0,0,0,0"/>
    <wangtile tileid="1303" wangid="0,3,0,3,0,3,0,0"/>
    <wangtile tileid="1304" wangid="0,3,0,3,0,3,0,3"/>
    <wangtile tileid="1305" wangid="0,0,0,3,0,3,0,3"/>
    <wangtile tileid="1306" wangid="0,0,0,0,0,3,0,0"/>
    <wangtile tileid="1307" wangid="0,0,0,3,0,3,0,0"/>
    <wangtile tileid="1351" wangid="0,1,0,1,0,0,0,0"/>
    <wangtile tileid="1352" wangid="0,1,0,1,0,1,0,1"/>
    <wangtile tileid="1353" wangid="0,1,0,1,0,1,0,1"/>
    <wangtile tileid="1354" wangid="0,1,0,1,0,1,0,1"/>
    <wangtile tileid="1355" wangid="0,0,0,0,0,1,0,1"/>
    <wangtile tileid="1356" wangid="0,1,0,0,0,0,0,1"/>
    <wangtile tileid="1357" wangid="0,3,0,3,0,0,0,0"/>
    <wangtile tileid="1358" wangid="0,3,0,3,0,3,0,3"/>
    <wangtile tileid="1359" wangid="0,3,0,3,0,3,0,3"/>
    <wangtile tileid="1360" wangid="0,3,0,3,0,3,0,3"/>
    <wangtile tileid="1361" wangid="0,0,0,0,0,3,0,3"/>
    <wangtile tileid="1362" wangid="0,3,0,0,0,0,0,3"/>
    <wangtile tileid="1406" wangid="0,1,0,0,0,0,0,0"/>
    <wangtile tileid="1407" wangid="0,1,0,1,0,0,0,1"/>
    <wangtile tileid="1408" wangid="0,1,0,1,0,1,0,1"/>
    <wangtile tileid="1409" wangid="0,1,0,0,0,1,0,1"/>
    <wangtile tileid="1410" wangid="0,0,0,0,0,0,0,1"/>
    <wangtile tileid="1411" wangid="0,1,0,1,0,0,0,0"/>
    <wangtile tileid="1412" wangid="0,3,0,0,0,0,0,0"/>
    <wangtile tileid="1413" wangid="0,3,0,3,0,0,0,3"/>
    <wangtile tileid="1414" wangid="0,3,0,3,0,3,0,3"/>
    <wangtile tileid="1415" wangid="0,3,0,0,0,3,0,3"/>
    <wangtile tileid="1416" wangid="0,0,0,0,0,0,0,3"/>
    <wangtile tileid="1417" wangid="0,3,0,3,0,0,0,0"/>
    <wangtile tileid="1418" wangid="0,5,0,0,0,5,0,0"/>
    <wangtile tileid="1419" wangid="0,0,0,5,0,0,0,0"/>
    <wangtile tileid="1420" wangid="0,0,0,5,0,5,0,0"/>
    <wangtile tileid="1421" wangid="0,0,0,0,0,5,0,0"/>
    <wangtile tileid="1422" wangid="0,0,0,5,0,0,0,5"/>
    <wangtile tileid="1424" wangid="0,7,0,0,0,7,0,0"/>
    <wangtile tileid="1425" wangid="0,0,0,7,0,0,0,0"/>
    <wangtile tileid="1426" wangid="0,0,0,7,0,7,0,0"/>
    <wangtile tileid="1427" wangid="0,0,0,0,0,7,0,0"/>
    <wangtile tileid="1428" wangid="0,0,0,7,0,0,0,7"/>
    <wangtile tileid="1429" wangid="0,0,0,7,0,7,0,0"/>
    <wangtile tileid="1462" wangid="0,1,0,0,0,0,0,0"/>
    <wangtile tileid="1463" wangid="0,1,0,0,0,0,0,1"/>
    <wangtile tileid="1464" wangid="0,0,0,0,0,0,0,1"/>
    <wangtile tileid="1466" wangid="0,0,0,0,0,1,0,1"/>
    <wangtile tileid="1468" wangid="0,3,0,0,0,0,0,0"/>
    <wangtile tileid="1469" wangid="0,3,0,0,0,0,0,3"/>
    <wangtile tileid="1470" wangid="0,0,0,0,0,0,0,3"/>
    <wangtile tileid="1472" wangid="0,0,0,0,0,3,0,3"/>
    <wangtile tileid="1473" wangid="0,0,0,5,0,0,0,0"/>
    <wangtile tileid="1474" wangid="0,5,0,5,0,5,0,0"/>
    <wangtile tileid="1475" wangid="0,5,0,5,0,5,0,5"/>
    <wangtile tileid="1476" wangid="0,0,0,5,0,5,0,5"/>
    <wangtile tileid="1477" wangid="0,0,0,0,0,5,0,0"/>
    <wangtile tileid="1478" wangid="0,0,0,5,0,5,0,0"/>
    <wangtile tileid="1479" wangid="0,0,0,7,0,0,0,0"/>
    <wangtile tileid="1480" wangid="0,7,0,7,0,7,0,0"/>
    <wangtile tileid="1481" wangid="0,7,0,7,0,7,0,7"/>
    <wangtile tileid="1482" wangid="0,0,0,7,0,7,0,7"/>
    <wangtile tileid="1483" wangid="0,0,0,0,0,7,0,0"/>
    <wangtile tileid="1484" wangid="0,0,0,7,0,7,0,0"/>
    <wangtile tileid="1516" wangid="0,2,0,0,0,2,0,0"/>
    <wangtile tileid="1517" wangid="0,0,0,2,0,0,0,0"/>
    <wangtile tileid="1518" wangid="0,0,0,2,0,2,0,0"/>
    <wangtile tileid="1519" wangid="0,0,0,0,0,2,0,0"/>
    <wangtile tileid="1520" wangid="0,0,0,2,0,0,0,2"/>
    <wangtile tileid="1522" wangid="0,4,0,0,0,4,0,0"/>
    <wangtile tileid="1523" wangid="0,0,0,4,0,0,0,0"/>
    <wangtile tileid="1524" wangid="0,0,0,4,0,4,0,0"/>
    <wangtile tileid="1525" wangid="0,0,0,0,0,4,0,0"/>
    <wangtile tileid="1526" wangid="0,0,0,4,0,0,0,4"/>
    <wangtile tileid="1528" wangid="0,5,0,5,0,0,0,0"/>
    <wangtile tileid="1529" wangid="0,5,0,5,0,5,0,5"/>
    <wangtile tileid="1530" wangid="0,5,0,5,0,5,0,5"/>
    <wangtile tileid="1531" wangid="0,5,0,5,0,5,0,5"/>
    <wangtile tileid="1532" wangid="0,0,0,0,0,5,0,5"/>
    <wangtile tileid="1533" wangid="0,5,0,0,0,0,0,5"/>
    <wangtile tileid="1534" wangid="0,7,0,7,0,0,0,0"/>
    <wangtile tileid="1535" wangid="0,7,0,7,0,7,0,7"/>
    <wangtile tileid="1536" wangid="0,7,0,7,0,7,0,7"/>
    <wangtile tileid="1537" wangid="0,7,0,7,0,7,0,7"/>
    <wangtile tileid="1538" wangid="0,0,0,0,0,7,0,7"/>
    <wangtile tileid="1539" wangid="0,7,0,0,0,0,0,7"/>
    <wangtile tileid="1571" wangid="0,0,0,2,0,0,0,0"/>
    <wangtile tileid="1572" wangid="0,2,0,2,0,2,0,0"/>
    <wangtile tileid="1573" wangid="0,2,0,2,0,2,0,2"/>
    <wangtile tileid="1574" wangid="0,0,0,2,0,2,0,2"/>
    <wangtile tileid="1575" wangid="0,0,0,0,0,2,0,0"/>
    <wangtile tileid="1576" wangid="0,0,0,2,0,2,0,0"/>
    <wangtile tileid="1577" wangid="0,0,0,4,0,0,0,0"/>
    <wangtile tileid="1578" wangid="0,4,0,4,0,4,0,0"/>
    <wangtile tileid="1579" wangid="0,4,0,4,0,4,0,4"/>
    <wangtile tileid="1580" wangid="0,0,0,4,0,4,0,4"/>
    <wangtile tileid="1581" wangid="0,0,0,0,0,4,0,0"/>
    <wangtile tileid="1582" wangid="0,0,0,4,0,4,0,0"/>
    <wangtile tileid="1583" wangid="0,5,0,0,0,0,0,0"/>
    <wangtile tileid="1584" wangid="0,5,0,5,0,0,0,5"/>
    <wangtile tileid="1585" wangid="0,5,0,5,0,5,0,5"/>
    <wangtile tileid="1586" wangid="0,5,0,0,0,5,0,5"/>
    <wangtile tileid="1587" wangid="0,0,0,0,0,0,0,5"/>
    <wangtile tileid="1588" wangid="0,5,0,5,0,0,0,0"/>
    <wangtile tileid="1589" wangid="0,7,0,0,0,0,0,0"/>
    <wangtile tileid="1590" wangid="0,7,0,7,0,0,0,7"/>
    <wangtile tileid="1591" wangid="0,7,0,7,0,7,0,7"/>
    <wangtile tileid="1592" wangid="0,7,0,0,0,7,0,7"/>
    <wangtile tileid="1593" wangid="0,0,0,0,0,0,0,7"/>
    <wangtile tileid="1594" wangid="0,7,0,0,0,0,0,7"/>
    <wangtile tileid="1626" wangid="0,2,0,2,0,0,0,0"/>
    <wangtile tileid="1627" wangid="0,2,0,2,0,2,0,2"/>
    <wangtile tileid="1628" wangid="0,2,0,2,0,2,0,2"/>
    <wangtile tileid="1629" wangid="0,2,0,2,0,2,0,2"/>
    <wangtile tileid="1630" wangid="0,0,0,0,0,2,0,2"/>
    <wangtile tileid="1631" wangid="0,2,0,0,0,0,0,2"/>
    <wangtile tileid="1632" wangid="0,4,0,4,0,0,0,0"/>
    <wangtile tileid="1633" wangid="0,4,0,4,0,4,0,4"/>
    <wangtile tileid="1634" wangid="0,4,0,4,0,4,0,4"/>
    <wangtile tileid="1635" wangid="0,4,0,4,0,4,0,4"/>
    <wangtile tileid="1636" wangid="0,0,0,0,0,4,0,4"/>
    <wangtile tileid="1637" wangid="0,4,0,0,0,0,0,4"/>
    <wangtile tileid="1639" wangid="0,5,0,0,0,0,0,0"/>
    <wangtile tileid="1640" wangid="0,5,0,0,0,0,0,5"/>
    <wangtile tileid="1641" wangid="0,0,0,0,0,0,0,5"/>
    <wangtile tileid="1643" wangid="0,0,0,0,0,5,0,5"/>
    <wangtile tileid="1645" wangid="0,7,0,0,0,0,0,0"/>
    <wangtile tileid="1646" wangid="0,7,0,0,0,0,0,7"/>
    <wangtile tileid="1647" wangid="0,0,0,0,0,0,0,7"/>
    <wangtile tileid="1649" wangid="0,7,0,7,0,0,0,0"/>
    <wangtile tileid="1681" wangid="0,2,0,0,0,0,0,0"/>
    <wangtile tileid="1682" wangid="0,2,0,2,0,0,0,2"/>
    <wangtile tileid="1683" wangid="0,2,0,2,0,2,0,2"/>
    <wangtile tileid="1684" wangid="0,2,0,0,0,2,0,2"/>
    <wangtile tileid="1685" wangid="0,0,0,0,0,0,0,2"/>
    <wangtile tileid="1686" wangid="0,2,0,2,0,0,0,0"/>
    <wangtile tileid="1687" wangid="0,4,0,0,0,0,0,0"/>
    <wangtile tileid="1688" wangid="0,4,0,4,0,0,0,4"/>
    <wangtile tileid="1689" wangid="0,4,0,4,0,4,0,4"/>
    <wangtile tileid="1690" wangid="0,4,0,0,0,4,0,4"/>
    <wangtile tileid="1691" wangid="0,0,0,0,0,0,0,4"/>
    <wangtile tileid="1692" wangid="0,4,0,4,0,0,0,0"/>
    <wangtile tileid="1693" wangid="0,6,0,0,0,6,0,0"/>
    <wangtile tileid="1694" wangid="0,0,0,6,0,0,0,0"/>
    <wangtile tileid="1695" wangid="0,0,0,6,0,6,0,0"/>
    <wangtile tileid="1696" wangid="0,0,0,0,0,6,0,0"/>
    <wangtile tileid="1697" wangid="0,0,0,6,0,0,0,6"/>
    <wangtile tileid="1704" wangid="0,0,0,0,0,7,0,7"/>
    <wangtile tileid="1737" wangid="0,2,0,0,0,0,0,0"/>
    <wangtile tileid="1738" wangid="0,2,0,0,0,0,0,2"/>
    <wangtile tileid="1739" wangid="0,0,0,0,0,0,0,2"/>
    <wangtile tileid="1741" wangid="0,0,0,0,0,2,0,2"/>
    <wangtile tileid="1743" wangid="0,4,0,0,0,0,0,0"/>
    <wangtile tileid="1744" wangid="0,4,0,0,0,0,0,4"/>
    <wangtile tileid="1745" wangid="0,0,0,0,0,0,0,4"/>
    <wangtile tileid="1747" wangid="0,0,0,0,0,4,0,4"/>
    <wangtile tileid="1748" wangid="0,0,0,6,0,0,0,0"/>
    <wangtile tileid="1749" wangid="0,6,0,6,0,6,0,0"/>
    <wangtile tileid="1750" wangid="0,6,0,6,0,6,0,6"/>
    <wangtile tileid="1751" wangid="0,0,0,6,0,6,0,6"/>
    <wangtile tileid="1752" wangid="0,0,0,0,0,6,0,0"/>
    <wangtile tileid="1753" wangid="0,0,0,6,0,6,0,0"/>
    <wangtile tileid="1803" wangid="0,6,0,6,0,0,0,0"/>
    <wangtile tileid="1804" wangid="0,6,0,6,0,6,0,6"/>
    <wangtile tileid="1805" wangid="0,6,0,6,0,6,0,6"/>
    <wangtile tileid="1806" wangid="0,6,0,6,0,6,0,6"/>
    <wangtile tileid="1807" wangid="0,0,0,0,0,6,0,6"/>
    <wangtile tileid="1808" wangid="0,6,0,0,0,0,0,6"/>
    <wangtile tileid="1840" wangid="0,8,0,0,0,8,0,0"/>
    <wangtile tileid="1841" wangid="0,0,0,8,0,0,0,0"/>
    <wangtile tileid="1842" wangid="0,0,0,8,0,8,0,0"/>
    <wangtile tileid="1843" wangid="0,0,0,0,0,8,0,0"/>
    <wangtile tileid="1844" wangid="0,0,0,8,0,0,0,8"/>
    <wangtile tileid="1846" wangid="0,9,0,0,0,9,0,0"/>
    <wangtile tileid="1847" wangid="0,0,0,9,0,0,0,0"/>
    <wangtile tileid="1848" wangid="0,0,0,9,0,9,0,0"/>
    <wangtile tileid="1849" wangid="0,0,0,0,0,9,0,0"/>
    <wangtile tileid="1850" wangid="0,0,0,9,0,0,0,9"/>
    <wangtile tileid="1853" wangid="0,0,0,12,0,0,0,0"/>
    <wangtile tileid="1854" wangid="0,0,0,12,0,12,0,0"/>
    <wangtile tileid="1855" wangid="0,0,0,0,0,12,0,0"/>
    <wangtile tileid="1858" wangid="0,6,0,0,0,0,0,0"/>
    <wangtile tileid="1859" wangid="0,6,0,6,0,0,0,6"/>
    <wangtile tileid="1860" wangid="0,6,0,6,0,6,0,6"/>
    <wangtile tileid="1861" wangid="0,6,0,0,0,6,0,6"/>
    <wangtile tileid="1862" wangid="0,0,0,0,0,0,0,6"/>
    <wangtile tileid="1863" wangid="0,6,0,6,0,0,0,0"/>
    <wangtile tileid="1895" wangid="0,0,0,8,0,0,0,0"/>
    <wangtile tileid="1896" wangid="0,8,0,8,0,8,0,0"/>
    <wangtile tileid="1897" wangid="0,8,0,8,0,8,0,8"/>
    <wangtile tileid="1898" wangid="0,0,0,8,0,8,0,8"/>
    <wangtile tileid="1899" wangid="0,0,0,0,0,8,0,0"/>
    <wangtile tileid="1901" wangid="0,0,0,9,0,0,0,0"/>
    <wangtile tileid="1902" wangid="0,9,0,9,0,9,0,0"/>
    <wangtile tileid="1903" wangid="0,9,0,9,0,9,0,9"/>
    <wangtile tileid="1904" wangid="0,0,0,9,0,9,0,9"/>
    <wangtile tileid="1905" wangid="0,0,0,0,0,9,0,0"/>
    <wangtile tileid="1907" wangid="0,0,0,12,0,0,0,0"/>
    <wangtile tileid="1908" wangid="0,12,0,12,0,12,0,0"/>
    <wangtile tileid="1909" wangid="0,12,0,12,0,12,0,12"/>
    <wangtile tileid="1910" wangid="0,0,0,12,0,12,0,12"/>
    <wangtile tileid="1911" wangid="0,0,0,0,0,12,0,0"/>
    <wangtile tileid="1914" wangid="0,6,0,0,0,0,0,0"/>
    <wangtile tileid="1915" wangid="0,6,0,0,0,0,0,6"/>
    <wangtile tileid="1916" wangid="0,0,0,0,0,0,0,6"/>
    <wangtile tileid="1918" wangid="0,0,0,0,0,6,0,6"/>
    <wangtile tileid="1950" wangid="0,8,0,8,0,0,0,0"/>
    <wangtile tileid="1951" wangid="0,8,0,8,0,8,0,8"/>
    <wangtile tileid="1952" wangid="0,8,0,8,0,8,0,8"/>
    <wangtile tileid="1953" wangid="0,8,0,8,0,8,0,8"/>
    <wangtile tileid="1954" wangid="0,0,0,0,0,8,0,8"/>
    <wangtile tileid="1956" wangid="0,9,0,9,0,0,0,0"/>
    <wangtile tileid="1957" wangid="0,9,0,9,0,9,0,9"/>
    <wangtile tileid="1958" wangid="0,9,0,9,0,9,0,9"/>
    <wangtile tileid="1959" wangid="0,9,0,9,0,9,0,9"/>
    <wangtile tileid="1960" wangid="0,0,0,0,0,9,0,9"/>
    <wangtile tileid="1962" wangid="0,12,0,12,0,0,0,0"/>
    <wangtile tileid="1963" wangid="0,12,0,12,0,12,0,12"/>
    <wangtile tileid="1964" wangid="0,12,0,12,0,12,0,12"/>
    <wangtile tileid="1965" wangid="0,12,0,12,0,12,0,12"/>
    <wangtile tileid="1966" wangid="0,0,0,0,0,12,0,12"/>
    <wangtile tileid="2005" wangid="0,8,0,0,0,0,0,0"/>
    <wangtile tileid="2006" wangid="0,8,0,8,0,0,0,8"/>
    <wangtile tileid="2007" wangid="0,8,0,8,0,8,0,8"/>
    <wangtile tileid="2008" wangid="0,8,0,0,0,8,0,8"/>
    <wangtile tileid="2009" wangid="0,0,0,0,0,0,0,8"/>
    <wangtile tileid="2011" wangid="0,9,0,0,0,0,0,0"/>
    <wangtile tileid="2012" wangid="0,9,0,9,0,0,0,9"/>
    <wangtile tileid="2013" wangid="0,9,0,9,0,9,0,9"/>
    <wangtile tileid="2014" wangid="0,9,0,0,0,9,0,9"/>
    <wangtile tileid="2015" wangid="0,0,0,0,0,0,0,9"/>
    <wangtile tileid="2017" wangid="0,12,0,0,0,0,0,0"/>
    <wangtile tileid="2018" wangid="0,12,0,12,0,0,0,12"/>
    <wangtile tileid="2019" wangid="0,12,0,12,0,12,0,12"/>
    <wangtile tileid="2020" wangid="0,12,0,0,0,12,0,12"/>
    <wangtile tileid="2021" wangid="0,0,0,0,0,0,0,12"/>
    <wangtile tileid="2023" wangid="0,10,0,0,0,10,0,0"/>
    <wangtile tileid="2024" wangid="0,0,0,10,0,0,0,0"/>
    <wangtile tileid="2025" wangid="0,0,0,10,0,10,0,0"/>
    <wangtile tileid="2026" wangid="0,0,0,0,0,10,0,0"/>
    <wangtile tileid="2027" wangid="0,0,0,10,0,0,0,10"/>
    <wangtile tileid="2029" wangid="0,11,0,0,0,11,0,0"/>
    <wangtile tileid="2030" wangid="0,0,0,11,0,0,0,0"/>
    <wangtile tileid="2031" wangid="0,0,0,11,0,11,0,0"/>
    <wangtile tileid="2032" wangid="0,0,0,0,0,11,0,0"/>
    <wangtile tileid="2033" wangid="0,0,0,11,0,0,0,11"/>
    <wangtile tileid="2061" wangid="0,8,0,0,0,0,0,0"/>
    <wangtile tileid="2062" wangid="0,8,0,0,0,0,0,8"/>
    <wangtile tileid="2063" wangid="0,0,0,0,0,0,0,8"/>
    <wangtile tileid="2067" wangid="0,9,0,0,0,0,0,0"/>
    <wangtile tileid="2068" wangid="0,9,0,0,0,0,0,9"/>
    <wangtile tileid="2069" wangid="0,0,0,0,0,0,0,9"/>
    <wangtile tileid="2073" wangid="0,12,0,0,0,0,0,0"/>
    <wangtile tileid="2074" wangid="0,12,0,0,0,0,0,12"/>
    <wangtile tileid="2075" wangid="0,0,0,0,0,0,0,12"/>
    <wangtile tileid="2076" wangid="0,12,0,12,0,0,0,0"/>
    <wangtile tileid="2077" wangid="0,0,0,0,0,12,0,12"/>
    <wangtile tileid="2078" wangid="0,0,0,10,0,0,0,0"/>
    <wangtile tileid="2079" wangid="0,10,0,10,0,10,0,0"/>
    <wangtile tileid="2080" wangid="0,10,0,10,0,10,0,10"/>
    <wangtile tileid="2081" wangid="0,0,0,10,0,10,0,10"/>
    <wangtile tileid="2082" wangid="0,0,0,0,0,10,0,0"/>
    <wangtile tileid="2084" wangid="0,0,0,11,0,0,0,0"/>
    <wangtile tileid="2085" wangid="0,11,0,11,0,11,0,0"/>
    <wangtile tileid="2086" wangid="0,11,0,11,0,11,0,11"/>
    <wangtile tileid="2087" wangid="0,0,0,11,0,11,0,11"/>
    <wangtile tileid="2088" wangid="0,0,0,0,0,11,0,0"/>
    <wangtile tileid="2116" wangid="0,0,0,8,0,0,0,0"/>
    <wangtile tileid="2117" wangid="0,0,0,0,0,8,0,0"/>
    <wangtile tileid="2119" wangid="0,0,0,8,0,8,0,0"/>
    <wangtile tileid="2120" wangid="0,0,0,8,0,8,0,0"/>
    <wangtile tileid="2122" wangid="0,0,0,9,0,0,0,0"/>
    <wangtile tileid="2123" wangid="0,0,0,0,0,9,0,0"/>
    <wangtile tileid="2125" wangid="0,0,0,9,0,9,0,0"/>
    <wangtile tileid="2126" wangid="0,0,0,9,0,9,0,0"/>
    <wangtile tileid="2127" wangid="0,0,0,12,0,12,0,0"/>
    <wangtile tileid="2128" wangid="0,0,0,12,0,12,0,0"/>
    <wangtile tileid="2129" wangid="0,0,0,12,0,12,0,0"/>
    <wangtile tileid="2131" wangid="0,12,0,12,0,0,0,0"/>
    <wangtile tileid="2132" wangid="0,0,0,0,0,12,0,12"/>
    <wangtile tileid="2133" wangid="0,10,0,10,0,0,0,0"/>
    <wangtile tileid="2134" wangid="0,10,0,10,0,10,0,10"/>
    <wangtile tileid="2135" wangid="0,10,0,10,0,10,0,10"/>
    <wangtile tileid="2136" wangid="0,10,0,10,0,10,0,10"/>
    <wangtile tileid="2137" wangid="0,0,0,0,0,10,0,10"/>
    <wangtile tileid="2139" wangid="0,11,0,11,0,0,0,0"/>
    <wangtile tileid="2140" wangid="0,11,0,11,0,11,0,11"/>
    <wangtile tileid="2141" wangid="0,11,0,11,0,11,0,11"/>
    <wangtile tileid="2142" wangid="0,11,0,11,0,11,0,11"/>
    <wangtile tileid="2143" wangid="0,0,0,0,0,11,0,11"/>
    <wangtile tileid="2170" wangid="0,0,0,8,0,0,0,0"/>
    <wangtile tileid="2171" wangid="0,8,0,8,0,8,0,0"/>
    <wangtile tileid="2172" wangid="0,0,0,8,0,8,0,8"/>
    <wangtile tileid="2173" wangid="0,0,0,0,0,8,0,0"/>
    <wangtile tileid="2174" wangid="0,8,0,0,0,0,0,8"/>
    <wangtile tileid="2175" wangid="0,8,0,0,0,0,0,8"/>
    <wangtile tileid="2176" wangid="0,0,0,9,0,0,0,0"/>
    <wangtile tileid="2177" wangid="0,9,0,9,0,9,0,0"/>
    <wangtile tileid="2178" wangid="0,0,0,9,0,9,0,9"/>
    <wangtile tileid="2179" wangid="0,0,0,0,0,9,0,0"/>
    <wangtile tileid="2180" wangid="0,9,0,0,0,0,0,9"/>
    <wangtile tileid="2181" wangid="0,9,0,0,0,0,0,9"/>
    <wangtile tileid="2182" wangid="0,12,0,0,0,0,0,12"/>
    <wangtile tileid="2183" wangid="0,12,0,0,0,0,0,12"/>
    <wangtile tileid="2184" wangid="0,12,0,0,0,0,0,12"/>
    <wangtile tileid="2188" wangid="0,10,0,0,0,0,0,0"/>
    <wangtile tileid="2189" wangid="0,10,0,10,0,0,0,10"/>
    <wangtile tileid="2190" wangid="0,10,0,10,0,10,0,10"/>
    <wangtile tileid="2191" wangid="0,10,0,0,0,10,0,10"/>
    <wangtile tileid="2192" wangid="0,0,0,0,0,0,0,10"/>
    <wangtile tileid="2194" wangid="0,11,0,0,0,0,0,0"/>
    <wangtile tileid="2195" wangid="0,11,0,11,0,0,0,11"/>
    <wangtile tileid="2196" wangid="0,11,0,11,0,11,0,11"/>
    <wangtile tileid="2197" wangid="0,11,0,0,0,11,0,11"/>
    <wangtile tileid="2198" wangid="0,0,0,0,0,0,0,11"/>
    <wangtile tileid="2225" wangid="0,8,0,0,0,0,0,0"/>
    <wangtile tileid="2226" wangid="0,8,0,8,0,0,0,8"/>
    <wangtile tileid="2227" wangid="0,8,0,0,0,8,0,8"/>
    <wangtile tileid="2228" wangid="0,0,0,0,0,0,0,8"/>
    <wangtile tileid="2229" wangid="0,8,0,8,0,0,0,0"/>
    <wangtile tileid="2230" wangid="0,0,0,0,0,8,0,8"/>
    <wangtile tileid="2231" wangid="0,9,0,0,0,0,0,0"/>
    <wangtile tileid="2232" wangid="0,9,0,9,0,0,0,9"/>
    <wangtile tileid="2233" wangid="0,9,0,0,0,9,0,9"/>
    <wangtile tileid="2234" wangid="0,0,0,0,0,0,0,9"/>
    <wangtile tileid="2235" wangid="0,9,0,9,0,0,0,0"/>
    <wangtile tileid="2236" wangid="0,0,0,0,0,9,0,9"/>
    <wangtile tileid="2243" wangid="0,10,0,10,0,0,0,10"/>
    <wangtile tileid="2244" wangid="0,10,0,0,0,0,0,0"/>
    <wangtile tileid="2245" wangid="0,10,0,0,0,0,0,10"/>
    <wangtile tileid="2246" wangid="0,0,0,0,0,0,0,10"/>
    <wangtile tileid="2247" wangid="0,10,0,0,0,10,0,10"/>
    <wangtile tileid="2249" wangid="0,11,0,11,0,0,0,11"/>
    <wangtile tileid="2250" wangid="0,11,0,0,0,0,0,0"/>
    <wangtile tileid="2251" wangid="0,11,0,0,0,0,0,11"/>
    <wangtile tileid="2252" wangid="0,0,0,0,0,0,0,11"/>
    <wangtile tileid="2253" wangid="0,11,0,0,0,11,0,11"/>
    <wangtile tileid="2281" wangid="0,8,0,0,0,0,0,0"/>
    <wangtile tileid="2282" wangid="0,0,0,0,0,0,0,8"/>
    <wangtile tileid="2284" wangid="0,8,0,8,0,0,0,0"/>
    <wangtile tileid="2285" wangid="0,0,0,0,0,8,0,8"/>
    <wangtile tileid="2287" wangid="0,9,0,0,0,0,0,0"/>
    <wangtile tileid="2288" wangid="0,0,0,0,0,0,0,9"/>
    <wangtile tileid="2290" wangid="0,9,0,9,0,0,0,0"/>
    <wangtile tileid="2291" wangid="0,0,0,0,0,9,0,9"/>
    <wangtile tileid="2298" wangid="0,10,0,10,0,10,0,0"/>
    <wangtile tileid="2299" wangid="0,10,0,10,0,10,0,0"/>
    <wangtile tileid="2300" wangid="0,10,0,10,0,0,0,10"/>
    <wangtile tileid="2301" wangid="0,10,0,0,0,10,0,10"/>
    <wangtile tileid="2302" wangid="0,0,0,10,0,10,0,10"/>
    <wangtile tileid="2304" wangid="0,11,0,11,0,11,0,0"/>
    <wangtile tileid="2305" wangid="0,11,0,11,0,11,0,0"/>
    <wangtile tileid="2306" wangid="0,11,0,11,0,0,0,11"/>
    <wangtile tileid="2307" wangid="0,11,0,0,0,11,0,11"/>
    <wangtile tileid="2308" wangid="0,0,0,11,0,11,0,11"/>
    <wangtile tileid="2335" wangid="0,8,0,8,0,8,0,8"/>
    <wangtile tileid="2336" wangid="0,8,0,8,0,8,0,8"/>
    <wangtile tileid="2337" wangid="0,8,0,8,0,8,0,8"/>
    <wangtile tileid="2338" wangid="0,8,0,8,0,8,0,8"/>
    <wangtile tileid="2339" wangid="0,8,0,8,0,8,0,8"/>
    <wangtile tileid="2340" wangid="0,8,0,8,0,8,0,8"/>
    <wangtile tileid="2341" wangid="0,9,0,9,0,9,0,9"/>
    <wangtile tileid="2342" wangid="0,9,0,9,0,9,0,9"/>
    <wangtile tileid="2343" wangid="0,9,0,9,0,9,0,9"/>
    <wangtile tileid="2344" wangid="0,9,0,9,0,9,0,9"/>
    <wangtile tileid="2345" wangid="0,9,0,9,0,9,0,9"/>
    <wangtile tileid="2346" wangid="0,9,0,9,0,9,0,9"/>
    <wangtile tileid="2353" wangid="0,0,0,10,0,10,0,0"/>
    <wangtile tileid="2354" wangid="0,0,0,10,0,10,0,0"/>
    <wangtile tileid="2355" wangid="0,0,0,10,0,10,0,0"/>
    <wangtile tileid="2356" wangid="0,0,0,10,0,10,0,0"/>
    <wangtile tileid="2357" wangid="0,0,0,10,0,10,0,10"/>
    <wangtile tileid="2359" wangid="0,0,0,11,0,11,0,0"/>
    <wangtile tileid="2360" wangid="0,0,0,11,0,11,0,0"/>
    <wangtile tileid="2361" wangid="0,0,0,11,0,11,0,0"/>
    <wangtile tileid="2362" wangid="0,0,0,11,0,11,0,0"/>
    <wangtile tileid="2363" wangid="0,0,0,11,0,11,0,11"/>
    <wangtile tileid="2390" wangid="0,8,0,8,0,8,0,8"/>
    <wangtile tileid="2391" wangid="0,8,0,8,0,8,0,8"/>
    <wangtile tileid="2392" wangid="0,8,0,8,0,8,0,8"/>
    <wangtile tileid="2393" wangid="0,8,0,8,0,8,0,8"/>
    <wangtile tileid="2394" wangid="0,8,0,8,0,8,0,8"/>
    <wangtile tileid="2395" wangid="0,8,0,8,0,8,0,8"/>
    <wangtile tileid="2396" wangid="0,9,0,9,0,9,0,9"/>
    <wangtile tileid="2397" wangid="0,9,0,9,0,9,0,9"/>
    <wangtile tileid="2398" wangid="0,9,0,9,0,9,0,9"/>
    <wangtile tileid="2399" wangid="0,9,0,9,0,9,0,9"/>
    <wangtile tileid="2400" wangid="0,9,0,9,0,9,0,9"/>
    <wangtile tileid="2401" wangid="0,9,0,9,0,9,0,9"/>
    <wangtile tileid="2403" wangid="0,0,0,13,0,0,0,0"/>
    <wangtile tileid="2404" wangid="0,0,0,13,0,13,0,0"/>
    <wangtile tileid="2405" wangid="0,0,0,0,0,13,0,0"/>
    <wangtile tileid="2408" wangid="0,10,0,0,0,0,0,10"/>
    <wangtile tileid="2409" wangid="0,10,0,0,0,0,0,10"/>
    <wangtile tileid="2410" wangid="0,10,0,0,0,0,0,10"/>
    <wangtile tileid="2411" wangid="0,10,0,0,0,0,0,10"/>
    <wangtile tileid="2412" wangid="0,10,0,10,0,0,0,0"/>
    <wangtile tileid="2413" wangid="0,0,0,0,0,10,0,10"/>
    <wangtile tileid="2414" wangid="0,11,0,0,0,0,0,11"/>
    <wangtile tileid="2415" wangid="0,11,0,0,0,0,0,11"/>
    <wangtile tileid="2416" wangid="0,11,0,0,0,0,0,11"/>
    <wangtile tileid="2417" wangid="0,11,0,0,0,0,0,11"/>
    <wangtile tileid="2418" wangid="0,11,0,11,0,0,0,0"/>
    <wangtile tileid="2419" wangid="0,0,0,0,0,11,0,11"/>
    <wangtile tileid="2445" wangid="0,8,0,8,0,8,0,8"/>
    <wangtile tileid="2446" wangid="0,8,0,8,0,8,0,8"/>
    <wangtile tileid="2447" wangid="0,8,0,8,0,8,0,8"/>
    <wangtile tileid="2448" wangid="0,8,0,8,0,8,0,8"/>
    <wangtile tileid="2449" wangid="0,8,0,8,0,8,0,8"/>
    <wangtile tileid="2451" wangid="0,9,0,9,0,9,0,9"/>
    <wangtile tileid="2452" wangid="0,9,0,9,0,9,0,9"/>
    <wangtile tileid="2453" wangid="0,9,0,9,0,9,0,9"/>
    <wangtile tileid="2454" wangid="0,9,0,9,0,9,0,9"/>
    <wangtile tileid="2455" wangid="0,9,0,9,0,9,0,9"/>
    <wangtile tileid="2457" wangid="0,0,0,13,0,0,0,0"/>
    <wangtile tileid="2458" wangid="0,13,0,13,0,13,0,0"/>
    <wangtile tileid="2459" wangid="0,13,0,13,0,13,0,13"/>
    <wangtile tileid="2460" wangid="0,0,0,13,0,13,0,13"/>
    <wangtile tileid="2461" wangid="0,0,0,0,0,13,0,0"/>
    <wangtile tileid="2463" wangid="0,10,0,0,0,0,0,0"/>
    <wangtile tileid="2464" wangid="0,0,0,0,0,0,0,10"/>
    <wangtile tileid="2465" wangid="0,0,0,10,0,0,0,0"/>
    <wangtile tileid="2466" wangid="0,0,0,0,0,10,0,0"/>
    <wangtile tileid="2467" wangid="0,10,0,10,0,0,0,0"/>
    <wangtile tileid="2468" wangid="0,0,0,0,0,10,0,10"/>
    <wangtile tileid="2469" wangid="0,11,0,0,0,0,0,0"/>
    <wangtile tileid="2470" wangid="0,0,0,0,0,0,0,11"/>
    <wangtile tileid="2471" wangid="0,0,0,11,0,0,0,0"/>
    <wangtile tileid="2472" wangid="0,0,0,0,0,11,0,0"/>
    <wangtile tileid="2473" wangid="0,11,0,11,0,0,0,0"/>
    <wangtile tileid="2474" wangid="0,0,0,0,0,11,0,11"/>
    <wangtile tileid="2512" wangid="0,13,0,13,0,0,0,0"/>
    <wangtile tileid="2513" wangid="0,13,0,13,0,13,0,13"/>
    <wangtile tileid="2514" wangid="0,13,0,13,0,13,0,13"/>
    <wangtile tileid="2515" wangid="0,13,0,13,0,13,0,13"/>
    <wangtile tileid="2516" wangid="0,0,0,0,0,13,0,13"/>
    <wangtile tileid="2518" wangid="0,10,0,0,0,0,0,0"/>
    <wangtile tileid="2519" wangid="0,0,0,0,0,0,0,10"/>
    <wangtile tileid="2520" wangid="0,0,0,10,0,0,0,0"/>
    <wangtile tileid="2521" wangid="0,0,0,0,0,10,0,0"/>
    <wangtile tileid="2522" wangid="0,10,0,10,0,0,0,0"/>
    <wangtile tileid="2523" wangid="0,0,0,0,0,10,0,10"/>
    <wangtile tileid="2524" wangid="0,11,0,0,0,0,0,0"/>
    <wangtile tileid="2525" wangid="0,0,0,0,0,0,0,11"/>
    <wangtile tileid="2526" wangid="0,0,0,11,0,0,0,0"/>
    <wangtile tileid="2527" wangid="0,0,0,0,0,11,0,0"/>
    <wangtile tileid="2528" wangid="0,11,0,11,0,0,0,0"/>
    <wangtile tileid="2529" wangid="0,0,0,0,0,11,0,11"/>
    <wangtile tileid="2567" wangid="0,13,0,0,0,0,0,0"/>
    <wangtile tileid="2568" wangid="0,13,0,13,0,0,0,13"/>
    <wangtile tileid="2569" wangid="0,13,0,13,0,13,0,13"/>
    <wangtile tileid="2570" wangid="0,13,0,0,0,13,0,13"/>
    <wangtile tileid="2571" wangid="0,0,0,0,0,0,0,13"/>
    <wangtile tileid="2573" wangid="0,10,0,0,0,0,0,0"/>
    <wangtile tileid="2574" wangid="0,0,0,0,0,0,0,10"/>
    <wangtile tileid="2575" wangid="0,0,0,10,0,0,0,0"/>
    <wangtile tileid="2576" wangid="0,0,0,0,0,10,0,0"/>
    <wangtile tileid="2577" wangid="0,10,0,10,0,0,0,0"/>
    <wangtile tileid="2578" wangid="0,0,0,0,0,10,0,10"/>
    <wangtile tileid="2579" wangid="0,11,0,0,0,0,0,0"/>
    <wangtile tileid="2580" wangid="0,0,0,0,0,0,0,11"/>
    <wangtile tileid="2581" wangid="0,0,0,11,0,0,0,0"/>
    <wangtile tileid="2582" wangid="0,0,0,0,0,11,0,0"/>
    <wangtile tileid="2583" wangid="0,11,0,11,0,0,0,0"/>
    <wangtile tileid="2584" wangid="0,0,0,0,0,11,0,11"/>
    <wangtile tileid="2623" wangid="0,13,0,0,0,0,0,0"/>
    <wangtile tileid="2624" wangid="0,13,0,0,0,0,0,13"/>
    <wangtile tileid="2625" wangid="0,0,0,0,0,0,0,13"/>
    <wangtile tileid="2626" wangid="0,13,0,13,0,0,0,0"/>
    <wangtile tileid="2627" wangid="0,0,0,0,0,13,0,13"/>
    <wangtile tileid="2628" wangid="0,10,0,10,0,10,0,10"/>
    <wangtile tileid="2629" wangid="0,10,0,10,0,10,0,10"/>
    <wangtile tileid="2630" wangid="0,10,0,10,0,10,0,10"/>
    <wangtile tileid="2631" wangid="0,10,0,10,0,10,0,10"/>
    <wangtile tileid="2632" wangid="0,10,0,10,0,10,0,10"/>
    <wangtile tileid="2633" wangid="0,10,0,10,0,10,0,10"/>
    <wangtile tileid="2634" wangid="0,11,0,11,0,11,0,11"/>
    <wangtile tileid="2635" wangid="0,11,0,11,0,11,0,11"/>
    <wangtile tileid="2636" wangid="0,11,0,11,0,11,0,11"/>
    <wangtile tileid="2637" wangid="0,11,0,11,0,11,0,11"/>
    <wangtile tileid="2638" wangid="0,11,0,11,0,11,0,11"/>
    <wangtile tileid="2639" wangid="0,11,0,11,0,11,0,11"/>
    <wangtile tileid="2677" wangid="0,0,0,13,0,13,0,0"/>
    <wangtile tileid="2678" wangid="0,0,0,13,0,13,0,0"/>
    <wangtile tileid="2679" wangid="0,0,0,13,0,13,0,0"/>
    <wangtile tileid="2681" wangid="0,13,0,13,0,0,0,0"/>
    <wangtile tileid="2682" wangid="0,0,0,0,0,13,0,13"/>
    <wangtile tileid="2683" wangid="0,10,0,10,0,10,0,10"/>
    <wangtile tileid="2684" wangid="0,10,0,10,0,10,0,10"/>
    <wangtile tileid="2685" wangid="0,10,0,10,0,10,0,10"/>
    <wangtile tileid="2686" wangid="0,10,0,10,0,10,0,10"/>
    <wangtile tileid="2687" wangid="0,10,0,10,0,10,0,10"/>
    <wangtile tileid="2688" wangid="0,10,0,10,0,10,0,10"/>
    <wangtile tileid="2689" wangid="0,11,0,11,0,11,0,11"/>
    <wangtile tileid="2690" wangid="0,11,0,11,0,11,0,11"/>
    <wangtile tileid="2691" wangid="0,11,0,11,0,11,0,11"/>
    <wangtile tileid="2692" wangid="0,11,0,11,0,11,0,11"/>
    <wangtile tileid="2693" wangid="0,11,0,11,0,11,0,11"/>
    <wangtile tileid="2694" wangid="0,11,0,11,0,11,0,11"/>
    <wangtile tileid="2732" wangid="0,13,0,0,0,0,0,13"/>
    <wangtile tileid="2733" wangid="0,13,0,0,0,0,0,13"/>
    <wangtile tileid="2734" wangid="0,13,0,0,0,0,0,13"/>
    <wangtile tileid="2738" wangid="0,10,0,10,0,10,0,10"/>
    <wangtile tileid="2739" wangid="0,10,0,10,0,10,0,10"/>
    <wangtile tileid="2740" wangid="0,10,0,10,0,10,0,10"/>
    <wangtile tileid="2741" wangid="0,10,0,10,0,10,0,10"/>
    <wangtile tileid="2742" wangid="0,10,0,10,0,10,0,10"/>
    <wangtile tileid="2743" wangid="0,10,0,10,0,10,0,10"/>
    <wangtile tileid="2744" wangid="0,11,0,11,0,11,0,11"/>
    <wangtile tileid="2745" wangid="0,11,0,11,0,11,0,11"/>
    <wangtile tileid="2746" wangid="0,11,0,11,0,11,0,11"/>
    <wangtile tileid="2747" wangid="0,11,0,11,0,11,0,11"/>
    <wangtile tileid="2748" wangid="0,11,0,11,0,11,0,11"/>
    <wangtile tileid="2749" wangid="0,11,0,11,0,11,0,11"/>
    <wangtile tileid="2793" wangid="0,10,0,10,0,10,0,10"/>
    <wangtile tileid="2794" wangid="0,10,0,10,0,10,0,10"/>
    <wangtile tileid="2795" wangid="0,10,0,10,0,10,0,10"/>
    <wangtile tileid="2796" wangid="0,10,0,10,0,10,0,10"/>
    <wangtile tileid="2797" wangid="0,10,0,10,0,10,0,10"/>
    <wangtile tileid="2798" wangid="0,10,0,10,0,10,0,10"/>
    <wangtile tileid="2799" wangid="0,11,0,11,0,11,0,11"/>
    <wangtile tileid="2800" wangid="0,11,0,11,0,11,0,11"/>
    <wangtile tileid="2801" wangid="0,11,0,11,0,11,0,11"/>
    <wangtile tileid="2802" wangid="0,11,0,11,0,11,0,11"/>
    <wangtile tileid="2803" wangid="0,11,0,11,0,11,0,11"/>
    <wangtile tileid="2804" wangid="0,11,0,11,0,11,0,11"/>
    <wangtile tileid="2848" wangid="0,10,0,10,0,10,0,10"/>
    <wangtile tileid="2849" wangid="0,10,0,10,0,10,0,10"/>
    <wangtile tileid="2850" wangid="0,10,0,10,0,10,0,10"/>
    <wangtile tileid="2851" wangid="0,10,0,10,0,10,0,10"/>
    <wangtile tileid="2854" wangid="0,11,0,11,0,11,0,11"/>
    <wangtile tileid="2855" wangid="0,11,0,11,0,11,0,11"/>
    <wangtile tileid="2856" wangid="0,11,0,11,0,11,0,11"/>
    <wangtile tileid="2857" wangid="0,11,0,11,0,11,0,11"/>
   </wangset>
  </wangsets>
 </tileset>
 <tileset firstgid="3961" name="Tileset-Terrain" tilewidth="32" tileheight="32" tilecount="3960" columns="55">
  <image source="tiled/ERW-Grassland 2.0/Tilesets/Tileset-Terrain.png" width="1760" height="2304"/>
 </tileset>
 <tileset firstgid="7921" name="Atlas-Props-sheet1-sprites" tilewidth="192" tileheight="224" tilecount="639" columns="0" objectalignment="bottom">
  <grid orientation="orthogonal" width="1" height="1"/>
  <tile id="0">
   <image source="tiled/ERW-Grassland 2.0/Props/Static props/sheet1-sprites/3.png" width="32" height="64"/>
  </tile>
  <tile id="1">
   <image source="tiled/ERW-Grassland 2.0/Props/Static props/sheet1-sprites/barrel 1 - no grass.png" width="32" height="64"/>
  </tile>
  <tile id="2">
   <image source="tiled/ERW-Grassland 2.0/Props/Static props/sheet1-sprites/barrel 1.png" width="32" height="64"/>
  </tile>
  <tile id="3">
   <image source="tiled/ERW-Grassland 2.0/Props/Static props/sheet1-sprites/barrel 2 - no grass.png" width="32" height="64"/>
  </tile>
  <tile id="4">
   <image source="tiled/ERW-Grassland 2.0/Props/Static props/sheet1-sprites/barrel 2.png" width="32" height="64"/>
  </tile>
  <tile id="5">
   <image source="tiled/ERW-Grassland 2.0/Props/Static props/sheet1-sprites/barrel 3 - no grass.png" width="32" height="64"/>
  </tile>
  <tile id="6">
   <image source="tiled/ERW-Grassland 2.0/Props/Static props/sheet1-sprites/barrel 3.png" width="32" height="64"/>
  </tile>
  <tile id="7">
   <image source="tiled/ERW-Grassland 2.0/Props/Static props/sheet1-sprites/barrel 4 - no grass.png" width="32" height="64"/>
  </tile>
  <tile id="8">
   <image source="tiled/ERW-Grassland 2.0/Props/Static props/sheet1-sprites/barrel 4.png" width="32" height="64"/>
  </tile>
  <tile id="9">
   <image source="tiled/ERW-Grassland 2.0/Props/Static props/sheet1-sprites/barrel 5 - no grass.png" width="32" height="64"/>
  </tile>
  <tile id="10">
   <image source="tiled/ERW-Grassland 2.0/Props/Static props/sheet1-sprites/barrel 5.png" width="32" height="64"/>
  </tile>
  <tile id="11">
   <image source="tiled/ERW-Grassland 2.0/Props/Static props/sheet1-sprites/barrel 6 - no grass.png" width="32" height="64"/>
  </tile>
  <tile id="12">
   <image source="tiled/ERW-Grassland 2.0/Props/Static props/sheet1-sprites/barrel 6.png" width="32" height="64"/>
  </tile>
  <tile id="13">
   <image source="tiled/ERW-Grassland 2.0/Props/Static props/sheet1-sprites/barrel 7 - no grass.png" width="32" height="64"/>
  </tile>
  <tile id="14">
   <image source="tiled/ERW-Grassland 2.0/Props/Static props/sheet1-sprites/barrel 7.png" width="32" height="64"/>
  </tile>
  <tile id="15">
   <image source="tiled/ERW-Grassland 2.0/Props/Static props/sheet1-sprites/barrel 8 - no grass.png" width="32" height="64"/>
  </tile>
  <tile id="16">
   <image source="tiled/ERW-Grassland 2.0/Props/Static props/sheet1-sprites/barrel 8.png" width="32" height="64"/>
  </tile>
  <tile id="17">
   <image source="tiled/ERW-Grassland 2.0/Props/Static props/sheet1-sprites/barrel 9 - no grass.png" width="32" height="64"/>
  </tile>
  <tile id="18">
   <image source="tiled/ERW-Grassland 2.0/Props/Static props/sheet1-sprites/barrel 9.png" width="32" height="64"/>
  </tile>
  <tile id="19">
   <image source="tiled/ERW-Grassland 2.0/Props/Static props/sheet1-sprites/barrel 10 - no grass.png" width="32" height="64"/>
  </tile>
  <tile id="20">
   <image source="tiled/ERW-Grassland 2.0/Props/Static props/sheet1-sprites/barrel 10.png" width="32" height="64"/>
  </tile>
  <tile id="21">
   <image source="tiled/ERW-Grassland 2.0/Props/Static props/sheet1-sprites/beach detail 1.png" width="32" height="32"/>
  </tile>
  <tile id="22">
   <image source="tiled/ERW-Grassland 2.0/Props/Static props/sheet1-sprites/beach detail 2.png" width="32" height="32"/>
  </tile>
  <tile id="23">
   <image source="tiled/ERW-Grassland 2.0/Props/Static props/sheet1-sprites/beach detail 3.png" width="32" height="32"/>
  </tile>
  <tile id="24">
   <image source="tiled/ERW-Grassland 2.0/Props/Static props/sheet1-sprites/beach detail 4.png" width="32" height="32"/>
  </tile>
  <tile id="25">
   <image source="tiled/ERW-Grassland 2.0/Props/Static props/sheet1-sprites/beach detail 5.png" width="32" height="32"/>
  </tile>
  <tile id="26">
   <image source="tiled/ERW-Grassland 2.0/Props/Static props/sheet1-sprites/beach detail 6.png" width="32" height="32"/>
  </tile>
  <tile id="27">
   <image source="tiled/ERW-Grassland 2.0/Props/Static props/sheet1-sprites/beach detail 7.png" width="32" height="32"/>
  </tile>
  <tile id="28">
   <image source="tiled/ERW-Grassland 2.0/Props/Static props/sheet1-sprites/beach detail 8.png" width="32" height="32"/>
  </tile>
  <tile id="29">
   <image source="tiled/ERW-Grassland 2.0/Props/Static props/sheet1-sprites/beach detail 9.png" width="32" height="32"/>
  </tile>
  <tile id="30">
   <image source="tiled/ERW-Grassland 2.0/Props/Static props/sheet1-sprites/beach detail 10.png" width="32" height="32"/>
  </tile>
  <tile id="31">
   <image source="tiled/ERW-Grassland 2.0/Props/Static props/sheet1-sprites/beach detail 11.png" width="32" height="32"/>
  </tile>
  <tile id="32">
   <image source="tiled/ERW-Grassland 2.0/Props/Static props/sheet1-sprites/beach detail 12.png" width="32" height="32"/>
  </tile>
  <tile id="33">
   <image source="tiled/ERW-Grassland 2.0/Props/Static props/sheet1-sprites/beach detail 13.png" width="32" height="32"/>
  </tile>
  <tile id="34">
   <image source="tiled/ERW-Grassland 2.0/Props/Static props/sheet1-sprites/beach detail 14.png" width="32" height="32"/>
  </tile>
  <tile id="35">
   <image source="tiled/ERW-Grassland 2.0/Props/Static props/sheet1-sprites/beach detail 15.png" width="32" height="32"/>
  </tile>
  <tile id="36">
   <image source="tiled/ERW-Grassland 2.0/Props/Static props/sheet1-sprites/beach detail 16.png" width="32" height="32"/>
  </tile>
  <tile id="37">
   <image source="tiled/ERW-Grassland 2.0/Props/Static props/sheet1-sprites/beach detail 17.png" width="32" height="32"/>
  </tile>
  <tile id="38">
   <image source="tiled/ERW-Grassland 2.0/Props/Static props/sheet1-sprites/beach detail 18.png" width="32" height="32"/>
  </tile>
  <tile id="39">
   <image source="tiled/ERW-Grassland 2.0/Props/Static props/sheet1-sprites/beach detail 19.png" width="32" height="32"/>
  </tile>
  <tile id="40">
   <image source="tiled/ERW-Grassland 2.0/Props/Static props/sheet1-sprites/beach detail 20.png" width="32" height="32"/>
  </tile>
  <tile id="41">
   <image source="tiled/ERW-Grassland 2.0/Props/Static props/sheet1-sprites/beach detail 21.png" width="32" height="32"/>
  </tile>
  <tile id="42">
   <image source="tiled/ERW-Grassland 2.0/Props/Static props/sheet1-sprites/beach detail 22.png" width="32" height="32"/>
  </tile>
  <tile id="43">
   <image source="tiled/ERW-Grassland 2.0/Props/Static props/sheet1-sprites/beach detail 23.png" width="32" height="32"/>
  </tile>
  <tile id="44">
   <image source="tiled/ERW-Grassland 2.0/Props/Static props/sheet1-sprites/beach detail 24.png" width="32" height="32"/>
  </tile>
  <tile id="45">
   <image source="tiled/ERW-Grassland 2.0/Props/Static props/sheet1-sprites/beach detail 25.png" width="32" height="32"/>
  </tile>
  <tile id="46">
   <image source="tiled/ERW-Grassland 2.0/Props/Static props/sheet1-sprites/beach detail 26.png" width="32" height="32"/>
  </tile>
  <tile id="47">
   <image source="tiled/ERW-Grassland 2.0/Props/Static props/sheet1-sprites/beach detail 27.png" width="32" height="32"/>
  </tile>
  <tile id="48">
   <image source="tiled/ERW-Grassland 2.0/Props/Static props/sheet1-sprites/beach detail 28.png" width="32" height="32"/>
  </tile>
  <tile id="49">
   <image source="tiled/ERW-Grassland 2.0/Props/Static props/sheet1-sprites/bucket - smaller - 1.png" width="32" height="32"/>
  </tile>
  <tile id="50">
   <image source="tiled/ERW-Grassland 2.0/Props/Static props/sheet1-sprites/bucket - smaller - 2.png" width="32" height="32"/>
  </tile>
  <tile id="51">
   <image source="tiled/ERW-Grassland 2.0/Props/Static props/sheet1-sprites/bucket - smaller - 3.png" width="32" height="32"/>
  </tile>
  <tile id="52">
   <image source="tiled/ERW-Grassland 2.0/Props/Static props/sheet1-sprites/bucket - smaller - 4.png" width="32" height="32"/>
  </tile>
  <tile id="53">
   <image source="tiled/ERW-Grassland 2.0/Props/Static props/sheet1-sprites/bucket 1 - no grass.png" width="32" height="32"/>
  </tile>
  <tile id="54">
   <image source="tiled/ERW-Grassland 2.0/Props/Static props/sheet1-sprites/bucket 1.png" width="32" height="32"/>
  </tile>
  <tile id="55">
   <image source="tiled/ERW-Grassland 2.0/Props/Static props/sheet1-sprites/bucket 2 - no grass.png" width="32" height="32"/>
  </tile>
  <tile id="56">
   <image source="tiled/ERW-Grassland 2.0/Props/Static props/sheet1-sprites/bucket 2.png" width="32" height="32"/>
  </tile>
  <tile id="57">
   <image source="tiled/ERW-Grassland 2.0/Props/Static props/sheet1-sprites/bucket 3 - no grass.png" width="32" height="32"/>
  </tile>
  <tile id="58">
   <image source="tiled/ERW-Grassland 2.0/Props/Static props/sheet1-sprites/bucket 3.png" width="32" height="32"/>
  </tile>
  <tile id="59">
   <image source="tiled/ERW-Grassland 2.0/Props/Static props/sheet1-sprites/bucket 4 - no grass.png" width="32" height="32"/>
  </tile>
  <tile id="60">
   <image source="tiled/ERW-Grassland 2.0/Props/Static props/sheet1-sprites/bucket 4.png" width="32" height="32"/>
  </tile>
  <tile id="61">
   <image source="tiled/ERW-Grassland 2.0/Props/Static props/sheet1-sprites/bucket 5.png" width="32" height="32"/>
  </tile>
  <tile id="62">
   <image source="tiled/ERW-Grassland 2.0/Props/Static props/sheet1-sprites/bucket 6.png" width="32" height="32"/>
  </tile>
  <tile id="63">
   <image source="tiled/ERW-Grassland 2.0/Props/Static props/sheet1-sprites/bush 1.png" width="64" height="64"/>
  </tile>
  <tile id="64">
   <image source="tiled/ERW-Grassland 2.0/Props/Static props/sheet1-sprites/bush 2.png" width="96" height="64"/>
  </tile>
  <tile id="65">
   <image source="tiled/ERW-Grassland 2.0/Props/Static props/sheet1-sprites/bush 3.png" width="96" height="64"/>
  </tile>
  <tile id="66">
   <image source="tiled/ERW-Grassland 2.0/Props/Static props/sheet1-sprites/bush 4.png" width="96" height="64"/>
  </tile>
  <tile id="67">
   <image source="tiled/ERW-Grassland 2.0/Props/Static props/sheet1-sprites/bush 5.png" width="64" height="64"/>
  </tile>
  <tile id="68">
   <image source="tiled/ERW-Grassland 2.0/Props/Static props/sheet1-sprites/bush 6.png" width="64" height="64"/>
  </tile>
  <tile id="69">
   <image source="tiled/ERW-Grassland 2.0/Props/Static props/sheet1-sprites/bush 7.png" width="64" height="64"/>
  </tile>
  <tile id="70">
   <image source="tiled/ERW-Grassland 2.0/Props/Static props/sheet1-sprites/bush 8.png" width="96" height="64"/>
  </tile>
  <tile id="71">
   <image source="tiled/ERW-Grassland 2.0/Props/Static props/sheet1-sprites/bush 9.png" width="96" height="64"/>
  </tile>
  <tile id="72">
   <image source="tiled/ERW-Grassland 2.0/Props/Static props/sheet1-sprites/bush 10.png" width="96" height="64"/>
  </tile>
  <tile id="73">
   <image source="tiled/ERW-Grassland 2.0/Props/Static props/sheet1-sprites/bush 11.png" width="64" height="64"/>
  </tile>
  <tile id="74">
   <image source="tiled/ERW-Grassland 2.0/Props/Static props/sheet1-sprites/bush 12.png" width="64" height="64"/>
  </tile>
  <tile id="75">
   <image source="tiled/ERW-Grassland 2.0/Props/Static props/sheet1-sprites/bush 13.png" width="96" height="64"/>
  </tile>
  <tile id="76">
   <image source="tiled/ERW-Grassland 2.0/Props/Static props/sheet1-sprites/bush 14.png" width="96" height="64"/>
  </tile>
  <tile id="77">
   <image source="tiled/ERW-Grassland 2.0/Props/Static props/sheet1-sprites/bush 15.png" width="96" height="64"/>
  </tile>
  <tile id="78">
   <image source="tiled/ERW-Grassland 2.0/Props/Static props/sheet1-sprites/bush 16.png" width="96" height="64"/>
  </tile>
  <tile id="79">
   <image source="tiled/ERW-Grassland 2.0/Props/Static props/sheet1-sprites/bush 17.png" width="64" height="64"/>
  </tile>
  <tile id="80">
   <image source="tiled/ERW-Grassland 2.0/Props/Static props/sheet1-sprites/bush 18.png" width="64" height="64"/>
  </tile>
  <tile id="81">
   <image source="tiled/ERW-Grassland 2.0/Props/Static props/sheet1-sprites/bush 19.png" width="96" height="64"/>
  </tile>
  <tile id="82">
   <image source="tiled/ERW-Grassland 2.0/Props/Static props/sheet1-sprites/bush 20.png" width="96" height="64"/>
  </tile>
  <tile id="83">
   <image source="tiled/ERW-Grassland 2.0/Props/Static props/sheet1-sprites/bush 21.png" width="96" height="64"/>
  </tile>
  <tile id="84">
   <image source="tiled/ERW-Grassland 2.0/Props/Static props/sheet1-sprites/bush 22.png" width="96" height="64"/>
  </tile>
  <tile id="85">
   <image source="tiled/ERW-Grassland 2.0/Props/Static props/sheet1-sprites/bush 23.png" width="64" height="64"/>
  </tile>
  <tile id="86">
   <image source="tiled/ERW-Grassland 2.0/Props/Static props/sheet1-sprites/bush 24.png" width="64" height="64"/>
  </tile>
  <tile id="87">
   <image source="tiled/ERW-Grassland 2.0/Props/Static props/sheet1-sprites/bush 25.png" width="96" height="64"/>
  </tile>
  <tile id="88">
   <image source="tiled/ERW-Grassland 2.0/Props/Static props/sheet1-sprites/campfire 1.png" width="64" height="64"/>
  </tile>
  <tile id="89">
   <image source="tiled/ERW-Grassland 2.0/Props/Static props/sheet1-sprites/campfire 2.png" width="64" height="64"/>
  </tile>
  <tile id="90">
   <image source="tiled/ERW-Grassland 2.0/Props/Static props/sheet1-sprites/campfire 3.png" width="64" height="64"/>
  </tile>
  <tile id="91">
   <image source="tiled/ERW-Grassland 2.0/Props/Static props/sheet1-sprites/campfire 4.png" width="64" height="64"/>
  </tile>
  <tile id="92">
   <image source="tiled/ERW-Grassland 2.0/Props/Static props/sheet1-sprites/campfire 5.png" width="64" height="64"/>
  </tile>
  <tile id="93">
   <image source="tiled/ERW-Grassland 2.0/Props/Static props/sheet1-sprites/campfire 6.png" width="64" height="64"/>
  </tile>
  <tile id="94">
   <image source="tiled/ERW-Grassland 2.0/Props/Static props/sheet1-sprites/campfire 7.png" width="96" height="96"/>
  </tile>
  <tile id="95">
   <image source="tiled/ERW-Grassland 2.0/Props/Static props/sheet1-sprites/campfire 8.png" width="96" height="96"/>
  </tile>
  <tile id="96">
   <image source="tiled/ERW-Grassland 2.0/Props/Static props/sheet1-sprites/campfire 9.png" width="96" height="96"/>
  </tile>
  <tile id="97">
   <image source="tiled/ERW-Grassland 2.0/Props/Static props/sheet1-sprites/campfire 10.png" width="96" height="96"/>
  </tile>
  <tile id="98">
   <image source="tiled/ERW-Grassland 2.0/Props/Static props/sheet1-sprites/campfire 11.png" width="96" height="96"/>
  </tile>
  <tile id="99">
   <image source="tiled/ERW-Grassland 2.0/Props/Static props/sheet1-sprites/campfire 12.png" width="96" height="96"/>
  </tile>
  <tile id="100">
   <image source="tiled/ERW-Grassland 2.0/Props/Static props/sheet1-sprites/campfire 13.png" width="96" height="96"/>
  </tile>
  <tile id="101">
   <image source="tiled/ERW-Grassland 2.0/Props/Static props/sheet1-sprites/campfire 14.png" width="96" height="96"/>
  </tile>
  <tile id="102">
   <image source="tiled/ERW-Grassland 2.0/Props/Static props/sheet1-sprites/campfire 15.png" width="96" height="96"/>
  </tile>
  <tile id="103">
   <image source="tiled/ERW-Grassland 2.0/Props/Static props/sheet1-sprites/campfire 16.png" width="96" height="96"/>
  </tile>
  <tile id="104">
   <image source="tiled/ERW-Grassland 2.0/Props/Static props/sheet1-sprites/campfire 17.png" width="96" height="96"/>
  </tile>
  <tile id="105">
   <image source="tiled/ERW-Grassland 2.0/Props/Static props/sheet1-sprites/campfire 18.png" width="96" height="96"/>
  </tile>
  <tile id="106">
   <image source="tiled/ERW-Grassland 2.0/Props/Static props/sheet1-sprites/campfire 19.png" width="96" height="96"/>
  </tile>
  <tile id="107">
   <image source="tiled/ERW-Grassland 2.0/Props/Static props/sheet1-sprites/crate 1 - no grass.png" width="32" height="64"/>
  </tile>
  <tile id="108">
   <image source="tiled/ERW-Grassland 2.0/Props/Static props/sheet1-sprites/crate 1.png" width="32" height="64"/>
  </tile>
  <tile id="109">
   <image source="tiled/ERW-Grassland 2.0/Props/Static props/sheet1-sprites/crate 2 - no grass.png" width="32" height="64"/>
  </tile>
  <tile id="110">
   <image source="tiled/ERW-Grassland 2.0/Props/Static props/sheet1-sprites/crate 2.png" width="32" height="64"/>
  </tile>
  <tile id="111">
   <image source="tiled/ERW-Grassland 2.0/Props/Static props/sheet1-sprites/crate 3 - no grass.png" width="32" height="64"/>
  </tile>
  <tile id="112">
   <image source="tiled/ERW-Grassland 2.0/Props/Static props/sheet1-sprites/crate 4 - no grass.png" width="32" height="64"/>
  </tile>
  <tile id="113">
   <image source="tiled/ERW-Grassland 2.0/Props/Static props/sheet1-sprites/crate 4.png" width="32" height="64"/>
  </tile>
  <tile id="114">
   <image source="tiled/ERW-Grassland 2.0/Props/Static props/sheet1-sprites/crate 5 - no grass.png" width="32" height="64"/>
  </tile>
  <tile id="115">
   <image source="tiled/ERW-Grassland 2.0/Props/Static props/sheet1-sprites/crate 5.png" width="32" height="64"/>
  </tile>
  <tile id="116">
   <image source="tiled/ERW-Grassland 2.0/Props/Static props/sheet1-sprites/crate 6 - no grass.png" width="32" height="64"/>
  </tile>
  <tile id="117">
   <image source="tiled/ERW-Grassland 2.0/Props/Static props/sheet1-sprites/crate 6.png" width="32" height="64"/>
  </tile>
  <tile id="118">
   <image source="tiled/ERW-Grassland 2.0/Props/Static props/sheet1-sprites/crate 7 - no grass.png" width="32" height="64"/>
  </tile>
  <tile id="119">
   <image source="tiled/ERW-Grassland 2.0/Props/Static props/sheet1-sprites/crate 7.png" width="32" height="64"/>
  </tile>
  <tile id="120">
   <image source="tiled/ERW-Grassland 2.0/Props/Static props/sheet1-sprites/crate 8 - no grass.png" width="32" height="64"/>
  </tile>
  <tile id="121">
   <image source="tiled/ERW-Grassland 2.0/Props/Static props/sheet1-sprites/crate 8.png" width="32" height="64"/>
  </tile>
  <tile id="122">
   <image source="tiled/ERW-Grassland 2.0/Props/Static props/sheet1-sprites/crate 9 - no grass.png" width="32" height="64"/>
  </tile>
  <tile id="123">
   <image source="tiled/ERW-Grassland 2.0/Props/Static props/sheet1-sprites/crate 9.png" width="32" height="64"/>
  </tile>
  <tile id="124">
   <image source="tiled/ERW-Grassland 2.0/Props/Static props/sheet1-sprites/crate 10 - no grass.png" width="32" height="64"/>
  </tile>
  <tile id="125">
   <image source="tiled/ERW-Grassland 2.0/Props/Static props/sheet1-sprites/crate 10.png" width="32" height="64"/>
  </tile>
  <tile id="126">
   <image source="tiled/ERW-Grassland 2.0/Props/Static props/sheet1-sprites/crate 11 - no grass.png" width="32" height="64"/>
  </tile>
  <tile id="127">
   <image source="tiled/ERW-Grassland 2.0/Props/Static props/sheet1-sprites/crate 11.png" width="32" height="64"/>
  </tile>
  <tile id="128">
   <image source="tiled/ERW-Grassland 2.0/Props/Static props/sheet1-sprites/crate 12 - no grass.png" width="32" height="64"/>
  </tile>
  <tile id="129">
   <image source="tiled/ERW-Grassland 2.0/Props/Static props/sheet1-sprites/crate 12.png" width="32" height="64"/>
  </tile>
  <tile id="130">
   <image source="tiled/ERW-Grassland 2.0/Props/Static props/sheet1-sprites/crate 13 - no grass.png" width="32" height="64"/>
  </tile>
  <tile id="131">
   <image source="tiled/ERW-Grassland 2.0/Props/Static props/sheet1-sprites/crate 13.png" width="32" height="64"/>
  </tile>
  <tile id="132">
   <image source="tiled/ERW-Grassland 2.0/Props/Static props/sheet1-sprites/crate 14 - no grass.png" width="32" height="64"/>
  </tile>
  <tile id="133">
   <image source="tiled/ERW-Grassland 2.0/Props/Static props/sheet1-sprites/crate 14.png" width="32" height="64"/>
  </tile>
  <tile id="134">
   <image source="tiled/ERW-Grassland 2.0/Props/Static props/sheet1-sprites/crate 15 - no grass.png" width="32" height="64"/>
  </tile>
  <tile id="135">
   <image source="tiled/ERW-Grassland 2.0/Props/Static props/sheet1-sprites/crate 15.png" width="32" height="64"/>
  </tile>
  <tile id="136">
   <image source="tiled/ERW-Grassland 2.0/Props/Static props/sheet1-sprites/crate 16 - no grass.png" width="32" height="64"/>
  </tile>
  <tile id="137">
   <image source="tiled/ERW-Grassland 2.0/Props/Static props/sheet1-sprites/crate 16.png" width="32" height="64"/>
  </tile>
  <tile id="138">
   <image source="tiled/ERW-Grassland 2.0/Props/Static props/sheet1-sprites/crate 17 - no grass.png" width="32" height="64"/>
  </tile>
  <tile id="139">
   <image source="tiled/ERW-Grassland 2.0/Props/Static props/sheet1-sprites/crate 17.png" width="32" height="64"/>
  </tile>
  <tile id="140">
   <image source="tiled/ERW-Grassland 2.0/Props/Static props/sheet1-sprites/crate 18 - no grass.png" width="32" height="64"/>
  </tile>
  <tile id="141">
   <image source="tiled/ERW-Grassland 2.0/Props/Static props/sheet1-sprites/crate 18.png" width="32" height="64"/>
  </tile>
  <tile id="142">
   <image source="tiled/ERW-Grassland 2.0/Props/Static props/sheet1-sprites/doorway - entrance - gateway.png" width="128" height="96"/>
  </tile>
  <tile id="143">
   <image source="tiled/ERW-Grassland 2.0/Props/Static props/sheet1-sprites/fence - gateway - closed - left.png" width="32" height="32"/>
  </tile>
  <tile id="144">
   <image source="tiled/ERW-Grassland 2.0/Props/Static props/sheet1-sprites/fence - gateway - closed - middle.png" width="32" height="32"/>
  </tile>
  <tile id="145">
   <image source="tiled/ERW-Grassland 2.0/Props/Static props/sheet1-sprites/fence - gateway - closed - right.png" width="32" height="32"/>
  </tile>
  <tile id="146">
   <image source="tiled/ERW-Grassland 2.0/Props/Static props/sheet1-sprites/fence - gateway - left.png" width="32" height="64"/>
  </tile>
  <tile id="147">
   <image source="tiled/ERW-Grassland 2.0/Props/Static props/sheet1-sprites/fence - gateway - right.png" width="32" height="64"/>
  </tile>
  <tile id="148">
   <image source="tiled/ERW-Grassland 2.0/Props/Static props/sheet1-sprites/fence - gateway2 - left.png" width="32" height="64"/>
  </tile>
  <tile id="149">
   <image source="tiled/ERW-Grassland 2.0/Props/Static props/sheet1-sprites/fence - gateway2 - right.png" width="32" height="64"/>
  </tile>
  <tile id="150">
   <image source="tiled/ERW-Grassland 2.0/Props/Static props/sheet1-sprites/fence - left - down - up.png" width="32" height="32"/>
  </tile>
  <tile id="151">
   <image source="tiled/ERW-Grassland 2.0/Props/Static props/sheet1-sprites/fence - left - down.png" width="32" height="32"/>
  </tile>
  <tile id="152">
   <image source="tiled/ERW-Grassland 2.0/Props/Static props/sheet1-sprites/fence - left - end - 2.png" width="32" height="32"/>
  </tile>
  <tile id="153">
   <image source="tiled/ERW-Grassland 2.0/Props/Static props/sheet1-sprites/fence - left - end.png" width="32" height="32"/>
  </tile>
  <tile id="154">
   <image source="tiled/ERW-Grassland 2.0/Props/Static props/sheet1-sprites/fence - left - right - 1.png" width="32" height="32"/>
  </tile>
  <tile id="155">
   <image source="tiled/ERW-Grassland 2.0/Props/Static props/sheet1-sprites/fence - left - right - 2.png" width="32" height="32"/>
  </tile>
  <tile id="156">
   <image source="tiled/ERW-Grassland 2.0/Props/Static props/sheet1-sprites/fence - left - right - 3.png" width="32" height="32"/>
  </tile>
  <tile id="157">
   <image source="tiled/ERW-Grassland 2.0/Props/Static props/sheet1-sprites/fence - left - right - 4.png" width="32" height="32"/>
  </tile>
  <tile id="158">
   <image source="tiled/ERW-Grassland 2.0/Props/Static props/sheet1-sprites/fence - left - right - 5.png" width="32" height="32"/>
  </tile>
  <tile id="159">
   <image source="tiled/ERW-Grassland 2.0/Props/Static props/sheet1-sprites/fence - left - right - 6.png" width="32" height="32"/>
  </tile>
  <tile id="160">
   <image source="tiled/ERW-Grassland 2.0/Props/Static props/sheet1-sprites/fence - left - right - 7.png" width="32" height="32"/>
  </tile>
  <tile id="161">
   <image source="tiled/ERW-Grassland 2.0/Props/Static props/sheet1-sprites/fence - left - right - 8.png" width="32" height="32"/>
  </tile>
  <tile id="162">
   <image source="tiled/ERW-Grassland 2.0/Props/Static props/sheet1-sprites/fence - left - right - 9.png" width="32" height="32"/>
  </tile>
  <tile id="163">
   <image source="tiled/ERW-Grassland 2.0/Props/Static props/sheet1-sprites/fence - left - right - 10.png" width="32" height="32"/>
  </tile>
  <tile id="164">
   <image source="tiled/ERW-Grassland 2.0/Props/Static props/sheet1-sprites/fence - left - right - 11.png" width="32" height="32"/>
  </tile>
  <tile id="165">
   <image source="tiled/ERW-Grassland 2.0/Props/Static props/sheet1-sprites/fence - left - right - 12.png" width="32" height="32"/>
  </tile>
  <tile id="166">
   <image source="tiled/ERW-Grassland 2.0/Props/Static props/sheet1-sprites/fence - left - right - down - up.png" width="32" height="32"/>
  </tile>
  <tile id="167">
   <image source="tiled/ERW-Grassland 2.0/Props/Static props/sheet1-sprites/fence - left - up.png" width="32" height="32"/>
  </tile>
  <tile id="168">
   <image source="tiled/ERW-Grassland 2.0/Props/Static props/sheet1-sprites/fence - left.png" width="32" height="32"/>
  </tile>
  <tile id="169">
   <image source="tiled/ERW-Grassland 2.0/Props/Static props/sheet1-sprites/fence - right - down - up.png" width="32" height="32"/>
  </tile>
  <tile id="170">
   <image source="tiled/ERW-Grassland 2.0/Props/Static props/sheet1-sprites/fence - right - down.png" width="32" height="32"/>
  </tile>
  <tile id="171">
   <image source="tiled/ERW-Grassland 2.0/Props/Static props/sheet1-sprites/fence - right - end - 2.png" width="32" height="32"/>
  </tile>
  <tile id="172">
   <image source="tiled/ERW-Grassland 2.0/Props/Static props/sheet1-sprites/fence - right - end.png" width="32" height="32"/>
  </tile>
  <tile id="173">
   <image source="tiled/ERW-Grassland 2.0/Props/Static props/sheet1-sprites/fence - right - up.png" width="32" height="32"/>
  </tile>
  <tile id="174">
   <image source="tiled/ERW-Grassland 2.0/Props/Static props/sheet1-sprites/fence - right.png" width="32" height="32"/>
  </tile>
  <tile id="175">
   <image source="tiled/ERW-Grassland 2.0/Props/Static props/sheet1-sprites/fence - up - down.png" width="32" height="32"/>
  </tile>
  <tile id="176">
   <image source="tiled/ERW-Grassland 2.0/Props/Static props/sheet1-sprites/fence - up.png" width="32" height="32"/>
  </tile>
  <tile id="177">
   <image source="tiled/ERW-Grassland 2.0/Props/Static props/sheet1-sprites/fence.png" width="32" height="32"/>
  </tile>
  <tile id="178">
   <image source="tiled/ERW-Grassland 2.0/Props/Static props/sheet1-sprites/fence2 -  up.png" width="32" height="32"/>
  </tile>
  <tile id="179">
   <image source="tiled/ERW-Grassland 2.0/Props/Static props/sheet1-sprites/fence2 - down - up.png" width="32" height="32"/>
  </tile>
  <tile id="180">
   <image source="tiled/ERW-Grassland 2.0/Props/Static props/sheet1-sprites/fence2 - gateway - closed - left.png" width="32" height="32"/>
  </tile>
  <tile id="181">
   <image source="tiled/ERW-Grassland 2.0/Props/Static props/sheet1-sprites/fence2 - gateway - closed - middle.png" width="32" height="32"/>
  </tile>
  <tile id="182">
   <image source="tiled/ERW-Grassland 2.0/Props/Static props/sheet1-sprites/fence2 - gateway - closed - right.png" width="32" height="32"/>
  </tile>
  <tile id="183">
   <image source="tiled/ERW-Grassland 2.0/Props/Static props/sheet1-sprites/fence2 - gateway - left.png" width="32" height="64"/>
  </tile>
  <tile id="184">
   <image source="tiled/ERW-Grassland 2.0/Props/Static props/sheet1-sprites/fence2 - gateway - right.png" width="32" height="64"/>
  </tile>
  <tile id="185">
   <image source="tiled/ERW-Grassland 2.0/Props/Static props/sheet1-sprites/fence2 - gateway2 - left.png" width="32" height="64"/>
  </tile>
  <tile id="186">
   <image source="tiled/ERW-Grassland 2.0/Props/Static props/sheet1-sprites/fence2 - gateway2 - right.png" width="32" height="64"/>
  </tile>
  <tile id="187">
   <image source="tiled/ERW-Grassland 2.0/Props/Static props/sheet1-sprites/fence2 - left - down - up.png" width="32" height="32"/>
  </tile>
  <tile id="188">
   <image source="tiled/ERW-Grassland 2.0/Props/Static props/sheet1-sprites/fence2 - left - down.png" width="32" height="32"/>
  </tile>
  <tile id="189">
   <image source="tiled/ERW-Grassland 2.0/Props/Static props/sheet1-sprites/fence2 - left - end - 2.png" width="32" height="32"/>
  </tile>
  <tile id="190">
   <image source="tiled/ERW-Grassland 2.0/Props/Static props/sheet1-sprites/fence2 - left - end.png" width="32" height="32"/>
  </tile>
  <tile id="191">
   <image source="tiled/ERW-Grassland 2.0/Props/Static props/sheet1-sprites/fence2 - left - right - 1.png" width="32" height="32"/>
  </tile>
  <tile id="192">
   <image source="tiled/ERW-Grassland 2.0/Props/Static props/sheet1-sprites/fence2 - left - right - 2.png" width="32" height="32"/>
  </tile>
  <tile id="193">
   <image source="tiled/ERW-Grassland 2.0/Props/Static props/sheet1-sprites/fence2 - left - right - 3.png" width="32" height="32"/>
  </tile>
  <tile id="194">
   <image source="tiled/ERW-Grassland 2.0/Props/Static props/sheet1-sprites/fence2 - left - right - 4.png" width="32" height="32"/>
  </tile>
  <tile id="195">
   <image source="tiled/ERW-Grassland 2.0/Props/Static props/sheet1-sprites/fence2 - left - right - 5.png" width="32" height="32"/>
  </tile>
  <tile id="196">
   <image source="tiled/ERW-Grassland 2.0/Props/Static props/sheet1-sprites/fence2 - left - right - 6.png" width="32" height="32"/>
  </tile>
  <tile id="197">
   <image source="tiled/ERW-Grassland 2.0/Props/Static props/sheet1-sprites/fence2 - left - right - 7.png" width="32" height="32"/>
  </tile>
  <tile id="198">
   <image source="tiled/ERW-Grassland 2.0/Props/Static props/sheet1-sprites/fence2 - left - right - 8.png" width="32" height="32"/>
  </tile>
  <tile id="199">
   <image source="tiled/ERW-Grassland 2.0/Props/Static props/sheet1-sprites/fence2 - left - right - 9.png" width="32" height="32"/>
  </tile>
  <tile id="200">
   <image source="tiled/ERW-Grassland 2.0/Props/Static props/sheet1-sprites/fence2 - left - right - 10.png" width="32" height="32"/>
  </tile>
  <tile id="201">
   <image source="tiled/ERW-Grassland 2.0/Props/Static props/sheet1-sprites/fence2 - left - right - 11.png" width="32" height="32"/>
  </tile>
  <tile id="202">
   <image source="tiled/ERW-Grassland 2.0/Props/Static props/sheet1-sprites/fence2 - left - right - 12.png" width="32" height="32"/>
  </tile>
  <tile id="203">
   <image source="tiled/ERW-Grassland 2.0/Props/Static props/sheet1-sprites/fence2 - left - right - down - up.png" width="32" height="32"/>
  </tile>
  <tile id="204">
   <image source="tiled/ERW-Grassland 2.0/Props/Static props/sheet1-sprites/fence2 - left - up.png" width="32" height="32"/>
  </tile>
  <tile id="205">
   <image source="tiled/ERW-Grassland 2.0/Props/Static props/sheet1-sprites/fence2 - left.png" width="32" height="32"/>
  </tile>
  <tile id="206">
   <image source="tiled/ERW-Grassland 2.0/Props/Static props/sheet1-sprites/fence2 - right - down  - up.png" width="32" height="32"/>
  </tile>
  <tile id="207">
   <image source="tiled/ERW-Grassland 2.0/Props/Static props/sheet1-sprites/fence2 - right - down.png" width="32" height="32"/>
  </tile>
  <tile id="208">
   <image source="tiled/ERW-Grassland 2.0/Props/Static props/sheet1-sprites/fence2 - right - end - 2.png" width="32" height="32"/>
  </tile>
  <tile id="209">
   <image source="tiled/ERW-Grassland 2.0/Props/Static props/sheet1-sprites/fence2 - right - end.png" width="32" height="32"/>
  </tile>
  <tile id="210">
   <image source="tiled/ERW-Grassland 2.0/Props/Static props/sheet1-sprites/fence2 - right - up.png" width="32" height="32"/>
  </tile>
  <tile id="211">
   <image source="tiled/ERW-Grassland 2.0/Props/Static props/sheet1-sprites/fence2 - right.png" width="32" height="32"/>
  </tile>
  <tile id="212">
   <image source="tiled/ERW-Grassland 2.0/Props/Static props/sheet1-sprites/lamp post 1 - lamp - no grass.png" width="64" height="96"/>
  </tile>
  <tile id="213">
   <image source="tiled/ERW-Grassland 2.0/Props/Static props/sheet1-sprites/lamp post 1 - lamp.png" width="64" height="96"/>
  </tile>
  <tile id="214">
   <image source="tiled/ERW-Grassland 2.0/Props/Static props/sheet1-sprites/lamp post 1 - no lamp - no grass.png" width="64" height="96"/>
  </tile>
  <tile id="215">
   <image source="tiled/ERW-Grassland 2.0/Props/Static props/sheet1-sprites/lamp post 1 - no lamp.png" width="64" height="96"/>
  </tile>
  <tile id="216">
   <image source="tiled/ERW-Grassland 2.0/Props/Static props/sheet1-sprites/lamp post 2 - lamp - no grass.png" width="64" height="96"/>
  </tile>
  <tile id="217">
   <image source="tiled/ERW-Grassland 2.0/Props/Static props/sheet1-sprites/lamp post 2 - lamp.png" width="64" height="96"/>
  </tile>
  <tile id="218">
   <image source="tiled/ERW-Grassland 2.0/Props/Static props/sheet1-sprites/lamp post 2 - no lamp - no grass.png" width="64" height="96"/>
  </tile>
  <tile id="219">
   <image source="tiled/ERW-Grassland 2.0/Props/Static props/sheet1-sprites/lamp post 2 - no lamp.png" width="64" height="96"/>
  </tile>
  <tile id="220">
   <image source="tiled/ERW-Grassland 2.0/Props/Static props/sheet1-sprites/lamp post 3 - lamp - no grass.png" width="64" height="96"/>
  </tile>
  <tile id="221">
   <image source="tiled/ERW-Grassland 2.0/Props/Static props/sheet1-sprites/lamp post 3 - lamp.png" width="64" height="96"/>
  </tile>
  <tile id="222">
   <image source="tiled/ERW-Grassland 2.0/Props/Static props/sheet1-sprites/lamp post 3 - no lamp - no grass.png" width="64" height="96"/>
  </tile>
  <tile id="223">
   <image source="tiled/ERW-Grassland 2.0/Props/Static props/sheet1-sprites/lamp post 3 - no lamp.png" width="64" height="96"/>
  </tile>
  <tile id="224">
   <image source="tiled/ERW-Grassland 2.0/Props/Static props/sheet1-sprites/lamp post 4 - lamp - no grass.png" width="64" height="96"/>
  </tile>
  <tile id="225">
   <image source="tiled/ERW-Grassland 2.0/Props/Static props/sheet1-sprites/lamp post 4 - lamp.png" width="64" height="96"/>
  </tile>
  <tile id="226">
   <image source="tiled/ERW-Grassland 2.0/Props/Static props/sheet1-sprites/lamp post 4 - no lamp - no grass.png" width="64" height="96"/>
  </tile>
  <tile id="227">
   <image source="tiled/ERW-Grassland 2.0/Props/Static props/sheet1-sprites/lamp post 4 - no lamp.png" width="64" height="96"/>
  </tile>
  <tile id="228">
   <image source="tiled/ERW-Grassland 2.0/Props/Static props/sheet1-sprites/lamp post 5 - lamp - no grass.png" width="64" height="96"/>
  </tile>
  <tile id="229">
   <image source="tiled/ERW-Grassland 2.0/Props/Static props/sheet1-sprites/lamp post 5 - lamp.png" width="64" height="96"/>
  </tile>
  <tile id="230">
   <image source="tiled/ERW-Grassland 2.0/Props/Static props/sheet1-sprites/lamp post 5 - no lamp - no grass.png" width="64" height="96"/>
  </tile>
  <tile id="231">
   <image source="tiled/ERW-Grassland 2.0/Props/Static props/sheet1-sprites/lamp post 5 - no lamp.png" width="64" height="96"/>
  </tile>
  <tile id="232">
   <image source="tiled/ERW-Grassland 2.0/Props/Static props/sheet1-sprites/lamp post 6 - lamp - no grass.png" width="64" height="96"/>
  </tile>
  <tile id="233">
   <image source="tiled/ERW-Grassland 2.0/Props/Static props/sheet1-sprites/lamp post 6 - lamp.png" width="64" height="96"/>
  </tile>
  <tile id="234">
   <image source="tiled/ERW-Grassland 2.0/Props/Static props/sheet1-sprites/lamp post 6 - no lamp - no grass.png" width="64" height="96"/>
  </tile>
  <tile id="235">
   <image source="tiled/ERW-Grassland 2.0/Props/Static props/sheet1-sprites/lamp post 6 - no lamp.png" width="64" height="96"/>
  </tile>
  <tile id="236">
   <image source="tiled/ERW-Grassland 2.0/Props/Static props/sheet1-sprites/lamp post 7 - lamp - no grass.png" width="64" height="96"/>
  </tile>
  <tile id="237">
   <image source="tiled/ERW-Grassland 2.0/Props/Static props/sheet1-sprites/lamp post 7 - lamp.png" width="64" height="96"/>
  </tile>
  <tile id="238">
   <image source="tiled/ERW-Grassland 2.0/Props/Static props/sheet1-sprites/lamp post 7 - no lamp - no grass.png" width="64" height="96"/>
  </tile>
  <tile id="239">
   <image source="tiled/ERW-Grassland 2.0/Props/Static props/sheet1-sprites/lamp post 7 - no lamp.png" width="64" height="96"/>
  </tile>
  <tile id="240">
   <image source="tiled/ERW-Grassland 2.0/Props/Static props/sheet1-sprites/lamp post 8 - lamp - no grass.png" width="64" height="96"/>
  </tile>
  <tile id="241">
   <image source="tiled/ERW-Grassland 2.0/Props/Static props/sheet1-sprites/lamp post 8 - lamp.png" width="64" height="96"/>
  </tile>
  <tile id="242">
   <image source="tiled/ERW-Grassland 2.0/Props/Static props/sheet1-sprites/lamp post 8 - no lamp - no grass.png" width="64" height="96"/>
  </tile>
  <tile id="243">
   <image source="tiled/ERW-Grassland 2.0/Props/Static props/sheet1-sprites/lamp post 8 - no lamp.png" width="64" height="96"/>
  </tile>
  <tile id="244">
   <image source="tiled/ERW-Grassland 2.0/Props/Static props/sheet1-sprites/lamp post details 1.png" width="32" height="32"/>
  </tile>
  <tile id="245">
   <image source="tiled/ERW-Grassland 2.0/Props/Static props/sheet1-sprites/lamp post details 2.png" width="32" height="32"/>
  </tile>
  <tile id="246">
   <image source="tiled/ERW-Grassland 2.0/Props/Static props/sheet1-sprites/lamp post details 3.png" width="32" height="32"/>
  </tile>
  <tile id="247">
   <image source="tiled/ERW-Grassland 2.0/Props/Static props/sheet1-sprites/lamp post details 4.png" width="32" height="32"/>
  </tile>
  <tile id="248">
   <image source="tiled/ERW-Grassland 2.0/Props/Static props/sheet1-sprites/lamp post details 5.png" width="32" height="32"/>
  </tile>
  <tile id="249">
   <image source="tiled/ERW-Grassland 2.0/Props/Static props/sheet1-sprites/lamp post details 6.png" width="32" height="32"/>
  </tile>
  <tile id="250">
   <image source="tiled/ERW-Grassland 2.0/Props/Static props/sheet1-sprites/lamp post details 7.png" width="32" height="32"/>
  </tile>
  <tile id="251">
   <image source="tiled/ERW-Grassland 2.0/Props/Static props/sheet1-sprites/lamp post details 8.png" width="32" height="32"/>
  </tile>
  <tile id="252">
   <image source="tiled/ERW-Grassland 2.0/Props/Static props/sheet1-sprites/palm tree 1 - base only.png" width="64" height="32"/>
  </tile>
  <tile id="253">
   <image source="tiled/ERW-Grassland 2.0/Props/Static props/sheet1-sprites/palm tree 1 - on grass.png" width="96" height="160"/>
  </tile>
  <tile id="254">
   <image source="tiled/ERW-Grassland 2.0/Props/Static props/sheet1-sprites/palm tree 1 - on sand.png" width="96" height="160"/>
  </tile>
  <tile id="255">
   <image source="tiled/ERW-Grassland 2.0/Props/Static props/sheet1-sprites/palm tree 1 - only foliage - with coconuts.png" width="96" height="64"/>
  </tile>
  <tile id="256">
   <image source="tiled/ERW-Grassland 2.0/Props/Static props/sheet1-sprites/palm tree 1 - only foliage.png" width="96" height="64"/>
  </tile>
  <tile id="257">
   <image source="tiled/ERW-Grassland 2.0/Props/Static props/sheet1-sprites/palm tree 1 - only trunk.png" width="64" height="96"/>
  </tile>
  <tile id="258">
   <image source="tiled/ERW-Grassland 2.0/Props/Static props/sheet1-sprites/palm tree 2 - base only.png" width="32" height="32"/>
  </tile>
  <tile id="259">
   <image source="tiled/ERW-Grassland 2.0/Props/Static props/sheet1-sprites/palm tree 2 - on grass.png" width="96" height="160"/>
  </tile>
  <tile id="260">
   <image source="tiled/ERW-Grassland 2.0/Props/Static props/sheet1-sprites/palm tree 2 - on sand.png" width="96" height="160"/>
  </tile>
  <tile id="261">
   <image source="tiled/ERW-Grassland 2.0/Props/Static props/sheet1-sprites/palm tree 2 - only foliage - with coconuts.png" width="96" height="64"/>
  </tile>
  <tile id="262">
   <image source="tiled/ERW-Grassland 2.0/Props/Static props/sheet1-sprites/palm tree 2 - only foliage.png" width="96" height="64"/>
  </tile>
  <tile id="263">
   <image source="tiled/ERW-Grassland 2.0/Props/Static props/sheet1-sprites/palm tree 2 - only trunk.png" width="32" height="96"/>
  </tile>
  <tile id="264">
   <image source="tiled/ERW-Grassland 2.0/Props/Static props/sheet1-sprites/palm tree 3 - base only.png" width="64" height="32"/>
  </tile>
  <tile id="265">
   <image source="tiled/ERW-Grassland 2.0/Props/Static props/sheet1-sprites/palm tree 3 - on grass.png" width="160" height="192"/>
  </tile>
  <tile id="266">
   <image source="tiled/ERW-Grassland 2.0/Props/Static props/sheet1-sprites/palm tree 3 - on sand.png" width="160" height="192"/>
  </tile>
  <tile id="267">
   <image source="tiled/ERW-Grassland 2.0/Props/Static props/sheet1-sprites/palm tree 3 - only foliage - with coconuts.png" width="96" height="96"/>
  </tile>
  <tile id="268">
   <image source="tiled/ERW-Grassland 2.0/Props/Static props/sheet1-sprites/palm tree 3 - only foliage.png" width="96" height="96"/>
  </tile>
  <tile id="269">
   <image source="tiled/ERW-Grassland 2.0/Props/Static props/sheet1-sprites/palm tree 3 - only trunk.png" width="96" height="128"/>
  </tile>
  <tile id="270">
   <image source="tiled/ERW-Grassland 2.0/Props/Static props/sheet1-sprites/palm tree 4 - base only.png" width="32" height="32"/>
  </tile>
  <tile id="271">
   <image source="tiled/ERW-Grassland 2.0/Props/Static props/sheet1-sprites/palm tree 4 - on grass.png" width="128" height="160"/>
  </tile>
  <tile id="272">
   <image source="tiled/ERW-Grassland 2.0/Props/Static props/sheet1-sprites/palm tree 4 - on sand.png" width="128" height="192"/>
  </tile>
  <tile id="273">
   <image source="tiled/ERW-Grassland 2.0/Props/Static props/sheet1-sprites/palm tree 4 - only foliage - with coconuts.png" width="96" height="64"/>
  </tile>
  <tile id="274">
   <image source="tiled/ERW-Grassland 2.0/Props/Static props/sheet1-sprites/palm tree 4 - only foliage.png" width="96" height="64"/>
  </tile>
  <tile id="275">
   <image source="tiled/ERW-Grassland 2.0/Props/Static props/sheet1-sprites/palm tree 4 - only trunk.png" width="96" height="96"/>
  </tile>
  <tile id="276">
   <image source="tiled/ERW-Grassland 2.0/Props/Static props/sheet1-sprites/palm tree 5 - base only.png" width="64" height="32"/>
  </tile>
  <tile id="277">
   <image source="tiled/ERW-Grassland 2.0/Props/Static props/sheet1-sprites/palm tree 5 - on grass.png" width="96" height="160"/>
  </tile>
  <tile id="278">
   <image source="tiled/ERW-Grassland 2.0/Props/Static props/sheet1-sprites/palm tree 5 - on sand.png" width="96" height="192"/>
  </tile>
  <tile id="279">
   <image source="tiled/ERW-Grassland 2.0/Props/Static props/sheet1-sprites/palm tree 5 - only foliage - with coconuts.png" width="64" height="64"/>
  </tile>
  <tile id="280">
   <image source="tiled/ERW-Grassland 2.0/Props/Static props/sheet1-sprites/palm tree 5 - only foliage.png" width="64" height="64"/>
  </tile>
  <tile id="281">
   <image source="tiled/ERW-Grassland 2.0/Props/Static props/sheet1-sprites/palm tree 5 - only trunk.png" width="64" height="128"/>
  </tile>
  <tile id="282">
   <image source="tiled/ERW-Grassland 2.0/Props/Static props/sheet1-sprites/palm tree 6 - base only.png" width="32" height="32"/>
  </tile>
  <tile id="283">
   <image source="tiled/ERW-Grassland 2.0/Props/Static props/sheet1-sprites/palm tree 6 - on grass.png" width="96" height="192"/>
  </tile>
  <tile id="284">
   <image source="tiled/ERW-Grassland 2.0/Props/Static props/sheet1-sprites/palm tree 6 - on sand.png" width="96" height="192"/>
  </tile>
  <tile id="285">
   <image source="tiled/ERW-Grassland 2.0/Props/Static props/sheet1-sprites/palm tree 6 - only foliage - with coconuts.png" width="96" height="96"/>
  </tile>
  <tile id="286">
   <image source="tiled/ERW-Grassland 2.0/Props/Static props/sheet1-sprites/palm tree 6 - only foliage.png" width="96" height="96"/>
  </tile>
  <tile id="287">
   <image source="tiled/ERW-Grassland 2.0/Props/Static props/sheet1-sprites/palm tree 6 - only trunk.png" width="64" height="128"/>
  </tile>
  <tile id="288">
   <image source="tiled/ERW-Grassland 2.0/Props/Static props/sheet1-sprites/rocks - color scheme 1 - 1.png" width="96" height="64"/>
  </tile>
  <tile id="289">
   <image source="tiled/ERW-Grassland 2.0/Props/Static props/sheet1-sprites/rocks - color scheme 1 - 2.png" width="64" height="64"/>
  </tile>
  <tile id="290">
   <image source="tiled/ERW-Grassland 2.0/Props/Static props/sheet1-sprites/rocks - color scheme 1 - 3.png" width="96" height="64"/>
  </tile>
  <tile id="291">
   <image source="tiled/ERW-Grassland 2.0/Props/Static props/sheet1-sprites/rocks - color scheme 1 - 4.png" width="96" height="64"/>
  </tile>
  <tile id="292">
   <image source="tiled/ERW-Grassland 2.0/Props/Static props/sheet1-sprites/rocks - color scheme 1 - 5.png" width="64" height="64"/>
  </tile>
  <tile id="293">
   <image source="tiled/ERW-Grassland 2.0/Props/Static props/sheet1-sprites/rocks - color scheme 1 - 6.png" width="64" height="64"/>
  </tile>
  <tile id="294">
   <image source="tiled/ERW-Grassland 2.0/Props/Static props/sheet1-sprites/rocks - color scheme 1 - 7.png" width="64" height="32"/>
  </tile>
  <tile id="295">
   <image source="tiled/ERW-Grassland 2.0/Props/Static props/sheet1-sprites/rocks - color scheme 1 - 8.png" width="64" height="32"/>
  </tile>
  <tile id="296">
   <image source="tiled/ERW-Grassland 2.0/Props/Static props/sheet1-sprites/rocks - color scheme 1 - 9.png" width="32" height="32"/>
  </tile>
  <tile id="297">
   <image source="tiled/ERW-Grassland 2.0/Props/Static props/sheet1-sprites/rocks - color scheme 1 - 10.png" width="32" height="32"/>
  </tile>
  <tile id="298">
   <image source="tiled/ERW-Grassland 2.0/Props/Static props/sheet1-sprites/rocks - color scheme 1 - 11.png" width="32" height="32"/>
  </tile>
  <tile id="299">
   <image source="tiled/ERW-Grassland 2.0/Props/Static props/sheet1-sprites/rocks - color scheme 1 - 12.png" width="32" height="32"/>
  </tile>
  <tile id="300">
   <image source="tiled/ERW-Grassland 2.0/Props/Static props/sheet1-sprites/rocks - color scheme 1 - 13.png" width="32" height="32"/>
  </tile>
  <tile id="301">
   <image source="tiled/ERW-Grassland 2.0/Props/Static props/sheet1-sprites/rocks - color scheme 1 - 14.png" width="64" height="32"/>
  </tile>
  <tile id="302">
   <image source="tiled/ERW-Grassland 2.0/Props/Static props/sheet1-sprites/rocks - color scheme 1 - 15.png" width="32" height="32"/>
  </tile>
  <tile id="303">
   <image source="tiled/ERW-Grassland 2.0/Props/Static props/sheet1-sprites/rocks - color scheme 1 - 16.png" width="32" height="32"/>
  </tile>
  <tile id="304">
   <image source="tiled/ERW-Grassland 2.0/Props/Static props/sheet1-sprites/rocks - color scheme 1 - 17.png" width="32" height="32"/>
  </tile>
  <tile id="305">
   <image source="tiled/ERW-Grassland 2.0/Props/Static props/sheet1-sprites/rocks - color scheme 1 - 18.png" width="32" height="32"/>
  </tile>
  <tile id="306">
   <image source="tiled/ERW-Grassland 2.0/Props/Static props/sheet1-sprites/rocks - color scheme 1 - 19.png" width="32" height="32"/>
  </tile>
  <tile id="307">
   <image source="tiled/ERW-Grassland 2.0/Props/Static props/sheet1-sprites/rocks - color scheme 1 - 20.png" width="32" height="32"/>
  </tile>
  <tile id="308">
   <image source="tiled/ERW-Grassland 2.0/Props/Static props/sheet1-sprites/rocks - color scheme 1 - 21.png" width="32" height="32"/>
  </tile>
  <tile id="309">
   <image source="tiled/ERW-Grassland 2.0/Props/Static props/sheet1-sprites/rocks - color scheme 1 - 22.png" width="32" height="32"/>
  </tile>
  <tile id="310">
   <image source="tiled/ERW-Grassland 2.0/Props/Static props/sheet1-sprites/rocks - color scheme 1 - 23.png" width="32" height="32"/>
  </tile>
  <tile id="311">
   <image source="tiled/ERW-Grassland 2.0/Props/Static props/sheet1-sprites/rocks - color scheme 1 - 24.png" width="32" height="32"/>
  </tile>
  <tile id="312">
   <image source="tiled/ERW-Grassland 2.0/Props/Static props/sheet1-sprites/rocks - color scheme 1 - 25.png" width="32" height="32"/>
  </tile>
  <tile id="313">
   <image source="tiled/ERW-Grassland 2.0/Props/Static props/sheet1-sprites/rocks - color scheme 1 - 26.png" width="32" height="32"/>
  </tile>
  <tile id="314">
   <image source="tiled/ERW-Grassland 2.0/Props/Static props/sheet1-sprites/rocks - color scheme 1 - 27.png" width="32" height="32"/>
  </tile>
  <tile id="315">
   <image source="tiled/ERW-Grassland 2.0/Props/Static props/sheet1-sprites/rocks - color scheme 1 - 28.png" width="32" height="32"/>
  </tile>
  <tile id="316">
   <image source="tiled/ERW-Grassland 2.0/Props/Static props/sheet1-sprites/rocks - color scheme 1 - 29.png" width="32" height="32"/>
  </tile>
  <tile id="317">
   <image source="tiled/ERW-Grassland 2.0/Props/Static props/sheet1-sprites/rocks - color scheme 1 - 30.png" width="32" height="32"/>
  </tile>
  <tile id="318">
   <image source="tiled/ERW-Grassland 2.0/Props/Static props/sheet1-sprites/rocks - color scheme 1 - 31.png" width="32" height="32"/>
  </tile>
  <tile id="319">
   <image source="tiled/ERW-Grassland 2.0/Props/Static props/sheet1-sprites/rocks - color scheme 1 - 32.png" width="32" height="32"/>
  </tile>
  <tile id="320">
   <image source="tiled/ERW-Grassland 2.0/Props/Static props/sheet1-sprites/rocks - color scheme 2 - 1.png" width="96" height="64"/>
  </tile>
  <tile id="321">
   <image source="tiled/ERW-Grassland 2.0/Props/Static props/sheet1-sprites/rocks - color scheme 2 - 2.png" width="64" height="64"/>
  </tile>
  <tile id="322">
   <image source="tiled/ERW-Grassland 2.0/Props/Static props/sheet1-sprites/rocks - color scheme 2 - 3.png" width="96" height="64"/>
  </tile>
  <tile id="323">
   <image source="tiled/ERW-Grassland 2.0/Props/Static props/sheet1-sprites/rocks - color scheme 2 - 4.png" width="96" height="64"/>
  </tile>
  <tile id="324">
   <image source="tiled/ERW-Grassland 2.0/Props/Static props/sheet1-sprites/rocks - color scheme 2 - 5.png" width="64" height="64"/>
  </tile>
  <tile id="325">
   <image source="tiled/ERW-Grassland 2.0/Props/Static props/sheet1-sprites/rocks - color scheme 2 - 6.png" width="64" height="64"/>
  </tile>
  <tile id="326">
   <image source="tiled/ERW-Grassland 2.0/Props/Static props/sheet1-sprites/rocks - color scheme 2 - 7.png" width="64" height="32"/>
  </tile>
  <tile id="327">
   <image source="tiled/ERW-Grassland 2.0/Props/Static props/sheet1-sprites/rocks - color scheme 2 - 8.png" width="64" height="32"/>
  </tile>
  <tile id="328">
   <image source="tiled/ERW-Grassland 2.0/Props/Static props/sheet1-sprites/rocks - color scheme 2 - 9.png" width="32" height="32"/>
  </tile>
  <tile id="329">
   <image source="tiled/ERW-Grassland 2.0/Props/Static props/sheet1-sprites/rocks - color scheme 2 - 10.png" width="32" height="32"/>
  </tile>
  <tile id="330">
   <image source="tiled/ERW-Grassland 2.0/Props/Static props/sheet1-sprites/rocks - color scheme 2 - 11.png" width="32" height="32"/>
  </tile>
  <tile id="331">
   <image source="tiled/ERW-Grassland 2.0/Props/Static props/sheet1-sprites/rocks - color scheme 2 - 12.png" width="32" height="32"/>
  </tile>
  <tile id="332">
   <image source="tiled/ERW-Grassland 2.0/Props/Static props/sheet1-sprites/rocks - color scheme 2 - 13.png" width="32" height="32"/>
  </tile>
  <tile id="333">
   <image source="tiled/ERW-Grassland 2.0/Props/Static props/sheet1-sprites/rocks - color scheme 2 - 14.png" width="64" height="32"/>
  </tile>
  <tile id="334">
   <image source="tiled/ERW-Grassland 2.0/Props/Static props/sheet1-sprites/rocks - color scheme 2 - 15.png" width="32" height="32"/>
  </tile>
  <tile id="335">
   <image source="tiled/ERW-Grassland 2.0/Props/Static props/sheet1-sprites/rocks - color scheme 2 - 16.png" width="32" height="32"/>
  </tile>
  <tile id="336">
   <image source="tiled/ERW-Grassland 2.0/Props/Static props/sheet1-sprites/rocks - color scheme 2 - 17.png" width="32" height="32"/>
  </tile>
  <tile id="337">
   <image source="tiled/ERW-Grassland 2.0/Props/Static props/sheet1-sprites/rocks - color scheme 2 - 18.png" width="32" height="32"/>
  </tile>
  <tile id="338">
   <image source="tiled/ERW-Grassland 2.0/Props/Static props/sheet1-sprites/rocks - color scheme 2 - 19.png" width="32" height="32"/>
  </tile>
  <tile id="339">
   <image source="tiled/ERW-Grassland 2.0/Props/Static props/sheet1-sprites/rocks - color scheme 2 - 20.png" width="32" height="32"/>
  </tile>
  <tile id="340">
   <image source="tiled/ERW-Grassland 2.0/Props/Static props/sheet1-sprites/rocks - color scheme 2 - 21.png" width="32" height="32"/>
  </tile>
  <tile id="341">
   <image source="tiled/ERW-Grassland 2.0/Props/Static props/sheet1-sprites/rocks - color scheme 2 - 22.png" width="32" height="32"/>
  </tile>
  <tile id="342">
   <image source="tiled/ERW-Grassland 2.0/Props/Static props/sheet1-sprites/rocks - color scheme 2 - 23.png" width="32" height="32"/>
  </tile>
  <tile id="343">
   <image source="tiled/ERW-Grassland 2.0/Props/Static props/sheet1-sprites/rocks - color scheme 2 - 24.png" width="32" height="32"/>
  </tile>
  <tile id="344">
   <image source="tiled/ERW-Grassland 2.0/Props/Static props/sheet1-sprites/rocks - color scheme 2 - 25.png" width="32" height="32"/>
  </tile>
  <tile id="345">
   <image source="tiled/ERW-Grassland 2.0/Props/Static props/sheet1-sprites/rocks - color scheme 2 - 26.png" width="32" height="32"/>
  </tile>
  <tile id="346">
   <image source="tiled/ERW-Grassland 2.0/Props/Static props/sheet1-sprites/rocks - color scheme 2 - 27.png" width="32" height="32"/>
  </tile>
  <tile id="347">
   <image source="tiled/ERW-Grassland 2.0/Props/Static props/sheet1-sprites/rocks - color scheme 2 - 28.png" width="32" height="32"/>
  </tile>
  <tile id="348">
   <image source="tiled/ERW-Grassland 2.0/Props/Static props/sheet1-sprites/rocks - color scheme 2 - 29.png" width="32" height="32"/>
  </tile>
  <tile id="349">
   <image source="tiled/ERW-Grassland 2.0/Props/Static props/sheet1-sprites/rocks - color scheme 2 - 30.png" width="32" height="32"/>
  </tile>
  <tile id="350">
   <image source="tiled/ERW-Grassland 2.0/Props/Static props/sheet1-sprites/rocks - color scheme 2 - 31.png" width="32" height="32"/>
  </tile>
  <tile id="351">
   <image source="tiled/ERW-Grassland 2.0/Props/Static props/sheet1-sprites/rocks - color scheme 2 - 32.png" width="32" height="32"/>
  </tile>
  <tile id="352">
   <image source="tiled/ERW-Grassland 2.0/Props/Static props/sheet1-sprites/rocks on grass - color scheme 1 - 1.png" width="96" height="64"/>
  </tile>
  <tile id="353">
   <image source="tiled/ERW-Grassland 2.0/Props/Static props/sheet1-sprites/rocks on grass - color scheme 1 - 2.png" width="64" height="64"/>
  </tile>
  <tile id="354">
   <image source="tiled/ERW-Grassland 2.0/Props/Static props/sheet1-sprites/rocks on grass - color scheme 1 - 3.png" width="96" height="64"/>
  </tile>
  <tile id="355">
   <image source="tiled/ERW-Grassland 2.0/Props/Static props/sheet1-sprites/rocks on grass - color scheme 1 - 4.png" width="96" height="64"/>
  </tile>
  <tile id="356">
   <image source="tiled/ERW-Grassland 2.0/Props/Static props/sheet1-sprites/rocks on grass - color scheme 1 - 5.png" width="64" height="64"/>
  </tile>
  <tile id="357">
   <image source="tiled/ERW-Grassland 2.0/Props/Static props/sheet1-sprites/rocks on grass - color scheme 1 - 6.png" width="64" height="64"/>
  </tile>
  <tile id="358">
   <image source="tiled/ERW-Grassland 2.0/Props/Static props/sheet1-sprites/rocks on grass - color scheme 1 - 7.png" width="64" height="32"/>
  </tile>
  <tile id="359">
   <image source="tiled/ERW-Grassland 2.0/Props/Static props/sheet1-sprites/rocks on grass - color scheme 1 - 8.png" width="64" height="32"/>
  </tile>
  <tile id="360">
   <image source="tiled/ERW-Grassland 2.0/Props/Static props/sheet1-sprites/rocks on grass - color scheme 1 - 9.png" width="32" height="32"/>
  </tile>
  <tile id="361">
   <image source="tiled/ERW-Grassland 2.0/Props/Static props/sheet1-sprites/rocks on grass - color scheme 1 - 10.png" width="32" height="32"/>
  </tile>
  <tile id="362">
   <image source="tiled/ERW-Grassland 2.0/Props/Static props/sheet1-sprites/rocks on grass - color scheme 1 - 11.png" width="32" height="32"/>
  </tile>
  <tile id="363">
   <image source="tiled/ERW-Grassland 2.0/Props/Static props/sheet1-sprites/rocks on grass - color scheme 1 - 12.png" width="32" height="32"/>
  </tile>
  <tile id="364">
   <image source="tiled/ERW-Grassland 2.0/Props/Static props/sheet1-sprites/rocks on grass - color scheme 1 - 13.png" width="32" height="32"/>
  </tile>
  <tile id="365">
   <image source="tiled/ERW-Grassland 2.0/Props/Static props/sheet1-sprites/rocks on grass - color scheme 1 - 14.png" width="64" height="32"/>
  </tile>
  <tile id="366">
   <image source="tiled/ERW-Grassland 2.0/Props/Static props/sheet1-sprites/rocks on grass - color scheme 1 - 15.png" width="32" height="32"/>
  </tile>
  <tile id="367">
   <image source="tiled/ERW-Grassland 2.0/Props/Static props/sheet1-sprites/rocks on grass - color scheme 1 - 16.png" width="32" height="32"/>
  </tile>
  <tile id="368">
   <image source="tiled/ERW-Grassland 2.0/Props/Static props/sheet1-sprites/rocks on grass - color scheme 1 - 17.png" width="32" height="32"/>
  </tile>
  <tile id="369">
   <image source="tiled/ERW-Grassland 2.0/Props/Static props/sheet1-sprites/rocks on grass - color scheme 1 - 18.png" width="32" height="32"/>
  </tile>
  <tile id="370">
   <image source="tiled/ERW-Grassland 2.0/Props/Static props/sheet1-sprites/rocks on grass - color scheme 1 - 19.png" width="32" height="32"/>
  </tile>
  <tile id="371">
   <image source="tiled/ERW-Grassland 2.0/Props/Static props/sheet1-sprites/rocks on grass - color scheme 1 - 20.png" width="32" height="32"/>
  </tile>
  <tile id="372">
   <image source="tiled/ERW-Grassland 2.0/Props/Static props/sheet1-sprites/rocks on grass - color scheme 1 - 21.png" width="32" height="32"/>
  </tile>
  <tile id="373">
   <image source="tiled/ERW-Grassland 2.0/Props/Static props/sheet1-sprites/rocks on grass - color scheme 1 - 22.png" width="32" height="32"/>
  </tile>
  <tile id="374">
   <image source="tiled/ERW-Grassland 2.0/Props/Static props/sheet1-sprites/rocks on grass - color scheme 1 - 23.png" width="32" height="32"/>
  </tile>
  <tile id="375">
   <image source="tiled/ERW-Grassland 2.0/Props/Static props/sheet1-sprites/rocks on grass - color scheme 1 - 24.png" width="32" height="32"/>
  </tile>
  <tile id="376">
   <image source="tiled/ERW-Grassland 2.0/Props/Static props/sheet1-sprites/rocks on grass - color scheme 1 - 25.png" width="32" height="32"/>
  </tile>
  <tile id="377">
   <image source="tiled/ERW-Grassland 2.0/Props/Static props/sheet1-sprites/rocks on grass - color scheme 1 - 26.png" width="32" height="32"/>
  </tile>
  <tile id="378">
   <image source="tiled/ERW-Grassland 2.0/Props/Static props/sheet1-sprites/rocks on grass - color scheme 1 - 27.png" width="32" height="32"/>
  </tile>
  <tile id="379">
   <image source="tiled/ERW-Grassland 2.0/Props/Static props/sheet1-sprites/rocks on grass - color scheme 1 - 28.png" width="32" height="32"/>
  </tile>
  <tile id="380">
   <image source="tiled/ERW-Grassland 2.0/Props/Static props/sheet1-sprites/rocks on grass - color scheme 1 - 29.png" width="32" height="32"/>
  </tile>
  <tile id="381">
   <image source="tiled/ERW-Grassland 2.0/Props/Static props/sheet1-sprites/rocks on grass - color scheme 1 - 30.png" width="32" height="32"/>
  </tile>
  <tile id="382">
   <image source="tiled/ERW-Grassland 2.0/Props/Static props/sheet1-sprites/rocks on grass - color scheme 1 - 31.png" width="32" height="32"/>
  </tile>
  <tile id="383">
   <image source="tiled/ERW-Grassland 2.0/Props/Static props/sheet1-sprites/rocks on grass - color scheme 1 - 32.png" width="32" height="32"/>
  </tile>
  <tile id="384">
   <image source="tiled/ERW-Grassland 2.0/Props/Static props/sheet1-sprites/rocks on grass - color scheme 2 - 1.png" width="96" height="64"/>
  </tile>
  <tile id="385">
   <image source="tiled/ERW-Grassland 2.0/Props/Static props/sheet1-sprites/rocks on grass - color scheme 2 - 2.png" width="64" height="64"/>
  </tile>
  <tile id="386">
   <image source="tiled/ERW-Grassland 2.0/Props/Static props/sheet1-sprites/rocks on grass - color scheme 2 - 3.png" width="96" height="64"/>
  </tile>
  <tile id="387">
   <image source="tiled/ERW-Grassland 2.0/Props/Static props/sheet1-sprites/rocks on grass - color scheme 2 - 4.png" width="96" height="64"/>
  </tile>
  <tile id="388">
   <image source="tiled/ERW-Grassland 2.0/Props/Static props/sheet1-sprites/rocks on grass - color scheme 2 - 5.png" width="64" height="64"/>
  </tile>
  <tile id="389">
   <image source="tiled/ERW-Grassland 2.0/Props/Static props/sheet1-sprites/rocks on grass - color scheme 2 - 6.png" width="64" height="64"/>
  </tile>
  <tile id="390">
   <image source="tiled/ERW-Grassland 2.0/Props/Static props/sheet1-sprites/rocks on grass - color scheme 2 - 7.png" width="64" height="32"/>
  </tile>
  <tile id="391">
   <image source="tiled/ERW-Grassland 2.0/Props/Static props/sheet1-sprites/rocks on grass - color scheme 2 - 8.png" width="64" height="32"/>
  </tile>
  <tile id="392">
   <image source="tiled/ERW-Grassland 2.0/Props/Static props/sheet1-sprites/rocks on grass - color scheme 2 - 9.png" width="32" height="32"/>
  </tile>
  <tile id="393">
   <image source="tiled/ERW-Grassland 2.0/Props/Static props/sheet1-sprites/rocks on grass - color scheme 2 - 10.png" width="32" height="32"/>
  </tile>
  <tile id="394">
   <image source="tiled/ERW-Grassland 2.0/Props/Static props/sheet1-sprites/rocks on grass - color scheme 2 - 11.png" width="32" height="32"/>
  </tile>
  <tile id="395">
   <image source="tiled/ERW-Grassland 2.0/Props/Static props/sheet1-sprites/rocks on grass - color scheme 2 - 12.png" width="32" height="32"/>
  </tile>
  <tile id="396">
   <image source="tiled/ERW-Grassland 2.0/Props/Static props/sheet1-sprites/rocks on grass - color scheme 2 - 13.png" width="32" height="32"/>
  </tile>
  <tile id="397">
   <image source="tiled/ERW-Grassland 2.0/Props/Static props/sheet1-sprites/rocks on grass - color scheme 2 - 14.png" width="64" height="32"/>
  </tile>
  <tile id="398">
   <image source="tiled/ERW-Grassland 2.0/Props/Static props/sheet1-sprites/rocks on grass - color scheme 2 - 15.png" width="32" height="32"/>
  </tile>
  <tile id="399">
   <image source="tiled/ERW-Grassland 2.0/Props/Static props/sheet1-sprites/rocks on grass - color scheme 2 - 16.png" width="32" height="32"/>
  </tile>
  <tile id="400">
   <image source="tiled/ERW-Grassland 2.0/Props/Static props/sheet1-sprites/rocks on grass - color scheme 2 - 17.png" width="32" height="32"/>
  </tile>
  <tile id="401">
   <image source="tiled/ERW-Grassland 2.0/Props/Static props/sheet1-sprites/rocks on grass - color scheme 2 - 18.png" width="32" height="32"/>
  </tile>
  <tile id="402">
   <image source="tiled/ERW-Grassland 2.0/Props/Static props/sheet1-sprites/rocks on grass - color scheme 2 - 19.png" width="32" height="32"/>
  </tile>
  <tile id="403">
   <image source="tiled/ERW-Grassland 2.0/Props/Static props/sheet1-sprites/rocks on grass - color scheme 2 - 20.png" width="32" height="32"/>
  </tile>
  <tile id="404">
   <image source="tiled/ERW-Grassland 2.0/Props/Static props/sheet1-sprites/rocks on grass - color scheme 2 - 21.png" width="32" height="32"/>
  </tile>
  <tile id="405">
   <image source="tiled/ERW-Grassland 2.0/Props/Static props/sheet1-sprites/rocks on grass - color scheme 2 - 22.png" width="32" height="32"/>
  </tile>
  <tile id="406">
   <image source="tiled/ERW-Grassland 2.0/Props/Static props/sheet1-sprites/rocks on grass - color scheme 2 - 23.png" width="32" height="32"/>
  </tile>
  <tile id="407">
   <image source="tiled/ERW-Grassland 2.0/Props/Static props/sheet1-sprites/rocks on grass - color scheme 2 - 24.png" width="32" height="32"/>
  </tile>
  <tile id="408">
   <image source="tiled/ERW-Grassland 2.0/Props/Static props/sheet1-sprites/rocks on grass - color scheme 2 - 25.png" width="32" height="32"/>
  </tile>
  <tile id="409">
   <image source="tiled/ERW-Grassland 2.0/Props/Static props/sheet1-sprites/rocks on grass - color scheme 2 - 26.png" width="32" height="32"/>
  </tile>
  <tile id="410">
   <image source="tiled/ERW-Grassland 2.0/Props/Static props/sheet1-sprites/rocks on grass - color scheme 2 - 27.png" width="32" height="32"/>
  </tile>
  <tile id="411">
   <image source="tiled/ERW-Grassland 2.0/Props/Static props/sheet1-sprites/rocks on grass - color scheme 2 - 28.png" width="32" height="32"/>
  </tile>
  <tile id="412">
   <image source="tiled/ERW-Grassland 2.0/Props/Static props/sheet1-sprites/rocks on grass - color scheme 2 - 29.png" width="32" height="32"/>
  </tile>
  <tile id="413">
   <image source="tiled/ERW-Grassland 2.0/Props/Static props/sheet1-sprites/rocks on grass - color scheme 2 - 30.png" width="32" height="32"/>
  </tile>
  <tile id="414">
   <image source="tiled/ERW-Grassland 2.0/Props/Static props/sheet1-sprites/rocks on grass - color scheme 2 - 31.png" width="32" height="32"/>
  </tile>
  <tile id="415">
   <image source="tiled/ERW-Grassland 2.0/Props/Static props/sheet1-sprites/rocks on grass - color scheme 2 - 32.png" width="32" height="32"/>
  </tile>
  <tile id="416">
   <image source="tiled/ERW-Grassland 2.0/Props/Static props/sheet1-sprites/rocks on grass - color scheme 3 - 1.png" width="96" height="64"/>
  </tile>
  <tile id="417">
   <image source="tiled/ERW-Grassland 2.0/Props/Static props/sheet1-sprites/rocks on grass - color scheme 3 - 2.png" width="64" height="64"/>
  </tile>
  <tile id="418">
   <image source="tiled/ERW-Grassland 2.0/Props/Static props/sheet1-sprites/rocks on grass - color scheme 3 - 3.png" width="96" height="64"/>
  </tile>
  <tile id="419">
   <image source="tiled/ERW-Grassland 2.0/Props/Static props/sheet1-sprites/rocks on grass - color scheme 3 - 4.png" width="96" height="64"/>
  </tile>
  <tile id="420">
   <image source="tiled/ERW-Grassland 2.0/Props/Static props/sheet1-sprites/rocks on grass - color scheme 3 - 5.png" width="64" height="64"/>
  </tile>
  <tile id="421">
   <image source="tiled/ERW-Grassland 2.0/Props/Static props/sheet1-sprites/rocks on grass - color scheme 3 - 6.png" width="64" height="64"/>
  </tile>
  <tile id="422">
   <image source="tiled/ERW-Grassland 2.0/Props/Static props/sheet1-sprites/rocks on grass - color scheme 3 - 7.png" width="64" height="32"/>
  </tile>
  <tile id="423">
   <image source="tiled/ERW-Grassland 2.0/Props/Static props/sheet1-sprites/rocks on grass - color scheme 3 - 8.png" width="64" height="32"/>
  </tile>
  <tile id="424">
   <image source="tiled/ERW-Grassland 2.0/Props/Static props/sheet1-sprites/rocks on grass - color scheme 3 - 9.png" width="32" height="32"/>
  </tile>
  <tile id="425">
   <image source="tiled/ERW-Grassland 2.0/Props/Static props/sheet1-sprites/rocks on grass - color scheme 3 - 10.png" width="32" height="32"/>
  </tile>
  <tile id="426">
   <image source="tiled/ERW-Grassland 2.0/Props/Static props/sheet1-sprites/rocks on grass - color scheme 3 - 11.png" width="32" height="32"/>
  </tile>
  <tile id="427">
   <image source="tiled/ERW-Grassland 2.0/Props/Static props/sheet1-sprites/rocks on grass - color scheme 3 - 12.png" width="32" height="32"/>
  </tile>
  <tile id="428">
   <image source="tiled/ERW-Grassland 2.0/Props/Static props/sheet1-sprites/rocks on grass - color scheme 3 - 13.png" width="32" height="32"/>
  </tile>
  <tile id="429">
   <image source="tiled/ERW-Grassland 2.0/Props/Static props/sheet1-sprites/rocks on grass - color scheme 3 - 14.png" width="64" height="32"/>
  </tile>
  <tile id="430">
   <image source="tiled/ERW-Grassland 2.0/Props/Static props/sheet1-sprites/rocks on grass - color scheme 3 - 15.png" width="32" height="32"/>
  </tile>
  <tile id="431">
   <image source="tiled/ERW-Grassland 2.0/Props/Static props/sheet1-sprites/rocks on grass - color scheme 3 - 16.png" width="32" height="32"/>
  </tile>
  <tile id="432">
   <image source="tiled/ERW-Grassland 2.0/Props/Static props/sheet1-sprites/rocks on grass - color scheme 3 - 17.png" width="32" height="32"/>
  </tile>
  <tile id="433">
   <image source="tiled/ERW-Grassland 2.0/Props/Static props/sheet1-sprites/rocks on grass - color scheme 3 - 18.png" width="32" height="32"/>
  </tile>
  <tile id="434">
   <image source="tiled/ERW-Grassland 2.0/Props/Static props/sheet1-sprites/rocks on grass - color scheme 3 - 19.png" width="32" height="32"/>
  </tile>
  <tile id="435">
   <image source="tiled/ERW-Grassland 2.0/Props/Static props/sheet1-sprites/rocks on grass - color scheme 3 - 20.png" width="32" height="32"/>
  </tile>
  <tile id="436">
   <image source="tiled/ERW-Grassland 2.0/Props/Static props/sheet1-sprites/rocks on grass - color scheme 3 - 21.png" width="32" height="32"/>
  </tile>
  <tile id="437">
   <image source="tiled/ERW-Grassland 2.0/Props/Static props/sheet1-sprites/rocks on grass - color scheme 3 - 22.png" width="32" height="32"/>
  </tile>
  <tile id="438">
   <image source="tiled/ERW-Grassland 2.0/Props/Static props/sheet1-sprites/rocks on grass - color scheme 3 - 23.png" width="32" height="32"/>
  </tile>
  <tile id="439">
   <image source="tiled/ERW-Grassland 2.0/Props/Static props/sheet1-sprites/rocks on grass - color scheme 3 - 24.png" width="32" height="32"/>
  </tile>
  <tile id="440">
   <image source="tiled/ERW-Grassland 2.0/Props/Static props/sheet1-sprites/rocks on grass - color scheme 3 - 25.png" width="32" height="32"/>
  </tile>
  <tile id="441">
   <image source="tiled/ERW-Grassland 2.0/Props/Static props/sheet1-sprites/rocks on grass - color scheme 3 - 26.png" width="32" height="32"/>
  </tile>
  <tile id="442">
   <image source="tiled/ERW-Grassland 2.0/Props/Static props/sheet1-sprites/rocks on grass - color scheme 3 - 27.png" width="32" height="32"/>
  </tile>
  <tile id="443">
   <image source="tiled/ERW-Grassland 2.0/Props/Static props/sheet1-sprites/rocks on grass - color scheme 3 - 28.png" width="32" height="32"/>
  </tile>
  <tile id="444">
   <image source="tiled/ERW-Grassland 2.0/Props/Static props/sheet1-sprites/rocks on grass - color scheme 3 - 29.png" width="32" height="32"/>
  </tile>
  <tile id="445">
   <image source="tiled/ERW-Grassland 2.0/Props/Static props/sheet1-sprites/rocks on grass - color scheme 3 - 30.png" width="32" height="32"/>
  </tile>
  <tile id="446">
   <image source="tiled/ERW-Grassland 2.0/Props/Static props/sheet1-sprites/rocks on grass - color scheme 3 - 31.png" width="32" height="32"/>
  </tile>
  <tile id="447">
   <image source="tiled/ERW-Grassland 2.0/Props/Static props/sheet1-sprites/rocks on grass - color scheme 3 - 32.png" width="32" height="32"/>
  </tile>
  <tile id="448">
   <image source="tiled/ERW-Grassland 2.0/Props/Static props/sheet1-sprites/rocks on sand - color scheme 2 - 1.png" width="96" height="64"/>
  </tile>
  <tile id="449">
   <image source="tiled/ERW-Grassland 2.0/Props/Static props/sheet1-sprites/rocks on sand - color scheme 2 - 2.png" width="64" height="64"/>
  </tile>
  <tile id="450">
   <image source="tiled/ERW-Grassland 2.0/Props/Static props/sheet1-sprites/rocks on sand - color scheme 2 - 3.png" width="96" height="64"/>
  </tile>
  <tile id="451">
   <image source="tiled/ERW-Grassland 2.0/Props/Static props/sheet1-sprites/rocks on sand - color scheme 2 - 4.png" width="96" height="64"/>
  </tile>
  <tile id="452">
   <image source="tiled/ERW-Grassland 2.0/Props/Static props/sheet1-sprites/rocks on sand - color scheme 2 - 5.png" width="64" height="64"/>
  </tile>
  <tile id="453">
   <image source="tiled/ERW-Grassland 2.0/Props/Static props/sheet1-sprites/rocks on sand - color scheme 2 - 6.png" width="64" height="64"/>
  </tile>
  <tile id="454">
   <image source="tiled/ERW-Grassland 2.0/Props/Static props/sheet1-sprites/rocks on sand - color scheme 2 - 7.png" width="64" height="64"/>
  </tile>
  <tile id="455">
   <image source="tiled/ERW-Grassland 2.0/Props/Static props/sheet1-sprites/rocks on sand - color scheme 2 - 8.png" width="64" height="32"/>
  </tile>
  <tile id="456">
   <image source="tiled/ERW-Grassland 2.0/Props/Static props/sheet1-sprites/rocks on sand - color scheme 2 - 9.png" width="32" height="32"/>
  </tile>
  <tile id="457">
   <image source="tiled/ERW-Grassland 2.0/Props/Static props/sheet1-sprites/rocks on sand - color scheme 2 - 10.png" width="32" height="32"/>
  </tile>
  <tile id="458">
   <image source="tiled/ERW-Grassland 2.0/Props/Static props/sheet1-sprites/rocks on sand - color scheme 2 - 11.png" width="32" height="32"/>
  </tile>
  <tile id="459">
   <image source="tiled/ERW-Grassland 2.0/Props/Static props/sheet1-sprites/rocks on sand - color scheme 2 - 12.png" width="32" height="32"/>
  </tile>
  <tile id="460">
   <image source="tiled/ERW-Grassland 2.0/Props/Static props/sheet1-sprites/rocks on sand - color scheme 2 - 13.png" width="32" height="32"/>
  </tile>
  <tile id="461">
   <image source="tiled/ERW-Grassland 2.0/Props/Static props/sheet1-sprites/rocks on sand - color scheme 2 - 14.png" width="64" height="32"/>
  </tile>
  <tile id="462">
   <image source="tiled/ERW-Grassland 2.0/Props/Static props/sheet1-sprites/rocks on sand - color scheme 2 - 15.png" width="32" height="32"/>
  </tile>
  <tile id="463">
   <image source="tiled/ERW-Grassland 2.0/Props/Static props/sheet1-sprites/rocks on sand - color scheme 2 - 16.png" width="32" height="32"/>
  </tile>
  <tile id="464">
   <image source="tiled/ERW-Grassland 2.0/Props/Static props/sheet1-sprites/rocks on sand - color scheme 2 - 17.png" width="32" height="32"/>
  </tile>
  <tile id="465">
   <image source="tiled/ERW-Grassland 2.0/Props/Static props/sheet1-sprites/rocks on sand - color scheme 2 - 18.png" width="32" height="32"/>
  </tile>
  <tile id="466">
   <image source="tiled/ERW-Grassland 2.0/Props/Static props/sheet1-sprites/rocks on sand - color scheme 2 - 19.png" width="32" height="32"/>
  </tile>
  <tile id="467">
   <image source="tiled/ERW-Grassland 2.0/Props/Static props/sheet1-sprites/rocks on sand - color scheme 2 - 20.png" width="32" height="32"/>
  </tile>
  <tile id="468">
   <image source="tiled/ERW-Grassland 2.0/Props/Static props/sheet1-sprites/rocks on sand - color scheme 2 - 21.png" width="32" height="32"/>
  </tile>
  <tile id="469">
   <image source="tiled/ERW-Grassland 2.0/Props/Static props/sheet1-sprites/rocks on sand - color scheme 2 - 22.png" width="32" height="32"/>
  </tile>
  <tile id="470">
   <image source="tiled/ERW-Grassland 2.0/Props/Static props/sheet1-sprites/rocks on sand - color scheme 2 - 23.png" width="32" height="32"/>
  </tile>
  <tile id="471">
   <image source="tiled/ERW-Grassland 2.0/Props/Static props/sheet1-sprites/rocks on sand - color scheme 2 - 24.png" width="32" height="32"/>
  </tile>
  <tile id="472">
   <image source="tiled/ERW-Grassland 2.0/Props/Static props/sheet1-sprites/rocks on sand - color scheme 2 - 25.png" width="32" height="32"/>
  </tile>
  <tile id="473">
   <image source="tiled/ERW-Grassland 2.0/Props/Static props/sheet1-sprites/rocks on sand - color scheme 2 - 26.png" width="32" height="32"/>
  </tile>
  <tile id="474">
   <image source="tiled/ERW-Grassland 2.0/Props/Static props/sheet1-sprites/rocks on sand - color scheme 2 - 27.png" width="32" height="32"/>
  </tile>
  <tile id="475">
   <image source="tiled/ERW-Grassland 2.0/Props/Static props/sheet1-sprites/rocks on sand - color scheme 2 - 28.png" width="32" height="32"/>
  </tile>
  <tile id="476">
   <image source="tiled/ERW-Grassland 2.0/Props/Static props/sheet1-sprites/rocks on sand - color scheme 2 - 29.png" width="32" height="32"/>
  </tile>
  <tile id="477">
   <image source="tiled/ERW-Grassland 2.0/Props/Static props/sheet1-sprites/rocks on sand - color scheme 2 - 30.png" width="32" height="32"/>
  </tile>
  <tile id="478">
   <image source="tiled/ERW-Grassland 2.0/Props/Static props/sheet1-sprites/rocks on sand - color scheme 2 - 31.png" width="32" height="32"/>
  </tile>
  <tile id="479">
   <image source="tiled/ERW-Grassland 2.0/Props/Static props/sheet1-sprites/rocks on sand - color scheme 2 - 32.png" width="32" height="32"/>
  </tile>
  <tile id="480">
   <image source="tiled/ERW-Grassland 2.0/Props/Static props/sheet1-sprites/sign 1.png" width="32" height="32"/>
  </tile>
  <tile id="481">
   <image source="tiled/ERW-Grassland 2.0/Props/Static props/sheet1-sprites/sign 2.png" width="32" height="32"/>
  </tile>
  <tile id="482">
   <image source="tiled/ERW-Grassland 2.0/Props/Static props/sheet1-sprites/sign 3.png" width="32" height="32"/>
  </tile>
  <tile id="483">
   <image source="tiled/ERW-Grassland 2.0/Props/Static props/sheet1-sprites/sign 4 - no grass.png" width="32" height="32"/>
  </tile>
  <tile id="484">
   <image source="tiled/ERW-Grassland 2.0/Props/Static props/sheet1-sprites/sign 4.png" width="32" height="32"/>
  </tile>
  <tile id="485">
   <image source="tiled/ERW-Grassland 2.0/Props/Static props/sheet1-sprites/sign 5 - no grass.png" width="32" height="32"/>
  </tile>
  <tile id="486">
   <image source="tiled/ERW-Grassland 2.0/Props/Static props/sheet1-sprites/sign 5.png" width="32" height="32"/>
  </tile>
  <tile id="487">
   <image source="tiled/ERW-Grassland 2.0/Props/Static props/sheet1-sprites/sign 6 - no grass.png" width="32" height="32"/>
  </tile>
  <tile id="488">
   <image source="tiled/ERW-Grassland 2.0/Props/Static props/sheet1-sprites/sign 6.png" width="32" height="32"/>
  </tile>
  <tile id="489">
   <image source="tiled/ERW-Grassland 2.0/Props/Static props/sheet1-sprites/sign 7 - no grass.png" width="32" height="32"/>
  </tile>
  <tile id="490">
   <image source="tiled/ERW-Grassland 2.0/Props/Static props/sheet1-sprites/sign 7.png" width="32" height="32"/>
  </tile>
  <tile id="491">
   <image source="tiled/ERW-Grassland 2.0/Props/Static props/sheet1-sprites/sign 8 - no grass.png" width="32" height="32"/>
  </tile>
  <tile id="492">
   <image source="tiled/ERW-Grassland 2.0/Props/Static props/sheet1-sprites/sign 8.png" width="32" height="32"/>
  </tile>
  <tile id="493">
   <image source="tiled/ERW-Grassland 2.0/Props/Static props/sheet1-sprites/sign 9 - no grass.png" width="32" height="32"/>
  </tile>
  <tile id="494">
   <image source="tiled/ERW-Grassland 2.0/Props/Static props/sheet1-sprites/sign 9.png" width="32" height="32"/>
  </tile>
  <tile id="495">
   <image source="tiled/ERW-Grassland 2.0/Props/Static props/sheet1-sprites/sign 10 - no grass.png" width="32" height="32"/>
  </tile>
  <tile id="496">
   <image source="tiled/ERW-Grassland 2.0/Props/Static props/sheet1-sprites/sign 10.png" width="32" height="32"/>
  </tile>
  <tile id="497">
   <image source="tiled/ERW-Grassland 2.0/Props/Static props/sheet1-sprites/sign 11 - no grass.png" width="32" height="32"/>
  </tile>
  <tile id="498">
   <image source="tiled/ERW-Grassland 2.0/Props/Static props/sheet1-sprites/sign 11.png" width="32" height="32"/>
  </tile>
  <tile id="499">
   <image source="tiled/ERW-Grassland 2.0/Props/Static props/sheet1-sprites/sign detail 1.png" width="32" height="32"/>
  </tile>
  <tile id="500">
   <image source="tiled/ERW-Grassland 2.0/Props/Static props/sheet1-sprites/sign detail 2.png" width="32" height="32"/>
  </tile>
  <tile id="501">
   <image source="tiled/ERW-Grassland 2.0/Props/Static props/sheet1-sprites/sign detail 3.png" width="32" height="32"/>
  </tile>
  <tile id="502">
   <image source="tiled/ERW-Grassland 2.0/Props/Static props/sheet1-sprites/sign detail 4.png" width="32" height="32"/>
  </tile>
  <tile id="503">
   <image source="tiled/ERW-Grassland 2.0/Props/Static props/sheet1-sprites/sign detail 5.png" width="32" height="32"/>
  </tile>
  <tile id="504">
   <image source="tiled/ERW-Grassland 2.0/Props/Static props/sheet1-sprites/sign post.png" width="64" height="96"/>
  </tile>
  <tile id="505">
   <image source="tiled/ERW-Grassland 2.0/Props/Static props/sheet1-sprites/Slice 76.png" width="32" height="32"/>
  </tile>
  <tile id="506">
   <image source="tiled/ERW-Grassland 2.0/Props/Static props/sheet1-sprites/small woodplanks 1 - no grass.png" width="32" height="32"/>
  </tile>
  <tile id="507">
   <image source="tiled/ERW-Grassland 2.0/Props/Static props/sheet1-sprites/small woodplanks 1.png" width="32" height="32"/>
  </tile>
  <tile id="508">
   <image source="tiled/ERW-Grassland 2.0/Props/Static props/sheet1-sprites/small woodplanks 2 - no grass.png" width="32" height="32"/>
  </tile>
  <tile id="509">
   <image source="tiled/ERW-Grassland 2.0/Props/Static props/sheet1-sprites/small woodplanks 2.png" width="32" height="32"/>
  </tile>
  <tile id="510">
   <image source="tiled/ERW-Grassland 2.0/Props/Static props/sheet1-sprites/small woodplanks 3 - no grass.png" width="32" height="32"/>
  </tile>
  <tile id="511">
   <image source="tiled/ERW-Grassland 2.0/Props/Static props/sheet1-sprites/small woodplanks 3.png" width="32" height="32"/>
  </tile>
  <tile id="512">
   <image source="tiled/ERW-Grassland 2.0/Props/Static props/sheet1-sprites/small woodplanks 4 - no grass.png" width="32" height="32"/>
  </tile>
  <tile id="513">
   <image source="tiled/ERW-Grassland 2.0/Props/Static props/sheet1-sprites/small woodplanks 4.png" width="32" height="32"/>
  </tile>
  <tile id="514">
   <image source="tiled/ERW-Grassland 2.0/Props/Static props/sheet1-sprites/small woodplanks 5 - no grass.png" width="32" height="32"/>
  </tile>
  <tile id="515">
   <image source="tiled/ERW-Grassland 2.0/Props/Static props/sheet1-sprites/small woodplanks 5.png" width="32" height="32"/>
  </tile>
  <tile id="516">
   <image source="tiled/ERW-Grassland 2.0/Props/Static props/sheet1-sprites/small woodplanks 6 - no grass.png" width="32" height="32"/>
  </tile>
  <tile id="517">
   <image source="tiled/ERW-Grassland 2.0/Props/Static props/sheet1-sprites/small woodplanks 6.png" width="32" height="32"/>
  </tile>
  <tile id="518">
   <image source="tiled/ERW-Grassland 2.0/Props/Static props/sheet1-sprites/tree - color scheme 1 - 1.png" width="192" height="192"/>
  </tile>
  <tile id="519">
   <image source="tiled/ERW-Grassland 2.0/Props/Static props/sheet1-sprites/tree - color scheme 1 - 2.png" width="128" height="224"/>
  </tile>
  <tile id="520">
   <image source="tiled/ERW-Grassland 2.0/Props/Static props/sheet1-sprites/tree - color scheme 1 - 3.png" width="128" height="224"/>
  </tile>
  <tile id="521">
   <image source="tiled/ERW-Grassland 2.0/Props/Static props/sheet1-sprites/tree - color scheme 2 - 1.png" width="192" height="160"/>
  </tile>
  <tile id="522">
   <image source="tiled/ERW-Grassland 2.0/Props/Static props/sheet1-sprites/tree - color scheme 2 - 2.png" width="128" height="224"/>
  </tile>
  <tile id="523">
   <image source="tiled/ERW-Grassland 2.0/Props/Static props/sheet1-sprites/tree - color scheme 2 - 3.png" width="128" height="224"/>
  </tile>
  <tile id="524">
   <image source="tiled/ERW-Grassland 2.0/Props/Static props/sheet1-sprites/tree - color scheme 3 - 1.png" width="192" height="160"/>
  </tile>
  <tile id="525">
   <image source="tiled/ERW-Grassland 2.0/Props/Static props/sheet1-sprites/tree - color scheme 3 - 2.png" width="128" height="224"/>
  </tile>
  <tile id="526">
   <image source="tiled/ERW-Grassland 2.0/Props/Static props/sheet1-sprites/tree - color scheme 3 - 3.png" width="128" height="224"/>
  </tile>
  <tile id="527">
   <image source="tiled/ERW-Grassland 2.0/Props/Static props/sheet1-sprites/tree - color scheme 4 - 1.png" width="192" height="160"/>
  </tile>
  <tile id="528">
   <image source="tiled/ERW-Grassland 2.0/Props/Static props/sheet1-sprites/tree - color scheme 4 - 2.png" width="128" height="224"/>
  </tile>
  <tile id="529">
   <image source="tiled/ERW-Grassland 2.0/Props/Static props/sheet1-sprites/tree - color scheme 4 - 3.png" width="128" height="224"/>
  </tile>
  <tile id="530">
   <image source="tiled/ERW-Grassland 2.0/Props/Static props/sheet1-sprites/tree - color scheme 5 - 1.png" width="192" height="160"/>
  </tile>
  <tile id="531">
   <image source="tiled/ERW-Grassland 2.0/Props/Static props/sheet1-sprites/tree - color scheme 5 - 2.png" width="128" height="224"/>
  </tile>
  <tile id="532">
   <image source="tiled/ERW-Grassland 2.0/Props/Static props/sheet1-sprites/tree - color scheme 5 - 3.png" width="128" height="224"/>
  </tile>
  <tile id="533">
   <image source="tiled/ERW-Grassland 2.0/Props/Static props/sheet1-sprites/tree - naked - shadow 1.png" width="96" height="64"/>
  </tile>
  <tile id="534">
   <image source="tiled/ERW-Grassland 2.0/Props/Static props/sheet1-sprites/tree - naked - shadow 2.png" width="96" height="64"/>
  </tile>
  <tile id="535">
   <image source="tiled/ERW-Grassland 2.0/Props/Static props/sheet1-sprites/tree - naked - shadow 3.png" width="96" height="64"/>
  </tile>
  <tile id="536">
   <image source="tiled/ERW-Grassland 2.0/Props/Static props/sheet1-sprites/tree - naked - small - no shadow and grass 1.png" width="64" height="96"/>
  </tile>
  <tile id="537">
   <image source="tiled/ERW-Grassland 2.0/Props/Static props/sheet1-sprites/tree - naked - small - no shadow and grass 2.png" width="96" height="96"/>
  </tile>
  <tile id="538">
   <image source="tiled/ERW-Grassland 2.0/Props/Static props/sheet1-sprites/tree - naked - small - no shadow and grass 3.png" width="64" height="96"/>
  </tile>
  <tile id="539">
   <image source="tiled/ERW-Grassland 2.0/Props/Static props/sheet1-sprites/tree - naked - small - no shadow and grass 4.png" width="64" height="96"/>
  </tile>
  <tile id="540">
   <image source="tiled/ERW-Grassland 2.0/Props/Static props/sheet1-sprites/tree - naked - small 1.png" width="64" height="96"/>
  </tile>
  <tile id="541">
   <image source="tiled/ERW-Grassland 2.0/Props/Static props/sheet1-sprites/tree - naked - small 2.png" width="96" height="128"/>
  </tile>
  <tile id="542">
   <image source="tiled/ERW-Grassland 2.0/Props/Static props/sheet1-sprites/tree - naked - small 3.png" width="64" height="128"/>
  </tile>
  <tile id="543">
   <image source="tiled/ERW-Grassland 2.0/Props/Static props/sheet1-sprites/tree - naked - small 4.png" width="64" height="96"/>
  </tile>
  <tile id="544">
   <image source="tiled/ERW-Grassland 2.0/Props/Static props/sheet1-sprites/tree - naked 1.png" width="160" height="160"/>
  </tile>
  <tile id="545">
   <image source="tiled/ERW-Grassland 2.0/Props/Static props/sheet1-sprites/tree - naked 2.png" width="96" height="160"/>
  </tile>
  <tile id="546">
   <image source="tiled/ERW-Grassland 2.0/Props/Static props/sheet1-sprites/tree - naked 3.png" width="96" height="160"/>
  </tile>
  <tile id="547">
   <image source="tiled/ERW-Grassland 2.0/Props/Static props/sheet1-sprites/tree - shadow - 1.png" width="192" height="96"/>
  </tile>
  <tile id="548">
   <image source="tiled/ERW-Grassland 2.0/Props/Static props/sheet1-sprites/tree - shadow - 2.png" width="128" height="64"/>
  </tile>
  <tile id="549">
   <image source="tiled/ERW-Grassland 2.0/Props/Static props/sheet1-sprites/tree - shadow - 3.png" width="128" height="64"/>
  </tile>
  <tile id="550">
   <image source="tiled/ERW-Grassland 2.0/Props/Static props/sheet1-sprites/tree - trunk 1.png" width="96" height="32"/>
  </tile>
  <tile id="551">
   <image source="tiled/ERW-Grassland 2.0/Props/Static props/sheet1-sprites/tree - trunk 2.png" width="32" height="32"/>
  </tile>
  <tile id="552">
   <image source="tiled/ERW-Grassland 2.0/Props/Static props/sheet1-sprites/tree - trunk 3.png" width="32" height="32"/>
  </tile>
  <tile id="553">
   <image source="tiled/ERW-Grassland 2.0/Props/Static props/sheet1-sprites/trunk 1.png" width="64" height="64"/>
  </tile>
  <tile id="554">
   <image source="tiled/ERW-Grassland 2.0/Props/Static props/sheet1-sprites/trunk 2.png" width="32" height="64"/>
  </tile>
  <tile id="555">
   <image source="tiled/ERW-Grassland 2.0/Props/Static props/sheet1-sprites/trunk 3.png" width="32" height="32"/>
  </tile>
  <tile id="556">
   <image source="tiled/ERW-Grassland 2.0/Props/Static props/sheet1-sprites/trunk 4.png" width="32" height="32"/>
  </tile>
  <tile id="557">
   <image source="tiled/ERW-Grassland 2.0/Props/Static props/sheet1-sprites/trunk 5.png" width="32" height="32"/>
  </tile>
  <tile id="558">
   <image source="tiled/ERW-Grassland 2.0/Props/Static props/sheet1-sprites/trunk 6.png" width="64" height="64"/>
  </tile>
  <tile id="559">
   <image source="tiled/ERW-Grassland 2.0/Props/Static props/sheet1-sprites/trunk 7.png" width="64" height="64"/>
  </tile>
  <tile id="560">
   <image source="tiled/ERW-Grassland 2.0/Props/Static props/sheet1-sprites/trunk 8.png" width="32" height="32"/>
  </tile>
  <tile id="561">
   <image source="tiled/ERW-Grassland 2.0/Props/Static props/sheet1-sprites/trunk 9.png" width="32" height="32"/>
  </tile>
  <tile id="562">
   <image source="tiled/ERW-Grassland 2.0/Props/Static props/sheet1-sprites/trunk 10.png" width="32" height="32"/>
  </tile>
  <tile id="563">
   <image source="tiled/ERW-Grassland 2.0/Props/Static props/sheet1-sprites/vegetation 1.png" width="64" height="64"/>
  </tile>
  <tile id="564">
   <image source="tiled/ERW-Grassland 2.0/Props/Static props/sheet1-sprites/vegetation 2.png" width="64" height="64"/>
  </tile>
  <tile id="565">
   <image source="tiled/ERW-Grassland 2.0/Props/Static props/sheet1-sprites/vegetation 3.png" width="64" height="64"/>
  </tile>
  <tile id="566">
   <image source="tiled/ERW-Grassland 2.0/Props/Static props/sheet1-sprites/vegetation 4.png" width="64" height="64"/>
  </tile>
  <tile id="567">
   <image source="tiled/ERW-Grassland 2.0/Props/Static props/sheet1-sprites/vegetation 5.png" width="64" height="64"/>
  </tile>
  <tile id="568">
   <image source="tiled/ERW-Grassland 2.0/Props/Static props/sheet1-sprites/vegetation 6.png" width="64" height="64"/>
  </tile>
  <tile id="569">
   <image source="tiled/ERW-Grassland 2.0/Props/Static props/sheet1-sprites/vegetation 7.png" width="64" height="64"/>
  </tile>
  <tile id="570">
   <image source="tiled/ERW-Grassland 2.0/Props/Static props/sheet1-sprites/vegetation 8.png" width="64" height="64"/>
  </tile>
  <tile id="571">
   <image source="tiled/ERW-Grassland 2.0/Props/Static props/sheet1-sprites/vegetation 9.png" width="64" height="64"/>
  </tile>
  <tile id="572">
   <image source="tiled/ERW-Grassland 2.0/Props/Static props/sheet1-sprites/waterwell - broken - no grass - no grass.png" width="96" height="128"/>
  </tile>
  <tile id="573">
   <image source="tiled/ERW-Grassland 2.0/Props/Static props/sheet1-sprites/waterwell - broken.png" width="96" height="96"/>
  </tile>
  <tile id="574">
   <image source="tiled/ERW-Grassland 2.0/Props/Static props/sheet1-sprites/waterwell - no rope - to place the roof - no grass.png" width="96" height="128"/>
  </tile>
  <tile id="575">
   <image source="tiled/ERW-Grassland 2.0/Props/Static props/sheet1-sprites/waterwell - no rope - to place the roof.png" width="96" height="128"/>
  </tile>
  <tile id="576">
   <image source="tiled/ERW-Grassland 2.0/Props/Static props/sheet1-sprites/waterwell - no support - no grass.png" width="96" height="64"/>
  </tile>
  <tile id="577">
   <image source="tiled/ERW-Grassland 2.0/Props/Static props/sheet1-sprites/waterwell - no support.png" width="96" height="64"/>
  </tile>
  <tile id="578">
   <image source="tiled/ERW-Grassland 2.0/Props/Static props/sheet1-sprites/waterwell - roof.png" width="96" height="96"/>
  </tile>
  <tile id="579">
   <image source="tiled/ERW-Grassland 2.0/Props/Static props/sheet1-sprites/waterwell - roof2.png" width="96" height="96"/>
  </tile>
  <tile id="580">
   <image source="tiled/ERW-Grassland 2.0/Props/Static props/sheet1-sprites/waterwell - rope - no grass.png" width="96" height="128"/>
  </tile>
  <tile id="581">
   <image source="tiled/ERW-Grassland 2.0/Props/Static props/sheet1-sprites/waterwell - rope - to place the roof - no grass.png" width="96" height="128"/>
  </tile>
  <tile id="582">
   <image source="tiled/ERW-Grassland 2.0/Props/Static props/sheet1-sprites/waterwell - rope - to place the roof.png" width="96" height="128"/>
  </tile>
  <tile id="583">
   <image source="tiled/ERW-Grassland 2.0/Props/Static props/sheet1-sprites/waterwell - rope.png" width="96" height="96"/>
  </tile>
  <tile id="584">
   <image source="tiled/ERW-Grassland 2.0/Props/Static props/sheet1-sprites/waterwell 2 - broken - no grass.png" width="96" height="64"/>
  </tile>
  <tile id="585">
   <image source="tiled/ERW-Grassland 2.0/Props/Static props/sheet1-sprites/waterwell 2 - broken.png" width="96" height="64"/>
  </tile>
  <tile id="586">
   <image source="tiled/ERW-Grassland 2.0/Props/Static props/sheet1-sprites/waterwell 2 - no rope - no grass.png" width="96" height="64"/>
  </tile>
  <tile id="587">
   <image source="tiled/ERW-Grassland 2.0/Props/Static props/sheet1-sprites/waterwell 2 - no rope.png" width="96" height="64"/>
  </tile>
  <tile id="588">
   <image source="tiled/ERW-Grassland 2.0/Props/Static props/sheet1-sprites/waterwell 2 - no support - no grass.png" width="96" height="64"/>
  </tile>
  <tile id="589">
   <image source="tiled/ERW-Grassland 2.0/Props/Static props/sheet1-sprites/waterwell 2 - no support.png" width="96" height="64"/>
  </tile>
  <tile id="590">
   <image source="tiled/ERW-Grassland 2.0/Props/Static props/sheet1-sprites/waterwell 2 - rope - no grass.png" width="96" height="64"/>
  </tile>
  <tile id="591">
   <image source="tiled/ERW-Grassland 2.0/Props/Static props/sheet1-sprites/waterwell 2 - rope.png" width="96" height="64"/>
  </tile>
  <tile id="592">
   <image source="tiled/ERW-Grassland 2.0/Props/Static props/sheet1-sprites/wood log 1.png" width="64" height="32"/>
  </tile>
  <tile id="593">
   <image source="tiled/ERW-Grassland 2.0/Props/Static props/sheet1-sprites/wood log 2.png" width="64" height="32"/>
  </tile>
  <tile id="594">
   <image source="tiled/ERW-Grassland 2.0/Props/Static props/sheet1-sprites/wood log 3.png" width="32" height="64"/>
  </tile>
  <tile id="595">
   <image source="tiled/ERW-Grassland 2.0/Props/Static props/sheet1-sprites/wood log 4.png" width="32" height="64"/>
  </tile>
  <tile id="596">
   <image source="tiled/ERW-Grassland 2.0/Props/Static props/sheet1-sprites/wood log 5.png" width="64" height="64"/>
  </tile>
  <tile id="597">
   <image source="tiled/ERW-Grassland 2.0/Props/Static props/sheet1-sprites/wood log 6.png" width="64" height="64"/>
  </tile>
  <tile id="598">
   <image source="tiled/ERW-Grassland 2.0/Props/Static props/sheet1-sprites/wood log 7.png" width="64" height="32"/>
  </tile>
  <tile id="599">
   <image source="tiled/ERW-Grassland 2.0/Props/Static props/sheet1-sprites/wood log 8.png" width="64" height="32"/>
  </tile>
  <tile id="600">
   <image source="tiled/ERW-Grassland 2.0/Props/Static props/sheet1-sprites/wood log 9.png" width="32" height="64"/>
  </tile>
  <tile id="601">
   <image source="tiled/ERW-Grassland 2.0/Props/Static props/sheet1-sprites/wood log 10.png" width="32" height="64"/>
  </tile>
  <tile id="602">
   <image source="tiled/ERW-Grassland 2.0/Props/Static props/sheet1-sprites/wood log 11.png" width="64" height="64"/>
  </tile>
  <tile id="603">
   <image source="tiled/ERW-Grassland 2.0/Props/Static props/sheet1-sprites/wood log 12.png" width="64" height="64"/>
  </tile>
  <tile id="604">
   <image source="tiled/ERW-Grassland 2.0/Props/Static props/sheet1-sprites/wood log 13.png" width="64" height="32"/>
  </tile>
  <tile id="605">
   <image source="tiled/ERW-Grassland 2.0/Props/Static props/sheet1-sprites/wood log 14.png" width="64" height="32"/>
  </tile>
  <tile id="606">
   <image source="tiled/ERW-Grassland 2.0/Props/Static props/sheet1-sprites/wood log 15.png" width="32" height="64"/>
  </tile>
  <tile id="607">
   <image source="tiled/ERW-Grassland 2.0/Props/Static props/sheet1-sprites/wood log 16.png" width="32" height="64"/>
  </tile>
  <tile id="608">
   <image source="tiled/ERW-Grassland 2.0/Props/Static props/sheet1-sprites/wood log 17.png" width="64" height="64"/>
  </tile>
  <tile id="609">
   <image source="tiled/ERW-Grassland 2.0/Props/Static props/sheet1-sprites/wood log 18.png" width="64" height="64"/>
  </tile>
  <tile id="610">
   <image source="tiled/ERW-Grassland 2.0/Props/Static props/sheet1-sprites/wood log 19.png" width="64" height="64"/>
  </tile>
  <tile id="611">
   <image source="tiled/ERW-Grassland 2.0/Props/Static props/sheet1-sprites/wood log 20.png" width="64" height="64"/>
  </tile>
  <tile id="612">
   <image source="tiled/ERW-Grassland 2.0/Props/Static props/sheet1-sprites/wood log 21.png" width="64" height="64"/>
  </tile>
  <tile id="613">
   <image source="tiled/ERW-Grassland 2.0/Props/Static props/sheet1-sprites/wood log 22.png" width="32" height="64"/>
  </tile>
  <tile id="614">
   <image source="tiled/ERW-Grassland 2.0/Props/Static props/sheet1-sprites/wood log 23.png" width="32" height="64"/>
  </tile>
  <tile id="615">
   <image source="tiled/ERW-Grassland 2.0/Props/Static props/sheet1-sprites/wood log 24.png" width="64" height="64"/>
  </tile>
  <tile id="616">
   <image source="tiled/ERW-Grassland 2.0/Props/Static props/sheet1-sprites/wood log 25.png" width="64" height="64"/>
  </tile>
  <tile id="617">
   <image source="tiled/ERW-Grassland 2.0/Props/Static props/sheet1-sprites/wood log 26.png" width="64" height="64"/>
  </tile>
  <tile id="618">
   <image source="tiled/ERW-Grassland 2.0/Props/Static props/sheet1-sprites/wood log 27.png" width="96" height="64"/>
  </tile>
  <tile id="619">
   <image source="tiled/ERW-Grassland 2.0/Props/Static props/sheet1-sprites/wood log 28.png" width="96" height="64"/>
  </tile>
  <tile id="620">
   <image source="tiled/ERW-Grassland 2.0/Props/Static props/sheet1-sprites/wood log 29.png" width="64" height="32"/>
  </tile>
  <tile id="621">
   <image source="tiled/ERW-Grassland 2.0/Props/Static props/sheet1-sprites/wood log 30.png" width="96" height="32"/>
  </tile>
  <tile id="622">
   <image source="tiled/ERW-Grassland 2.0/Props/Static props/sheet1-sprites/wood log 31.png" width="32" height="32"/>
  </tile>
  <tile id="623">
   <image source="tiled/ERW-Grassland 2.0/Props/Static props/sheet1-sprites/wood log 32.png" width="32" height="32"/>
  </tile>
  <tile id="624">
   <image source="tiled/ERW-Grassland 2.0/Props/Static props/sheet1-sprites/wood log 33.png" width="32" height="32"/>
  </tile>
  <tile id="625">
   <image source="tiled/ERW-Grassland 2.0/Props/Static props/sheet1-sprites/wood log 34.png" width="32" height="32"/>
  </tile>
  <tile id="626">
   <image source="tiled/ERW-Grassland 2.0/Props/Static props/sheet1-sprites/wood log 35.png" width="32" height="32"/>
  </tile>
  <tile id="627">
   <image source="tiled/ERW-Grassland 2.0/Props/Static props/sheet1-sprites/wood log 36.png" width="32" height="32"/>
  </tile>
  <tile id="628">
   <image source="tiled/ERW-Grassland 2.0/Props/Static props/sheet1-sprites/wood log 37.png" width="32" height="32"/>
  </tile>
  <tile id="629">
   <image source="tiled/ERW-Grassland 2.0/Props/Static props/sheet1-sprites/wood log 38.png" width="32" height="32"/>
  </tile>
  <tile id="630">
   <image source="tiled/ERW-Grassland 2.0/Props/Static props/sheet1-sprites/woodplank.png" width="64" height="32"/>
  </tile>
  <tile id="631">
   <image source="tiled/ERW-Grassland 2.0/Props/Static props/sheet1-sprites/woodplank2.png" width="64" height="32"/>
  </tile>
  <tile id="632">
   <image source="tiled/ERW-Grassland 2.0/Props/Static props/sheet1-sprites/woodplank3.png" width="32" height="32"/>
  </tile>
  <tile id="633">
   <image source="tiled/ERW-Grassland 2.0/Props/Static props/sheet1-sprites/woodplank4.png" width="32" height="32"/>
  </tile>
  <tile id="634">
   <image source="tiled/ERW-Grassland 2.0/Props/Static props/sheet1-sprites/woodplank5.png" width="32" height="32"/>
  </tile>
  <tile id="635">
   <image source="tiled/ERW-Grassland 2.0/Props/Static props/sheet1-sprites/woodplank6.png" width="32" height="32"/>
  </tile>
  <tile id="636">
   <image source="tiled/ERW-Grassland 2.0/Props/Static props/sheet1-sprites/woodplank7.png" width="32" height="32"/>
  </tile>
  <tile id="637">
   <image source="tiled/ERW-Grassland 2.0/Props/Static props/sheet1-sprites/woodplank8.png" width="64" height="32"/>
  </tile>
  <tile id="638">
   <image source="tiled/ERW-Grassland 2.0/Props/Static props/sheet1-sprites/woodplank9.png" width="32" height="32"/>
  </tile>
 </tileset>
 <tileset firstgid="8560" name="Atlas-Props-sheet2-sprites" tilewidth="352" tileheight="288" tilecount="297" columns="0">
  <grid orientation="orthogonal" width="1" height="1"/>
  <tile id="0">
   <image source="tiled/ERW-Grassland 2.0/Props/Static props/sheet2-sprites/altar - neutral.png" width="288" height="224"/>
  </tile>
  <tile id="1">
   <image source="tiled/ERW-Grassland 2.0/Props/Static props/sheet2-sprites/altar - on grass - complete.png" width="288" height="256"/>
  </tile>
  <tile id="2">
   <image source="tiled/ERW-Grassland 2.0/Props/Static props/sheet2-sprites/altar - only stones.png" width="224" height="128"/>
  </tile>
  <tile id="3">
   <image source="tiled/ERW-Grassland 2.0/Props/Static props/sheet2-sprites/barricade - 1.png" width="64" height="64"/>
  </tile>
  <tile id="4">
   <image source="tiled/ERW-Grassland 2.0/Props/Static props/sheet2-sprites/barricade - 2.png" width="64" height="64"/>
  </tile>
  <tile id="5">
   <image source="tiled/ERW-Grassland 2.0/Props/Static props/sheet2-sprites/barricade - 3.png" width="64" height="64"/>
  </tile>
  <tile id="6">
   <image source="tiled/ERW-Grassland 2.0/Props/Static props/sheet2-sprites/barricade - 4.png" width="64" height="64"/>
  </tile>
  <tile id="7">
   <image source="tiled/ERW-Grassland 2.0/Props/Static props/sheet2-sprites/barricade - 5.png" width="64" height="64"/>
  </tile>
  <tile id="8">
   <image source="tiled/ERW-Grassland 2.0/Props/Static props/sheet2-sprites/barricade - 6.png" width="64" height="64"/>
  </tile>
  <tile id="9">
   <image source="tiled/ERW-Grassland 2.0/Props/Static props/sheet2-sprites/barricade - 8.png" width="64" height="32"/>
  </tile>
  <tile id="10">
   <image source="tiled/ERW-Grassland 2.0/Props/Static props/sheet2-sprites/barricade - 9.png" width="64" height="32"/>
  </tile>
  <tile id="11">
   <image source="tiled/ERW-Grassland 2.0/Props/Static props/sheet2-sprites/barricade - 10.png" width="32" height="64"/>
  </tile>
  <tile id="12">
   <image source="tiled/ERW-Grassland 2.0/Props/Static props/sheet2-sprites/barricade - 11.png" width="32" height="64"/>
  </tile>
  <tile id="13">
   <image source="tiled/ERW-Grassland 2.0/Props/Static props/sheet2-sprites/barricade - spikes - 1.png" width="96" height="64"/>
  </tile>
  <tile id="14">
   <image source="tiled/ERW-Grassland 2.0/Props/Static props/sheet2-sprites/barricade - spikes - 2.png" width="96" height="64"/>
  </tile>
  <tile id="15">
   <image source="tiled/ERW-Grassland 2.0/Props/Static props/sheet2-sprites/barricade - spikes - 3.png" width="64" height="96"/>
  </tile>
  <tile id="16">
   <image source="tiled/ERW-Grassland 2.0/Props/Static props/sheet2-sprites/barricade - spikes - 4.png" width="64" height="96"/>
  </tile>
  <tile id="17">
   <image source="tiled/ERW-Grassland 2.0/Props/Static props/sheet2-sprites/bone - big - 1.png" width="64" height="128"/>
  </tile>
  <tile id="18">
   <image source="tiled/ERW-Grassland 2.0/Props/Static props/sheet2-sprites/bone - big - 2.png" width="64" height="128"/>
  </tile>
  <tile id="19">
   <image source="tiled/ERW-Grassland 2.0/Props/Static props/sheet2-sprites/bone - big - 3.png" width="64" height="128"/>
  </tile>
  <tile id="20">
   <image source="tiled/ERW-Grassland 2.0/Props/Static props/sheet2-sprites/bone - big - 4.png" width="64" height="128"/>
  </tile>
  <tile id="21">
   <image source="tiled/ERW-Grassland 2.0/Props/Static props/sheet2-sprites/bone - big - 5.png" width="64" height="96"/>
  </tile>
  <tile id="22">
   <image source="tiled/ERW-Grassland 2.0/Props/Static props/sheet2-sprites/bone - big - 6.png" width="64" height="96"/>
  </tile>
  <tile id="23">
   <image source="tiled/ERW-Grassland 2.0/Props/Static props/sheet2-sprites/bone - small - 1.png" width="32" height="32"/>
  </tile>
  <tile id="24">
   <image source="tiled/ERW-Grassland 2.0/Props/Static props/sheet2-sprites/bone - small - 2.png" width="32" height="32"/>
  </tile>
  <tile id="25">
   <image source="tiled/ERW-Grassland 2.0/Props/Static props/sheet2-sprites/bone - small - 3.png" width="32" height="32"/>
  </tile>
  <tile id="26">
   <image source="tiled/ERW-Grassland 2.0/Props/Static props/sheet2-sprites/bone - small - 4.png" width="32" height="32"/>
  </tile>
  <tile id="27">
   <image source="tiled/ERW-Grassland 2.0/Props/Static props/sheet2-sprites/bone - small - 5.png" width="32" height="32"/>
  </tile>
  <tile id="28">
   <image source="tiled/ERW-Grassland 2.0/Props/Static props/sheet2-sprites/bone - small - 6.png" width="32" height="32"/>
  </tile>
  <tile id="29">
   <image source="tiled/ERW-Grassland 2.0/Props/Static props/sheet2-sprites/bone - small - 7.png" width="64" height="32"/>
  </tile>
  <tile id="30">
   <image source="tiled/ERW-Grassland 2.0/Props/Static props/sheet2-sprites/bone - small - 8.png" width="32" height="32"/>
  </tile>
  <tile id="31">
   <image source="tiled/ERW-Grassland 2.0/Props/Static props/sheet2-sprites/bone - small - 9.png" width="32" height="32"/>
  </tile>
  <tile id="32">
   <image source="tiled/ERW-Grassland 2.0/Props/Static props/sheet2-sprites/bone - small - 10.png" width="32" height="32"/>
  </tile>
  <tile id="33">
   <image source="tiled/ERW-Grassland 2.0/Props/Static props/sheet2-sprites/bone - small - 11.png" width="32" height="32"/>
  </tile>
  <tile id="34">
   <image source="tiled/ERW-Grassland 2.0/Props/Static props/sheet2-sprites/bone - small - 12.png" width="32" height="32"/>
  </tile>
  <tile id="35">
   <image source="tiled/ERW-Grassland 2.0/Props/Static props/sheet2-sprites/bone - small - 13.png" width="32" height="32"/>
  </tile>
  <tile id="36">
   <image source="tiled/ERW-Grassland 2.0/Props/Static props/sheet2-sprites/bone - small - 14.png" width="64" height="32"/>
  </tile>
  <tile id="37">
   <image source="tiled/ERW-Grassland 2.0/Props/Static props/sheet2-sprites/cabin interior - bear carpet.png" width="64" height="96"/>
  </tile>
  <tile id="38">
   <image source="tiled/ERW-Grassland 2.0/Props/Static props/sheet2-sprites/cabin interior - bed - pillow.png" width="64" height="96"/>
  </tile>
  <tile id="39">
   <image source="tiled/ERW-Grassland 2.0/Props/Static props/sheet2-sprites/cabin interior - bed.png" width="64" height="96"/>
  </tile>
  <tile id="40">
   <image source="tiled/ERW-Grassland 2.0/Props/Static props/sheet2-sprites/cabin interior - bench.png" width="32" height="32"/>
  </tile>
  <tile id="41">
   <image source="tiled/ERW-Grassland 2.0/Props/Static props/sheet2-sprites/cabin interior - cabin interior - light.png" width="192" height="128"/>
  </tile>
  <tile id="42">
   <image source="tiled/ERW-Grassland 2.0/Props/Static props/sheet2-sprites/cabin interior - carpet.png" width="32" height="64"/>
  </tile>
  <tile id="43">
   <image source="tiled/ERW-Grassland 2.0/Props/Static props/sheet2-sprites/cabin interior - chest tissue.png" width="64" height="32"/>
  </tile>
  <tile id="44">
   <image source="tiled/ERW-Grassland 2.0/Props/Static props/sheet2-sprites/cabin interior - light2.png" width="224" height="128"/>
  </tile>
  <tile id="45">
   <image source="tiled/ERW-Grassland 2.0/Props/Static props/sheet2-sprites/cabin interior - pan 1.png" width="32" height="32"/>
  </tile>
  <tile id="46">
   <image source="tiled/ERW-Grassland 2.0/Props/Static props/sheet2-sprites/cabin interior - pan 2.png" width="32" height="32"/>
  </tile>
  <tile id="47">
   <image source="tiled/ERW-Grassland 2.0/Props/Static props/sheet2-sprites/cabin interior - pans.png" width="32" height="32"/>
  </tile>
  <tile id="48">
   <image source="tiled/ERW-Grassland 2.0/Props/Static props/sheet2-sprites/cabin interior - pilow.png" width="64" height="32"/>
  </tile>
  <tile id="49">
   <image source="tiled/ERW-Grassland 2.0/Props/Static props/sheet2-sprites/cabin interior - side table.png" width="32" height="96"/>
  </tile>
  <tile id="50">
   <image source="tiled/ERW-Grassland 2.0/Props/Static props/sheet2-sprites/cabin interior - wooden chest 1 - tissue.png" width="64" height="32"/>
  </tile>
  <tile id="51">
   <image source="tiled/ERW-Grassland 2.0/Props/Static props/sheet2-sprites/cabin interior - wooden chest 1.png" width="64" height="32"/>
  </tile>
  <tile id="52">
   <image source="tiled/ERW-Grassland 2.0/Props/Static props/sheet2-sprites/cabin interior - wooden chest 2 - tissue.png" width="64" height="32"/>
  </tile>
  <tile id="53">
   <image source="tiled/ERW-Grassland 2.0/Props/Static props/sheet2-sprites/cabin interior - wooden chest 2.png" width="64" height="32"/>
  </tile>
  <tile id="54">
   <image source="tiled/ERW-Grassland 2.0/Props/Static props/sheet2-sprites/cabin interior - wooden chest 3 - tissue.png" width="64" height="32"/>
  </tile>
  <tile id="55">
   <image source="tiled/ERW-Grassland 2.0/Props/Static props/sheet2-sprites/cabin interior - wooden chest 3.png" width="64" height="32"/>
  </tile>
  <tile id="56">
   <image source="tiled/ERW-Grassland 2.0/Props/Static props/sheet2-sprites/carriage - broken.png" width="160" height="160"/>
  </tile>
  <tile id="57">
   <image source="tiled/ERW-Grassland 2.0/Props/Static props/sheet2-sprites/carriage - complete - on grass.png" width="160" height="160"/>
  </tile>
  <tile id="58">
   <image source="tiled/ERW-Grassland 2.0/Props/Static props/sheet2-sprites/carriage - complete.png" width="160" height="160"/>
  </tile>
  <tile id="59">
   <image source="tiled/ERW-Grassland 2.0/Props/Static props/sheet2-sprites/carriage - no tent - on grass.png" width="160" height="160"/>
  </tile>
  <tile id="60">
   <image source="tiled/ERW-Grassland 2.0/Props/Static props/sheet2-sprites/carriage - no tent.png" width="160" height="160"/>
  </tile>
  <tile id="61">
   <image source="tiled/ERW-Grassland 2.0/Props/Static props/sheet2-sprites/carriage - no tent1.png" width="160" height="160"/>
  </tile>
  <tile id="62">
   <image source="tiled/ERW-Grassland 2.0/Props/Static props/sheet2-sprites/carriage - no tent2 - on grass.png" width="160" height="160"/>
  </tile>
  <tile id="63">
   <image source="tiled/ERW-Grassland 2.0/Props/Static props/sheet2-sprites/carriage - on grass - broken.png" width="160" height="160"/>
  </tile>
  <tile id="64">
   <image source="tiled/ERW-Grassland 2.0/Props/Static props/sheet2-sprites/carriage - tent support - 1.png" width="32" height="64"/>
  </tile>
  <tile id="65">
   <image source="tiled/ERW-Grassland 2.0/Props/Static props/sheet2-sprites/carriage - tent support - 2.png" width="32" height="64"/>
  </tile>
  <tile id="66">
   <image source="tiled/ERW-Grassland 2.0/Props/Static props/sheet2-sprites/carriage - tent support - 3.png" width="32" height="32"/>
  </tile>
  <tile id="67">
   <image source="tiled/ERW-Grassland 2.0/Props/Static props/sheet2-sprites/carriage - tent support - 4.png" width="32" height="32"/>
  </tile>
  <tile id="68">
   <image source="tiled/ERW-Grassland 2.0/Props/Static props/sheet2-sprites/carriage - tent support - 5.png" width="32" height="32"/>
  </tile>
  <tile id="69">
   <image source="tiled/ERW-Grassland 2.0/Props/Static props/sheet2-sprites/carriage - tent support - 6.png" width="32" height="32"/>
  </tile>
  <tile id="70">
   <image source="tiled/ERW-Grassland 2.0/Props/Static props/sheet2-sprites/grass tufts 1.png" width="64" height="32"/>
  </tile>
  <tile id="71">
   <image source="tiled/ERW-Grassland 2.0/Props/Static props/sheet2-sprites/grass tufts 2.png" width="64" height="32"/>
  </tile>
  <tile id="72">
   <image source="tiled/ERW-Grassland 2.0/Props/Static props/sheet2-sprites/grass tufts 3.png" width="32" height="32"/>
  </tile>
  <tile id="73">
   <image source="tiled/ERW-Grassland 2.0/Props/Static props/sheet2-sprites/grass tufts 4.png" width="96" height="32"/>
  </tile>
  <tile id="74">
   <image source="tiled/ERW-Grassland 2.0/Props/Static props/sheet2-sprites/grass tufts 5.png" width="32" height="32"/>
  </tile>
  <tile id="75">
   <image source="tiled/ERW-Grassland 2.0/Props/Static props/sheet2-sprites/grass tufts 6.png" width="32" height="32"/>
  </tile>
  <tile id="76">
   <image source="tiled/ERW-Grassland 2.0/Props/Static props/sheet2-sprites/grass tufts 7.png" width="32" height="32"/>
  </tile>
  <tile id="77">
   <image source="tiled/ERW-Grassland 2.0/Props/Static props/sheet2-sprites/grass tufts 8.png" width="32" height="32"/>
  </tile>
  <tile id="78">
   <image source="tiled/ERW-Grassland 2.0/Props/Static props/sheet2-sprites/grass tufts 9.png" width="32" height="32"/>
  </tile>
  <tile id="79">
   <image source="tiled/ERW-Grassland 2.0/Props/Static props/sheet2-sprites/grass tufts 10.png" width="32" height="32"/>
  </tile>
  <tile id="80">
   <image source="tiled/ERW-Grassland 2.0/Props/Static props/sheet2-sprites/grass tufts 11.png" width="32" height="32"/>
  </tile>
  <tile id="81">
   <image source="tiled/ERW-Grassland 2.0/Props/Static props/sheet2-sprites/grass tufts 12.png" width="32" height="32"/>
  </tile>
  <tile id="82">
   <image source="tiled/ERW-Grassland 2.0/Props/Static props/sheet2-sprites/grass tufts 13.png" width="32" height="32"/>
  </tile>
  <tile id="83">
   <image source="tiled/ERW-Grassland 2.0/Props/Static props/sheet2-sprites/grass tufts 14.png" width="32" height="32"/>
  </tile>
  <tile id="84">
   <image source="tiled/ERW-Grassland 2.0/Props/Static props/sheet2-sprites/grass tufts 15.png" width="32" height="32"/>
  </tile>
  <tile id="85">
   <image source="tiled/ERW-Grassland 2.0/Props/Static props/sheet2-sprites/grass tufts 16.png" width="32" height="32"/>
  </tile>
  <tile id="86">
   <image source="tiled/ERW-Grassland 2.0/Props/Static props/sheet2-sprites/grass tufts 17.png" width="32" height="32"/>
  </tile>
  <tile id="87">
   <image source="tiled/ERW-Grassland 2.0/Props/Static props/sheet2-sprites/grass tufts 18.png" width="32" height="32"/>
  </tile>
  <tile id="88">
   <image source="tiled/ERW-Grassland 2.0/Props/Static props/sheet2-sprites/grass tufts 19.png" width="64" height="32"/>
  </tile>
  <tile id="89">
   <image source="tiled/ERW-Grassland 2.0/Props/Static props/sheet2-sprites/grass tufts 20.png" width="64" height="32"/>
  </tile>
  <tile id="90">
   <image source="tiled/ERW-Grassland 2.0/Props/Static props/sheet2-sprites/grass tufts 21.png" width="64" height="32"/>
  </tile>
  <tile id="91">
   <image source="tiled/ERW-Grassland 2.0/Props/Static props/sheet2-sprites/grass tufts 22.png" width="352" height="32"/>
  </tile>
  <tile id="92">
   <image source="tiled/ERW-Grassland 2.0/Props/Static props/sheet2-sprites/grass tufts 23.png" width="32" height="32"/>
  </tile>
  <tile id="93">
   <image source="tiled/ERW-Grassland 2.0/Props/Static props/sheet2-sprites/grass tufts 24.png" width="32" height="32"/>
  </tile>
  <tile id="94">
   <image source="tiled/ERW-Grassland 2.0/Props/Static props/sheet2-sprites/grass tufts 25.png" width="32" height="32"/>
  </tile>
  <tile id="95">
   <image source="tiled/ERW-Grassland 2.0/Props/Static props/sheet2-sprites/grass tufts 26.png" width="32" height="32"/>
  </tile>
  <tile id="96">
   <image source="tiled/ERW-Grassland 2.0/Props/Static props/sheet2-sprites/grass tufts 27.png" width="32" height="32"/>
  </tile>
  <tile id="97">
   <image source="tiled/ERW-Grassland 2.0/Props/Static props/sheet2-sprites/grass tufts 28.png" width="32" height="32"/>
  </tile>
  <tile id="98">
   <image source="tiled/ERW-Grassland 2.0/Props/Static props/sheet2-sprites/grass tufts 29.png" width="32" height="32"/>
  </tile>
  <tile id="99">
   <image source="tiled/ERW-Grassland 2.0/Props/Static props/sheet2-sprites/grass tufts 30.png" width="32" height="32"/>
  </tile>
  <tile id="100">
   <image source="tiled/ERW-Grassland 2.0/Props/Static props/sheet2-sprites/grass tufts 31.png" width="32" height="32"/>
  </tile>
  <tile id="101">
   <image source="tiled/ERW-Grassland 2.0/Props/Static props/sheet2-sprites/grass tufts 32.png" width="32" height="32"/>
  </tile>
  <tile id="102">
   <image source="tiled/ERW-Grassland 2.0/Props/Static props/sheet2-sprites/shrine 1 - bowl 1.png" width="32" height="32"/>
  </tile>
  <tile id="103">
   <image source="tiled/ERW-Grassland 2.0/Props/Static props/sheet2-sprites/shrine 1 - bowl 2.png" width="32" height="32"/>
  </tile>
  <tile id="104">
   <image source="tiled/ERW-Grassland 2.0/Props/Static props/sheet2-sprites/shrine 1 - only support1.png" width="64" height="64"/>
  </tile>
  <tile id="105">
   <image source="tiled/ERW-Grassland 2.0/Props/Static props/sheet2-sprites/shrine 1 - only support2 .png" width="64" height="64"/>
  </tile>
  <tile id="106">
   <image source="tiled/ERW-Grassland 2.0/Props/Static props/sheet2-sprites/shrine 1 - support 1 - on grass.png" width="64" height="64"/>
  </tile>
  <tile id="107">
   <image source="tiled/ERW-Grassland 2.0/Props/Static props/sheet2-sprites/shrine 1 - support 2 - on grass.png" width="64" height="64"/>
  </tile>
  <tile id="108">
   <image source="tiled/ERW-Grassland 2.0/Props/Static props/sheet2-sprites/shrine 1 - support 2.png" width="64" height="64"/>
  </tile>
  <tile id="109">
   <image source="tiled/ERW-Grassland 2.0/Props/Static props/sheet2-sprites/shrine 1 - support 3 - on grass.png" width="64" height="64"/>
  </tile>
  <tile id="110">
   <image source="tiled/ERW-Grassland 2.0/Props/Static props/sheet2-sprites/shrine 1 - support 3.png" width="64" height="64"/>
  </tile>
  <tile id="111">
   <image source="tiled/ERW-Grassland 2.0/Props/Static props/sheet2-sprites/shrine 1 - support 4 - 1 - on grass.png" width="64" height="64"/>
  </tile>
  <tile id="112">
   <image source="tiled/ERW-Grassland 2.0/Props/Static props/sheet2-sprites/shrine 1 - support 4 - 1.png" width="64" height="64"/>
  </tile>
  <tile id="113">
   <image source="tiled/ERW-Grassland 2.0/Props/Static props/sheet2-sprites/shrine 1 - support 4 - on grass.png" width="64" height="64"/>
  </tile>
  <tile id="114">
   <image source="tiled/ERW-Grassland 2.0/Props/Static props/sheet2-sprites/shrine 1 - support 4.png" width="64" height="64"/>
  </tile>
  <tile id="115">
   <image source="tiled/ERW-Grassland 2.0/Props/Static props/sheet2-sprites/shrine 1.png" width="64" height="64"/>
  </tile>
  <tile id="116">
   <image source="tiled/ERW-Grassland 2.0/Props/Static props/sheet2-sprites/shrine 2 - base - on grass.png" width="192" height="128"/>
  </tile>
  <tile id="117">
   <image source="tiled/ERW-Grassland 2.0/Props/Static props/sheet2-sprites/shrine 2 - base.png" width="192" height="128"/>
  </tile>
  <tile id="118">
   <image source="tiled/ERW-Grassland 2.0/Props/Static props/sheet2-sprites/shrine 2 - pilar - on grass.png" width="64" height="128"/>
  </tile>
  <tile id="119">
   <image source="tiled/ERW-Grassland 2.0/Props/Static props/sheet2-sprites/shrine 2 - pilar.png" width="64" height="128"/>
  </tile>
  <tile id="120">
   <image source="tiled/ERW-Grassland 2.0/Props/Static props/sheet2-sprites/shrine 2 - smaller pilar - on grass.png" width="64" height="128"/>
  </tile>
  <tile id="121">
   <image source="tiled/ERW-Grassland 2.0/Props/Static props/sheet2-sprites/shrine 2 - smaller pilar.png" width="64" height="128"/>
  </tile>
  <tile id="122">
   <image source="tiled/ERW-Grassland 2.0/Props/Static props/sheet2-sprites/spikes 1.png" width="64" height="32"/>
  </tile>
  <tile id="123">
   <image source="tiled/ERW-Grassland 2.0/Props/Static props/sheet2-sprites/spikes 2.png" width="64" height="64"/>
  </tile>
  <tile id="124">
   <image source="tiled/ERW-Grassland 2.0/Props/Static props/sheet2-sprites/spikes 3.png" width="32" height="64"/>
  </tile>
  <tile id="125">
   <image source="tiled/ERW-Grassland 2.0/Props/Static props/sheet2-sprites/spikes 4.png" width="32" height="64"/>
  </tile>
  <tile id="126">
   <image source="tiled/ERW-Grassland 2.0/Props/Static props/sheet2-sprites/spikes 5.png" width="32" height="32"/>
  </tile>
  <tile id="127">
   <image source="tiled/ERW-Grassland 2.0/Props/Static props/sheet2-sprites/spikes 6.png" width="32" height="32"/>
  </tile>
  <tile id="128">
   <image source="tiled/ERW-Grassland 2.0/Props/Static props/sheet2-sprites/spikes 7.png" width="32" height="32"/>
  </tile>
  <tile id="129">
   <image source="tiled/ERW-Grassland 2.0/Props/Static props/sheet2-sprites/standard - flag.png" width="96" height="128"/>
  </tile>
  <tile id="130">
   <image source="tiled/ERW-Grassland 2.0/Props/Static props/sheet2-sprites/standard - only flag.png" width="64" height="96"/>
  </tile>
  <tile id="131">
   <image source="tiled/ERW-Grassland 2.0/Props/Static props/sheet2-sprites/standard - only gravel portion.png" width="96" height="64"/>
  </tile>
  <tile id="132">
   <image source="tiled/ERW-Grassland 2.0/Props/Static props/sheet2-sprites/standard 2.png" width="96" height="96"/>
  </tile>
  <tile id="133">
   <image source="tiled/ERW-Grassland 2.0/Props/Static props/sheet2-sprites/standard.png" width="96" height="128"/>
  </tile>
  <tile id="134">
   <image source="tiled/ERW-Grassland 2.0/Props/Static props/sheet2-sprites/stronghold - embranchment section - down - for z ordering.png" width="128" height="64"/>
  </tile>
  <tile id="135">
   <image source="tiled/ERW-Grassland 2.0/Props/Static props/sheet2-sprites/stronghold - embranchment section - down - on grass.png" width="128" height="96"/>
  </tile>
  <tile id="136">
   <image source="tiled/ERW-Grassland 2.0/Props/Static props/sheet2-sprites/stronghold - embranchment section - down.png" width="128" height="96"/>
  </tile>
  <tile id="137">
   <image source="tiled/ERW-Grassland 2.0/Props/Static props/sheet2-sprites/stronghold - embranchment section - for z ordering.png" width="192" height="96"/>
  </tile>
  <tile id="138">
   <image source="tiled/ERW-Grassland 2.0/Props/Static props/sheet2-sprites/stronghold - embranchment section - left - for z ordering.png" width="32" height="64"/>
  </tile>
  <tile id="139">
   <image source="tiled/ERW-Grassland 2.0/Props/Static props/sheet2-sprites/stronghold - embranchment section - left - on grass.png" width="64" height="192"/>
  </tile>
  <tile id="140">
   <image source="tiled/ERW-Grassland 2.0/Props/Static props/sheet2-sprites/stronghold - embranchment section - left.png" width="32" height="160"/>
  </tile>
  <tile id="141">
   <image source="tiled/ERW-Grassland 2.0/Props/Static props/sheet2-sprites/stronghold - embranchment section - on grass.png" width="192" height="256"/>
  </tile>
  <tile id="142">
   <image source="tiled/ERW-Grassland 2.0/Props/Static props/sheet2-sprites/stronghold - embranchment section - right - for z ordering.png" width="32" height="64"/>
  </tile>
  <tile id="143">
   <image source="tiled/ERW-Grassland 2.0/Props/Static props/sheet2-sprites/stronghold - embranchment section - right - on grass.png" width="64" height="192"/>
  </tile>
  <tile id="144">
   <image source="tiled/ERW-Grassland 2.0/Props/Static props/sheet2-sprites/stronghold - embranchment section - right.png" width="32" height="160"/>
  </tile>
  <tile id="145">
   <image source="tiled/ERW-Grassland 2.0/Props/Static props/sheet2-sprites/stronghold - embranchment section - up - on grass.png" width="128" height="64"/>
  </tile>
  <tile id="146">
   <image source="tiled/ERW-Grassland 2.0/Props/Static props/sheet2-sprites/stronghold - embranchment section.png" width="192" height="224"/>
  </tile>
  <tile id="147">
   <image source="tiled/ERW-Grassland 2.0/Props/Static props/sheet2-sprites/stronghold - gate - left section - for z ordering.png" width="32" height="32"/>
  </tile>
  <tile id="148">
   <image source="tiled/ERW-Grassland 2.0/Props/Static props/sheet2-sprites/stronghold - gate - left section - on grass.png" width="64" height="224"/>
  </tile>
  <tile id="149">
   <image source="tiled/ERW-Grassland 2.0/Props/Static props/sheet2-sprites/stronghold - gate - right section - for z ordering.png" width="32" height="32"/>
  </tile>
  <tile id="150">
   <image source="tiled/ERW-Grassland 2.0/Props/Static props/sheet2-sprites/stronghold - gate - right section - on grass.png" width="64" height="224"/>
  </tile>
  <tile id="151">
   <image source="tiled/ERW-Grassland 2.0/Props/Static props/sheet2-sprites/stronghold - horizontal - end - on grass.png" width="64" height="160"/>
  </tile>
  <tile id="152">
   <image source="tiled/ERW-Grassland 2.0/Props/Static props/sheet2-sprites/stronghold - horizontal - end.png" width="64" height="160"/>
  </tile>
  <tile id="153">
   <image source="tiled/ERW-Grassland 2.0/Props/Static props/sheet2-sprites/stronghold - horizontal - entrance - on grass.png" width="160" height="192"/>
  </tile>
  <tile id="154">
   <image source="tiled/ERW-Grassland 2.0/Props/Static props/sheet2-sprites/stronghold - horizontal - entrance.png" width="160" height="192"/>
  </tile>
  <tile id="155">
   <image source="tiled/ERW-Grassland 2.0/Props/Static props/sheet2-sprites/stronghold - horizontal - for z ordering.png" width="96" height="64"/>
  </tile>
  <tile id="156">
   <image source="tiled/ERW-Grassland 2.0/Props/Static props/sheet2-sprites/stronghold - horizontal - on grass.png" width="96" height="160"/>
  </tile>
  <tile id="157">
   <image source="tiled/ERW-Grassland 2.0/Props/Static props/sheet2-sprites/stronghold - horizontal.png" width="96" height="160"/>
  </tile>
  <tile id="158">
   <image source="tiled/ERW-Grassland 2.0/Props/Static props/sheet2-sprites/stronghold - horizontal2 - for z ordering.png" width="128" height="64"/>
  </tile>
  <tile id="159">
   <image source="tiled/ERW-Grassland 2.0/Props/Static props/sheet2-sprites/stronghold - horizontal2 - on grass.png" width="128" height="160"/>
  </tile>
  <tile id="160">
   <image source="tiled/ERW-Grassland 2.0/Props/Static props/sheet2-sprites/stronghold - horizontal2.png" width="128" height="160"/>
  </tile>
  <tile id="161">
   <image source="tiled/ERW-Grassland 2.0/Props/Static props/sheet2-sprites/stronghold - vertical - end.png" width="64" height="64"/>
  </tile>
  <tile id="162">
   <image source="tiled/ERW-Grassland 2.0/Props/Static props/sheet2-sprites/stronghold - vertical - end2 - on grass.png" width="128" height="128"/>
  </tile>
  <tile id="163">
   <image source="tiled/ERW-Grassland 2.0/Props/Static props/sheet2-sprites/stronghold - vertical - end2.png" width="128" height="128"/>
  </tile>
  <tile id="164">
   <image source="tiled/ERW-Grassland 2.0/Props/Static props/sheet2-sprites/stronghold - vertical - on grass.png" width="128" height="128"/>
  </tile>
  <tile id="165">
   <image source="tiled/ERW-Grassland 2.0/Props/Static props/sheet2-sprites/stronghold - vertical2 - on grass.png" width="128" height="96"/>
  </tile>
  <tile id="166">
   <image source="tiled/ERW-Grassland 2.0/Props/Static props/sheet2-sprites/tent 1 - on grass.png" width="320" height="288"/>
  </tile>
  <tile id="167">
   <image source="tiled/ERW-Grassland 2.0/Props/Static props/sheet2-sprites/tent 1 - small - on grass.png" width="160" height="160"/>
  </tile>
  <tile id="168">
   <image source="tiled/ERW-Grassland 2.0/Props/Static props/sheet2-sprites/tent 1 - small.png" width="160" height="160"/>
  </tile>
  <tile id="169">
   <image source="tiled/ERW-Grassland 2.0/Props/Static props/sheet2-sprites/tent 1.png" width="320" height="288"/>
  </tile>
  <tile id="170">
   <image source="tiled/ERW-Grassland 2.0/Props/Static props/sheet2-sprites/tent 2 - on grass.png" width="320" height="288"/>
  </tile>
  <tile id="171">
   <image source="tiled/ERW-Grassland 2.0/Props/Static props/sheet2-sprites/tent 2 - small - on grass.png" width="160" height="160"/>
  </tile>
  <tile id="172">
   <image source="tiled/ERW-Grassland 2.0/Props/Static props/sheet2-sprites/tent 2 - small .png" width="160" height="160"/>
  </tile>
  <tile id="173">
   <image source="tiled/ERW-Grassland 2.0/Props/Static props/sheet2-sprites/tent 2.png" width="320" height="288"/>
  </tile>
  <tile id="174">
   <image source="tiled/ERW-Grassland 2.0/Props/Static props/sheet2-sprites/throne - on grass.png" width="192" height="128"/>
  </tile>
  <tile id="175">
   <image source="tiled/ERW-Grassland 2.0/Props/Static props/sheet2-sprites/throne.png" width="192" height="128"/>
  </tile>
  <tile id="176">
   <image source="tiled/ERW-Grassland 2.0/Props/Static props/sheet2-sprites/vendor - bench.png" width="32" height="32"/>
  </tile>
  <tile id="177">
   <image source="tiled/ERW-Grassland 2.0/Props/Static props/sheet2-sprites/vendor - crate 1.png" width="64" height="64"/>
  </tile>
  <tile id="178">
   <image source="tiled/ERW-Grassland 2.0/Props/Static props/sheet2-sprites/vendor - crate 2.png" width="64" height="64"/>
  </tile>
  <tile id="179">
   <image source="tiled/ERW-Grassland 2.0/Props/Static props/sheet2-sprites/vendor - crate 3.png" width="64" height="64"/>
  </tile>
  <tile id="180">
   <image source="tiled/ERW-Grassland 2.0/Props/Static props/sheet2-sprites/vendor - potion 1.png" width="32" height="32"/>
  </tile>
  <tile id="181">
   <image source="tiled/ERW-Grassland 2.0/Props/Static props/sheet2-sprites/vendor - potion 2.png" width="32" height="32"/>
  </tile>
  <tile id="182">
   <image source="tiled/ERW-Grassland 2.0/Props/Static props/sheet2-sprites/vendor - potion 3.png" width="32" height="32"/>
  </tile>
  <tile id="183">
   <image source="tiled/ERW-Grassland 2.0/Props/Static props/sheet2-sprites/vendor - potion 4.png" width="32" height="32"/>
  </tile>
  <tile id="184">
   <image source="tiled/ERW-Grassland 2.0/Props/Static props/sheet2-sprites/vendor - pouch - 1.png" width="32" height="32"/>
  </tile>
  <tile id="185">
   <image source="tiled/ERW-Grassland 2.0/Props/Static props/sheet2-sprites/vendor - pouch - 2.png" width="32" height="32"/>
  </tile>
  <tile id="186">
   <image source="tiled/ERW-Grassland 2.0/Props/Static props/sheet2-sprites/vendor - pouch - 3.png" width="32" height="32"/>
  </tile>
  <tile id="187">
   <image source="tiled/ERW-Grassland 2.0/Props/Static props/sheet2-sprites/vendor - scroll paper - 1.png" width="32" height="32"/>
  </tile>
  <tile id="188">
   <image source="tiled/ERW-Grassland 2.0/Props/Static props/sheet2-sprites/vendor - scroll paper - 2.png" width="32" height="32"/>
  </tile>
  <tile id="189">
   <image source="tiled/ERW-Grassland 2.0/Props/Static props/sheet2-sprites/vendor - vase - 1.png" width="32" height="32"/>
  </tile>
  <tile id="190">
   <image source="tiled/ERW-Grassland 2.0/Props/Static props/sheet2-sprites/vendor - vase - 2.png" width="32" height="32"/>
  </tile>
  <tile id="191">
   <image source="tiled/ERW-Grassland 2.0/Props/Static props/sheet2-sprites/vendor - vase - 3.png" width="32" height="32"/>
  </tile>
  <tile id="192">
   <image source="tiled/ERW-Grassland 2.0/Props/Static props/sheet2-sprites/vendor - vase - 4.png" width="32" height="32"/>
  </tile>
  <tile id="193">
   <image source="tiled/ERW-Grassland 2.0/Props/Static props/sheet2-sprites/vendor - vase - 5.png" width="32" height="32"/>
  </tile>
  <tile id="194">
   <image source="tiled/ERW-Grassland 2.0/Props/Static props/sheet2-sprites/vendor - vase - 6.png" width="32" height="32"/>
  </tile>
  <tile id="195">
   <image source="tiled/ERW-Grassland 2.0/Props/Static props/sheet2-sprites/vendor structure - complete - on grass.png" width="288" height="192"/>
  </tile>
  <tile id="196">
   <image source="tiled/ERW-Grassland 2.0/Props/Static props/sheet2-sprites/vendor structure - complete.png" width="256" height="192"/>
  </tile>
  <tile id="197">
   <image source="tiled/ERW-Grassland 2.0/Props/Static props/sheet2-sprites/vendor structure - naked.png" width="256" height="160"/>
  </tile>
  <tile id="198">
   <image source="tiled/ERW-Grassland 2.0/Props/Static props/sheet2-sprites/vendor structure - tissue on top.png" width="160" height="64"/>
  </tile>
  <tile id="199">
   <image source="tiled/ERW-Grassland 2.0/Props/Static props/sheet2-sprites/vendor structure - wheel.png" width="64" height="64"/>
  </tile>
  <tile id="200">
   <image source="tiled/ERW-Grassland 2.0/Props/Static props/sheet2-sprites/watchtower - back  - base section with neutral shadow.png" width="128" height="64"/>
  </tile>
  <tile id="201">
   <image source="tiled/ERW-Grassland 2.0/Props/Static props/sheet2-sprites/watchtower - back.png" width="128" height="224"/>
  </tile>
  <tile id="202">
   <image source="tiled/ERW-Grassland 2.0/Props/Static props/sheet2-sprites/watchtower - flag.png" width="64" height="64"/>
  </tile>
  <tile id="203">
   <image source="tiled/ERW-Grassland 2.0/Props/Static props/sheet2-sprites/watchtower - front  - base section with neutral shadow.png" width="128" height="64"/>
  </tile>
  <tile id="204">
   <image source="tiled/ERW-Grassland 2.0/Props/Static props/sheet2-sprites/watchtower - front.png" width="128" height="224"/>
  </tile>
  <tile id="205">
   <image source="tiled/ERW-Grassland 2.0/Props/Static props/sheet2-sprites/watchtower - stairs - size 1 - back.png" width="32" height="128"/>
  </tile>
  <tile id="206">
   <image source="tiled/ERW-Grassland 2.0/Props/Static props/sheet2-sprites/watchtower - stairs - size 1 - front.png" width="32" height="128"/>
  </tile>
  <tile id="207">
   <image source="tiled/ERW-Grassland 2.0/Props/Static props/sheet2-sprites/watchtower - stairs - size 2 - back.png" width="32" height="96"/>
  </tile>
  <tile id="208">
   <image source="tiled/ERW-Grassland 2.0/Props/Static props/sheet2-sprites/watchtower - stairs - size 2 - front.png" width="32" height="96"/>
  </tile>
  <tile id="209">
   <image source="tiled/ERW-Grassland 2.0/Props/Static props/sheet2-sprites/watchtower - stairs - size 3 - back.png" width="32" height="64"/>
  </tile>
  <tile id="210">
   <image source="tiled/ERW-Grassland 2.0/Props/Static props/sheet2-sprites/watchtower - stairs - size 3 - front.png" width="32" height="64"/>
  </tile>
  <tile id="211">
   <image source="tiled/ERW-Grassland 2.0/Props/Static props/sheet2-sprites/weapon support - where the weapons hang.png" width="256" height="160"/>
  </tile>
  <tile id="212">
   <image source="tiled/ERW-Grassland 2.0/Props/Static props/sheet2-sprites/weapons - big axe.png" width="32" height="32"/>
  </tile>
  <tile id="213">
   <image source="tiled/ERW-Grassland 2.0/Props/Static props/sheet2-sprites/weapons - hammer.png" width="32" height="64"/>
  </tile>
  <tile id="214">
   <image source="tiled/ERW-Grassland 2.0/Props/Static props/sheet2-sprites/weapons - knife on the table.png" width="32" height="32"/>
  </tile>
  <tile id="215">
   <image source="tiled/ERW-Grassland 2.0/Props/Static props/sheet2-sprites/weapons - machete.png" width="32" height="64"/>
  </tile>
  <tile id="216">
   <image source="tiled/ERW-Grassland 2.0/Props/Static props/sheet2-sprites/weapons - scythe ish.png" width="32" height="64"/>
  </tile>
  <tile id="217">
   <image source="tiled/ERW-Grassland 2.0/Props/Static props/sheet2-sprites/weapons - small axe.png" width="32" height="32"/>
  </tile>
  <tile id="218">
   <image source="tiled/ERW-Grassland 2.0/Props/Static props/sheet2-sprites/weapons - spear.png" width="32" height="64"/>
  </tile>
  <tile id="219">
   <image source="tiled/ERW-Grassland 2.0/Props/Static props/sheet2-sprites/weapons - sword on any floor 1.png" width="64" height="32"/>
  </tile>
  <tile id="220">
   <image source="tiled/ERW-Grassland 2.0/Props/Static props/sheet2-sprites/weapons - sword on any floor 2.png" width="32" height="64"/>
  </tile>
  <tile id="221">
   <image source="tiled/ERW-Grassland 2.0/Props/Static props/sheet2-sprites/weapons - sword on grass 2.png" width="64" height="32"/>
  </tile>
  <tile id="222">
   <image source="tiled/ERW-Grassland 2.0/Props/Static props/sheet2-sprites/weapons - sword on grass 3.png" width="32" height="64"/>
  </tile>
  <tile id="223">
   <image source="tiled/ERW-Grassland 2.0/Props/Static props/sheet2-sprites/weapons - sword on grass.png" width="64" height="32"/>
  </tile>
  <tile id="224">
   <image source="tiled/ERW-Grassland 2.0/Props/Static props/sheet2-sprites/weapons - sword.png" width="32" height="64"/>
  </tile>
  <tile id="225">
   <image source="tiled/ERW-Grassland 2.0/Props/Static props/sheet2-sprites/wood log - big - no rope - 1.png" width="32" height="96"/>
  </tile>
  <tile id="226">
   <image source="tiled/ERW-Grassland 2.0/Props/Static props/sheet2-sprites/wood log - big - no rope - 2.png" width="32" height="96"/>
  </tile>
  <tile id="227">
   <image source="tiled/ERW-Grassland 2.0/Props/Static props/sheet2-sprites/wood log - big - no rope - 3.png" width="32" height="96"/>
  </tile>
  <tile id="228">
   <image source="tiled/ERW-Grassland 2.0/Props/Static props/sheet2-sprites/wood log - big - no rope - 4.png" width="32" height="96"/>
  </tile>
  <tile id="229">
   <image source="tiled/ERW-Grassland 2.0/Props/Static props/sheet2-sprites/wood log - big - no rope - 5.png" width="32" height="96"/>
  </tile>
  <tile id="230">
   <image source="tiled/ERW-Grassland 2.0/Props/Static props/sheet2-sprites/wood log - big - no rope - 6.png" width="32" height="96"/>
  </tile>
  <tile id="231">
   <image source="tiled/ERW-Grassland 2.0/Props/Static props/sheet2-sprites/wood log - big - no rope - 7.png" width="32" height="96"/>
  </tile>
  <tile id="232">
   <image source="tiled/ERW-Grassland 2.0/Props/Static props/sheet2-sprites/wood log - big - no rope - 8.png" width="32" height="96"/>
  </tile>
  <tile id="233">
   <image source="tiled/ERW-Grassland 2.0/Props/Static props/sheet2-sprites/wood log - big - no rope - 9.png" width="32" height="96"/>
  </tile>
  <tile id="234">
   <image source="tiled/ERW-Grassland 2.0/Props/Static props/sheet2-sprites/wood log - big - no rope - 10.png" width="32" height="96"/>
  </tile>
  <tile id="235">
   <image source="tiled/ERW-Grassland 2.0/Props/Static props/sheet2-sprites/wood log - big - no rope - 11.png" width="32" height="96"/>
  </tile>
  <tile id="236">
   <image source="tiled/ERW-Grassland 2.0/Props/Static props/sheet2-sprites/wood log - big - no rope - 12.png" width="32" height="96"/>
  </tile>
  <tile id="237">
   <image source="tiled/ERW-Grassland 2.0/Props/Static props/sheet2-sprites/wood log - big - rope - 1.png" width="32" height="96"/>
  </tile>
  <tile id="238">
   <image source="tiled/ERW-Grassland 2.0/Props/Static props/sheet2-sprites/wood log - big - rope - 2.png" width="32" height="96"/>
  </tile>
  <tile id="239">
   <image source="tiled/ERW-Grassland 2.0/Props/Static props/sheet2-sprites/wood log - big - rope - 3.png" width="32" height="96"/>
  </tile>
  <tile id="240">
   <image source="tiled/ERW-Grassland 2.0/Props/Static props/sheet2-sprites/wood log - big - rope - 4.png" width="32" height="96"/>
  </tile>
  <tile id="241">
   <image source="tiled/ERW-Grassland 2.0/Props/Static props/sheet2-sprites/wood log - big - rope - 5.png" width="32" height="96"/>
  </tile>
  <tile id="242">
   <image source="tiled/ERW-Grassland 2.0/Props/Static props/sheet2-sprites/wood log - big - rope - 6.png" width="32" height="96"/>
  </tile>
  <tile id="243">
   <image source="tiled/ERW-Grassland 2.0/Props/Static props/sheet2-sprites/wood log - big - rope - 7.png" width="32" height="96"/>
  </tile>
  <tile id="244">
   <image source="tiled/ERW-Grassland 2.0/Props/Static props/sheet2-sprites/wood log - big - rope - 8.png" width="32" height="96"/>
  </tile>
  <tile id="245">
   <image source="tiled/ERW-Grassland 2.0/Props/Static props/sheet2-sprites/wood log - big - rope - 9.png" width="32" height="96"/>
  </tile>
  <tile id="246">
   <image source="tiled/ERW-Grassland 2.0/Props/Static props/sheet2-sprites/wood log - big - rope - 10.png" width="32" height="96"/>
  </tile>
  <tile id="247">
   <image source="tiled/ERW-Grassland 2.0/Props/Static props/sheet2-sprites/wood log - big - rope - 11.png" width="32" height="96"/>
  </tile>
  <tile id="248">
   <image source="tiled/ERW-Grassland 2.0/Props/Static props/sheet2-sprites/wood log - big - rope - 12.png" width="32" height="96"/>
  </tile>
  <tile id="249">
   <image source="tiled/ERW-Grassland 2.0/Props/Static props/sheet2-sprites/wood log - big - thiner - 1.png" width="32" height="96"/>
  </tile>
  <tile id="250">
   <image source="tiled/ERW-Grassland 2.0/Props/Static props/sheet2-sprites/wood log - big - thiner - 2.png" width="32" height="96"/>
  </tile>
  <tile id="251">
   <image source="tiled/ERW-Grassland 2.0/Props/Static props/sheet2-sprites/wood log - big - thiner - 3.png" width="32" height="96"/>
  </tile>
  <tile id="252">
   <image source="tiled/ERW-Grassland 2.0/Props/Static props/sheet2-sprites/wood log - big - thiner - 4.png" width="32" height="96"/>
  </tile>
  <tile id="253">
   <image source="tiled/ERW-Grassland 2.0/Props/Static props/sheet2-sprites/wood log - big - thiner - 5.png" width="32" height="96"/>
  </tile>
  <tile id="254">
   <image source="tiled/ERW-Grassland 2.0/Props/Static props/sheet2-sprites/wood log - intermediate - no rope - 1.png" width="32" height="96"/>
  </tile>
  <tile id="255">
   <image source="tiled/ERW-Grassland 2.0/Props/Static props/sheet2-sprites/wood log - intermediate - no rope - 2.png" width="32" height="96"/>
  </tile>
  <tile id="256">
   <image source="tiled/ERW-Grassland 2.0/Props/Static props/sheet2-sprites/wood log - intermediate - no rope - 3.png" width="32" height="96"/>
  </tile>
  <tile id="257">
   <image source="tiled/ERW-Grassland 2.0/Props/Static props/sheet2-sprites/wood log - intermediate - no rope - 4.png" width="32" height="96"/>
  </tile>
  <tile id="258">
   <image source="tiled/ERW-Grassland 2.0/Props/Static props/sheet2-sprites/wood log - intermediate - no rope - 5.png" width="32" height="96"/>
  </tile>
  <tile id="259">
   <image source="tiled/ERW-Grassland 2.0/Props/Static props/sheet2-sprites/wood log - intermediate - no rope - 6.png" width="32" height="96"/>
  </tile>
  <tile id="260">
   <image source="tiled/ERW-Grassland 2.0/Props/Static props/sheet2-sprites/wood log - intermediate - no rope - 7.png" width="32" height="96"/>
  </tile>
  <tile id="261">
   <image source="tiled/ERW-Grassland 2.0/Props/Static props/sheet2-sprites/wood log - intermediate - no rope - 8.png" width="32" height="96"/>
  </tile>
  <tile id="262">
   <image source="tiled/ERW-Grassland 2.0/Props/Static props/sheet2-sprites/wood log - intermediate - no rope - 9.png" width="32" height="96"/>
  </tile>
  <tile id="263">
   <image source="tiled/ERW-Grassland 2.0/Props/Static props/sheet2-sprites/wood log - intermediate - no rope - 10.png" width="32" height="96"/>
  </tile>
  <tile id="264">
   <image source="tiled/ERW-Grassland 2.0/Props/Static props/sheet2-sprites/wood log - intermediate - no rope - 11.png" width="32" height="96"/>
  </tile>
  <tile id="265">
   <image source="tiled/ERW-Grassland 2.0/Props/Static props/sheet2-sprites/wood log - intermediate - no rope - 12.png" width="32" height="96"/>
  </tile>
  <tile id="266">
   <image source="tiled/ERW-Grassland 2.0/Props/Static props/sheet2-sprites/wood log - intermediate - rope - 1.png" width="32" height="96"/>
  </tile>
  <tile id="267">
   <image source="tiled/ERW-Grassland 2.0/Props/Static props/sheet2-sprites/wood log - intermediate - rope - 2.png" width="32" height="96"/>
  </tile>
  <tile id="268">
   <image source="tiled/ERW-Grassland 2.0/Props/Static props/sheet2-sprites/wood log - intermediate - rope - 3.png" width="32" height="96"/>
  </tile>
  <tile id="269">
   <image source="tiled/ERW-Grassland 2.0/Props/Static props/sheet2-sprites/wood log - intermediate - rope - 4.png" width="32" height="96"/>
  </tile>
  <tile id="270">
   <image source="tiled/ERW-Grassland 2.0/Props/Static props/sheet2-sprites/wood log - intermediate - rope - 5.png" width="32" height="96"/>
  </tile>
  <tile id="271">
   <image source="tiled/ERW-Grassland 2.0/Props/Static props/sheet2-sprites/wood log - intermediate - rope - 6.png" width="32" height="96"/>
  </tile>
  <tile id="272">
   <image source="tiled/ERW-Grassland 2.0/Props/Static props/sheet2-sprites/wood log - intermediate - rope - 7.png" width="32" height="96"/>
  </tile>
  <tile id="273">
   <image source="tiled/ERW-Grassland 2.0/Props/Static props/sheet2-sprites/wood log - intermediate - rope - 8.png" width="32" height="96"/>
  </tile>
  <tile id="274">
   <image source="tiled/ERW-Grassland 2.0/Props/Static props/sheet2-sprites/wood log - intermediate - rope - 9.png" width="32" height="96"/>
  </tile>
  <tile id="275">
   <image source="tiled/ERW-Grassland 2.0/Props/Static props/sheet2-sprites/wood log - intermediate - rope - 10.png" width="32" height="96"/>
  </tile>
  <tile id="276">
   <image source="tiled/ERW-Grassland 2.0/Props/Static props/sheet2-sprites/wood log - intermediate - rope - 11.png" width="32" height="96"/>
  </tile>
  <tile id="277">
   <image source="tiled/ERW-Grassland 2.0/Props/Static props/sheet2-sprites/wood log - intermediate - rope - 12.png" width="32" height="96"/>
  </tile>
  <tile id="278">
   <image source="tiled/ERW-Grassland 2.0/Props/Static props/sheet2-sprites/wood log - small - thiner - 1.png" width="32" height="64"/>
  </tile>
  <tile id="279">
   <image source="tiled/ERW-Grassland 2.0/Props/Static props/sheet2-sprites/wood log - small - thiner - 2.png" width="32" height="64"/>
  </tile>
  <tile id="280">
   <image source="tiled/ERW-Grassland 2.0/Props/Static props/sheet2-sprites/wood log - small - thiner - 3.png" width="32" height="64"/>
  </tile>
  <tile id="281">
   <image source="tiled/ERW-Grassland 2.0/Props/Static props/sheet2-sprites/wood log - small - thiner - 4.png" width="32" height="64"/>
  </tile>
  <tile id="282">
   <image source="tiled/ERW-Grassland 2.0/Props/Static props/sheet2-sprites/wood log - small - thiner - 5.png" width="32" height="64"/>
  </tile>
  <tile id="283">
   <image source="tiled/ERW-Grassland 2.0/Props/Static props/sheet2-sprites/wood log - small - thiner - 6.png" width="32" height="64"/>
  </tile>
  <tile id="284">
   <image source="tiled/ERW-Grassland 2.0/Props/Static props/sheet2-sprites/wood log - small - thiner - 7.png" width="32" height="64"/>
  </tile>
  <tile id="285">
   <image source="tiled/ERW-Grassland 2.0/Props/Static props/sheet2-sprites/wood log - small - thiner - 8.png" width="32" height="64"/>
  </tile>
  <tile id="286">
   <image source="tiled/ERW-Grassland 2.0/Props/Static props/sheet2-sprites/wood log - small - thiner - 9.png" width="32" height="64"/>
  </tile>
  <tile id="287">
   <image source="tiled/ERW-Grassland 2.0/Props/Static props/sheet2-sprites/wood log - small - thiner - 10.png" width="32" height="64"/>
  </tile>
  <tile id="288">
   <image source="tiled/ERW-Grassland 2.0/Props/Static props/sheet2-sprites/wood log wall pack - intermediate - 1.png" width="256" height="96"/>
  </tile>
  <tile id="289">
   <image source="tiled/ERW-Grassland 2.0/Props/Static props/sheet2-sprites/wood log wall pack - intermediate - 2.png" width="96" height="96"/>
  </tile>
  <tile id="290">
   <image source="tiled/ERW-Grassland 2.0/Props/Static props/sheet2-sprites/wood log wall pack - intermediate - 3.png" width="96" height="96"/>
  </tile>
  <tile id="291">
   <image source="tiled/ERW-Grassland 2.0/Props/Static props/sheet2-sprites/wood log wall pack - intermediate - 4.png" width="96" height="96"/>
  </tile>
  <tile id="292">
   <image source="tiled/ERW-Grassland 2.0/Props/Static props/sheet2-sprites/wood log wall pack - intermediate - no grass - 1.png" width="256" height="96"/>
  </tile>
  <tile id="293">
   <image source="tiled/ERW-Grassland 2.0/Props/Static props/sheet2-sprites/wood log wall pack - intermediate - no grass - 2.png" width="96" height="96"/>
  </tile>
  <tile id="294">
   <image source="tiled/ERW-Grassland 2.0/Props/Static props/sheet2-sprites/wood log wall pack - intermediate - no grass - 3.png" width="96" height="96"/>
  </tile>
  <tile id="295">
   <image source="tiled/ERW-Grassland 2.0/Props/Static props/sheet2-sprites/wood log wall pack - intermediate - no grass - 4.png" width="96" height="96"/>
  </tile>
  <tile id="296">
   <image source="tiled/ERW-Grassland 2.0/Props/Static props/sheet2-sprites/wooden table - rustic - on grass.png" width="128" height="64"/>
  </tile>
 </tileset>
 <tileset firstgid="8857" name="Atlas-Props-Sprites" tilewidth="448" tileheight="320" tilecount="748" columns="0">
  <grid orientation="orthogonal" width="1" height="1"/>
  <tile id="1449">
   <image source="tiled/ERW-Grass Land/Props/Atlas-Props-individual sprites/barrels_0.png" width="32" height="32"/>
  </tile>
  <tile id="1450">
   <image source="tiled/ERW-Grass Land/Props/Atlas-Props-individual sprites/barrels_1.png" width="32" height="32"/>
  </tile>
  <tile id="1451">
   <image source="tiled/ERW-Grass Land/Props/Atlas-Props-individual sprites/barrels_2.png" width="32" height="32"/>
  </tile>
  <tile id="1452">
   <image source="tiled/ERW-Grass Land/Props/Atlas-Props-individual sprites/barrels_3.png" width="32" height="32"/>
  </tile>
  <tile id="1453">
   <image source="tiled/ERW-Grass Land/Props/Atlas-Props-individual sprites/barrels_4.png" width="32" height="32"/>
  </tile>
  <tile id="1454">
   <image source="tiled/ERW-Grass Land/Props/Atlas-Props-individual sprites/barrels_5.png" width="32" height="32"/>
  </tile>
  <tile id="1455">
   <image source="tiled/ERW-Grass Land/Props/Atlas-Props-individual sprites/barrels_6.png" width="32" height="32"/>
  </tile>
  <tile id="1456">
   <image source="tiled/ERW-Grass Land/Props/Atlas-Props-individual sprites/barrels_7.png" width="32" height="32"/>
  </tile>
  <tile id="1457">
   <image source="tiled/ERW-Grass Land/Props/Atlas-Props-individual sprites/barrels_8.png" width="32" height="32"/>
  </tile>
  <tile id="1458">
   <image source="tiled/ERW-Grass Land/Props/Atlas-Props-individual sprites/barrels_9.png" width="32" height="32"/>
  </tile>
  <tile id="1459">
   <image source="tiled/ERW-Grass Land/Props/Atlas-Props-individual sprites/barrels_10.png" width="32" height="32"/>
  </tile>
  <tile id="1460">
   <image source="tiled/ERW-Grass Land/Props/Atlas-Props-individual sprites/barrels_11.png" width="32" height="32"/>
  </tile>
  <tile id="1461">
   <image source="tiled/ERW-Grass Land/Props/Atlas-Props-individual sprites/barrels_12.png" width="32" height="32"/>
  </tile>
  <tile id="1462">
   <image source="tiled/ERW-Grass Land/Props/Atlas-Props-individual sprites/barrels_13.png" width="32" height="32"/>
  </tile>
  <tile id="1463">
   <image source="tiled/ERW-Grass Land/Props/Atlas-Props-individual sprites/barrels_14.png" width="32" height="32"/>
  </tile>
  <tile id="1464">
   <image source="tiled/ERW-Grass Land/Props/Atlas-Props-individual sprites/barrels_15.png" width="32" height="32"/>
  </tile>
  <tile id="1465">
   <image source="tiled/ERW-Grass Land/Props/Atlas-Props-individual sprites/blacksmith as a simple house.png" width="160" height="288"/>
  </tile>
  <tile id="1466">
   <image source="tiled/ERW-Grass Land/Props/Atlas-Props-individual sprites/blacksmith props_0.png" width="32" height="32"/>
  </tile>
  <tile id="1467">
   <image source="tiled/ERW-Grass Land/Props/Atlas-Props-individual sprites/blacksmith props_1.png" width="32" height="32"/>
  </tile>
  <tile id="1468">
   <image source="tiled/ERW-Grass Land/Props/Atlas-Props-individual sprites/blacksmith props_2.png" width="32" height="32"/>
  </tile>
  <tile id="1469">
   <image source="tiled/ERW-Grass Land/Props/Atlas-Props-individual sprites/blacksmith props_3.png" width="32" height="32"/>
  </tile>
  <tile id="1470">
   <image source="tiled/ERW-Grass Land/Props/Atlas-Props-individual sprites/blacksmith props_4.png" width="32" height="32"/>
  </tile>
  <tile id="1471">
   <image source="tiled/ERW-Grass Land/Props/Atlas-Props-individual sprites/blacksmith props_5.png" width="32" height="32"/>
  </tile>
  <tile id="1472">
   <image source="tiled/ERW-Grass Land/Props/Atlas-Props-individual sprites/blacksmith props_6.png" width="32" height="32"/>
  </tile>
  <tile id="1473">
   <image source="tiled/ERW-Grass Land/Props/Atlas-Props-individual sprites/blacksmith props_7.png" width="32" height="32"/>
  </tile>
  <tile id="1474">
   <image source="tiled/ERW-Grass Land/Props/Atlas-Props-individual sprites/blacksmith props_8.png" width="32" height="32"/>
  </tile>
  <tile id="1475">
   <image source="tiled/ERW-Grass Land/Props/Atlas-Props-individual sprites/blacksmith props_9.png" width="32" height="32"/>
  </tile>
  <tile id="1476">
   <image source="tiled/ERW-Grass Land/Props/Atlas-Props-individual sprites/blacksmith props_10.png" width="32" height="32"/>
  </tile>
  <tile id="1477">
   <image source="tiled/ERW-Grass Land/Props/Atlas-Props-individual sprites/blacksmith props_11.png" width="32" height="32"/>
  </tile>
  <tile id="1478">
   <image source="tiled/ERW-Grass Land/Props/Atlas-Props-individual sprites/blacksmith props_12.png" width="32" height="32"/>
  </tile>
  <tile id="1479">
   <image source="tiled/ERW-Grass Land/Props/Atlas-Props-individual sprites/blacksmith props_13.png" width="32" height="32"/>
  </tile>
  <tile id="1480">
   <image source="tiled/ERW-Grass Land/Props/Atlas-Props-individual sprites/blacksmith props_14.png" width="32" height="32"/>
  </tile>
  <tile id="1481">
   <image source="tiled/ERW-Grass Land/Props/Atlas-Props-individual sprites/blacksmith props_15.png" width="32" height="32"/>
  </tile>
  <tile id="1482">
   <image source="tiled/ERW-Grass Land/Props/Atlas-Props-individual sprites/blacksmith props_16.png" width="32" height="32"/>
  </tile>
  <tile id="1483">
   <image source="tiled/ERW-Grass Land/Props/Atlas-Props-individual sprites/blacksmith props_17.png" width="64" height="32"/>
  </tile>
  <tile id="1484">
   <image source="tiled/ERW-Grass Land/Props/Atlas-Props-individual sprites/blacksmith props_18.png" width="64" height="32"/>
  </tile>
  <tile id="1485">
   <image source="tiled/ERW-Grass Land/Props/Atlas-Props-individual sprites/blacksmith props_19.png" width="64" height="32"/>
  </tile>
  <tile id="1486">
   <image source="tiled/ERW-Grass Land/Props/Atlas-Props-individual sprites/blacksmith props_20.png" width="64" height="32"/>
  </tile>
  <tile id="1487">
   <image source="tiled/ERW-Grass Land/Props/Atlas-Props-individual sprites/blacksmith props_21.png" width="64" height="32"/>
  </tile>
  <tile id="1488">
   <image source="tiled/ERW-Grass Land/Props/Atlas-Props-individual sprites/blacksmith props_30.png" width="32" height="64"/>
  </tile>
  <tile id="1489">
   <image source="tiled/ERW-Grass Land/Props/Atlas-Props-individual sprites/blacksmith props_31.png" width="32" height="64"/>
  </tile>
  <tile id="1490">
   <image source="tiled/ERW-Grass Land/Props/Atlas-Props-individual sprites/blacksmith props_32.png" width="32" height="64"/>
  </tile>
  <tile id="1491">
   <image source="tiled/ERW-Grass Land/Props/Atlas-Props-individual sprites/blacksmith props_33.png" width="32" height="64"/>
  </tile>
  <tile id="1492">
   <image source="tiled/ERW-Grass Land/Props/Atlas-Props-individual sprites/blacksmith props_34.png" width="32" height="64"/>
  </tile>
  <tile id="1493">
   <image source="tiled/ERW-Grass Land/Props/Atlas-Props-individual sprites/blacksmith props_35.png" width="32" height="32"/>
  </tile>
  <tile id="1494">
   <image source="tiled/ERW-Grass Land/Props/Atlas-Props-individual sprites/blacksmith props_36.png" width="32" height="32"/>
  </tile>
  <tile id="1495">
   <image source="tiled/ERW-Grass Land/Props/Atlas-Props-individual sprites/blacksmith props_37.png" width="64" height="64"/>
  </tile>
  <tile id="1496">
   <image source="tiled/ERW-Grass Land/Props/Atlas-Props-individual sprites/blacksmith props_38.png" width="64" height="160"/>
  </tile>
  <tile id="1497">
   <image source="tiled/ERW-Grass Land/Props/Atlas-Props-individual sprites/blacksmith props_39.png" width="64" height="160"/>
  </tile>
  <tile id="1498">
   <image source="tiled/ERW-Grass Land/Props/Atlas-Props-individual sprites/blacksmith props_40.png" width="64" height="96"/>
  </tile>
  <tile id="1499">
   <image source="tiled/ERW-Grass Land/Props/Atlas-Props-individual sprites/blacksmith props_41.png" width="64" height="64"/>
  </tile>
  <tile id="1500">
   <image source="tiled/ERW-Grass Land/Props/Atlas-Props-individual sprites/blacksmith props_42.png" width="64" height="96"/>
  </tile>
  <tile id="1501">
   <image source="tiled/ERW-Grass Land/Props/Atlas-Props-individual sprites/blacksmith props_43.png" width="64" height="32"/>
  </tile>
  <tile id="1502">
   <image source="tiled/ERW-Grass Land/Props/Atlas-Props-individual sprites/blacksmith shadow.png" width="320" height="128"/>
  </tile>
  <tile id="1503">
   <image source="tiled/ERW-Grass Land/Props/Atlas-Props-individual sprites/blacksmith wall1.png" width="192" height="64"/>
  </tile>
  <tile id="1504">
   <image source="tiled/ERW-Grass Land/Props/Atlas-Props-individual sprites/blacksmith wall1-tileable.png" width="32" height="64"/>
  </tile>
  <tile id="1505">
   <image source="tiled/ERW-Grass Land/Props/Atlas-Props-individual sprites/blacksmith wall2.png" width="192" height="64"/>
  </tile>
  <tile id="1506">
   <image source="tiled/ERW-Grass Land/Props/Atlas-Props-individual sprites/blacksmith wall2-tileable.png" width="32" height="64"/>
  </tile>
  <tile id="1507">
   <image source="tiled/ERW-Grass Land/Props/Atlas-Props-individual sprites/blacksmith.png" width="320" height="288"/>
  </tile>
  <tile id="1508">
   <image source="tiled/ERW-Grass Land/Props/Atlas-Props-individual sprites/blacksmith-doorway only.png" width="96" height="96"/>
  </tile>
  <tile id="1509">
   <image source="tiled/ERW-Grass Land/Props/Atlas-Props-individual sprites/bucket_0.png" width="32" height="32"/>
  </tile>
  <tile id="1510">
   <image source="tiled/ERW-Grass Land/Props/Atlas-Props-individual sprites/bucket_1.png" width="32" height="32"/>
  </tile>
  <tile id="1511">
   <image source="tiled/ERW-Grass Land/Props/Atlas-Props-individual sprites/bucket_2.png" width="32" height="32"/>
  </tile>
  <tile id="1512">
   <image source="tiled/ERW-Grass Land/Props/Atlas-Props-individual sprites/bucket_3.png" width="32" height="32"/>
  </tile>
  <tile id="1513">
   <image source="tiled/ERW-Grass Land/Props/Atlas-Props-individual sprites/bushes_0.png" width="64" height="64"/>
  </tile>
  <tile id="1514">
   <image source="tiled/ERW-Grass Land/Props/Atlas-Props-individual sprites/bushes_1.png" width="64" height="64"/>
  </tile>
  <tile id="1515">
   <image source="tiled/ERW-Grass Land/Props/Atlas-Props-individual sprites/bushes_2.png" width="64" height="64"/>
  </tile>
  <tile id="1516">
   <image source="tiled/ERW-Grass Land/Props/Atlas-Props-individual sprites/bushes_3.png" width="64" height="64"/>
  </tile>
  <tile id="1517">
   <image source="tiled/ERW-Grass Land/Props/Atlas-Props-individual sprites/bushes_4.png" width="64" height="64"/>
  </tile>
  <tile id="1518">
   <image source="tiled/ERW-Grass Land/Props/Atlas-Props-individual sprites/bushes_5.png" width="64" height="64"/>
  </tile>
  <tile id="1519">
   <image source="tiled/ERW-Grass Land/Props/Atlas-Props-individual sprites/bushes_6.png" width="64" height="64"/>
  </tile>
  <tile id="1520">
   <image source="tiled/ERW-Grass Land/Props/Atlas-Props-individual sprites/bushes_7.png" width="64" height="64"/>
  </tile>
  <tile id="1521">
   <image source="tiled/ERW-Grass Land/Props/Atlas-Props-individual sprites/bushes_8.png" width="64" height="32"/>
  </tile>
  <tile id="1522">
   <image source="tiled/ERW-Grass Land/Props/Atlas-Props-individual sprites/bushes_9.png" width="64" height="32"/>
  </tile>
  <tile id="1523">
   <image source="tiled/ERW-Grass Land/Props/Atlas-Props-individual sprites/bushes_10.png" width="64" height="32"/>
  </tile>
  <tile id="1524">
   <image source="tiled/ERW-Grass Land/Props/Atlas-Props-individual sprites/bushes_11.png" width="64" height="32"/>
  </tile>
  <tile id="1525">
   <image source="tiled/ERW-Grass Land/Props/Atlas-Props-individual sprites/bushes_12.png" width="64" height="32"/>
  </tile>
  <tile id="1526">
   <image source="tiled/ERW-Grass Land/Props/Atlas-Props-individual sprites/bushes_13.png" width="64" height="32"/>
  </tile>
  <tile id="1527">
   <image source="tiled/ERW-Grass Land/Props/Atlas-Props-individual sprites/bushes_14.png" width="64" height="32"/>
  </tile>
  <tile id="1528">
   <image source="tiled/ERW-Grass Land/Props/Atlas-Props-individual sprites/bushes_15.png" width="64" height="32"/>
  </tile>
  <tile id="1529">
   <image source="tiled/ERW-Grass Land/Props/Atlas-Props-individual sprites/campfire and firewood_0.png" width="64" height="64"/>
  </tile>
  <tile id="1530">
   <image source="tiled/ERW-Grass Land/Props/Atlas-Props-individual sprites/campfire and firewood_1.png" width="64" height="64"/>
  </tile>
  <tile id="1531">
   <image source="tiled/ERW-Grass Land/Props/Atlas-Props-individual sprites/campfire and firewood_2.png" width="64" height="64"/>
  </tile>
  <tile id="1532">
   <image source="tiled/ERW-Grass Land/Props/Atlas-Props-individual sprites/campfire and firewood_3.png" width="64" height="64"/>
  </tile>
  <tile id="1533">
   <image source="tiled/ERW-Grass Land/Props/Atlas-Props-individual sprites/campfire and firewood_4.png" width="64" height="64"/>
  </tile>
  <tile id="1534">
   <image source="tiled/ERW-Grass Land/Props/Atlas-Props-individual sprites/campfire and firewood_5.png" width="64" height="64"/>
  </tile>
  <tile id="1535">
   <image source="tiled/ERW-Grass Land/Props/Atlas-Props-individual sprites/chests_0.png" width="64" height="64"/>
  </tile>
  <tile id="1536">
   <image source="tiled/ERW-Grass Land/Props/Atlas-Props-individual sprites/chests_1.png" width="64" height="64"/>
  </tile>
  <tile id="1537">
   <image source="tiled/ERW-Grass Land/Props/Atlas-Props-individual sprites/chests_2.png" width="64" height="64"/>
  </tile>
  <tile id="1538">
   <image source="tiled/ERW-Grass Land/Props/Atlas-Props-individual sprites/chests_3.png" width="64" height="64"/>
  </tile>
  <tile id="1539">
   <image source="tiled/ERW-Grass Land/Props/Atlas-Props-individual sprites/chests_4.png" width="64" height="64"/>
  </tile>
  <tile id="1540">
   <image source="tiled/ERW-Grass Land/Props/Atlas-Props-individual sprites/chests_5.png" width="64" height="64"/>
  </tile>
  <tile id="1544">
   <image source="tiled/ERW-Grass Land/Props/Atlas-Props-individual sprites/crate_0.png" width="64" height="32"/>
  </tile>
  <tile id="1545">
   <image source="tiled/ERW-Grass Land/Props/Atlas-Props-individual sprites/crate_1.png" width="64" height="32"/>
  </tile>
  <tile id="1546">
   <image source="tiled/ERW-Grass Land/Props/Atlas-Props-individual sprites/crate_2.png" width="64" height="32"/>
  </tile>
  <tile id="1547">
   <image source="tiled/ERW-Grass Land/Props/Atlas-Props-individual sprites/crate_3.png" width="64" height="32"/>
  </tile>
  <tile id="1548">
   <image source="tiled/ERW-Grass Land/Props/Atlas-Props-individual sprites/crate_4.png" width="64" height="32"/>
  </tile>
  <tile id="1549">
   <image source="tiled/ERW-Grass Land/Props/Atlas-Props-individual sprites/crate_5.png" width="32" height="64"/>
  </tile>
  <tile id="1550">
   <image source="tiled/ERW-Grass Land/Props/Atlas-Props-individual sprites/crate_6.png" width="32" height="64"/>
  </tile>
  <tile id="1551">
   <image source="tiled/ERW-Grass Land/Props/Atlas-Props-individual sprites/crate_7.png" width="64" height="32"/>
  </tile>
  <tile id="1552">
   <image source="tiled/ERW-Grass Land/Props/Atlas-Props-individual sprites/fences-_1.png" width="32" height="32"/>
  </tile>
  <tile id="1553">
   <image source="tiled/ERW-Grass Land/Props/Atlas-Props-individual sprites/fences-_2.png" width="64" height="32"/>
  </tile>
  <tile id="1554">
   <image source="tiled/ERW-Grass Land/Props/Atlas-Props-individual sprites/fences-_3.png" width="96" height="32"/>
  </tile>
  <tile id="1555">
   <image source="tiled/ERW-Grass Land/Props/Atlas-Props-individual sprites/fences-_4.png" width="32" height="32"/>
  </tile>
  <tile id="1556">
   <image source="tiled/ERW-Grass Land/Props/Atlas-Props-individual sprites/fences-_5.png" width="96" height="32"/>
  </tile>
  <tile id="1557">
   <image source="tiled/ERW-Grass Land/Props/Atlas-Props-individual sprites/fences-_6.png" width="32" height="32"/>
  </tile>
  <tile id="1558">
   <image source="tiled/ERW-Grass Land/Props/Atlas-Props-individual sprites/fences-_7.png" width="32" height="32"/>
  </tile>
  <tile id="1559">
   <image source="tiled/ERW-Grass Land/Props/Atlas-Props-individual sprites/fences-_8.png" width="32" height="32"/>
  </tile>
  <tile id="1560">
   <image source="tiled/ERW-Grass Land/Props/Atlas-Props-individual sprites/fences-_9.png" width="64" height="32"/>
  </tile>
  <tile id="1561">
   <image source="tiled/ERW-Grass Land/Props/Atlas-Props-individual sprites/fences-_10.png" width="32" height="32"/>
  </tile>
  <tile id="1562">
   <image source="tiled/ERW-Grass Land/Props/Atlas-Props-individual sprites/fences-_11.png" width="32" height="32"/>
  </tile>
  <tile id="1563">
   <image source="tiled/ERW-Grass Land/Props/Atlas-Props-individual sprites/fences-_12.png" width="32" height="32"/>
  </tile>
  <tile id="1564">
   <image source="tiled/ERW-Grass Land/Props/Atlas-Props-individual sprites/fences-_13.png" width="32" height="32"/>
  </tile>
  <tile id="1565">
   <image source="tiled/ERW-Grass Land/Props/Atlas-Props-individual sprites/fences-_14.png" width="32" height="32"/>
  </tile>
  <tile id="1566">
   <image source="tiled/ERW-Grass Land/Props/Atlas-Props-individual sprites/fences-_15.png" width="32" height="32"/>
  </tile>
  <tile id="1567">
   <image source="tiled/ERW-Grass Land/Props/Atlas-Props-individual sprites/fences-_16.png" width="32" height="32"/>
  </tile>
  <tile id="1568">
   <image source="tiled/ERW-Grass Land/Props/Atlas-Props-individual sprites/fences-_17.png" width="32" height="32"/>
  </tile>
  <tile id="1569">
   <image source="tiled/ERW-Grass Land/Props/Atlas-Props-individual sprites/fences-_18.png" width="32" height="32"/>
  </tile>
  <tile id="1570">
   <image source="tiled/ERW-Grass Land/Props/Atlas-Props-individual sprites/fences-_19.png" width="96" height="32"/>
  </tile>
  <tile id="1571">
   <image source="tiled/ERW-Grass Land/Props/Atlas-Props-individual sprites/fences-_20.png" width="32" height="32"/>
  </tile>
  <tile id="1572">
   <image source="tiled/ERW-Grass Land/Props/Atlas-Props-individual sprites/fences-_21.png" width="96" height="32"/>
  </tile>
  <tile id="1573">
   <image source="tiled/ERW-Grass Land/Props/Atlas-Props-individual sprites/fences-_22.png" width="64" height="32"/>
  </tile>
  <tile id="1574">
   <image source="tiled/ERW-Grass Land/Props/Atlas-Props-individual sprites/fences-_23.png" width="32" height="32"/>
  </tile>
  <tile id="1575">
   <image source="tiled/ERW-Grass Land/Props/Atlas-Props-individual sprites/fences-_24.png" width="64" height="32"/>
  </tile>
  <tile id="1576">
   <image source="tiled/ERW-Grass Land/Props/Atlas-Props-individual sprites/fences-_25.png" width="64" height="32"/>
  </tile>
  <tile id="1577">
   <image source="tiled/ERW-Grass Land/Props/Atlas-Props-individual sprites/fences-_26.png" width="64" height="32"/>
  </tile>
  <tile id="1578">
   <image source="tiled/ERW-Grass Land/Props/Atlas-Props-individual sprites/fences-_27.png" width="64" height="32"/>
  </tile>
  <tile id="1579">
   <image source="tiled/ERW-Grass Land/Props/Atlas-Props-individual sprites/fences-_28.png" width="64" height="32"/>
  </tile>
  <tile id="1580">
   <image source="tiled/ERW-Grass Land/Props/Atlas-Props-individual sprites/fences-_32.png" width="32" height="32"/>
  </tile>
  <tile id="1581">
   <image source="tiled/ERW-Grass Land/Props/Atlas-Props-individual sprites/fences-_33.png" width="32" height="32"/>
  </tile>
  <tile id="1582">
   <image source="tiled/ERW-Grass Land/Props/Atlas-Props-individual sprites/fences-gate_29.png" width="32" height="64"/>
  </tile>
  <tile id="1583">
   <image source="tiled/ERW-Grass Land/Props/Atlas-Props-individual sprites/fences-gate_30.png" width="32" height="64"/>
  </tile>
  <tile id="1584">
   <image source="tiled/ERW-Grass Land/Props/Atlas-Props-individual sprites/fences-gate_31.png" width="96" height="32"/>
  </tile>
  <tile id="1585">
   <image source="tiled/ERW-Grass Land/Props/Atlas-Props-individual sprites/fences-grass-_2.png" width="64" height="32"/>
  </tile>
  <tile id="1586">
   <image source="tiled/ERW-Grass Land/Props/Atlas-Props-individual sprites/fences-grass-_3.png" width="32" height="32"/>
  </tile>
  <tile id="1587">
   <image source="tiled/ERW-Grass Land/Props/Atlas-Props-individual sprites/fences-grass-_4.png" width="64" height="32"/>
  </tile>
  <tile id="1588">
   <image source="tiled/ERW-Grass Land/Props/Atlas-Props-individual sprites/fences-grass-_5.png" width="96" height="32"/>
  </tile>
  <tile id="1589">
   <image source="tiled/ERW-Grass Land/Props/Atlas-Props-individual sprites/fences-grass-_6.png" width="32" height="32"/>
  </tile>
  <tile id="1590">
   <image source="tiled/ERW-Grass Land/Props/Atlas-Props-individual sprites/fences-grass-_7.png" width="96" height="32"/>
  </tile>
  <tile id="1591">
   <image source="tiled/ERW-Grass Land/Props/Atlas-Props-individual sprites/fences-grass-_8.png" width="64" height="32"/>
  </tile>
  <tile id="1592">
   <image source="tiled/ERW-Grass Land/Props/Atlas-Props-individual sprites/fences-grass-_9.png" width="32" height="32"/>
  </tile>
  <tile id="1593">
   <image source="tiled/ERW-Grass Land/Props/Atlas-Props-individual sprites/fences-grass-_10.png" width="32" height="32"/>
  </tile>
  <tile id="1594">
   <image source="tiled/ERW-Grass Land/Props/Atlas-Props-individual sprites/fences-grass-_11.png" width="32" height="32"/>
  </tile>
  <tile id="1595">
   <image source="tiled/ERW-Grass Land/Props/Atlas-Props-individual sprites/fences-grass-_12.png" width="64" height="32"/>
  </tile>
  <tile id="1596">
   <image source="tiled/ERW-Grass Land/Props/Atlas-Props-individual sprites/fences-grass-_13.png" width="32" height="32"/>
  </tile>
  <tile id="1597">
   <image source="tiled/ERW-Grass Land/Props/Atlas-Props-individual sprites/fences-grass-_14.png" width="32" height="32"/>
  </tile>
  <tile id="1598">
   <image source="tiled/ERW-Grass Land/Props/Atlas-Props-individual sprites/fences-grass-_15.png" width="32" height="32"/>
  </tile>
  <tile id="1599">
   <image source="tiled/ERW-Grass Land/Props/Atlas-Props-individual sprites/fences-grass-_16.png" width="32" height="32"/>
  </tile>
  <tile id="1600">
   <image source="tiled/ERW-Grass Land/Props/Atlas-Props-individual sprites/fences-grass-_17.png" width="32" height="32"/>
  </tile>
  <tile id="1601">
   <image source="tiled/ERW-Grass Land/Props/Atlas-Props-individual sprites/fences-grass-_18.png" width="32" height="32"/>
  </tile>
  <tile id="1602">
   <image source="tiled/ERW-Grass Land/Props/Atlas-Props-individual sprites/fences-grass-_19.png" width="32" height="32"/>
  </tile>
  <tile id="1603">
   <image source="tiled/ERW-Grass Land/Props/Atlas-Props-individual sprites/fences-grass-_20.png" width="64" height="32"/>
  </tile>
  <tile id="1604">
   <image source="tiled/ERW-Grass Land/Props/Atlas-Props-individual sprites/fences-grass-_21.png" width="32" height="32"/>
  </tile>
  <tile id="1605">
   <image source="tiled/ERW-Grass Land/Props/Atlas-Props-individual sprites/fences-grass-_22.png" width="32" height="32"/>
  </tile>
  <tile id="1606">
   <image source="tiled/ERW-Grass Land/Props/Atlas-Props-individual sprites/fences-grass-_23.png" width="32" height="32"/>
  </tile>
  <tile id="1607">
   <image source="tiled/ERW-Grass Land/Props/Atlas-Props-individual sprites/fences-grass-_24.png" width="64" height="32"/>
  </tile>
  <tile id="1608">
   <image source="tiled/ERW-Grass Land/Props/Atlas-Props-individual sprites/fences-grass-_25.png" width="32" height="32"/>
  </tile>
  <tile id="1609">
   <image source="tiled/ERW-Grass Land/Props/Atlas-Props-individual sprites/fences-grass-_26.png" width="96" height="32"/>
  </tile>
  <tile id="1610">
   <image source="tiled/ERW-Grass Land/Props/Atlas-Props-individual sprites/fences-grass-_27.png" width="64" height="32"/>
  </tile>
  <tile id="1611">
   <image source="tiled/ERW-Grass Land/Props/Atlas-Props-individual sprites/fences-grass-_28.png" width="32" height="32"/>
  </tile>
  <tile id="1612">
   <image source="tiled/ERW-Grass Land/Props/Atlas-Props-individual sprites/fences-grass-_29.png" width="64" height="32"/>
  </tile>
  <tile id="1613">
   <image source="tiled/ERW-Grass Land/Props/Atlas-Props-individual sprites/fences-grass-_30.png" width="32" height="32"/>
  </tile>
  <tile id="1614">
   <image source="tiled/ERW-Grass Land/Props/Atlas-Props-individual sprites/fences-grass-_31.png" width="32" height="32"/>
  </tile>
  <tile id="1615">
   <image source="tiled/ERW-Grass Land/Props/Atlas-Props-individual sprites/fences-grass-_33.png" width="96" height="32"/>
  </tile>
  <tile id="1616">
   <image source="tiled/ERW-Grass Land/Props/Atlas-Props-individual sprites/fences-grass-gate_0.png" width="32" height="64"/>
  </tile>
  <tile id="1617">
   <image source="tiled/ERW-Grass Land/Props/Atlas-Props-individual sprites/fences-grass-gate_1.png" width="96" height="32"/>
  </tile>
  <tile id="1618">
   <image source="tiled/ERW-Grass Land/Props/Atlas-Props-individual sprites/fences-grass-gate_2.png" width="32" height="64"/>
  </tile>
  <tile id="1619">
   <image source="tiled/ERW-Grass Land/Props/Atlas-Props-individual sprites/flowers_0.png" width="32" height="32"/>
  </tile>
  <tile id="1620">
   <image source="tiled/ERW-Grass Land/Props/Atlas-Props-individual sprites/flowers_1.png" width="32" height="32"/>
  </tile>
  <tile id="1621">
   <image source="tiled/ERW-Grass Land/Props/Atlas-Props-individual sprites/flowers_2.png" width="32" height="32"/>
  </tile>
  <tile id="1622">
   <image source="tiled/ERW-Grass Land/Props/Atlas-Props-individual sprites/flowers_3.png" width="32" height="32"/>
  </tile>
  <tile id="1623">
   <image source="tiled/ERW-Grass Land/Props/Atlas-Props-individual sprites/flowers_4.png" width="32" height="32"/>
  </tile>
  <tile id="1624">
   <image source="tiled/ERW-Grass Land/Props/Atlas-Props-individual sprites/flowers_5.png" width="32" height="32"/>
  </tile>
  <tile id="1625">
   <image source="tiled/ERW-Grass Land/Props/Atlas-Props-individual sprites/flowers_6.png" width="32" height="32"/>
  </tile>
  <tile id="1626">
   <image source="tiled/ERW-Grass Land/Props/Atlas-Props-individual sprites/flowers_7.png" width="32" height="32"/>
  </tile>
  <tile id="1627">
   <image source="tiled/ERW-Grass Land/Props/Atlas-Props-individual sprites/flowers_8.png" width="32" height="32"/>
  </tile>
  <tile id="1628">
   <image source="tiled/ERW-Grass Land/Props/Atlas-Props-individual sprites/flowers_9.png" width="32" height="32"/>
  </tile>
  <tile id="1629">
   <image source="tiled/ERW-Grass Land/Props/Atlas-Props-individual sprites/flowers_10.png" width="32" height="32"/>
  </tile>
  <tile id="1630">
   <image source="tiled/ERW-Grass Land/Props/Atlas-Props-individual sprites/flowers_11.png" width="32" height="32"/>
  </tile>
  <tile id="1631">
   <image source="tiled/ERW-Grass Land/Props/Atlas-Props-individual sprites/flowers_12.png" width="32" height="32"/>
  </tile>
  <tile id="1632">
   <image source="tiled/ERW-Grass Land/Props/Atlas-Props-individual sprites/flowers_13.png" width="32" height="32"/>
  </tile>
  <tile id="1633">
   <image source="tiled/ERW-Grass Land/Props/Atlas-Props-individual sprites/flowers_14.png" width="32" height="32"/>
  </tile>
  <tile id="1634">
   <image source="tiled/ERW-Grass Land/Props/Atlas-Props-individual sprites/flowers_15.png" width="32" height="32"/>
  </tile>
  <tile id="1635">
   <image source="tiled/ERW-Grass Land/Props/Atlas-Props-individual sprites/flowers_16.png" width="32" height="32"/>
  </tile>
  <tile id="1636">
   <image source="tiled/ERW-Grass Land/Props/Atlas-Props-individual sprites/flowers_17.png" width="32" height="32"/>
  </tile>
  <tile id="1637">
   <image source="tiled/ERW-Grass Land/Props/Atlas-Props-individual sprites/flowers_18.png" width="32" height="32"/>
  </tile>
  <tile id="1638">
   <image source="tiled/ERW-Grass Land/Props/Atlas-Props-individual sprites/flowers_19.png" width="32" height="32"/>
  </tile>
  <tile id="1639">
   <image source="tiled/ERW-Grass Land/Props/Atlas-Props-individual sprites/grass as sprites - darker_0.png" width="32" height="32"/>
  </tile>
  <tile id="1640">
   <image source="tiled/ERW-Grass Land/Props/Atlas-Props-individual sprites/grass as sprites - darker_1.png" width="32" height="32"/>
  </tile>
  <tile id="1641">
   <image source="tiled/ERW-Grass Land/Props/Atlas-Props-individual sprites/grass as sprites - darker_2.png" width="32" height="32"/>
  </tile>
  <tile id="1642">
   <image source="tiled/ERW-Grass Land/Props/Atlas-Props-individual sprites/grass as sprites - darker_3.png" width="32" height="32"/>
  </tile>
  <tile id="1643">
   <image source="tiled/ERW-Grass Land/Props/Atlas-Props-individual sprites/grass as sprites - darker_4.png" width="32" height="32"/>
  </tile>
  <tile id="1644">
   <image source="tiled/ERW-Grass Land/Props/Atlas-Props-individual sprites/grass as sprites - darker_5.png" width="32" height="32"/>
  </tile>
  <tile id="1645">
   <image source="tiled/ERW-Grass Land/Props/Atlas-Props-individual sprites/grass as sprites - darker_6.png" width="32" height="32"/>
  </tile>
  <tile id="1646">
   <image source="tiled/ERW-Grass Land/Props/Atlas-Props-individual sprites/grass as sprites - darker_7.png" width="32" height="32"/>
  </tile>
  <tile id="1647">
   <image source="tiled/ERW-Grass Land/Props/Atlas-Props-individual sprites/grass as sprites - darker_8.png" width="32" height="32"/>
  </tile>
  <tile id="1648">
   <image source="tiled/ERW-Grass Land/Props/Atlas-Props-individual sprites/grass as sprites - darker_9.png" width="32" height="32"/>
  </tile>
  <tile id="1649">
   <image source="tiled/ERW-Grass Land/Props/Atlas-Props-individual sprites/grass as sprites - darker_10.png" width="32" height="32"/>
  </tile>
  <tile id="1650">
   <image source="tiled/ERW-Grass Land/Props/Atlas-Props-individual sprites/grass as sprites - darker_11.png" width="32" height="32"/>
  </tile>
  <tile id="1651">
   <image source="tiled/ERW-Grass Land/Props/Atlas-Props-individual sprites/grass as sprites - darker_12.png" width="32" height="32"/>
  </tile>
  <tile id="1652">
   <image source="tiled/ERW-Grass Land/Props/Atlas-Props-individual sprites/grass as sprites - darker_13.png" width="32" height="32"/>
  </tile>
  <tile id="1653">
   <image source="tiled/ERW-Grass Land/Props/Atlas-Props-individual sprites/grass as sprites - darker_14.png" width="32" height="32"/>
  </tile>
  <tile id="1654">
   <image source="tiled/ERW-Grass Land/Props/Atlas-Props-individual sprites/grass as sprites - darker_15.png" width="32" height="32"/>
  </tile>
  <tile id="1655">
   <image source="tiled/ERW-Grass Land/Props/Atlas-Props-individual sprites/grass as sprites - darker_16.png" width="32" height="32"/>
  </tile>
  <tile id="1656">
   <image source="tiled/ERW-Grass Land/Props/Atlas-Props-individual sprites/grass as sprites - darker_17.png" width="32" height="32"/>
  </tile>
  <tile id="1657">
   <image source="tiled/ERW-Grass Land/Props/Atlas-Props-individual sprites/grass as sprites - darker_18.png" width="32" height="32"/>
  </tile>
  <tile id="1658">
   <image source="tiled/ERW-Grass Land/Props/Atlas-Props-individual sprites/grass as sprites - darker_19.png" width="32" height="32"/>
  </tile>
  <tile id="1659">
   <image source="tiled/ERW-Grass Land/Props/Atlas-Props-individual sprites/grass as sprites - darker_20.png" width="32" height="32"/>
  </tile>
  <tile id="1660">
   <image source="tiled/ERW-Grass Land/Props/Atlas-Props-individual sprites/grass as sprites - darker_21.png" width="32" height="32"/>
  </tile>
  <tile id="1661">
   <image source="tiled/ERW-Grass Land/Props/Atlas-Props-individual sprites/grass as sprites - lighter_0.png" width="32" height="32"/>
  </tile>
  <tile id="1662">
   <image source="tiled/ERW-Grass Land/Props/Atlas-Props-individual sprites/grass as sprites - lighter_1.png" width="32" height="32"/>
  </tile>
  <tile id="1663">
   <image source="tiled/ERW-Grass Land/Props/Atlas-Props-individual sprites/grass as sprites - lighter_2.png" width="32" height="32"/>
  </tile>
  <tile id="1664">
   <image source="tiled/ERW-Grass Land/Props/Atlas-Props-individual sprites/grass as sprites - lighter_3.png" width="32" height="32"/>
  </tile>
  <tile id="1665">
   <image source="tiled/ERW-Grass Land/Props/Atlas-Props-individual sprites/grass as sprites - lighter_4.png" width="32" height="32"/>
  </tile>
  <tile id="1666">
   <image source="tiled/ERW-Grass Land/Props/Atlas-Props-individual sprites/grass as sprites - lighter_5.png" width="32" height="32"/>
  </tile>
  <tile id="1667">
   <image source="tiled/ERW-Grass Land/Props/Atlas-Props-individual sprites/grass as sprites - lighter_6.png" width="32" height="32"/>
  </tile>
  <tile id="1668">
   <image source="tiled/ERW-Grass Land/Props/Atlas-Props-individual sprites/grass as sprites - lighter_7.png" width="32" height="32"/>
  </tile>
  <tile id="1669">
   <image source="tiled/ERW-Grass Land/Props/Atlas-Props-individual sprites/grass as sprites - lighter_8.png" width="32" height="32"/>
  </tile>
  <tile id="1670">
   <image source="tiled/ERW-Grass Land/Props/Atlas-Props-individual sprites/grass as sprites - lighter_9.png" width="32" height="32"/>
  </tile>
  <tile id="1671">
   <image source="tiled/ERW-Grass Land/Props/Atlas-Props-individual sprites/grass as sprites - lighter_10.png" width="32" height="32"/>
  </tile>
  <tile id="1672">
   <image source="tiled/ERW-Grass Land/Props/Atlas-Props-individual sprites/grass as sprites - lighter_11.png" width="32" height="32"/>
  </tile>
  <tile id="1673">
   <image source="tiled/ERW-Grass Land/Props/Atlas-Props-individual sprites/grass as sprites - lighter_12.png" width="32" height="32"/>
  </tile>
  <tile id="1674">
   <image source="tiled/ERW-Grass Land/Props/Atlas-Props-individual sprites/grass as sprites - lighter_13.png" width="32" height="32"/>
  </tile>
  <tile id="1675">
   <image source="tiled/ERW-Grass Land/Props/Atlas-Props-individual sprites/grass as sprites - lighter_14.png" width="32" height="32"/>
  </tile>
  <tile id="1676">
   <image source="tiled/ERW-Grass Land/Props/Atlas-Props-individual sprites/grass as sprites - lighter_15.png" width="32" height="32"/>
  </tile>
  <tile id="1677">
   <image source="tiled/ERW-Grass Land/Props/Atlas-Props-individual sprites/grass as sprites - lighter_16.png" width="32" height="32"/>
  </tile>
  <tile id="1678">
   <image source="tiled/ERW-Grass Land/Props/Atlas-Props-individual sprites/grass as sprites - lighter_17.png" width="32" height="32"/>
  </tile>
  <tile id="1679">
   <image source="tiled/ERW-Grass Land/Props/Atlas-Props-individual sprites/grass as sprites - lighter_18.png" width="32" height="32"/>
  </tile>
  <tile id="1680">
   <image source="tiled/ERW-Grass Land/Props/Atlas-Props-individual sprites/grass as sprites - lighter_19.png" width="32" height="32"/>
  </tile>
  <tile id="1681">
   <image source="tiled/ERW-Grass Land/Props/Atlas-Props-individual sprites/grass as sprites - lighter_20.png" width="32" height="32"/>
  </tile>
  <tile id="1682">
   <image source="tiled/ERW-Grass Land/Props/Atlas-Props-individual sprites/grass as sprites - lighter_21.png" width="32" height="32"/>
  </tile>
  <tile id="1683">
   <image source="tiled/ERW-Grass Land/Props/Atlas-Props-individual sprites/house_0.png" width="448" height="320"/>
  </tile>
  <tile id="1684">
   <image source="tiled/ERW-Grass Land/Props/Atlas-Props-individual sprites/house_1.png" width="448" height="320"/>
  </tile>
  <tile id="1685">
   <image source="tiled/ERW-Grass Land/Props/Atlas-Props-individual sprites/house_detail1.png" width="128" height="64"/>
  </tile>
  <tile id="1686">
   <image source="tiled/ERW-Grass Land/Props/Atlas-Props-individual sprites/house-stairs.png" width="64" height="32"/>
  </tile>
  <tile id="1687">
   <image source="tiled/ERW-Grass Land/Props/Atlas-Props-individual sprites/house-stairs-grass.png" width="64" height="32"/>
  </tile>
  <tile id="1688">
   <image source="tiled/ERW-Grass Land/Props/Atlas-Props-individual sprites/lamp post - with lamp_0.png" width="64" height="96"/>
  </tile>
  <tile id="1689">
   <image source="tiled/ERW-Grass Land/Props/Atlas-Props-individual sprites/lamp post - with lamp_1.png" width="64" height="96"/>
  </tile>
  <tile id="1690">
   <image source="tiled/ERW-Grass Land/Props/Atlas-Props-individual sprites/lamp post - with lamp_2.png" width="64" height="96"/>
  </tile>
  <tile id="1691">
   <image source="tiled/ERW-Grass Land/Props/Atlas-Props-individual sprites/lamp post - with lamp_3.png" width="64" height="96"/>
  </tile>
  <tile id="1692">
   <image source="tiled/ERW-Grass Land/Props/Atlas-Props-individual sprites/lamp post - with lamp_4.png" width="64" height="96"/>
  </tile>
  <tile id="1693">
   <image source="tiled/ERW-Grass Land/Props/Atlas-Props-individual sprites/lamp post - with lamp_5.png" width="64" height="96"/>
  </tile>
  <tile id="1694">
   <image source="tiled/ERW-Grass Land/Props/Atlas-Props-individual sprites/lamp post - with lamp_6.png" width="64" height="96"/>
  </tile>
  <tile id="1695">
   <image source="tiled/ERW-Grass Land/Props/Atlas-Props-individual sprites/lamp post - with lamp_7.png" width="64" height="96"/>
  </tile>
  <tile id="1696">
   <image source="tiled/ERW-Grass Land/Props/Atlas-Props-individual sprites/lamp post - with lamp_8.png" width="64" height="96"/>
  </tile>
  <tile id="1697">
   <image source="tiled/ERW-Grass Land/Props/Atlas-Props-individual sprites/lamp post - with lamp_9.png" width="64" height="96"/>
  </tile>
  <tile id="1698">
   <image source="tiled/ERW-Grass Land/Props/Atlas-Props-individual sprites/lamp post - with lamp_10.png" width="64" height="96"/>
  </tile>
  <tile id="1699">
   <image source="tiled/ERW-Grass Land/Props/Atlas-Props-individual sprites/lamp post - with lamp_11.png" width="64" height="96"/>
  </tile>
  <tile id="1700">
   <image source="tiled/ERW-Grass Land/Props/Atlas-Props-individual sprites/lamp post -no lamp_0.png" width="64" height="96"/>
  </tile>
  <tile id="1701">
   <image source="tiled/ERW-Grass Land/Props/Atlas-Props-individual sprites/lamp post -no lamp_1.png" width="64" height="96"/>
  </tile>
  <tile id="1702">
   <image source="tiled/ERW-Grass Land/Props/Atlas-Props-individual sprites/lamp post -no lamp_2.png" width="64" height="96"/>
  </tile>
  <tile id="1703">
   <image source="tiled/ERW-Grass Land/Props/Atlas-Props-individual sprites/lamp post -no lamp_3.png" width="64" height="96"/>
  </tile>
  <tile id="1704">
   <image source="tiled/ERW-Grass Land/Props/Atlas-Props-individual sprites/lamp post -no lamp_4.png" width="64" height="96"/>
  </tile>
  <tile id="1705">
   <image source="tiled/ERW-Grass Land/Props/Atlas-Props-individual sprites/lamp post -no lamp_5.png" width="64" height="96"/>
  </tile>
  <tile id="1706">
   <image source="tiled/ERW-Grass Land/Props/Atlas-Props-individual sprites/lamp post -no lamp_6.png" width="64" height="96"/>
  </tile>
  <tile id="1707">
   <image source="tiled/ERW-Grass Land/Props/Atlas-Props-individual sprites/lamp post -no lamp_7.png" width="64" height="96"/>
  </tile>
  <tile id="1708">
   <image source="tiled/ERW-Grass Land/Props/Atlas-Props-individual sprites/lamp post -no lamp_8.png" width="64" height="96"/>
  </tile>
  <tile id="1709">
   <image source="tiled/ERW-Grass Land/Props/Atlas-Props-individual sprites/lamp post -no lamp_9.png" width="64" height="96"/>
  </tile>
  <tile id="1710">
   <image source="tiled/ERW-Grass Land/Props/Atlas-Props-individual sprites/lamp post -no lamp_10.png" width="64" height="96"/>
  </tile>
  <tile id="1711">
   <image source="tiled/ERW-Grass Land/Props/Atlas-Props-individual sprites/lamp post -no lamp_11.png" width="64" height="96"/>
  </tile>
  <tile id="1712">
   <image source="tiled/ERW-Grass Land/Props/Atlas-Props-individual sprites/medieval wooden wagon_0.png" width="64" height="64"/>
  </tile>
  <tile id="1713">
   <image source="tiled/ERW-Grass Land/Props/Atlas-Props-individual sprites/medieval wooden wagon_1.png" width="64" height="64"/>
  </tile>
  <tile id="1714">
   <image source="tiled/ERW-Grass Land/Props/Atlas-Props-individual sprites/medieval wooden wagon_2.png" width="64" height="64"/>
  </tile>
  <tile id="1715">
   <image source="tiled/ERW-Grass Land/Props/Atlas-Props-individual sprites/medieval wooden wagon_3.png" width="32" height="32"/>
  </tile>
  <tile id="1716">
   <image source="tiled/ERW-Grass Land/Props/Atlas-Props-individual sprites/mushrooms_0.png" width="32" height="32"/>
  </tile>
  <tile id="1717">
   <image source="tiled/ERW-Grass Land/Props/Atlas-Props-individual sprites/mushrooms_1.png" width="32" height="32"/>
  </tile>
  <tile id="1718">
   <image source="tiled/ERW-Grass Land/Props/Atlas-Props-individual sprites/mushrooms_2.png" width="32" height="32"/>
  </tile>
  <tile id="1719">
   <image source="tiled/ERW-Grass Land/Props/Atlas-Props-individual sprites/mushrooms_3.png" width="32" height="32"/>
  </tile>
  <tile id="1720">
   <image source="tiled/ERW-Grass Land/Props/Atlas-Props-individual sprites/mushrooms_4.png" width="32" height="32"/>
  </tile>
  <tile id="1721">
   <image source="tiled/ERW-Grass Land/Props/Atlas-Props-individual sprites/mushrooms_5.png" width="32" height="32"/>
  </tile>
  <tile id="1722">
   <image source="tiled/ERW-Grass Land/Props/Atlas-Props-individual sprites/mushrooms_6.png" width="32" height="32"/>
  </tile>
  <tile id="1723">
   <image source="tiled/ERW-Grass Land/Props/Atlas-Props-individual sprites/rocks-color scheme1__0.png" width="64" height="64"/>
  </tile>
  <tile id="1724">
   <image source="tiled/ERW-Grass Land/Props/Atlas-Props-individual sprites/rocks-color scheme1__1.png" width="64" height="64"/>
  </tile>
  <tile id="1725">
   <image source="tiled/ERW-Grass Land/Props/Atlas-Props-individual sprites/rocks-color scheme1__2.png" width="64" height="64"/>
  </tile>
  <tile id="1726">
   <image source="tiled/ERW-Grass Land/Props/Atlas-Props-individual sprites/rocks-color scheme1__3.png" width="64" height="64"/>
  </tile>
  <tile id="1727">
   <image source="tiled/ERW-Grass Land/Props/Atlas-Props-individual sprites/rocks-color scheme1__4.png" width="64" height="32"/>
  </tile>
  <tile id="1728">
   <image source="tiled/ERW-Grass Land/Props/Atlas-Props-individual sprites/rocks-color scheme1__5.png" width="32" height="32"/>
  </tile>
  <tile id="1729">
   <image source="tiled/ERW-Grass Land/Props/Atlas-Props-individual sprites/rocks-color scheme1__6.png" width="32" height="32"/>
  </tile>
  <tile id="1730">
   <image source="tiled/ERW-Grass Land/Props/Atlas-Props-individual sprites/rocks-color scheme1__7.png" width="32" height="32"/>
  </tile>
  <tile id="1731">
   <image source="tiled/ERW-Grass Land/Props/Atlas-Props-individual sprites/rocks-color scheme1__8.png" width="32" height="32"/>
  </tile>
  <tile id="1732">
   <image source="tiled/ERW-Grass Land/Props/Atlas-Props-individual sprites/rocks-color scheme1__9.png" width="32" height="32"/>
  </tile>
  <tile id="1733">
   <image source="tiled/ERW-Grass Land/Props/Atlas-Props-individual sprites/rocks-color scheme1__10.png" width="32" height="32"/>
  </tile>
  <tile id="1734">
   <image source="tiled/ERW-Grass Land/Props/Atlas-Props-individual sprites/rocks-color scheme1__11.png" width="32" height="32"/>
  </tile>
  <tile id="1735">
   <image source="tiled/ERW-Grass Land/Props/Atlas-Props-individual sprites/rocks-color scheme1__12.png" width="32" height="32"/>
  </tile>
  <tile id="1736">
   <image source="tiled/ERW-Grass Land/Props/Atlas-Props-individual sprites/rocks-color scheme1__13.png" width="32" height="32"/>
  </tile>
  <tile id="1737">
   <image source="tiled/ERW-Grass Land/Props/Atlas-Props-individual sprites/rocks-color scheme1__14.png" width="32" height="32"/>
  </tile>
  <tile id="1738">
   <image source="tiled/ERW-Grass Land/Props/Atlas-Props-individual sprites/rocks-color scheme1__15.png" width="32" height="32"/>
  </tile>
  <tile id="1739">
   <image source="tiled/ERW-Grass Land/Props/Atlas-Props-individual sprites/rocks-color scheme1__16.png" width="32" height="32"/>
  </tile>
  <tile id="1740">
   <image source="tiled/ERW-Grass Land/Props/Atlas-Props-individual sprites/rocks-color scheme1__17.png" width="32" height="32"/>
  </tile>
  <tile id="1741">
   <image source="tiled/ERW-Grass Land/Props/Atlas-Props-individual sprites/rocks-color scheme1__18.png" width="32" height="32"/>
  </tile>
  <tile id="1742">
   <image source="tiled/ERW-Grass Land/Props/Atlas-Props-individual sprites/rocks-color scheme1__19.png" width="32" height="32"/>
  </tile>
  <tile id="1743">
   <image source="tiled/ERW-Grass Land/Props/Atlas-Props-individual sprites/rocks-color scheme1__20.png" width="32" height="32"/>
  </tile>
  <tile id="1744">
   <image source="tiled/ERW-Grass Land/Props/Atlas-Props-individual sprites/rocks-color scheme1__21.png" width="96" height="64"/>
  </tile>
  <tile id="1745">
   <image source="tiled/ERW-Grass Land/Props/Atlas-Props-individual sprites/rocks-color scheme1-grass_0.png" width="32" height="32"/>
  </tile>
  <tile id="1746">
   <image source="tiled/ERW-Grass Land/Props/Atlas-Props-individual sprites/rocks-color scheme1-grass_1.png" width="32" height="32"/>
  </tile>
  <tile id="1747">
   <image source="tiled/ERW-Grass Land/Props/Atlas-Props-individual sprites/rocks-color scheme1-grass_2.png" width="32" height="32"/>
  </tile>
  <tile id="1748">
   <image source="tiled/ERW-Grass Land/Props/Atlas-Props-individual sprites/rocks-color scheme1-grass_3.png" width="32" height="32"/>
  </tile>
  <tile id="1749">
   <image source="tiled/ERW-Grass Land/Props/Atlas-Props-individual sprites/rocks-color scheme1-grass_4.png" width="32" height="32"/>
  </tile>
  <tile id="1750">
   <image source="tiled/ERW-Grass Land/Props/Atlas-Props-individual sprites/rocks-color scheme1-grass_5.png" width="32" height="32"/>
  </tile>
  <tile id="1751">
   <image source="tiled/ERW-Grass Land/Props/Atlas-Props-individual sprites/rocks-color scheme1-grass_6.png" width="32" height="32"/>
  </tile>
  <tile id="1752">
   <image source="tiled/ERW-Grass Land/Props/Atlas-Props-individual sprites/rocks-color scheme1-grass_7.png" width="32" height="32"/>
  </tile>
  <tile id="1753">
   <image source="tiled/ERW-Grass Land/Props/Atlas-Props-individual sprites/rocks-color scheme1-grass_8.png" width="32" height="32"/>
  </tile>
  <tile id="1754">
   <image source="tiled/ERW-Grass Land/Props/Atlas-Props-individual sprites/rocks-color scheme1-grass_9.png" width="32" height="32"/>
  </tile>
  <tile id="1755">
   <image source="tiled/ERW-Grass Land/Props/Atlas-Props-individual sprites/rocks-color scheme1-grass_10.png" width="32" height="32"/>
  </tile>
  <tile id="1756">
   <image source="tiled/ERW-Grass Land/Props/Atlas-Props-individual sprites/rocks-color scheme1-grass_11.png" width="32" height="32"/>
  </tile>
  <tile id="1757">
   <image source="tiled/ERW-Grass Land/Props/Atlas-Props-individual sprites/rocks-color scheme1-grass_12.png" width="32" height="32"/>
  </tile>
  <tile id="1758">
   <image source="tiled/ERW-Grass Land/Props/Atlas-Props-individual sprites/rocks-color scheme1-grass_13.png" width="32" height="32"/>
  </tile>
  <tile id="1759">
   <image source="tiled/ERW-Grass Land/Props/Atlas-Props-individual sprites/rocks-color scheme1-grass_14.png" width="32" height="32"/>
  </tile>
  <tile id="1760">
   <image source="tiled/ERW-Grass Land/Props/Atlas-Props-individual sprites/rocks-color scheme1-grass_15.png" width="32" height="32"/>
  </tile>
  <tile id="1761">
   <image source="tiled/ERW-Grass Land/Props/Atlas-Props-individual sprites/rocks-color scheme1-grass_16.png" width="64" height="32"/>
  </tile>
  <tile id="1762">
   <image source="tiled/ERW-Grass Land/Props/Atlas-Props-individual sprites/rocks-color scheme1-grass_17.png" width="64" height="64"/>
  </tile>
  <tile id="1763">
   <image source="tiled/ERW-Grass Land/Props/Atlas-Props-individual sprites/rocks-color scheme1-grass_18.png" width="64" height="64"/>
  </tile>
  <tile id="1764">
   <image source="tiled/ERW-Grass Land/Props/Atlas-Props-individual sprites/rocks-color scheme1-grass_19.png" width="64" height="64"/>
  </tile>
  <tile id="1765">
   <image source="tiled/ERW-Grass Land/Props/Atlas-Props-individual sprites/rocks-color scheme1-grass_20.png" width="64" height="64"/>
  </tile>
  <tile id="1766">
   <image source="tiled/ERW-Grass Land/Props/Atlas-Props-individual sprites/rocks-color scheme1-grass_21.png" width="96" height="64"/>
  </tile>
  <tile id="1767">
   <image source="tiled/ERW-Grass Land/Props/Atlas-Props-individual sprites/rocks-color scheme2__0.png" width="64" height="32"/>
  </tile>
  <tile id="1768">
   <image source="tiled/ERW-Grass Land/Props/Atlas-Props-individual sprites/rocks-color scheme2__1.png" width="64" height="64"/>
  </tile>
  <tile id="1769">
   <image source="tiled/ERW-Grass Land/Props/Atlas-Props-individual sprites/rocks-color scheme2__2.png" width="64" height="64"/>
  </tile>
  <tile id="1770">
   <image source="tiled/ERW-Grass Land/Props/Atlas-Props-individual sprites/rocks-color scheme2__3.png" width="64" height="64"/>
  </tile>
  <tile id="1771">
   <image source="tiled/ERW-Grass Land/Props/Atlas-Props-individual sprites/rocks-color scheme2__4.png" width="64" height="64"/>
  </tile>
  <tile id="1772">
   <image source="tiled/ERW-Grass Land/Props/Atlas-Props-individual sprites/rocks-color scheme2__5.png" width="32" height="32"/>
  </tile>
  <tile id="1773">
   <image source="tiled/ERW-Grass Land/Props/Atlas-Props-individual sprites/rocks-color scheme2__6.png" width="32" height="32"/>
  </tile>
  <tile id="1774">
   <image source="tiled/ERW-Grass Land/Props/Atlas-Props-individual sprites/rocks-color scheme2__7.png" width="32" height="32"/>
  </tile>
  <tile id="1775">
   <image source="tiled/ERW-Grass Land/Props/Atlas-Props-individual sprites/rocks-color scheme2__8.png" width="32" height="32"/>
  </tile>
  <tile id="1776">
   <image source="tiled/ERW-Grass Land/Props/Atlas-Props-individual sprites/rocks-color scheme2__9.png" width="32" height="32"/>
  </tile>
  <tile id="1777">
   <image source="tiled/ERW-Grass Land/Props/Atlas-Props-individual sprites/rocks-color scheme2__10.png" width="32" height="32"/>
  </tile>
  <tile id="1778">
   <image source="tiled/ERW-Grass Land/Props/Atlas-Props-individual sprites/rocks-color scheme2__11.png" width="32" height="32"/>
  </tile>
  <tile id="1779">
   <image source="tiled/ERW-Grass Land/Props/Atlas-Props-individual sprites/rocks-color scheme2__12.png" width="32" height="32"/>
  </tile>
  <tile id="1780">
   <image source="tiled/ERW-Grass Land/Props/Atlas-Props-individual sprites/rocks-color scheme2__13.png" width="32" height="32"/>
  </tile>
  <tile id="1781">
   <image source="tiled/ERW-Grass Land/Props/Atlas-Props-individual sprites/rocks-color scheme2__14.png" width="32" height="32"/>
  </tile>
  <tile id="1782">
   <image source="tiled/ERW-Grass Land/Props/Atlas-Props-individual sprites/rocks-color scheme2__15.png" width="32" height="32"/>
  </tile>
  <tile id="1783">
   <image source="tiled/ERW-Grass Land/Props/Atlas-Props-individual sprites/rocks-color scheme2__16.png" width="32" height="32"/>
  </tile>
  <tile id="1784">
   <image source="tiled/ERW-Grass Land/Props/Atlas-Props-individual sprites/rocks-color scheme2__17.png" width="32" height="32"/>
  </tile>
  <tile id="1785">
   <image source="tiled/ERW-Grass Land/Props/Atlas-Props-individual sprites/rocks-color scheme2__18.png" width="32" height="32"/>
  </tile>
  <tile id="1786">
   <image source="tiled/ERW-Grass Land/Props/Atlas-Props-individual sprites/rocks-color scheme2__19.png" width="32" height="32"/>
  </tile>
  <tile id="1787">
   <image source="tiled/ERW-Grass Land/Props/Atlas-Props-individual sprites/rocks-color scheme2__20.png" width="32" height="32"/>
  </tile>
  <tile id="1788">
   <image source="tiled/ERW-Grass Land/Props/Atlas-Props-individual sprites/rocks-color scheme2__21.png" width="96" height="64"/>
  </tile>
  <tile id="1789">
   <image source="tiled/ERW-Grass Land/Props/Atlas-Props-individual sprites/rocks-color scheme2-grass_0.png" width="32" height="32"/>
  </tile>
  <tile id="1790">
   <image source="tiled/ERW-Grass Land/Props/Atlas-Props-individual sprites/rocks-color scheme2-grass_1.png" width="32" height="32"/>
  </tile>
  <tile id="1791">
   <image source="tiled/ERW-Grass Land/Props/Atlas-Props-individual sprites/rocks-color scheme2-grass_2.png" width="32" height="32"/>
  </tile>
  <tile id="1792">
   <image source="tiled/ERW-Grass Land/Props/Atlas-Props-individual sprites/rocks-color scheme2-grass_3.png" width="32" height="32"/>
  </tile>
  <tile id="1793">
   <image source="tiled/ERW-Grass Land/Props/Atlas-Props-individual sprites/rocks-color scheme2-grass_4.png" width="32" height="32"/>
  </tile>
  <tile id="1794">
   <image source="tiled/ERW-Grass Land/Props/Atlas-Props-individual sprites/rocks-color scheme2-grass_5.png" width="32" height="32"/>
  </tile>
  <tile id="1795">
   <image source="tiled/ERW-Grass Land/Props/Atlas-Props-individual sprites/rocks-color scheme2-grass_6.png" width="32" height="32"/>
  </tile>
  <tile id="1796">
   <image source="tiled/ERW-Grass Land/Props/Atlas-Props-individual sprites/rocks-color scheme2-grass_7.png" width="32" height="32"/>
  </tile>
  <tile id="1797">
   <image source="tiled/ERW-Grass Land/Props/Atlas-Props-individual sprites/rocks-color scheme2-grass_8.png" width="32" height="32"/>
  </tile>
  <tile id="1798">
   <image source="tiled/ERW-Grass Land/Props/Atlas-Props-individual sprites/rocks-color scheme2-grass_9.png" width="32" height="32"/>
  </tile>
  <tile id="1799">
   <image source="tiled/ERW-Grass Land/Props/Atlas-Props-individual sprites/rocks-color scheme2-grass_10.png" width="32" height="32"/>
  </tile>
  <tile id="1800">
   <image source="tiled/ERW-Grass Land/Props/Atlas-Props-individual sprites/rocks-color scheme2-grass_11.png" width="32" height="32"/>
  </tile>
  <tile id="1801">
   <image source="tiled/ERW-Grass Land/Props/Atlas-Props-individual sprites/rocks-color scheme2-grass_12.png" width="32" height="32"/>
  </tile>
  <tile id="1802">
   <image source="tiled/ERW-Grass Land/Props/Atlas-Props-individual sprites/rocks-color scheme2-grass_13.png" width="32" height="32"/>
  </tile>
  <tile id="1803">
   <image source="tiled/ERW-Grass Land/Props/Atlas-Props-individual sprites/rocks-color scheme2-grass_14.png" width="32" height="32"/>
  </tile>
  <tile id="1804">
   <image source="tiled/ERW-Grass Land/Props/Atlas-Props-individual sprites/rocks-color scheme2-grass_15.png" width="32" height="32"/>
  </tile>
  <tile id="1805">
   <image source="tiled/ERW-Grass Land/Props/Atlas-Props-individual sprites/rocks-color scheme2-grass_16.png" width="64" height="32"/>
  </tile>
  <tile id="1806">
   <image source="tiled/ERW-Grass Land/Props/Atlas-Props-individual sprites/rocks-color scheme2-grass_17.png" width="64" height="64"/>
  </tile>
  <tile id="1807">
   <image source="tiled/ERW-Grass Land/Props/Atlas-Props-individual sprites/rocks-color scheme2-grass_18.png" width="64" height="64"/>
  </tile>
  <tile id="1808">
   <image source="tiled/ERW-Grass Land/Props/Atlas-Props-individual sprites/rocks-color scheme2-grass_19.png" width="64" height="64"/>
  </tile>
  <tile id="1809">
   <image source="tiled/ERW-Grass Land/Props/Atlas-Props-individual sprites/rocks-color scheme2-grass_20.png" width="64" height="64"/>
  </tile>
  <tile id="1810">
   <image source="tiled/ERW-Grass Land/Props/Atlas-Props-individual sprites/rocks-color scheme2-grass_21.png" width="96" height="64"/>
  </tile>
  <tile id="1811">
   <image source="tiled/ERW-Grass Land/Props/Atlas-Props-individual sprites/shrine_0.png" width="64" height="64"/>
  </tile>
  <tile id="1812">
   <image source="tiled/ERW-Grass Land/Props/Atlas-Props-individual sprites/shrine_1.png" width="64" height="64"/>
  </tile>
  <tile id="1813">
   <image source="tiled/ERW-Grass Land/Props/Atlas-Props-individual sprites/shrine_2.png" width="64" height="64"/>
  </tile>
  <tile id="1814">
   <image source="tiled/ERW-Grass Land/Props/Atlas-Props-individual sprites/shrine_3.png" width="64" height="64"/>
  </tile>
  <tile id="1815">
   <image source="tiled/ERW-Grass Land/Props/Atlas-Props-individual sprites/shrine_4.png" width="64" height="64"/>
  </tile>
  <tile id="1816">
   <image source="tiled/ERW-Grass Land/Props/Atlas-Props-individual sprites/shrine_5.png" width="64" height="64"/>
  </tile>
  <tile id="1817">
   <image source="tiled/ERW-Grass Land/Props/Atlas-Props-individual sprites/shrine_6.png" width="64" height="64"/>
  </tile>
  <tile id="1818">
   <image source="tiled/ERW-Grass Land/Props/Atlas-Props-individual sprites/shrine_7.png" width="64" height="64"/>
  </tile>
  <tile id="1819">
   <image source="tiled/ERW-Grass Land/Props/Atlas-Props-individual sprites/signs_0.png" width="32" height="32"/>
  </tile>
  <tile id="1820">
   <image source="tiled/ERW-Grass Land/Props/Atlas-Props-individual sprites/signs_1.png" width="32" height="32"/>
  </tile>
  <tile id="1821">
   <image source="tiled/ERW-Grass Land/Props/Atlas-Props-individual sprites/signs_2.png" width="32" height="32"/>
  </tile>
  <tile id="1822">
   <image source="tiled/ERW-Grass Land/Props/Atlas-Props-individual sprites/signs_3.png" width="32" height="32"/>
  </tile>
  <tile id="1823">
   <image source="tiled/ERW-Grass Land/Props/Atlas-Props-individual sprites/signs_4.png" width="32" height="32"/>
  </tile>
  <tile id="1824">
   <image source="tiled/ERW-Grass Land/Props/Atlas-Props-individual sprites/signs_5.png" width="32" height="32"/>
  </tile>
  <tile id="1825">
   <image source="tiled/ERW-Grass Land/Props/Atlas-Props-individual sprites/signs_6.png" width="32" height="32"/>
  </tile>
  <tile id="1826">
   <image source="tiled/ERW-Grass Land/Props/Atlas-Props-individual sprites/signs_7.png" width="32" height="32"/>
  </tile>
  <tile id="1827">
   <image source="tiled/ERW-Grass Land/Props/Atlas-Props-individual sprites/signs_8.png" width="32" height="32"/>
  </tile>
  <tile id="1828">
   <image source="tiled/ERW-Grass Land/Props/Atlas-Props-individual sprites/signs_9.png" width="32" height="32"/>
  </tile>
  <tile id="1829">
   <image source="tiled/ERW-Grass Land/Props/Atlas-Props-individual sprites/signs_10.png" width="32" height="32"/>
  </tile>
  <tile id="1830">
   <image source="tiled/ERW-Grass Land/Props/Atlas-Props-individual sprites/signs_11.png" width="32" height="32"/>
  </tile>
  <tile id="1831">
   <image source="tiled/ERW-Grass Land/Props/Atlas-Props-individual sprites/signs_12.png" width="32" height="32"/>
  </tile>
  <tile id="1832">
   <image source="tiled/ERW-Grass Land/Props/Atlas-Props-individual sprites/signs_13.png" width="32" height="32"/>
  </tile>
  <tile id="1833">
   <image source="tiled/ERW-Grass Land/Props/Atlas-Props-individual sprites/signs_14.png" width="32" height="32"/>
  </tile>
  <tile id="1834">
   <image source="tiled/ERW-Grass Land/Props/Atlas-Props-individual sprites/signs_15.png" width="32" height="32"/>
  </tile>
  <tile id="1835">
   <image source="tiled/ERW-Grass Land/Props/Atlas-Props-individual sprites/signs_16.png" width="32" height="32"/>
  </tile>
  <tile id="1836">
   <image source="tiled/ERW-Grass Land/Props/Atlas-Props-individual sprites/signs_17.png" width="32" height="32"/>
  </tile>
  <tile id="1837">
   <image source="tiled/ERW-Grass Land/Props/Atlas-Props-individual sprites/signs_18.png" width="32" height="32"/>
  </tile>
  <tile id="1838">
   <image source="tiled/ERW-Grass Land/Props/Atlas-Props-individual sprites/signs_19.png" width="32" height="32"/>
  </tile>
  <tile id="1839">
   <image source="tiled/ERW-Grass Land/Props/Atlas-Props-individual sprites/signs_20.png" width="32" height="32"/>
  </tile>
  <tile id="1840">
   <image source="tiled/ERW-Grass Land/Props/Atlas-Props-individual sprites/signs_21.png" width="32" height="32"/>
  </tile>
  <tile id="1841">
   <image source="tiled/ERW-Grass Land/Props/Atlas-Props-individual sprites/signs_22.png" width="32" height="32"/>
  </tile>
  <tile id="1842">
   <image source="tiled/ERW-Grass Land/Props/Atlas-Props-individual sprites/signs_23.png" width="32" height="32"/>
  </tile>
  <tile id="1843">
   <image source="tiled/ERW-Grass Land/Props/Atlas-Props-individual sprites/signs_24.png" width="32" height="32"/>
  </tile>
  <tile id="1844">
   <image source="tiled/ERW-Grass Land/Props/Atlas-Props-individual sprites/signs_25.png" width="32" height="32"/>
  </tile>
  <tile id="1845">
   <image source="tiled/ERW-Grass Land/Props/Atlas-Props-individual sprites/signs_26.png" width="32" height="32"/>
  </tile>
  <tile id="1846">
   <image source="tiled/ERW-Grass Land/Props/Atlas-Props-individual sprites/stone-halfsized walls-pillars_0.png" width="32" height="64"/>
  </tile>
  <tile id="1847">
   <image source="tiled/ERW-Grass Land/Props/Atlas-Props-individual sprites/stone-halfsized walls-pillars_1.png" width="32" height="64"/>
  </tile>
  <tile id="1848">
   <image source="tiled/ERW-Grass Land/Props/Atlas-Props-individual sprites/stone-halfsized walls-pillars_2.png" width="32" height="64"/>
  </tile>
  <tile id="1849">
   <image source="tiled/ERW-Grass Land/Props/Atlas-Props-individual sprites/stone-halfsized walls-pillars_3.png" width="32" height="64"/>
  </tile>
  <tile id="1850">
   <image source="tiled/ERW-Grass Land/Props/Atlas-Props-individual sprites/stone-halfsized walls-pillars_4.png" width="32" height="64"/>
  </tile>
  <tile id="1851">
   <image source="tiled/ERW-Grass Land/Props/Atlas-Props-individual sprites/stone-halfsized walls-pillars_5.png" width="32" height="64"/>
  </tile>
  <tile id="1852">
   <image source="tiled/ERW-Grass Land/Props/Atlas-Props-individual sprites/stone-halfsized walls-pillars_6.png" width="32" height="64"/>
  </tile>
  <tile id="1853">
   <image source="tiled/ERW-Grass Land/Props/Atlas-Props-individual sprites/stone-halfsized walls-pillars_7.png" width="32" height="64"/>
  </tile>
  <tile id="1854">
   <image source="tiled/ERW-Grass Land/Props/Atlas-Props-individual sprites/stone-halfsized walls-pillars_8.png" width="32" height="64"/>
  </tile>
  <tile id="1855">
   <image source="tiled/ERW-Grass Land/Props/Atlas-Props-individual sprites/stone-halfsized walls-pillars_9.png" width="32" height="64"/>
  </tile>
  <tile id="1856">
   <image source="tiled/ERW-Grass Land/Props/Atlas-Props-individual sprites/stone-halfsized walls-pillars_10.png" width="32" height="64"/>
  </tile>
  <tile id="1857">
   <image source="tiled/ERW-Grass Land/Props/Atlas-Props-individual sprites/stone-halfsized walls-pillars_11.png" width="32" height="64"/>
  </tile>
  <tile id="1858">
   <image source="tiled/ERW-Grass Land/Props/Atlas-Props-individual sprites/stone-halfsized walls-pillars_12.png" width="32" height="64"/>
  </tile>
  <tile id="1859">
   <image source="tiled/ERW-Grass Land/Props/Atlas-Props-individual sprites/stone-halfsized walls-pillars_13.png" width="32" height="64"/>
  </tile>
  <tile id="1860">
   <image source="tiled/ERW-Grass Land/Props/Atlas-Props-individual sprites/stone-halfsized walls-pillars_14.png" width="32" height="64"/>
  </tile>
  <tile id="1861">
   <image source="tiled/ERW-Grass Land/Props/Atlas-Props-individual sprites/stone-halfsized walls-pillars_15.png" width="32" height="64"/>
  </tile>
  <tile id="1862">
   <image source="tiled/ERW-Grass Land/Props/Atlas-Props-individual sprites/stone-halfsized walls-solo blocks_0.png" width="32" height="32"/>
  </tile>
  <tile id="1863">
   <image source="tiled/ERW-Grass Land/Props/Atlas-Props-individual sprites/stone-halfsized walls-solo blocks_1.png" width="32" height="32"/>
  </tile>
  <tile id="1864">
   <image source="tiled/ERW-Grass Land/Props/Atlas-Props-individual sprites/stone-halfsized walls-solo blocks_2.png" width="32" height="32"/>
  </tile>
  <tile id="1865">
   <image source="tiled/ERW-Grass Land/Props/Atlas-Props-individual sprites/stone-halfsized walls-solo blocks_3.png" width="32" height="32"/>
  </tile>
  <tile id="1866">
   <image source="tiled/ERW-Grass Land/Props/Atlas-Props-individual sprites/stone-halfsized walls-solo blocks_4.png" width="32" height="32"/>
  </tile>
  <tile id="1867">
   <image source="tiled/ERW-Grass Land/Props/Atlas-Props-individual sprites/stone-halfsized walls-solo blocks_5.png" width="32" height="32"/>
  </tile>
  <tile id="1868">
   <image source="tiled/ERW-Grass Land/Props/Atlas-Props-individual sprites/stone-halfsized walls-solo blocks_6.png" width="32" height="32"/>
  </tile>
  <tile id="1869">
   <image source="tiled/ERW-Grass Land/Props/Atlas-Props-individual sprites/stone-halfsized walls-solo blocks_7.png" width="32" height="32"/>
  </tile>
  <tile id="1870">
   <image source="tiled/ERW-Grass Land/Props/Atlas-Props-individual sprites/stone-halfsized walls-solo blocks_8.png" width="32" height="32"/>
  </tile>
  <tile id="1871">
   <image source="tiled/ERW-Grass Land/Props/Atlas-Props-individual sprites/stone-paths and stairs_0.png" width="96" height="160"/>
  </tile>
  <tile id="1872">
   <image source="tiled/ERW-Grass Land/Props/Atlas-Props-individual sprites/stone-paths and stairs_1.png" width="160" height="128"/>
  </tile>
  <tile id="1873">
   <image source="tiled/ERW-Grass Land/Props/Atlas-Props-individual sprites/stone-paths and stairs_2.png" width="160" height="96"/>
  </tile>
  <tile id="1874">
   <image source="tiled/ERW-Grass Land/Props/Atlas-Props-individual sprites/stone-paths and stairs_3.png" width="96" height="96"/>
  </tile>
  <tile id="1875">
   <image source="tiled/ERW-Grass Land/Props/Atlas-Props-individual sprites/stone-paths and stairs_4.png" width="96" height="96"/>
  </tile>
  <tile id="1876">
   <image source="tiled/ERW-Grass Land/Props/Atlas-Props-individual sprites/stone-paths and stairs_5.png" width="96" height="96"/>
  </tile>
  <tile id="1877">
   <image source="tiled/ERW-Grass Land/Props/Atlas-Props-individual sprites/stone-paths and stairs_6.png" width="160" height="96"/>
  </tile>
  <tile id="1878">
   <image source="tiled/ERW-Grass Land/Props/Atlas-Props-individual sprites/Trees - whole and trunks_0.png" width="96" height="192"/>
  </tile>
  <tile id="1879">
   <image source="tiled/ERW-Grass Land/Props/Atlas-Props-individual sprites/Trees - whole and trunks_1.png" width="96" height="192"/>
  </tile>
  <tile id="1880">
   <image source="tiled/ERW-Grass Land/Props/Atlas-Props-individual sprites/Trees - whole and trunks_2.png" width="96" height="64"/>
  </tile>
  <tile id="1881">
   <image source="tiled/ERW-Grass Land/Props/Atlas-Props-individual sprites/Trees - whole and trunks_3.png" width="96" height="64"/>
  </tile>
  <tile id="1882">
   <image source="tiled/ERW-Grass Land/Props/Atlas-Props-individual sprites/Trees - whole and trunks_4.png" width="96" height="64"/>
  </tile>
  <tile id="1883">
   <image source="tiled/ERW-Grass Land/Props/Atlas-Props-individual sprites/Trees - whole and trunks_5.png" width="96" height="64"/>
  </tile>
  <tile id="1884">
   <image source="tiled/ERW-Grass Land/Props/Atlas-Props-individual sprites/Trees - whole and trunks_6.png" width="96" height="64"/>
  </tile>
  <tile id="1885">
   <image source="tiled/ERW-Grass Land/Props/Atlas-Props-individual sprites/Trees - whole and trunks_7.png" width="96" height="64"/>
  </tile>
  <tile id="1886">
   <image source="tiled/ERW-Grass Land/Props/Atlas-Props-individual sprites/trunks_0.png" width="64" height="64"/>
  </tile>
  <tile id="1887">
   <image source="tiled/ERW-Grass Land/Props/Atlas-Props-individual sprites/trunks_1.png" width="64" height="64"/>
  </tile>
  <tile id="1888">
   <image source="tiled/ERW-Grass Land/Props/Atlas-Props-individual sprites/trunks_2.png" width="64" height="64"/>
  </tile>
  <tile id="1889">
   <image source="tiled/ERW-Grass Land/Props/Atlas-Props-individual sprites/trunks_3.png" width="64" height="64"/>
  </tile>
  <tile id="1890">
   <image source="tiled/ERW-Grass Land/Props/Atlas-Props-individual sprites/trunks_4.png" width="64" height="64"/>
  </tile>
  <tile id="1891">
   <image source="tiled/ERW-Grass Land/Props/Atlas-Props-individual sprites/trunks2__0.png" width="64" height="32"/>
  </tile>
  <tile id="1892">
   <image source="tiled/ERW-Grass Land/Props/Atlas-Props-individual sprites/trunks2__1.png" width="64" height="32"/>
  </tile>
  <tile id="1893">
   <image source="tiled/ERW-Grass Land/Props/Atlas-Props-individual sprites/trunks2__2.png" width="64" height="32"/>
  </tile>
  <tile id="1894">
   <image source="tiled/ERW-Grass Land/Props/Atlas-Props-individual sprites/trunks2__3.png" width="64" height="32"/>
  </tile>
  <tile id="1895">
   <image source="tiled/ERW-Grass Land/Props/Atlas-Props-individual sprites/trunks2__4.png" width="64" height="32"/>
  </tile>
  <tile id="1896">
   <image source="tiled/ERW-Grass Land/Props/Atlas-Props-individual sprites/trunks2__6.png" width="64" height="64"/>
  </tile>
  <tile id="1897">
   <image source="tiled/ERW-Grass Land/Props/Atlas-Props-individual sprites/trunks2__7.png" width="64" height="64"/>
  </tile>
  <tile id="1898">
   <image source="tiled/ERW-Grass Land/Props/Atlas-Props-individual sprites/trunks2__9.png" width="64" height="64"/>
  </tile>
  <tile id="1899">
   <image source="tiled/ERW-Grass Land/Props/Atlas-Props-individual sprites/trunks2__10.png" width="64" height="64"/>
  </tile>
  <tile id="1900">
   <image source="tiled/ERW-Grass Land/Props/Atlas-Props-individual sprites/trunks2__11.png" width="64" height="64"/>
  </tile>
  <tile id="1901">
   <image source="tiled/ERW-Grass Land/Props/Atlas-Props-individual sprites/trunks2__12.png" width="64" height="64"/>
  </tile>
  <tile id="1902">
   <image source="tiled/ERW-Grass Land/Props/Atlas-Props-individual sprites/trunks2__13.png" width="64" height="64"/>
  </tile>
  <tile id="1903">
   <image source="tiled/ERW-Grass Land/Props/Atlas-Props-individual sprites/trunks2__14.png" width="64" height="64"/>
  </tile>
  <tile id="1904">
   <image source="tiled/ERW-Grass Land/Props/Atlas-Props-individual sprites/trunks2__15.png" width="64" height="64"/>
  </tile>
  <tile id="1905">
   <image source="tiled/ERW-Grass Land/Props/Atlas-Props-individual sprites/trunks2__16.png" width="64" height="64"/>
  </tile>
  <tile id="1906">
   <image source="tiled/ERW-Grass Land/Props/Atlas-Props-individual sprites/trunks2__17.png" width="64" height="64"/>
  </tile>
  <tile id="1907">
   <image source="tiled/ERW-Grass Land/Props/Atlas-Props-individual sprites/trunks2__18.png" width="64" height="64"/>
  </tile>
  <tile id="1908">
   <image source="tiled/ERW-Grass Land/Props/Atlas-Props-individual sprites/trunks2__19.png" width="64" height="64"/>
  </tile>
  <tile id="1909">
   <image source="tiled/ERW-Grass Land/Props/Atlas-Props-individual sprites/trunks2__20.png" width="64" height="64"/>
  </tile>
  <tile id="1910">
   <image source="tiled/ERW-Grass Land/Props/Atlas-Props-individual sprites/trunks2__21.png" width="64" height="64"/>
  </tile>
  <tile id="1911">
   <image source="tiled/ERW-Grass Land/Props/Atlas-Props-individual sprites/trunks5__5.png" width="64" height="32"/>
  </tile>
  <tile id="1912">
   <image source="tiled/ERW-Grass Land/Props/Atlas-Props-individual sprites/trunks8__8.png" width="64" height="64"/>
  </tile>
  <tile id="1913">
   <image source="tiled/ERW-Grass Land/Props/Atlas-Props-individual sprites/waterwell_0.png" width="96" height="128"/>
  </tile>
  <tile id="1914">
   <image source="tiled/ERW-Grass Land/Props/Atlas-Props-individual sprites/waterwell_1.png" width="96" height="128"/>
  </tile>
  <tile id="1915">
   <image source="tiled/ERW-Grass Land/Props/Atlas-Props-individual sprites/Animated Tree1_frame1.png" width="128" height="192"/>
   <animation>
    <frame tileid="1915" duration="100"/>
    <frame tileid="1916" duration="100"/>
    <frame tileid="1917" duration="100"/>
    <frame tileid="1918" duration="100"/>
    <frame tileid="1919" duration="100"/>
    <frame tileid="1920" duration="100"/>
    <frame tileid="1921" duration="100"/>
    <frame tileid="1922" duration="100"/>
   </animation>
  </tile>
  <tile id="1916">
   <image source="tiled/ERW-Grass Land/Props/Atlas-Props-individual sprites/Animated Tree1_frame2.png" width="128" height="192"/>
  </tile>
  <tile id="1917">
   <image source="tiled/ERW-Grass Land/Props/Atlas-Props-individual sprites/Animated Tree1_frame3.png" width="128" height="192"/>
  </tile>
  <tile id="1918">
   <image source="tiled/ERW-Grass Land/Props/Atlas-Props-individual sprites/Animated Tree1_frame4.png" width="128" height="192"/>
  </tile>
  <tile id="1919">
   <image source="tiled/ERW-Grass Land/Props/Atlas-Props-individual sprites/Animated Tree1_frame5.png" width="128" height="192"/>
  </tile>
  <tile id="1920">
   <image source="tiled/ERW-Grass Land/Props/Atlas-Props-individual sprites/Animated Tree1_frame6.png" width="128" height="192"/>
  </tile>
  <tile id="1921">
   <image source="tiled/ERW-Grass Land/Props/Atlas-Props-individual sprites/Animated Tree1_frame7.png" width="128" height="192"/>
  </tile>
  <tile id="1922">
   <image source="tiled/ERW-Grass Land/Props/Atlas-Props-individual sprites/Animated Tree1_frame8.png" width="128" height="192"/>
  </tile>
  <tile id="1923">
   <image source="tiled/ERW-Grass Land/Props/Atlas-Props-individual sprites/Animated Tree2_frame1.png" width="128" height="192"/>
   <animation>
    <frame tileid="1923" duration="100"/>
    <frame tileid="1924" duration="100"/>
    <frame tileid="1925" duration="100"/>
    <frame tileid="1926" duration="100"/>
    <frame tileid="1927" duration="100"/>
    <frame tileid="1928" duration="100"/>
    <frame tileid="1929" duration="100"/>
    <frame tileid="1930" duration="100"/>
   </animation>
  </tile>
  <tile id="1924">
   <image source="tiled/ERW-Grass Land/Props/Atlas-Props-individual sprites/Animated Tree2_frame2.png" width="128" height="192"/>
  </tile>
  <tile id="1925">
   <image source="tiled/ERW-Grass Land/Props/Atlas-Props-individual sprites/Animated Tree2_frame3.png" width="128" height="192"/>
  </tile>
  <tile id="1926">
   <image source="tiled/ERW-Grass Land/Props/Atlas-Props-individual sprites/Animated Tree2_frame4.png" width="128" height="192"/>
  </tile>
  <tile id="1927">
   <image source="tiled/ERW-Grass Land/Props/Atlas-Props-individual sprites/Animated Tree2_frame5.png" width="128" height="192"/>
  </tile>
  <tile id="1928">
   <image source="tiled/ERW-Grass Land/Props/Atlas-Props-individual sprites/Animated Tree2_frame6.png" width="128" height="192"/>
  </tile>
  <tile id="1929">
   <image source="tiled/ERW-Grass Land/Props/Atlas-Props-individual sprites/Animated Tree2_frame7.png" width="128" height="192"/>
  </tile>
  <tile id="1930">
   <image source="tiled/ERW-Grass Land/Props/Atlas-Props-individual sprites/Animated Tree2_frame8.png" width="128" height="192"/>
  </tile>
  <tile id="1931">
   <image source="tiled/ERW-Grass Land/Props/Atlas-Props-individual sprites/anvil-shine_frame1.png" width="64" height="64"/>
   <animation>
    <frame tileid="1931" duration="100"/>
    <frame tileid="1932" duration="100"/>
    <frame tileid="1933" duration="100"/>
    <frame tileid="1934" duration="100"/>
    <frame tileid="1935" duration="100"/>
    <frame tileid="1936" duration="100"/>
   </animation>
  </tile>
  <tile id="1932">
   <image source="tiled/ERW-Grass Land/Props/Atlas-Props-individual sprites/anvil-shine_frame2.png" width="64" height="64"/>
  </tile>
  <tile id="1933">
   <image source="tiled/ERW-Grass Land/Props/Atlas-Props-individual sprites/anvil-shine_frame3.png" width="64" height="64"/>
  </tile>
  <tile id="1934">
   <image source="tiled/ERW-Grass Land/Props/Atlas-Props-individual sprites/anvil-shine_frame4.png" width="64" height="64"/>
  </tile>
  <tile id="1935">
   <image source="tiled/ERW-Grass Land/Props/Atlas-Props-individual sprites/anvil-shine_frame5.png" width="64" height="64"/>
  </tile>
  <tile id="1936">
   <image source="tiled/ERW-Grass Land/Props/Atlas-Props-individual sprites/anvil-shine_frame6.png" width="64" height="64"/>
  </tile>
  <tile id="1937">
   <image source="tiled/ERW-Grass Land/Props/Atlas-Props-individual sprites/blacksmith sign_frame1.png" width="32" height="36"/>
   <animation>
    <frame tileid="1937" duration="100"/>
    <frame tileid="1938" duration="100"/>
    <frame tileid="1939" duration="100"/>
    <frame tileid="1940" duration="100"/>
    <frame tileid="1941" duration="100"/>
    <frame tileid="1942" duration="100"/>
    <frame tileid="1943" duration="100"/>
    <frame tileid="1944" duration="100"/>
    <frame tileid="1945" duration="100"/>
    <frame tileid="1946" duration="100"/>
    <frame tileid="1947" duration="100"/>
    <frame tileid="1948" duration="100"/>
    <frame tileid="1949" duration="100"/>
    <frame tileid="1950" duration="100"/>
    <frame tileid="1951" duration="100"/>
    <frame tileid="1952" duration="100"/>
   </animation>
  </tile>
  <tile id="1938">
   <image source="tiled/ERW-Grass Land/Props/Atlas-Props-individual sprites/blacksmith sign_frame2.png" width="32" height="36"/>
  </tile>
  <tile id="1939">
   <image source="tiled/ERW-Grass Land/Props/Atlas-Props-individual sprites/blacksmith sign_frame3.png" width="32" height="36"/>
  </tile>
  <tile id="1940">
   <image source="tiled/ERW-Grass Land/Props/Atlas-Props-individual sprites/blacksmith sign_frame4.png" width="32" height="36"/>
  </tile>
  <tile id="1941">
   <image source="tiled/ERW-Grass Land/Props/Atlas-Props-individual sprites/blacksmith sign_frame5.png" width="32" height="36"/>
  </tile>
  <tile id="1942">
   <image source="tiled/ERW-Grass Land/Props/Atlas-Props-individual sprites/blacksmith sign_frame6.png" width="32" height="36"/>
  </tile>
  <tile id="1943">
   <image source="tiled/ERW-Grass Land/Props/Atlas-Props-individual sprites/blacksmith sign_frame7.png" width="32" height="36"/>
  </tile>
  <tile id="1944">
   <image source="tiled/ERW-Grass Land/Props/Atlas-Props-individual sprites/blacksmith sign_frame8.png" width="32" height="36"/>
  </tile>
  <tile id="1945">
   <image source="tiled/ERW-Grass Land/Props/Atlas-Props-individual sprites/blacksmith sign_frame9.png" width="32" height="36"/>
  </tile>
  <tile id="1946">
   <image source="tiled/ERW-Grass Land/Props/Atlas-Props-individual sprites/blacksmith sign_frame10.png" width="32" height="36"/>
  </tile>
  <tile id="1947">
   <image source="tiled/ERW-Grass Land/Props/Atlas-Props-individual sprites/blacksmith sign_frame11.png" width="32" height="36"/>
  </tile>
  <tile id="1948">
   <image source="tiled/ERW-Grass Land/Props/Atlas-Props-individual sprites/blacksmith sign_frame12.png" width="32" height="36"/>
  </tile>
  <tile id="1949">
   <image source="tiled/ERW-Grass Land/Props/Atlas-Props-individual sprites/blacksmith sign_frame13.png" width="32" height="36"/>
  </tile>
  <tile id="1950">
   <image source="tiled/ERW-Grass Land/Props/Atlas-Props-individual sprites/blacksmith sign_frame14.png" width="32" height="36"/>
  </tile>
  <tile id="1951">
   <image source="tiled/ERW-Grass Land/Props/Atlas-Props-individual sprites/blacksmith sign_frame15.png" width="32" height="36"/>
  </tile>
  <tile id="1952">
   <image source="tiled/ERW-Grass Land/Props/Atlas-Props-individual sprites/blacksmith sign_frame16.png" width="32" height="36"/>
  </tile>
  <tile id="1953">
   <image source="tiled/ERW-Grass Land/Props/Atlas-Props-individual sprites/campfire1_frame1.png" width="128" height="128"/>
   <animation>
    <frame tileid="1953" duration="100"/>
    <frame tileid="1954" duration="100"/>
    <frame tileid="1955" duration="100"/>
    <frame tileid="1956" duration="100"/>
    <frame tileid="1957" duration="100"/>
    <frame tileid="1958" duration="100"/>
    <frame tileid="1959" duration="100"/>
    <frame tileid="1960" duration="100"/>
   </animation>
  </tile>
  <tile id="1954">
   <image source="tiled/ERW-Grass Land/Props/Atlas-Props-individual sprites/campfire1_frame2.png" width="128" height="128"/>
  </tile>
  <tile id="1955">
   <image source="tiled/ERW-Grass Land/Props/Atlas-Props-individual sprites/campfire1_frame3.png" width="128" height="128"/>
  </tile>
  <tile id="1956">
   <image source="tiled/ERW-Grass Land/Props/Atlas-Props-individual sprites/campfire1_frame4.png" width="128" height="128"/>
  </tile>
  <tile id="1957">
   <image source="tiled/ERW-Grass Land/Props/Atlas-Props-individual sprites/campfire1_frame5.png" width="128" height="128"/>
  </tile>
  <tile id="1958">
   <image source="tiled/ERW-Grass Land/Props/Atlas-Props-individual sprites/campfire1_frame6.png" width="128" height="128"/>
  </tile>
  <tile id="1959">
   <image source="tiled/ERW-Grass Land/Props/Atlas-Props-individual sprites/campfire1_frame7.png" width="128" height="128"/>
  </tile>
  <tile id="1960">
   <image source="tiled/ERW-Grass Land/Props/Atlas-Props-individual sprites/campfire1_frame8.png" width="128" height="128"/>
  </tile>
  <tile id="1961">
   <image source="tiled/ERW-Grass Land/Props/Atlas-Props-individual sprites/campfire2_frame1.png" width="128" height="128"/>
   <animation>
    <frame tileid="1961" duration="100"/>
    <frame tileid="1962" duration="100"/>
    <frame tileid="1963" duration="100"/>
    <frame tileid="1964" duration="100"/>
    <frame tileid="1965" duration="100"/>
    <frame tileid="1966" duration="100"/>
    <frame tileid="1967" duration="100"/>
    <frame tileid="1968" duration="100"/>
   </animation>
  </tile>
  <tile id="1962">
   <image source="tiled/ERW-Grass Land/Props/Atlas-Props-individual sprites/campfire2_frame2.png" width="128" height="128"/>
  </tile>
  <tile id="1963">
   <image source="tiled/ERW-Grass Land/Props/Atlas-Props-individual sprites/campfire2_frame3.png" width="128" height="128"/>
  </tile>
  <tile id="1964">
   <image source="tiled/ERW-Grass Land/Props/Atlas-Props-individual sprites/campfire2_frame4.png" width="128" height="128"/>
  </tile>
  <tile id="1965">
   <image source="tiled/ERW-Grass Land/Props/Atlas-Props-individual sprites/campfire2_frame5.png" width="128" height="128"/>
  </tile>
  <tile id="1966">
   <image source="tiled/ERW-Grass Land/Props/Atlas-Props-individual sprites/campfire2_frame6.png" width="128" height="128"/>
  </tile>
  <tile id="1967">
   <image source="tiled/ERW-Grass Land/Props/Atlas-Props-individual sprites/campfire2_frame7.png" width="128" height="128"/>
  </tile>
  <tile id="1968">
   <image source="tiled/ERW-Grass Land/Props/Atlas-Props-individual sprites/campfire2_frame8.png" width="128" height="128"/>
  </tile>
  <tile id="1969">
   <image source="tiled/ERW-Grass Land/Props/Atlas-Props-individual sprites/chest-closing_frame1.png" width="64" height="64"/>
   <animation>
    <frame tileid="1969" duration="100"/>
    <frame tileid="1970" duration="100"/>
    <frame tileid="1971" duration="100"/>
    <frame tileid="1972" duration="100"/>
    <frame tileid="1973" duration="100"/>
    <frame tileid="1974" duration="100"/>
    <frame tileid="1975" duration="100"/>
    <frame tileid="1976" duration="100"/>
    <frame tileid="1977" duration="100"/>
    <frame tileid="1978" duration="100"/>
    <frame tileid="1979" duration="100"/>
   </animation>
  </tile>
  <tile id="1970">
   <image source="tiled/ERW-Grass Land/Props/Atlas-Props-individual sprites/chest-closing_frame2.png" width="64" height="64"/>
  </tile>
  <tile id="1971">
   <image source="tiled/ERW-Grass Land/Props/Atlas-Props-individual sprites/chest-closing_frame3.png" width="64" height="64"/>
  </tile>
  <tile id="1972">
   <image source="tiled/ERW-Grass Land/Props/Atlas-Props-individual sprites/chest-closing_frame4.png" width="64" height="64"/>
  </tile>
  <tile id="1973">
   <image source="tiled/ERW-Grass Land/Props/Atlas-Props-individual sprites/chest-closing_frame5.png" width="64" height="64"/>
  </tile>
  <tile id="1974">
   <image source="tiled/ERW-Grass Land/Props/Atlas-Props-individual sprites/chest-closing_frame6.png" width="64" height="64"/>
  </tile>
  <tile id="1975">
   <image source="tiled/ERW-Grass Land/Props/Atlas-Props-individual sprites/chest-closing_frame7.png" width="64" height="64"/>
  </tile>
  <tile id="1976">
   <image source="tiled/ERW-Grass Land/Props/Atlas-Props-individual sprites/chest-closing_frame8.png" width="64" height="64"/>
  </tile>
  <tile id="1977">
   <image source="tiled/ERW-Grass Land/Props/Atlas-Props-individual sprites/chest-closing_frame9.png" width="64" height="64"/>
  </tile>
  <tile id="1978">
   <image source="tiled/ERW-Grass Land/Props/Atlas-Props-individual sprites/chest-closing_frame10.png" width="64" height="64"/>
  </tile>
  <tile id="1979">
   <image source="tiled/ERW-Grass Land/Props/Atlas-Props-individual sprites/chest-closing_frame11.png" width="64" height="64"/>
  </tile>
  <tile id="1980">
   <image source="tiled/ERW-Grass Land/Props/Atlas-Props-individual sprites/chest-opening1_frame1.png" width="64" height="64"/>
   <animation>
    <frame tileid="1980" duration="100"/>
    <frame tileid="1981" duration="100"/>
    <frame tileid="1982" duration="100"/>
    <frame tileid="1983" duration="100"/>
    <frame tileid="1984" duration="100"/>
    <frame tileid="1985" duration="100"/>
    <frame tileid="1986" duration="100"/>
    <frame tileid="1987" duration="100"/>
    <frame tileid="1988" duration="100"/>
    <frame tileid="1989" duration="100"/>
    <frame tileid="1990" duration="100"/>
    <frame tileid="1991" duration="100"/>
    <frame tileid="1992" duration="100"/>
   </animation>
  </tile>
  <tile id="1981">
   <image source="tiled/ERW-Grass Land/Props/Atlas-Props-individual sprites/chest-opening1_frame2.png" width="64" height="64"/>
  </tile>
  <tile id="1982">
   <image source="tiled/ERW-Grass Land/Props/Atlas-Props-individual sprites/chest-opening1_frame3.png" width="64" height="64"/>
  </tile>
  <tile id="1983">
   <image source="tiled/ERW-Grass Land/Props/Atlas-Props-individual sprites/chest-opening1_frame4.png" width="64" height="64"/>
  </tile>
  <tile id="1984">
   <image source="tiled/ERW-Grass Land/Props/Atlas-Props-individual sprites/chest-opening1_frame5.png" width="64" height="64"/>
  </tile>
  <tile id="1985">
   <image source="tiled/ERW-Grass Land/Props/Atlas-Props-individual sprites/chest-opening1_frame6.png" width="64" height="64"/>
  </tile>
  <tile id="1986">
   <image source="tiled/ERW-Grass Land/Props/Atlas-Props-individual sprites/chest-opening1_frame7.png" width="64" height="64"/>
  </tile>
  <tile id="1987">
   <image source="tiled/ERW-Grass Land/Props/Atlas-Props-individual sprites/chest-opening1_frame8.png" width="64" height="64"/>
  </tile>
  <tile id="1988">
   <image source="tiled/ERW-Grass Land/Props/Atlas-Props-individual sprites/chest-opening1_frame9.png" width="64" height="64"/>
  </tile>
  <tile id="1989">
   <image source="tiled/ERW-Grass Land/Props/Atlas-Props-individual sprites/chest-opening1_frame10.png" width="64" height="64"/>
  </tile>
  <tile id="1990">
   <image source="tiled/ERW-Grass Land/Props/Atlas-Props-individual sprites/chest-opening1_frame11.png" width="64" height="64"/>
  </tile>
  <tile id="1991">
   <image source="tiled/ERW-Grass Land/Props/Atlas-Props-individual sprites/chest-opening1_frame12.png" width="64" height="64"/>
  </tile>
  <tile id="1992">
   <image source="tiled/ERW-Grass Land/Props/Atlas-Props-individual sprites/chest-opening1_frame13.png" width="64" height="64"/>
  </tile>
  <tile id="1993">
   <image source="tiled/ERW-Grass Land/Props/Atlas-Props-individual sprites/chest-opening2_frame1.png" width="64" height="64"/>
   <animation>
    <frame tileid="1993" duration="100"/>
    <frame tileid="1994" duration="100"/>
    <frame tileid="1995" duration="100"/>
    <frame tileid="1996" duration="100"/>
    <frame tileid="1997" duration="100"/>
    <frame tileid="1998" duration="100"/>
    <frame tileid="1999" duration="100"/>
    <frame tileid="2000" duration="100"/>
    <frame tileid="2001" duration="100"/>
    <frame tileid="2002" duration="100"/>
    <frame tileid="2003" duration="100"/>
    <frame tileid="2004" duration="100"/>
    <frame tileid="2005" duration="100"/>
    <frame tileid="2006" duration="100"/>
   </animation>
  </tile>
  <tile id="1994">
   <image source="tiled/ERW-Grass Land/Props/Atlas-Props-individual sprites/chest-opening2_frame2.png" width="64" height="64"/>
  </tile>
  <tile id="1995">
   <image source="tiled/ERW-Grass Land/Props/Atlas-Props-individual sprites/chest-opening2_frame3.png" width="64" height="64"/>
  </tile>
  <tile id="1996">
   <image source="tiled/ERW-Grass Land/Props/Atlas-Props-individual sprites/chest-opening2_frame4.png" width="64" height="64"/>
  </tile>
  <tile id="1997">
   <image source="tiled/ERW-Grass Land/Props/Atlas-Props-individual sprites/chest-opening2_frame5.png" width="64" height="64"/>
  </tile>
  <tile id="1998">
   <image source="tiled/ERW-Grass Land/Props/Atlas-Props-individual sprites/chest-opening2_frame6.png" width="64" height="64"/>
  </tile>
  <tile id="1999">
   <image source="tiled/ERW-Grass Land/Props/Atlas-Props-individual sprites/chest-opening2_frame7.png" width="64" height="64"/>
  </tile>
  <tile id="2000">
   <image source="tiled/ERW-Grass Land/Props/Atlas-Props-individual sprites/chest-opening2_frame8.png" width="64" height="64"/>
  </tile>
  <tile id="2001">
   <image source="tiled/ERW-Grass Land/Props/Atlas-Props-individual sprites/chest-opening2_frame9.png" width="64" height="64"/>
  </tile>
  <tile id="2002">
   <image source="tiled/ERW-Grass Land/Props/Atlas-Props-individual sprites/chest-opening2_frame10.png" width="64" height="64"/>
  </tile>
  <tile id="2003">
   <image source="tiled/ERW-Grass Land/Props/Atlas-Props-individual sprites/chest-opening2_frame11.png" width="64" height="64"/>
  </tile>
  <tile id="2004">
   <image source="tiled/ERW-Grass Land/Props/Atlas-Props-individual sprites/chest-opening2_frame12.png" width="64" height="64"/>
  </tile>
  <tile id="2005">
   <image source="tiled/ERW-Grass Land/Props/Atlas-Props-individual sprites/chest-opening2_frame13.png" width="64" height="64"/>
  </tile>
  <tile id="2006">
   <image source="tiled/ERW-Grass Land/Props/Atlas-Props-individual sprites/chest-opening2_frame14.png" width="64" height="64"/>
  </tile>
  <tile id="2007">
   <image source="tiled/ERW-Grass Land/Props/Atlas-Props-individual sprites/door1-opening_frame1.png" width="96" height="96"/>
   <animation>
    <frame tileid="2007" duration="100"/>
    <frame tileid="2008" duration="100"/>
    <frame tileid="2009" duration="100"/>
    <frame tileid="2010" duration="100"/>
    <frame tileid="2011" duration="100"/>
    <frame tileid="2012" duration="100"/>
    <frame tileid="2013" duration="100"/>
    <frame tileid="2014" duration="100"/>
    <frame tileid="2015" duration="100"/>
    <frame tileid="2016" duration="100"/>
    <frame tileid="2017" duration="100"/>
    <frame tileid="2018" duration="100"/>
   </animation>
  </tile>
  <tile id="2008">
   <image source="tiled/ERW-Grass Land/Props/Atlas-Props-individual sprites/door1-opening_frame2.png" width="96" height="96"/>
  </tile>
  <tile id="2009">
   <image source="tiled/ERW-Grass Land/Props/Atlas-Props-individual sprites/door1-opening_frame3.png" width="96" height="96"/>
  </tile>
  <tile id="2010">
   <image source="tiled/ERW-Grass Land/Props/Atlas-Props-individual sprites/door1-opening_frame4.png" width="96" height="96"/>
  </tile>
  <tile id="2011">
   <image source="tiled/ERW-Grass Land/Props/Atlas-Props-individual sprites/door1-opening_frame5.png" width="96" height="96"/>
  </tile>
  <tile id="2012">
   <image source="tiled/ERW-Grass Land/Props/Atlas-Props-individual sprites/door1-opening_frame6.png" width="96" height="96"/>
  </tile>
  <tile id="2013">
   <image source="tiled/ERW-Grass Land/Props/Atlas-Props-individual sprites/door1-opening_frame7.png" width="96" height="96"/>
  </tile>
  <tile id="2014">
   <image source="tiled/ERW-Grass Land/Props/Atlas-Props-individual sprites/door1-opening_frame8.png" width="96" height="96"/>
  </tile>
  <tile id="2015">
   <image source="tiled/ERW-Grass Land/Props/Atlas-Props-individual sprites/door1-opening_frame9.png" width="96" height="96"/>
  </tile>
  <tile id="2016">
   <image source="tiled/ERW-Grass Land/Props/Atlas-Props-individual sprites/door1-opening_frame10.png" width="96" height="96"/>
  </tile>
  <tile id="2017">
   <image source="tiled/ERW-Grass Land/Props/Atlas-Props-individual sprites/door1-opening_frame11.png" width="96" height="96"/>
  </tile>
  <tile id="2018">
   <image source="tiled/ERW-Grass Land/Props/Atlas-Props-individual sprites/door1-opening_frame12.png" width="96" height="96"/>
  </tile>
  <tile id="2019">
   <image source="tiled/ERW-Grass Land/Props/Atlas-Props-individual sprites/door2-opening_frame1.png" width="96" height="96"/>
   <animation>
    <frame tileid="2019" duration="100"/>
    <frame tileid="2020" duration="100"/>
    <frame tileid="2021" duration="100"/>
    <frame tileid="2022" duration="100"/>
    <frame tileid="2023" duration="100"/>
    <frame tileid="2024" duration="100"/>
    <frame tileid="2025" duration="100"/>
    <frame tileid="2026" duration="100"/>
    <frame tileid="2027" duration="100"/>
    <frame tileid="2028" duration="100"/>
    <frame tileid="2029" duration="100"/>
    <frame tileid="2030" duration="100"/>
    <frame tileid="2031" duration="100"/>
   </animation>
  </tile>
  <tile id="2020">
   <image source="tiled/ERW-Grass Land/Props/Atlas-Props-individual sprites/door2-opening_frame2.png" width="96" height="96"/>
  </tile>
  <tile id="2021">
   <image source="tiled/ERW-Grass Land/Props/Atlas-Props-individual sprites/door2-opening_frame3.png" width="96" height="96"/>
  </tile>
  <tile id="2022">
   <image source="tiled/ERW-Grass Land/Props/Atlas-Props-individual sprites/door2-opening_frame4.png" width="96" height="96"/>
  </tile>
  <tile id="2023">
   <image source="tiled/ERW-Grass Land/Props/Atlas-Props-individual sprites/door2-opening_frame5.png" width="96" height="96"/>
  </tile>
  <tile id="2024">
   <image source="tiled/ERW-Grass Land/Props/Atlas-Props-individual sprites/door2-opening_frame6.png" width="96" height="96"/>
  </tile>
  <tile id="2025">
   <image source="tiled/ERW-Grass Land/Props/Atlas-Props-individual sprites/door2-opening_frame7.png" width="96" height="96"/>
  </tile>
  <tile id="2026">
   <image source="tiled/ERW-Grass Land/Props/Atlas-Props-individual sprites/door2-opening_frame8.png" width="96" height="96"/>
  </tile>
  <tile id="2027">
   <image source="tiled/ERW-Grass Land/Props/Atlas-Props-individual sprites/door2-opening_frame9.png" width="96" height="96"/>
  </tile>
  <tile id="2028">
   <image source="tiled/ERW-Grass Land/Props/Atlas-Props-individual sprites/door2-opening_frame10.png" width="96" height="96"/>
  </tile>
  <tile id="2029">
   <image source="tiled/ERW-Grass Land/Props/Atlas-Props-individual sprites/door2-opening_frame11.png" width="96" height="96"/>
  </tile>
  <tile id="2030">
   <image source="tiled/ERW-Grass Land/Props/Atlas-Props-individual sprites/door2-opening_frame12.png" width="96" height="96"/>
  </tile>
  <tile id="2031">
   <image source="tiled/ERW-Grass Land/Props/Atlas-Props-individual sprites/door2-opening_frame13.png" width="96" height="96"/>
  </tile>
  <tile id="2032">
   <image source="tiled/ERW-Grass Land/Props/Atlas-Props-individual sprites/forge chimney-smoke1_frame1.png" width="64" height="82"/>
   <animation>
    <frame tileid="2032" duration="100"/>
    <frame tileid="2033" duration="100"/>
    <frame tileid="2034" duration="100"/>
    <frame tileid="2035" duration="100"/>
    <frame tileid="2036" duration="100"/>
    <frame tileid="2037" duration="100"/>
    <frame tileid="2038" duration="100"/>
    <frame tileid="2039" duration="100"/>
    <frame tileid="2040" duration="100"/>
    <frame tileid="2041" duration="100"/>
    <frame tileid="2042" duration="100"/>
    <frame tileid="2043" duration="100"/>
    <frame tileid="2044" duration="100"/>
    <frame tileid="2045" duration="100"/>
    <frame tileid="2046" duration="100"/>
    <frame tileid="2047" duration="100"/>
   </animation>
  </tile>
  <tile id="2033">
   <image source="tiled/ERW-Grass Land/Props/Atlas-Props-individual sprites/forge chimney-smoke1_frame2.png" width="64" height="82"/>
  </tile>
  <tile id="2034">
   <image source="tiled/ERW-Grass Land/Props/Atlas-Props-individual sprites/forge chimney-smoke1_frame3.png" width="64" height="82"/>
  </tile>
  <tile id="2035">
   <image source="tiled/ERW-Grass Land/Props/Atlas-Props-individual sprites/forge chimney-smoke1_frame4.png" width="64" height="82"/>
  </tile>
  <tile id="2036">
   <image source="tiled/ERW-Grass Land/Props/Atlas-Props-individual sprites/forge chimney-smoke1_frame5.png" width="64" height="82"/>
  </tile>
  <tile id="2037">
   <image source="tiled/ERW-Grass Land/Props/Atlas-Props-individual sprites/forge chimney-smoke1_frame6.png" width="64" height="82"/>
  </tile>
  <tile id="2038">
   <image source="tiled/ERW-Grass Land/Props/Atlas-Props-individual sprites/forge chimney-smoke1_frame7.png" width="64" height="82"/>
  </tile>
  <tile id="2039">
   <image source="tiled/ERW-Grass Land/Props/Atlas-Props-individual sprites/forge chimney-smoke1_frame8.png" width="64" height="82"/>
  </tile>
  <tile id="2040">
   <image source="tiled/ERW-Grass Land/Props/Atlas-Props-individual sprites/forge chimney-smoke1_frame9.png" width="64" height="82"/>
  </tile>
  <tile id="2041">
   <image source="tiled/ERW-Grass Land/Props/Atlas-Props-individual sprites/forge chimney-smoke1_frame10.png" width="64" height="82"/>
  </tile>
  <tile id="2042">
   <image source="tiled/ERW-Grass Land/Props/Atlas-Props-individual sprites/forge chimney-smoke1_frame11.png" width="64" height="82"/>
  </tile>
  <tile id="2043">
   <image source="tiled/ERW-Grass Land/Props/Atlas-Props-individual sprites/forge chimney-smoke1_frame12.png" width="64" height="82"/>
  </tile>
  <tile id="2044">
   <image source="tiled/ERW-Grass Land/Props/Atlas-Props-individual sprites/forge chimney-smoke1_frame13.png" width="64" height="82"/>
  </tile>
  <tile id="2045">
   <image source="tiled/ERW-Grass Land/Props/Atlas-Props-individual sprites/forge chimney-smoke1_frame14.png" width="64" height="82"/>
  </tile>
  <tile id="2046">
   <image source="tiled/ERW-Grass Land/Props/Atlas-Props-individual sprites/forge chimney-smoke1_frame15.png" width="64" height="82"/>
  </tile>
  <tile id="2047">
   <image source="tiled/ERW-Grass Land/Props/Atlas-Props-individual sprites/forge chimney-smoke1_frame16.png" width="64" height="82"/>
  </tile>
  <tile id="2048">
   <image source="tiled/ERW-Grass Land/Props/Atlas-Props-individual sprites/forge chimney-smoke2_frame1.png" width="64" height="82"/>
   <animation>
    <frame tileid="2048" duration="100"/>
    <frame tileid="2049" duration="100"/>
    <frame tileid="2050" duration="100"/>
    <frame tileid="2051" duration="100"/>
    <frame tileid="2052" duration="100"/>
    <frame tileid="2053" duration="100"/>
    <frame tileid="2054" duration="100"/>
    <frame tileid="2055" duration="100"/>
    <frame tileid="2056" duration="100"/>
    <frame tileid="2057" duration="100"/>
    <frame tileid="2058" duration="100"/>
    <frame tileid="2059" duration="100"/>
    <frame tileid="2060" duration="100"/>
    <frame tileid="2061" duration="100"/>
    <frame tileid="2062" duration="100"/>
    <frame tileid="2063" duration="100"/>
    <frame tileid="2064" duration="100"/>
    <frame tileid="2065" duration="100"/>
    <frame tileid="2066" duration="100"/>
    <frame tileid="2067" duration="100"/>
    <frame tileid="2068" duration="100"/>
   </animation>
  </tile>
  <tile id="2049">
   <image source="tiled/ERW-Grass Land/Props/Atlas-Props-individual sprites/forge chimney-smoke2_frame2.png" width="64" height="82"/>
  </tile>
  <tile id="2050">
   <image source="tiled/ERW-Grass Land/Props/Atlas-Props-individual sprites/forge chimney-smoke2_frame3.png" width="64" height="82"/>
  </tile>
  <tile id="2051">
   <image source="tiled/ERW-Grass Land/Props/Atlas-Props-individual sprites/forge chimney-smoke2_frame4.png" width="64" height="82"/>
  </tile>
  <tile id="2052">
   <image source="tiled/ERW-Grass Land/Props/Atlas-Props-individual sprites/forge chimney-smoke2_frame5.png" width="64" height="82"/>
  </tile>
  <tile id="2053">
   <image source="tiled/ERW-Grass Land/Props/Atlas-Props-individual sprites/forge chimney-smoke2_frame6.png" width="64" height="82"/>
  </tile>
  <tile id="2054">
   <image source="tiled/ERW-Grass Land/Props/Atlas-Props-individual sprites/forge chimney-smoke2_frame7.png" width="64" height="82"/>
  </tile>
  <tile id="2055">
   <image source="tiled/ERW-Grass Land/Props/Atlas-Props-individual sprites/forge chimney-smoke2_frame8.png" width="64" height="82"/>
  </tile>
  <tile id="2056">
   <image source="tiled/ERW-Grass Land/Props/Atlas-Props-individual sprites/forge chimney-smoke2_frame9.png" width="64" height="82"/>
  </tile>
  <tile id="2057">
   <image source="tiled/ERW-Grass Land/Props/Atlas-Props-individual sprites/forge chimney-smoke2_frame10.png" width="64" height="82"/>
  </tile>
  <tile id="2058">
   <image source="tiled/ERW-Grass Land/Props/Atlas-Props-individual sprites/forge chimney-smoke2_frame11.png" width="64" height="82"/>
  </tile>
  <tile id="2059">
   <image source="tiled/ERW-Grass Land/Props/Atlas-Props-individual sprites/forge chimney-smoke2_frame12.png" width="64" height="82"/>
  </tile>
  <tile id="2060">
   <image source="tiled/ERW-Grass Land/Props/Atlas-Props-individual sprites/forge chimney-smoke2_frame13.png" width="64" height="82"/>
  </tile>
  <tile id="2061">
   <image source="tiled/ERW-Grass Land/Props/Atlas-Props-individual sprites/forge chimney-smoke2_frame14.png" width="64" height="82"/>
  </tile>
  <tile id="2062">
   <image source="tiled/ERW-Grass Land/Props/Atlas-Props-individual sprites/forge chimney-smoke2_frame15.png" width="64" height="82"/>
  </tile>
  <tile id="2063">
   <image source="tiled/ERW-Grass Land/Props/Atlas-Props-individual sprites/forge chimney-smoke2_frame16.png" width="64" height="82"/>
  </tile>
  <tile id="2064">
   <image source="tiled/ERW-Grass Land/Props/Atlas-Props-individual sprites/forge chimney-smoke2_frame17.png" width="64" height="82"/>
  </tile>
  <tile id="2065">
   <image source="tiled/ERW-Grass Land/Props/Atlas-Props-individual sprites/forge chimney-smoke2_frame18.png" width="64" height="82"/>
  </tile>
  <tile id="2066">
   <image source="tiled/ERW-Grass Land/Props/Atlas-Props-individual sprites/forge chimney-smoke2_frame19.png" width="64" height="82"/>
  </tile>
  <tile id="2067">
   <image source="tiled/ERW-Grass Land/Props/Atlas-Props-individual sprites/forge chimney-smoke2_frame20.png" width="64" height="82"/>
  </tile>
  <tile id="2068">
   <image source="tiled/ERW-Grass Land/Props/Atlas-Props-individual sprites/forge chimney-smoke2_frame21.png" width="64" height="82"/>
  </tile>
  <tile id="2069">
   <image source="tiled/ERW-Grass Land/Props/Atlas-Props-individual sprites/forge1-anim1_frame1.png" width="64" height="96"/>
   <animation>
    <frame tileid="2069" duration="100"/>
    <frame tileid="2070" duration="100"/>
    <frame tileid="2071" duration="100"/>
    <frame tileid="2072" duration="100"/>
    <frame tileid="2073" duration="100"/>
    <frame tileid="2074" duration="100"/>
    <frame tileid="2075" duration="100"/>
    <frame tileid="2076" duration="100"/>
   </animation>
  </tile>
  <tile id="2070">
   <image source="tiled/ERW-Grass Land/Props/Atlas-Props-individual sprites/forge1-anim1_frame2.png" width="64" height="96"/>
  </tile>
  <tile id="2071">
   <image source="tiled/ERW-Grass Land/Props/Atlas-Props-individual sprites/forge1-anim1_frame3.png" width="64" height="96"/>
  </tile>
  <tile id="2072">
   <image source="tiled/ERW-Grass Land/Props/Atlas-Props-individual sprites/forge1-anim1_frame4.png" width="64" height="96"/>
  </tile>
  <tile id="2073">
   <image source="tiled/ERW-Grass Land/Props/Atlas-Props-individual sprites/forge1-anim1_frame5.png" width="64" height="96"/>
  </tile>
  <tile id="2074">
   <image source="tiled/ERW-Grass Land/Props/Atlas-Props-individual sprites/forge1-anim1_frame6.png" width="64" height="96"/>
  </tile>
  <tile id="2075">
   <image source="tiled/ERW-Grass Land/Props/Atlas-Props-individual sprites/forge1-anim1_frame7.png" width="64" height="96"/>
  </tile>
  <tile id="2076">
   <image source="tiled/ERW-Grass Land/Props/Atlas-Props-individual sprites/forge1-anim1_frame8.png" width="64" height="96"/>
  </tile>
  <tile id="2077">
   <image source="tiled/ERW-Grass Land/Props/Atlas-Props-individual sprites/forge1-anim2_frame1.png" width="64" height="96"/>
   <animation>
    <frame tileid="2077" duration="100"/>
    <frame tileid="2078" duration="100"/>
    <frame tileid="2079" duration="100"/>
    <frame tileid="2080" duration="100"/>
    <frame tileid="2081" duration="100"/>
    <frame tileid="2082" duration="100"/>
    <frame tileid="2083" duration="100"/>
    <frame tileid="2084" duration="100"/>
   </animation>
  </tile>
  <tile id="2078">
   <image source="tiled/ERW-Grass Land/Props/Atlas-Props-individual sprites/forge1-anim2_frame2.png" width="64" height="96"/>
  </tile>
  <tile id="2079">
   <image source="tiled/ERW-Grass Land/Props/Atlas-Props-individual sprites/forge1-anim2_frame3.png" width="64" height="96"/>
  </tile>
  <tile id="2080">
   <image source="tiled/ERW-Grass Land/Props/Atlas-Props-individual sprites/forge1-anim2_frame4.png" width="64" height="96"/>
  </tile>
  <tile id="2081">
   <image source="tiled/ERW-Grass Land/Props/Atlas-Props-individual sprites/forge1-anim2_frame5.png" width="64" height="96"/>
  </tile>
  <tile id="2082">
   <image source="tiled/ERW-Grass Land/Props/Atlas-Props-individual sprites/forge1-anim2_frame6.png" width="64" height="96"/>
  </tile>
  <tile id="2083">
   <image source="tiled/ERW-Grass Land/Props/Atlas-Props-individual sprites/forge1-anim2_frame7.png" width="64" height="96"/>
  </tile>
  <tile id="2084">
   <image source="tiled/ERW-Grass Land/Props/Atlas-Props-individual sprites/forge1-anim2_frame8.png" width="64" height="96"/>
  </tile>
  <tile id="2085">
   <image source="tiled/ERW-Grass Land/Props/Atlas-Props-individual sprites/forge2-anim1_frame1.png" width="64" height="96"/>
   <animation>
    <frame tileid="2085" duration="100"/>
    <frame tileid="2086" duration="100"/>
    <frame tileid="2087" duration="100"/>
    <frame tileid="2088" duration="100"/>
    <frame tileid="2089" duration="100"/>
    <frame tileid="2090" duration="100"/>
    <frame tileid="2091" duration="100"/>
    <frame tileid="2092" duration="100"/>
   </animation>
  </tile>
  <tile id="2086">
   <image source="tiled/ERW-Grass Land/Props/Atlas-Props-individual sprites/forge2-anim1_frame2.png" width="64" height="96"/>
  </tile>
  <tile id="2087">
   <image source="tiled/ERW-Grass Land/Props/Atlas-Props-individual sprites/forge2-anim1_frame3.png" width="64" height="96"/>
  </tile>
  <tile id="2088">
   <image source="tiled/ERW-Grass Land/Props/Atlas-Props-individual sprites/forge2-anim1_frame4.png" width="64" height="96"/>
  </tile>
  <tile id="2089">
   <image source="tiled/ERW-Grass Land/Props/Atlas-Props-individual sprites/forge2-anim1_frame5.png" width="64" height="96"/>
  </tile>
  <tile id="2090">
   <image source="tiled/ERW-Grass Land/Props/Atlas-Props-individual sprites/forge2-anim1_frame6.png" width="64" height="96"/>
  </tile>
  <tile id="2091">
   <image source="tiled/ERW-Grass Land/Props/Atlas-Props-individual sprites/forge2-anim1_frame7.png" width="64" height="96"/>
  </tile>
  <tile id="2092">
   <image source="tiled/ERW-Grass Land/Props/Atlas-Props-individual sprites/forge2-anim1_frame8.png" width="64" height="96"/>
  </tile>
  <tile id="2093">
   <image source="tiled/ERW-Grass Land/Props/Atlas-Props-individual sprites/forge2-anim2_frame1.png" width="64" height="96"/>
   <animation>
    <frame tileid="2093" duration="100"/>
    <frame tileid="2094" duration="100"/>
    <frame tileid="2095" duration="100"/>
    <frame tileid="2096" duration="100"/>
    <frame tileid="2097" duration="100"/>
    <frame tileid="2098" duration="100"/>
    <frame tileid="2099" duration="100"/>
    <frame tileid="2100" duration="100"/>
   </animation>
  </tile>
  <tile id="2094">
   <image source="tiled/ERW-Grass Land/Props/Atlas-Props-individual sprites/forge2-anim2_frame2.png" width="64" height="96"/>
  </tile>
  <tile id="2095">
   <image source="tiled/ERW-Grass Land/Props/Atlas-Props-individual sprites/forge2-anim2_frame3.png" width="64" height="96"/>
  </tile>
  <tile id="2096">
   <image source="tiled/ERW-Grass Land/Props/Atlas-Props-individual sprites/forge2-anim2_frame4.png" width="64" height="96"/>
  </tile>
  <tile id="2097">
   <image source="tiled/ERW-Grass Land/Props/Atlas-Props-individual sprites/forge2-anim2_frame5.png" width="64" height="96"/>
  </tile>
  <tile id="2098">
   <image source="tiled/ERW-Grass Land/Props/Atlas-Props-individual sprites/forge2-anim2_frame6.png" width="64" height="96"/>
  </tile>
  <tile id="2099">
   <image source="tiled/ERW-Grass Land/Props/Atlas-Props-individual sprites/forge2-anim2_frame7.png" width="64" height="96"/>
  </tile>
  <tile id="2100">
   <image source="tiled/ERW-Grass Land/Props/Atlas-Props-individual sprites/forge2-anim2_frame8.png" width="64" height="96"/>
  </tile>
  <tile id="2101">
   <image source="tiled/ERW-Grass Land/Props/Atlas-Props-individual sprites/shrines-activating_frame1.png" width="64" height="99"/>
   <animation>
    <frame tileid="2101" duration="100"/>
    <frame tileid="2102" duration="100"/>
    <frame tileid="2103" duration="100"/>
    <frame tileid="2104" duration="100"/>
    <frame tileid="2105" duration="100"/>
    <frame tileid="2106" duration="100"/>
    <frame tileid="2107" duration="100"/>
    <frame tileid="2108" duration="100"/>
    <frame tileid="2109" duration="100"/>
    <frame tileid="2110" duration="100"/>
    <frame tileid="2111" duration="100"/>
    <frame tileid="2112" duration="100"/>
    <frame tileid="2113" duration="100"/>
    <frame tileid="2114" duration="100"/>
   </animation>
  </tile>
  <tile id="2102">
   <image source="tiled/ERW-Grass Land/Props/Atlas-Props-individual sprites/shrines-activating_frame2.png" width="64" height="99"/>
  </tile>
  <tile id="2103">
   <image source="tiled/ERW-Grass Land/Props/Atlas-Props-individual sprites/shrines-activating_frame3.png" width="64" height="99"/>
  </tile>
  <tile id="2104">
   <image source="tiled/ERW-Grass Land/Props/Atlas-Props-individual sprites/shrines-activating_frame4.png" width="64" height="99"/>
  </tile>
  <tile id="2105">
   <image source="tiled/ERW-Grass Land/Props/Atlas-Props-individual sprites/shrines-activating_frame5.png" width="64" height="99"/>
  </tile>
  <tile id="2106">
   <image source="tiled/ERW-Grass Land/Props/Atlas-Props-individual sprites/shrines-activating_frame6.png" width="64" height="99"/>
  </tile>
  <tile id="2107">
   <image source="tiled/ERW-Grass Land/Props/Atlas-Props-individual sprites/shrines-activating_frame7.png" width="64" height="99"/>
  </tile>
  <tile id="2108">
   <image source="tiled/ERW-Grass Land/Props/Atlas-Props-individual sprites/shrines-activating_frame8.png" width="64" height="99"/>
  </tile>
  <tile id="2109">
   <image source="tiled/ERW-Grass Land/Props/Atlas-Props-individual sprites/shrines-activating_frame9.png" width="64" height="99"/>
  </tile>
  <tile id="2110">
   <image source="tiled/ERW-Grass Land/Props/Atlas-Props-individual sprites/shrines-activating_frame10.png" width="64" height="99"/>
  </tile>
  <tile id="2111">
   <image source="tiled/ERW-Grass Land/Props/Atlas-Props-individual sprites/shrines-activating_frame11.png" width="64" height="99"/>
  </tile>
  <tile id="2112">
   <image source="tiled/ERW-Grass Land/Props/Atlas-Props-individual sprites/shrines-activating_frame12.png" width="64" height="99"/>
  </tile>
  <tile id="2113">
   <image source="tiled/ERW-Grass Land/Props/Atlas-Props-individual sprites/shrines-activating_frame13.png" width="64" height="99"/>
  </tile>
  <tile id="2114">
   <image source="tiled/ERW-Grass Land/Props/Atlas-Props-individual sprites/shrines-activating_frame14.png" width="64" height="99"/>
  </tile>
  <tile id="2115">
   <image source="tiled/ERW-Grass Land/Props/Atlas-Props-individual sprites/shrines-available_frame1.png" width="64" height="99"/>
   <animation>
    <frame tileid="2115" duration="100"/>
    <frame tileid="2116" duration="100"/>
    <frame tileid="2117" duration="100"/>
    <frame tileid="2118" duration="100"/>
    <frame tileid="2119" duration="100"/>
    <frame tileid="2120" duration="100"/>
    <frame tileid="2121" duration="100"/>
    <frame tileid="2122" duration="100"/>
    <frame tileid="2123" duration="100"/>
    <frame tileid="2124" duration="100"/>
    <frame tileid="2125" duration="100"/>
    <frame tileid="2126" duration="100"/>
    <frame tileid="2127" duration="100"/>
    <frame tileid="2128" duration="100"/>
   </animation>
  </tile>
  <tile id="2116">
   <image source="tiled/ERW-Grass Land/Props/Atlas-Props-individual sprites/shrines-available_frame2.png" width="64" height="99"/>
  </tile>
  <tile id="2117">
   <image source="tiled/ERW-Grass Land/Props/Atlas-Props-individual sprites/shrines-available_frame3.png" width="64" height="99"/>
  </tile>
  <tile id="2118">
   <image source="tiled/ERW-Grass Land/Props/Atlas-Props-individual sprites/shrines-available_frame4.png" width="64" height="99"/>
  </tile>
  <tile id="2119">
   <image source="tiled/ERW-Grass Land/Props/Atlas-Props-individual sprites/shrines-available_frame5.png" width="64" height="99"/>
  </tile>
  <tile id="2120">
   <image source="tiled/ERW-Grass Land/Props/Atlas-Props-individual sprites/shrines-available_frame6.png" width="64" height="99"/>
  </tile>
  <tile id="2121">
   <image source="tiled/ERW-Grass Land/Props/Atlas-Props-individual sprites/shrines-available_frame7.png" width="64" height="99"/>
  </tile>
  <tile id="2122">
   <image source="tiled/ERW-Grass Land/Props/Atlas-Props-individual sprites/shrines-available_frame8.png" width="64" height="99"/>
  </tile>
  <tile id="2123">
   <image source="tiled/ERW-Grass Land/Props/Atlas-Props-individual sprites/shrines-available_frame9.png" width="64" height="99"/>
  </tile>
  <tile id="2124">
   <image source="tiled/ERW-Grass Land/Props/Atlas-Props-individual sprites/shrines-available_frame10.png" width="64" height="99"/>
  </tile>
  <tile id="2125">
   <image source="tiled/ERW-Grass Land/Props/Atlas-Props-individual sprites/shrines-available_frame11.png" width="64" height="99"/>
  </tile>
  <tile id="2126">
   <image source="tiled/ERW-Grass Land/Props/Atlas-Props-individual sprites/shrines-available_frame12.png" width="64" height="99"/>
  </tile>
  <tile id="2127">
   <image source="tiled/ERW-Grass Land/Props/Atlas-Props-individual sprites/shrines-available_frame13.png" width="64" height="99"/>
  </tile>
  <tile id="2128">
   <image source="tiled/ERW-Grass Land/Props/Atlas-Props-individual sprites/shrines-available_frame14.png" width="64" height="99"/>
  </tile>
  <tile id="2129">
   <image source="tiled/ERW-Grass Land/Props/Atlas-Props-individual sprites/sword sharpener_frame1.png" width="64" height="32"/>
   <animation>
    <frame tileid="2129" duration="100"/>
    <frame tileid="2130" duration="100"/>
    <frame tileid="2131" duration="100"/>
    <frame tileid="2132" duration="100"/>
   </animation>
  </tile>
  <tile id="2130">
   <image source="tiled/ERW-Grass Land/Props/Atlas-Props-individual sprites/sword sharpener_frame2.png" width="64" height="32"/>
  </tile>
  <tile id="2131">
   <image source="tiled/ERW-Grass Land/Props/Atlas-Props-individual sprites/sword sharpener_frame3.png" width="64" height="32"/>
  </tile>
  <tile id="2132">
   <image source="tiled/ERW-Grass Land/Props/Atlas-Props-individual sprites/sword sharpener_frame4.png" width="64" height="32"/>
  </tile>
  <tile id="2133">
   <image source="tiled/ERW-Grass Land/Props/Atlas-Props-individual sprites/water deposit_frame1.png" width="64" height="32"/>
   <animation>
    <frame tileid="2133" duration="100"/>
    <frame tileid="2134" duration="100"/>
    <frame tileid="2135" duration="100"/>
    <frame tileid="2136" duration="100"/>
    <frame tileid="2137" duration="100"/>
    <frame tileid="2138" duration="100"/>
    <frame tileid="2139" duration="100"/>
    <frame tileid="2140" duration="100"/>
   </animation>
  </tile>
  <tile id="2134">
   <image source="tiled/ERW-Grass Land/Props/Atlas-Props-individual sprites/water deposit_frame2.png" width="64" height="32"/>
  </tile>
  <tile id="2135">
   <image source="tiled/ERW-Grass Land/Props/Atlas-Props-individual sprites/water deposit_frame3.png" width="64" height="32"/>
  </tile>
  <tile id="2136">
   <image source="tiled/ERW-Grass Land/Props/Atlas-Props-individual sprites/water deposit_frame4.png" width="64" height="32"/>
  </tile>
  <tile id="2137">
   <image source="tiled/ERW-Grass Land/Props/Atlas-Props-individual sprites/water deposit_frame5.png" width="64" height="32"/>
  </tile>
  <tile id="2138">
   <image source="tiled/ERW-Grass Land/Props/Atlas-Props-individual sprites/water deposit_frame6.png" width="64" height="32"/>
  </tile>
  <tile id="2139">
   <image source="tiled/ERW-Grass Land/Props/Atlas-Props-individual sprites/water deposit_frame7.png" width="64" height="32"/>
  </tile>
  <tile id="2140">
   <image source="tiled/ERW-Grass Land/Props/Atlas-Props-individual sprites/water deposit_frame8.png" width="64" height="32"/>
  </tile>
  <tile id="2141">
   <image source="tiled/ERW-Grass Land/Props/Atlas-Props-individual sprites/water well_empty_frame1.png" width="128" height="160"/>
   <animation>
    <frame tileid="2141" duration="100"/>
    <frame tileid="2142" duration="100"/>
    <frame tileid="2143" duration="100"/>
    <frame tileid="2144" duration="100"/>
    <frame tileid="2145" duration="100"/>
    <frame tileid="2146" duration="100"/>
    <frame tileid="2147" duration="100"/>
    <frame tileid="2148" duration="100"/>
    <frame tileid="2149" duration="100"/>
    <frame tileid="2150" duration="100"/>
    <frame tileid="2151" duration="100"/>
    <frame tileid="2152" duration="100"/>
    <frame tileid="2153" duration="100"/>
    <frame tileid="2154" duration="100"/>
    <frame tileid="2155" duration="100"/>
    <frame tileid="2156" duration="100"/>
    <frame tileid="2157" duration="100"/>
    <frame tileid="2158" duration="100"/>
    <frame tileid="2159" duration="100"/>
    <frame tileid="2160" duration="100"/>
    <frame tileid="2161" duration="100"/>
    <frame tileid="2162" duration="100"/>
    <frame tileid="2163" duration="100"/>
    <frame tileid="2164" duration="100"/>
    <frame tileid="2165" duration="100"/>
    <frame tileid="2166" duration="100"/>
    <frame tileid="2167" duration="100"/>
    <frame tileid="2168" duration="100"/>
    <frame tileid="2169" duration="100"/>
   </animation>
  </tile>
  <tile id="2142">
   <image source="tiled/ERW-Grass Land/Props/Atlas-Props-individual sprites/water well_empty_frame2.png" width="128" height="160"/>
  </tile>
  <tile id="2143">
   <image source="tiled/ERW-Grass Land/Props/Atlas-Props-individual sprites/water well_empty_frame3.png" width="128" height="160"/>
  </tile>
  <tile id="2144">
   <image source="tiled/ERW-Grass Land/Props/Atlas-Props-individual sprites/water well_empty_frame4.png" width="128" height="160"/>
  </tile>
  <tile id="2145">
   <image source="tiled/ERW-Grass Land/Props/Atlas-Props-individual sprites/water well_empty_frame5.png" width="128" height="160"/>
  </tile>
  <tile id="2146">
   <image source="tiled/ERW-Grass Land/Props/Atlas-Props-individual sprites/water well_empty_frame6.png" width="128" height="160"/>
  </tile>
  <tile id="2147">
   <image source="tiled/ERW-Grass Land/Props/Atlas-Props-individual sprites/water well_empty_frame7.png" width="128" height="160"/>
  </tile>
  <tile id="2148">
   <image source="tiled/ERW-Grass Land/Props/Atlas-Props-individual sprites/water well_empty_frame8.png" width="128" height="160"/>
  </tile>
  <tile id="2149">
   <image source="tiled/ERW-Grass Land/Props/Atlas-Props-individual sprites/water well_empty_frame9.png" width="128" height="160"/>
  </tile>
  <tile id="2150">
   <image source="tiled/ERW-Grass Land/Props/Atlas-Props-individual sprites/water well_empty_frame10.png" width="128" height="160"/>
  </tile>
  <tile id="2151">
   <image source="tiled/ERW-Grass Land/Props/Atlas-Props-individual sprites/water well_empty_frame11.png" width="128" height="160"/>
  </tile>
  <tile id="2152">
   <image source="tiled/ERW-Grass Land/Props/Atlas-Props-individual sprites/water well_empty_frame12.png" width="128" height="160"/>
  </tile>
  <tile id="2153">
   <image source="tiled/ERW-Grass Land/Props/Atlas-Props-individual sprites/water well_empty_frame13.png" width="128" height="160"/>
  </tile>
  <tile id="2154">
   <image source="tiled/ERW-Grass Land/Props/Atlas-Props-individual sprites/water well_empty_frame14.png" width="128" height="160"/>
  </tile>
  <tile id="2155">
   <image source="tiled/ERW-Grass Land/Props/Atlas-Props-individual sprites/water well_empty_frame15.png" width="128" height="160"/>
  </tile>
  <tile id="2156">
   <image source="tiled/ERW-Grass Land/Props/Atlas-Props-individual sprites/water well_empty_frame16.png" width="128" height="160"/>
  </tile>
  <tile id="2157">
   <image source="tiled/ERW-Grass Land/Props/Atlas-Props-individual sprites/water well_empty_frame17.png" width="128" height="160"/>
  </tile>
  <tile id="2158">
   <image source="tiled/ERW-Grass Land/Props/Atlas-Props-individual sprites/water well_empty_frame18.png" width="128" height="160"/>
  </tile>
  <tile id="2159">
   <image source="tiled/ERW-Grass Land/Props/Atlas-Props-individual sprites/water well_empty_frame19.png" width="128" height="160"/>
  </tile>
  <tile id="2160">
   <image source="tiled/ERW-Grass Land/Props/Atlas-Props-individual sprites/water well_empty_frame20.png" width="128" height="160"/>
  </tile>
  <tile id="2161">
   <image source="tiled/ERW-Grass Land/Props/Atlas-Props-individual sprites/water well_empty_frame21.png" width="128" height="160"/>
  </tile>
  <tile id="2162">
   <image source="tiled/ERW-Grass Land/Props/Atlas-Props-individual sprites/water well_empty_frame22.png" width="128" height="160"/>
  </tile>
  <tile id="2163">
   <image source="tiled/ERW-Grass Land/Props/Atlas-Props-individual sprites/water well_empty_frame23.png" width="128" height="160"/>
  </tile>
  <tile id="2164">
   <image source="tiled/ERW-Grass Land/Props/Atlas-Props-individual sprites/water well_empty_frame24.png" width="128" height="160"/>
  </tile>
  <tile id="2165">
   <image source="tiled/ERW-Grass Land/Props/Atlas-Props-individual sprites/water well_empty_frame25.png" width="128" height="160"/>
  </tile>
  <tile id="2166">
   <image source="tiled/ERW-Grass Land/Props/Atlas-Props-individual sprites/water well_empty_frame26.png" width="128" height="160"/>
  </tile>
  <tile id="2167">
   <image source="tiled/ERW-Grass Land/Props/Atlas-Props-individual sprites/water well_empty_frame27.png" width="128" height="160"/>
  </tile>
  <tile id="2168">
   <image source="tiled/ERW-Grass Land/Props/Atlas-Props-individual sprites/water well_empty_frame28.png" width="128" height="160"/>
  </tile>
  <tile id="2169">
   <image source="tiled/ERW-Grass Land/Props/Atlas-Props-individual sprites/water well_empty_frame29.png" width="128" height="160"/>
  </tile>
  <tile id="2170">
   <image source="tiled/ERW-Grass Land/Props/Atlas-Props-individual sprites/water well_empty_frame30.png" width="128" height="160"/>
   <animation>
    <frame tileid="2170" duration="100"/>
    <frame tileid="2171" duration="100"/>
    <frame tileid="2172" duration="100"/>
    <frame tileid="2173" duration="100"/>
    <frame tileid="2174" duration="100"/>
    <frame tileid="2175" duration="100"/>
    <frame tileid="2176" duration="100"/>
    <frame tileid="2177" duration="100"/>
    <frame tileid="2178" duration="100"/>
    <frame tileid="2179" duration="100"/>
    <frame tileid="2180" duration="100"/>
    <frame tileid="2181" duration="100"/>
    <frame tileid="2182" duration="100"/>
    <frame tileid="2183" duration="100"/>
    <frame tileid="2184" duration="100"/>
    <frame tileid="2185" duration="100"/>
    <frame tileid="2186" duration="100"/>
    <frame tileid="2187" duration="100"/>
    <frame tileid="2188" duration="100"/>
    <frame tileid="2189" duration="100"/>
    <frame tileid="2190" duration="100"/>
    <frame tileid="2191" duration="100"/>
    <frame tileid="2192" duration="100"/>
    <frame tileid="2193" duration="100"/>
    <frame tileid="2194" duration="100"/>
    <frame tileid="2195" duration="100"/>
    <frame tileid="2196" duration="100"/>
    <frame tileid="2197" duration="100"/>
    <frame tileid="2198" duration="100"/>
    <frame tileid="2199" duration="100"/>
   </animation>
  </tile>
  <tile id="2171">
   <image source="tiled/ERW-Grass Land/Props/Atlas-Props-individual sprites/water well_water_frame1.png" width="128" height="160"/>
  </tile>
  <tile id="2172">
   <image source="tiled/ERW-Grass Land/Props/Atlas-Props-individual sprites/water well_water_frame2.png" width="128" height="160"/>
  </tile>
  <tile id="2173">
   <image source="tiled/ERW-Grass Land/Props/Atlas-Props-individual sprites/water well_water_frame3.png" width="128" height="160"/>
  </tile>
  <tile id="2174">
   <image source="tiled/ERW-Grass Land/Props/Atlas-Props-individual sprites/water well_water_frame4.png" width="128" height="160"/>
  </tile>
  <tile id="2175">
   <image source="tiled/ERW-Grass Land/Props/Atlas-Props-individual sprites/water well_water_frame5.png" width="128" height="160"/>
  </tile>
  <tile id="2176">
   <image source="tiled/ERW-Grass Land/Props/Atlas-Props-individual sprites/water well_water_frame6.png" width="128" height="160"/>
  </tile>
  <tile id="2177">
   <image source="tiled/ERW-Grass Land/Props/Atlas-Props-individual sprites/water well_water_frame7.png" width="128" height="160"/>
  </tile>
  <tile id="2178">
   <image source="tiled/ERW-Grass Land/Props/Atlas-Props-individual sprites/water well_water_frame8.png" width="128" height="160"/>
  </tile>
  <tile id="2179">
   <image source="tiled/ERW-Grass Land/Props/Atlas-Props-individual sprites/water well_water_frame9.png" width="128" height="160"/>
  </tile>
  <tile id="2180">
   <image source="tiled/ERW-Grass Land/Props/Atlas-Props-individual sprites/water well_water_frame10.png" width="128" height="160"/>
  </tile>
  <tile id="2181">
   <image source="tiled/ERW-Grass Land/Props/Atlas-Props-individual sprites/water well_water_frame11.png" width="128" height="160"/>
  </tile>
  <tile id="2182">
   <image source="tiled/ERW-Grass Land/Props/Atlas-Props-individual sprites/water well_water_frame12.png" width="128" height="160"/>
  </tile>
  <tile id="2183">
   <image source="tiled/ERW-Grass Land/Props/Atlas-Props-individual sprites/water well_water_frame13.png" width="128" height="160"/>
  </tile>
  <tile id="2184">
   <image source="tiled/ERW-Grass Land/Props/Atlas-Props-individual sprites/water well_water_frame14.png" width="128" height="160"/>
  </tile>
  <tile id="2185">
   <image source="tiled/ERW-Grass Land/Props/Atlas-Props-individual sprites/water well_water_frame15.png" width="128" height="160"/>
  </tile>
  <tile id="2186">
   <image source="tiled/ERW-Grass Land/Props/Atlas-Props-individual sprites/water well_water_frame16.png" width="128" height="160"/>
  </tile>
  <tile id="2187">
   <image source="tiled/ERW-Grass Land/Props/Atlas-Props-individual sprites/water well_water_frame17.png" width="128" height="160"/>
  </tile>
  <tile id="2188">
   <image source="tiled/ERW-Grass Land/Props/Atlas-Props-individual sprites/water well_water_frame18.png" width="128" height="160"/>
  </tile>
  <tile id="2189">
   <image source="tiled/ERW-Grass Land/Props/Atlas-Props-individual sprites/water well_water_frame19.png" width="128" height="160"/>
  </tile>
  <tile id="2190">
   <image source="tiled/ERW-Grass Land/Props/Atlas-Props-individual sprites/water well_water_frame20.png" width="128" height="160"/>
  </tile>
  <tile id="2191">
   <image source="tiled/ERW-Grass Land/Props/Atlas-Props-individual sprites/water well_water_frame21.png" width="128" height="160"/>
  </tile>
  <tile id="2192">
   <image source="tiled/ERW-Grass Land/Props/Atlas-Props-individual sprites/water well_water_frame22.png" width="128" height="160"/>
  </tile>
  <tile id="2193">
   <image source="tiled/ERW-Grass Land/Props/Atlas-Props-individual sprites/water well_water_frame23.png" width="128" height="160"/>
  </tile>
  <tile id="2194">
   <image source="tiled/ERW-Grass Land/Props/Atlas-Props-individual sprites/water well_water_frame24.png" width="128" height="160"/>
  </tile>
  <tile id="2195">
   <image source="tiled/ERW-Grass Land/Props/Atlas-Props-individual sprites/water well_water_frame25.png" width="128" height="160"/>
  </tile>
  <tile id="2196">
   <image source="tiled/ERW-Grass Land/Props/Atlas-Props-individual sprites/water well_water_frame26.png" width="128" height="160"/>
  </tile>
  <tile id="2197">
   <image source="tiled/ERW-Grass Land/Props/Atlas-Props-individual sprites/water well_water_frame27.png" width="128" height="160"/>
  </tile>
  <tile id="2198">
   <image source="tiled/ERW-Grass Land/Props/Atlas-Props-individual sprites/water well_water_frame28.png" width="128" height="160"/>
  </tile>
  <tile id="2199">
   <image source="tiled/ERW-Grass Land/Props/Atlas-Props-individual sprites/water well_water_frame29.png" width="128" height="160"/>
  </tile>
 </tileset>
 <tileset firstgid="11057" name="Premade_houses" tilewidth="32" tileheight="32" tilecount="4096" columns="64">
  <image source="tiled/ERW - The Village/buildings/Premade_houses.png" width="2048" height="2048"/>
  <tile id="0" type="above"/>
  <tile id="1" type="above"/>
  <tile id="2" type="above"/>
  <tile id="3" type="above"/>
  <tile id="4" type="above"/>
  <tile id="5" type="above"/>
  <tile id="6" type="above"/>
  <tile id="7" type="above"/>
  <tile id="8" type="above"/>
  <tile id="9" type="above"/>
  <tile id="10" type="above"/>
  <tile id="11" type="above"/>
  <tile id="12" type="above"/>
  <tile id="13" type="above"/>
  <tile id="15" type="dynamicAbove"/>
  <tile id="16" type="dynamicAbove"/>
  <tile id="17" type="dynamicAbove"/>
  <tile id="18" type="dynamicAbove"/>
  <tile id="19" type="dynamicAbove"/>
  <tile id="20" type="dynamicAbove"/>
  <tile id="21" type="dynamicAbove"/>
  <tile id="22" type="dynamicAbove"/>
  <tile id="23" type="dynamicAbove"/>
  <tile id="24" type="dynamicAbove"/>
  <tile id="25" type="dynamicAbove"/>
  <tile id="26" type="dynamicAbove"/>
  <tile id="27" type="dynamicAbove"/>
  <tile id="28" type="dynamicAbove"/>
  <tile id="29" type="dynamicAbove"/>
  <tile id="30" type="dynamicAbove"/>
  <tile id="31" type="dynamicAbove"/>
  <tile id="32" type="dynamicAbove"/>
  <tile id="33" type="dynamicAbove"/>
  <tile id="34" type="dynamicAbove"/>
  <tile id="35" type="dynamicAbove"/>
  <tile id="36" type="dynamicAbove"/>
  <tile id="37" type="dynamicAbove"/>
  <tile id="38" type="dynamicAbove"/>
  <tile id="39" type="dynamicAbove"/>
  <tile id="40" type="dynamicAbove"/>
  <tile id="64" type="dynamicAbove"/>
  <tile id="65" type="dynamicAbove"/>
  <tile id="66" type="dynamicAbove"/>
  <tile id="67" type="dynamicAbove"/>
  <tile id="68" type="dynamicAbove"/>
  <tile id="69" type="dynamicAbove"/>
  <tile id="70" type="dynamicAbove"/>
  <tile id="71" type="dynamicAbove"/>
  <tile id="72" type="dynamicAbove"/>
  <tile id="73" type="dynamicAbove"/>
  <tile id="74" type="dynamicAbove"/>
  <tile id="75" type="dynamicAbove"/>
  <tile id="76" type="dynamicAbove"/>
  <tile id="77" type="dynamicAbove"/>
  <tile id="79" type="dynamicAbove"/>
  <tile id="80" type="dynamicAbove"/>
  <tile id="81" type="dynamicAbove"/>
  <tile id="82" type="dynamicAbove"/>
  <tile id="83" type="dynamicAbove"/>
  <tile id="84" type="dynamicAbove"/>
  <tile id="85" type="dynamicAbove"/>
  <tile id="86" type="dynamicAbove"/>
  <tile id="87" type="dynamicAbove"/>
  <tile id="88" type="dynamicAbove"/>
  <tile id="89" type="dynamicAbove"/>
  <tile id="90" type="dynamicAbove"/>
  <tile id="91" type="dynamicAbove"/>
  <tile id="92" type="dynamicAbove"/>
  <tile id="93" type="dynamicAbove"/>
  <tile id="94" type="dynamicAbove"/>
  <tile id="95" type="dynamicAbove"/>
  <tile id="96" type="dynamicAbove"/>
  <tile id="97" type="dynamicAbove"/>
  <tile id="98" type="dynamicAbove"/>
  <tile id="99" type="dynamicAbove"/>
  <tile id="100" type="dynamicAbove"/>
  <tile id="101" type="dynamicAbove"/>
  <tile id="102" type="dynamicAbove"/>
  <tile id="103" type="dynamicAbove"/>
  <tile id="104" type="dynamicAbove"/>
  <tile id="105" type="dynamicAbove"/>
  <tile id="106" type="dynamicAbove"/>
  <tile id="107" type="dynamicAbove"/>
  <tile id="108" type="dynamicAbove"/>
  <tile id="109" type="dynamicAbove"/>
  <tile id="110" type="dynamicAbove"/>
  <tile id="111" type="dynamicAbove"/>
  <tile id="112" type="dynamicAbove"/>
  <tile id="113" type="dynamicAbove"/>
  <tile id="114" type="dynamicAbove"/>
  <tile id="115" type="dynamicAbove"/>
  <tile id="116" type="dynamicAbove"/>
  <tile id="117" type="dynamicAbove"/>
  <tile id="128" type="dynamicAbove"/>
  <tile id="129" type="dynamicAbove"/>
  <tile id="130" type="dynamicAbove"/>
  <tile id="131" type="dynamicAbove"/>
  <tile id="132" type="dynamicAbove"/>
  <tile id="133" type="dynamicAbove"/>
  <tile id="134" type="dynamicAbove"/>
  <tile id="135" type="dynamicAbove"/>
  <tile id="136" type="dynamicAbove"/>
  <tile id="137" type="dynamicAbove"/>
  <tile id="138" type="dynamicAbove"/>
  <tile id="139" type="dynamicAbove"/>
  <tile id="140" type="dynamicAbove"/>
  <tile id="141" type="dynamicAbove"/>
  <tile id="143" type="dynamicAbove"/>
  <tile id="144" type="dynamicAbove"/>
  <tile id="145" type="dynamicAbove"/>
  <tile id="146" type="dynamicAbove"/>
  <tile id="147" type="dynamicAbove"/>
  <tile id="148" type="dynamicAbove"/>
  <tile id="149" type="dynamicAbove"/>
  <tile id="150" type="dynamicAbove"/>
  <tile id="151" type="dynamicAbove"/>
  <tile id="152" type="dynamicAbove"/>
  <tile id="153" type="dynamicAbove"/>
  <tile id="154" type="dynamicAbove"/>
  <tile id="155" type="dynamicAbove"/>
  <tile id="156" type="dynamicAbove"/>
  <tile id="157" type="dynamicAbove"/>
  <tile id="158" type="dynamicAbove"/>
  <tile id="159" type="dynamicAbove"/>
  <tile id="160" type="dynamicAbove"/>
  <tile id="161" type="dynamicAbove"/>
  <tile id="162" type="dynamicAbove"/>
  <tile id="163" type="dynamicAbove"/>
  <tile id="164" type="dynamicAbove"/>
  <tile id="165" type="dynamicAbove"/>
  <tile id="166" type="dynamicAbove"/>
  <tile id="167" type="dynamicAbove"/>
  <tile id="168" type="dynamicAbove"/>
  <tile id="169" type="dynamicAbove"/>
  <tile id="170" type="dynamicAbove"/>
  <tile id="171" type="dynamicAbove"/>
  <tile id="172" type="dynamicAbove"/>
  <tile id="173" type="dynamicAbove"/>
  <tile id="174" type="dynamicAbove"/>
  <tile id="175" type="dynamicAbove"/>
  <tile id="176" type="dynamicAbove"/>
  <tile id="177" type="dynamicAbove"/>
  <tile id="178" type="dynamicAbove"/>
  <tile id="179" type="dynamicAbove"/>
  <tile id="180" type="dynamicAbove"/>
  <tile id="181" type="dynamicAbove"/>
  <tile id="192" type="dynamicAbove"/>
  <tile id="193" type="dynamicAbove"/>
  <tile id="194" type="dynamicAbove"/>
  <tile id="195" type="dynamicAbove"/>
  <tile id="196" type="dynamicAbove"/>
  <tile id="197" type="dynamicAbove"/>
  <tile id="198" type="dynamicAbove"/>
  <tile id="199" type="dynamicAbove"/>
  <tile id="200" type="dynamicAbove"/>
  <tile id="201" type="dynamicAbove"/>
  <tile id="202" type="dynamicAbove"/>
  <tile id="203" type="dynamicAbove"/>
  <tile id="204" type="dynamicAbove"/>
  <tile id="205" type="dynamicAbove"/>
  <tile id="207" type="dynamicAbove"/>
  <tile id="208" type="dynamicAbove"/>
  <tile id="209" type="dynamicAbove"/>
  <tile id="210" type="dynamicAbove"/>
  <tile id="211" type="dynamicAbove"/>
  <tile id="212" type="dynamicAbove"/>
  <tile id="213" type="dynamicAbove"/>
  <tile id="214" type="dynamicAbove"/>
  <tile id="215" type="dynamicAbove"/>
  <tile id="216" type="dynamicAbove"/>
  <tile id="217" type="dynamicAbove"/>
  <tile id="218" type="dynamicAbove"/>
  <tile id="219" type="dynamicAbove"/>
  <tile id="220" type="dynamicAbove"/>
  <tile id="221" type="dynamicAbove"/>
  <tile id="222" type="dynamicAbove"/>
  <tile id="223" type="dynamicAbove"/>
  <tile id="224" type="dynamicAbove"/>
  <tile id="225" type="dynamicAbove"/>
  <tile id="226" type="dynamicAbove"/>
  <tile id="227" type="dynamicAbove"/>
  <tile id="228" type="dynamicAbove"/>
  <tile id="229" type="dynamicAbove"/>
  <tile id="230" type="dynamicAbove"/>
  <tile id="231" type="dynamicAbove"/>
  <tile id="232" type="dynamicAbove"/>
  <tile id="233" type="dynamicAbove"/>
  <tile id="234" type="dynamicAbove"/>
  <tile id="235" type="dynamicAbove"/>
  <tile id="236" type="dynamicAbove"/>
  <tile id="237" type="dynamicAbove"/>
  <tile id="238" type="dynamicAbove"/>
  <tile id="239" type="dynamicAbove"/>
  <tile id="240" type="dynamicAbove"/>
  <tile id="241" type="dynamicAbove"/>
  <tile id="242" type="dynamicAbove"/>
  <tile id="243" type="dynamicAbove"/>
  <tile id="244" type="dynamicAbove"/>
  <tile id="245" type="dynamicAbove"/>
  <tile id="256" type="dynamicAbove"/>
  <tile id="257" type="dynamicAbove"/>
  <tile id="258" type="dynamicAbove"/>
  <tile id="259" type="dynamicAbove"/>
  <tile id="260" type="dynamicAbove"/>
  <tile id="261" type="dynamicAbove"/>
  <tile id="262" type="dynamicAbove"/>
  <tile id="263" type="dynamicAbove"/>
  <tile id="264" type="dynamicAbove"/>
  <tile id="265" type="dynamicAbove"/>
  <tile id="266" type="dynamicAbove"/>
  <tile id="267" type="dynamicAbove"/>
  <tile id="268" type="dynamicAbove"/>
  <tile id="269" type="dynamicAbove"/>
  <tile id="271" type="dynamicAbove"/>
  <tile id="272" type="dynamicAbove"/>
  <tile id="273" type="dynamicAbove"/>
  <tile id="274" type="dynamicAbove"/>
  <tile id="275" type="dynamicAbove"/>
  <tile id="276" type="dynamicAbove"/>
  <tile id="277" type="dynamicAbove"/>
  <tile id="278" type="dynamicAbove"/>
  <tile id="279" type="dynamicAbove"/>
  <tile id="280" type="dynamicAbove"/>
  <tile id="281" type="dynamicAbove"/>
  <tile id="282" type="dynamicAbove"/>
  <tile id="283" type="dynamicAbove"/>
  <tile id="284" type="dynamicAbove"/>
  <tile id="285" type="dynamicAbove"/>
  <tile id="286" type="dynamicAbove"/>
  <tile id="287" type="dynamicAbove"/>
  <tile id="288" type="dynamicAbove"/>
  <tile id="289" type="dynamicAbove"/>
  <tile id="290" type="dynamicAbove"/>
  <tile id="291" type="dynamicAbove"/>
  <tile id="292" type="dynamicAbove"/>
  <tile id="293" type="dynamicAbove"/>
  <tile id="294" type="dynamicAbove"/>
  <tile id="295" type="dynamicAbove"/>
  <tile id="296" type="dynamicAbove"/>
  <tile id="297" type="dynamicAbove"/>
  <tile id="298" type="dynamicAbove"/>
  <tile id="299" type="dynamicAbove"/>
  <tile id="300" type="dynamicAbove"/>
  <tile id="301" type="dynamicAbove"/>
  <tile id="302" type="dynamicAbove"/>
  <tile id="303" type="dynamicAbove"/>
  <tile id="304" type="dynamicAbove"/>
  <tile id="305" type="dynamicAbove"/>
  <tile id="306" type="dynamicAbove"/>
  <tile id="307" type="dynamicAbove"/>
  <tile id="308" type="dynamicAbove"/>
  <tile id="309" type="dynamicAbove"/>
  <tile id="312" type="dynamicAbove"/>
  <tile id="313" type="dynamicAbove"/>
  <tile id="314" type="dynamicAbove"/>
  <tile id="315" type="dynamicAbove"/>
  <tile id="316" type="dynamicAbove"/>
  <tile id="317" type="dynamicAbove"/>
  <tile id="320" type="dynamicAbove"/>
  <tile id="321" type="dynamicAbove"/>
  <tile id="322" type="dynamicAbove"/>
  <tile id="323" type="dynamicAbove"/>
  <tile id="324" type="dynamicAbove"/>
  <tile id="325" type="dynamicAbove"/>
  <tile id="326" type="dynamicAbove"/>
  <tile id="327" type="dynamicAbove"/>
  <tile id="328" type="dynamicAbove"/>
  <tile id="329" type="dynamicAbove"/>
  <tile id="330" type="dynamicAbove"/>
  <tile id="331" type="dynamicAbove"/>
  <tile id="332" type="dynamicAbove"/>
  <tile id="333" type="dynamicAbove"/>
  <tile id="335" type="dynamicAbove"/>
  <tile id="336" type="dynamicAbove"/>
  <tile id="337" type="dynamicAbove"/>
  <tile id="338" type="dynamicAbove"/>
  <tile id="339" type="dynamicAbove"/>
  <tile id="340" type="dynamicAbove"/>
  <tile id="341" type="dynamicAbove"/>
  <tile id="342" type="dynamicAbove"/>
  <tile id="343" type="dynamicAbove"/>
  <tile id="344" type="dynamicAbove"/>
  <tile id="345" type="dynamicAbove"/>
  <tile id="346" type="dynamicAbove"/>
  <tile id="347" type="dynamicAbove"/>
  <tile id="348" type="dynamicAbove"/>
  <tile id="349" type="dynamicAbove"/>
  <tile id="350" type="dynamicAbove"/>
  <tile id="351" type="dynamicAbove"/>
  <tile id="352" type="dynamicAbove"/>
  <tile id="353" type="dynamicAbove"/>
  <tile id="354" type="dynamicAbove"/>
  <tile id="355" type="dynamicAbove"/>
  <tile id="356" type="dynamicAbove"/>
  <tile id="357" type="dynamicAbove"/>
  <tile id="358" type="dynamicAbove"/>
  <tile id="359" type="dynamicAbove"/>
  <tile id="360" type="dynamicAbove"/>
  <tile id="361" type="dynamicAbove"/>
  <tile id="362" type="dynamicAbove"/>
  <tile id="363" type="dynamicAbove"/>
  <tile id="364" type="dynamicAbove"/>
  <tile id="365" type="dynamicAbove"/>
  <tile id="366" type="dynamicAbove"/>
  <tile id="367" type="dynamicAbove"/>
  <tile id="368" type="dynamicAbove"/>
  <tile id="369" type="dynamicAbove"/>
  <tile id="370" type="dynamicAbove"/>
  <tile id="371" type="dynamicAbove"/>
  <tile id="372" type="dynamicAbove"/>
  <tile id="373" type="dynamicAbove"/>
  <tile id="376" type="dynamicAbove"/>
  <tile id="377" type="dynamicAbove"/>
  <tile id="378" type="dynamicAbove"/>
  <tile id="379" type="dynamicAbove"/>
  <tile id="380" type="dynamicAbove"/>
  <tile id="381" type="dynamicAbove"/>
  <tile id="384" type="dynamicAbove"/>
  <tile id="385" type="dynamicAbove"/>
  <tile id="386" type="dynamicAbove"/>
  <tile id="387" type="dynamicAbove"/>
  <tile id="388" type="dynamicAbove"/>
  <tile id="389" type="dynamicAbove"/>
  <tile id="390" type="dynamicAbove"/>
  <tile id="391" type="dynamicAbove"/>
  <tile id="392" type="dynamicAbove"/>
  <tile id="393" type="dynamicAbove"/>
  <tile id="394" type="dynamicAbove"/>
  <tile id="395" type="dynamicAbove"/>
  <tile id="396" type="dynamicAbove"/>
  <tile id="397" type="dynamicAbove"/>
  <tile id="399" type="dynamicAbove"/>
  <tile id="400" type="dynamicAbove"/>
  <tile id="401" type="dynamicAbove"/>
  <tile id="402" type="dynamicAbove"/>
  <tile id="403" type="dynamicAbove"/>
  <tile id="404" type="dynamicAbove"/>
  <tile id="405" type="dynamicAbove"/>
  <tile id="406" type="dynamicAbove"/>
  <tile id="407" type="dynamicAbove"/>
  <tile id="408" type="dynamicAbove"/>
  <tile id="409" type="dynamicAbove"/>
  <tile id="410" type="dynamicAbove"/>
  <tile id="411" type="dynamicAbove"/>
  <tile id="412" type="dynamicAbove"/>
  <tile id="413" type="dynamicAbove"/>
  <tile id="414" type="dynamicAbove"/>
  <tile id="415" type="dynamicAbove"/>
  <tile id="416" type="dynamicAbove"/>
  <tile id="417" type="dynamicAbove"/>
  <tile id="418" type="dynamicAbove"/>
  <tile id="419" type="dynamicAbove"/>
  <tile id="420" type="dynamicAbove"/>
  <tile id="421" type="dynamicAbove"/>
  <tile id="422" type="dynamicAbove"/>
  <tile id="423" type="dynamicAbove"/>
  <tile id="424" type="dynamicAbove"/>
  <tile id="425" type="dynamicAbove"/>
  <tile id="426" type="dynamicAbove"/>
  <tile id="427" type="dynamicAbove"/>
  <tile id="428" type="dynamicAbove"/>
  <tile id="429" type="dynamicAbove"/>
  <tile id="430" type="dynamicAbove"/>
  <tile id="431" type="dynamicAbove"/>
  <tile id="432" type="dynamicAbove"/>
  <tile id="433" type="dynamicAbove"/>
  <tile id="434" type="dynamicAbove"/>
  <tile id="435" type="dynamicAbove"/>
  <tile id="436" type="dynamicAbove"/>
  <tile id="437" type="dynamicAbove"/>
  <tile id="440" type="dynamicAbove"/>
  <tile id="441" type="dynamicAbove"/>
  <tile id="442" type="dynamicAbove"/>
  <tile id="443" type="dynamicAbove"/>
  <tile id="444" type="dynamicAbove"/>
  <tile id="445" type="dynamicAbove"/>
  <tile id="448" type="dynamicAbove"/>
  <tile id="449" type="dynamicAbove"/>
  <tile id="450" type="dynamicAbove"/>
  <tile id="451" type="dynamicAbove"/>
  <tile id="452" type="dynamicAbove"/>
  <tile id="453" type="dynamicAbove"/>
  <tile id="454" type="dynamicAbove"/>
  <tile id="455" type="dynamicAbove"/>
  <tile id="456" type="dynamicAbove"/>
  <tile id="457" type="dynamicAbove"/>
  <tile id="458" type="dynamicAbove"/>
  <tile id="459" type="dynamicAbove"/>
  <tile id="460" type="dynamicAbove"/>
  <tile id="461" type="dynamicAbove"/>
  <tile id="463" type="dynamicAbove"/>
  <tile id="464" type="dynamicAbove"/>
  <tile id="465" type="dynamicAbove"/>
  <tile id="466" type="dynamicAbove"/>
  <tile id="467" type="dynamicAbove"/>
  <tile id="468" type="dynamicAbove"/>
  <tile id="469" type="dynamicAbove"/>
  <tile id="470" type="dynamicAbove"/>
  <tile id="471" type="dynamicAbove"/>
  <tile id="472" type="dynamicAbove"/>
  <tile id="473" type="dynamicAbove"/>
  <tile id="474" type="dynamicAbove"/>
  <tile id="475" type="dynamicAbove"/>
  <tile id="476" type="dynamicAbove"/>
  <tile id="477" type="dynamicAbove"/>
  <tile id="478" type="dynamicAbove"/>
  <tile id="479" type="dynamicAbove"/>
  <tile id="480" type="dynamicAbove"/>
  <tile id="481" type="dynamicAbove"/>
  <tile id="482" type="dynamicAbove"/>
  <tile id="483" type="dynamicAbove"/>
  <tile id="484" type="dynamicAbove"/>
  <tile id="485" type="dynamicAbove"/>
  <tile id="486" type="dynamicAbove"/>
  <tile id="487" type="dynamicAbove"/>
  <tile id="488" type="dynamicAbove"/>
  <tile id="489" type="dynamicAbove"/>
  <tile id="490" type="dynamicAbove"/>
  <tile id="491" type="dynamicAbove"/>
  <tile id="492" type="dynamicAbove"/>
  <tile id="493" type="dynamicAbove"/>
  <tile id="494" type="dynamicAbove"/>
  <tile id="495" type="dynamicAbove"/>
  <tile id="496" type="dynamicAbove"/>
  <tile id="497" type="dynamicAbove"/>
  <tile id="498" type="dynamicAbove"/>
  <tile id="499" type="dynamicAbove"/>
  <tile id="500" type="dynamicAbove"/>
  <tile id="501" type="dynamicAbove"/>
  <tile id="504" type="dynamicAbove"/>
  <tile id="505" type="dynamicAbove"/>
  <tile id="506" type="dynamicAbove"/>
  <tile id="507" type="dynamicAbove"/>
  <tile id="508" type="dynamicAbove"/>
  <tile id="509" type="dynamicAbove"/>
  <tile id="512" type="dynamicAbove"/>
  <tile id="513" type="dynamicAbove"/>
  <tile id="514" type="dynamicAbove"/>
  <tile id="515" type="dynamicAbove"/>
  <tile id="516" type="dynamicAbove"/>
  <tile id="517" type="dynamicAbove"/>
  <tile id="518" type="dynamicAbove"/>
  <tile id="519" type="dynamicAbove"/>
  <tile id="520" type="dynamicAbove"/>
  <tile id="521" type="dynamicAbove"/>
  <tile id="522" type="dynamicAbove"/>
  <tile id="523" type="dynamicAbove"/>
  <tile id="524" type="dynamicAbove"/>
  <tile id="525" type="dynamicAbove"/>
  <tile id="527" type="dynamicAbove"/>
  <tile id="528" type="dynamicAbove"/>
  <tile id="529" type="dynamicAbove"/>
  <tile id="530" type="dynamicAbove"/>
  <tile id="531" type="dynamicAbove"/>
  <tile id="532" type="dynamicAbove"/>
  <tile id="533" type="dynamicAbove"/>
  <tile id="534" type="dynamicAbove"/>
  <tile id="535" type="dynamicAbove"/>
  <tile id="536" type="dynamicAbove"/>
  <tile id="537" type="dynamicAbove"/>
  <tile id="538" type="dynamicAbove"/>
  <tile id="539" type="dynamicAbove"/>
  <tile id="540" type="dynamicAbove"/>
  <tile id="541" type="dynamicAbove"/>
  <tile id="542" type="dynamicAbove"/>
  <tile id="543" type="dynamicAbove"/>
  <tile id="544" type="dynamicAbove"/>
  <tile id="545" type="dynamicAbove"/>
  <tile id="546" type="dynamicAbove"/>
  <tile id="547" type="dynamicAbove"/>
  <tile id="548" type="dynamicAbove"/>
  <tile id="549" type="dynamicAbove"/>
  <tile id="550" type="dynamicAbove"/>
  <tile id="551" type="dynamicAbove"/>
  <tile id="552" type="dynamicAbove"/>
  <tile id="553" type="dynamicAbove"/>
  <tile id="554" type="dynamicAbove"/>
  <tile id="555" type="dynamicAbove"/>
  <tile id="556" type="dynamicAbove"/>
  <tile id="557" type="dynamicAbove"/>
  <tile id="558" type="dynamicAbove"/>
  <tile id="559" type="dynamicAbove"/>
  <tile id="560" type="dynamicAbove"/>
  <tile id="561" type="dynamicAbove"/>
  <tile id="562" type="dynamicAbove"/>
  <tile id="563" type="dynamicAbove"/>
  <tile id="564" type="dynamicAbove"/>
  <tile id="565" type="dynamicAbove"/>
  <tile id="568" type="dynamicAbove"/>
  <tile id="569" type="dynamicAbove"/>
  <tile id="570" type="dynamicAbove"/>
  <tile id="571" type="dynamicAbove"/>
  <tile id="572" type="dynamicAbove"/>
  <tile id="573" type="dynamicAbove"/>
  <tile id="576" type="dynamicAbove"/>
  <tile id="577" type="dynamicAbove"/>
  <tile id="578" type="dynamicAbove"/>
  <tile id="579" type="dynamicAbove"/>
  <tile id="580" type="dynamicAbove"/>
  <tile id="581" type="dynamicAbove"/>
  <tile id="582" type="dynamicAbove"/>
  <tile id="583" type="dynamicAbove"/>
  <tile id="584" type="dynamicAbove"/>
  <tile id="585" type="dynamicAbove"/>
  <tile id="586" type="dynamicAbove"/>
  <tile id="587" type="dynamicAbove"/>
  <tile id="588" type="dynamicAbove"/>
  <tile id="589" type="dynamicAbove"/>
  <tile id="591" type="dynamicAbove"/>
  <tile id="592" type="dynamicAbove"/>
  <tile id="593" type="dynamicAbove"/>
  <tile id="594" type="dynamicAbove"/>
  <tile id="595" type="dynamicAbove"/>
  <tile id="596" type="dynamicAbove"/>
  <tile id="597" type="dynamicAbove"/>
  <tile id="598" type="dynamicAbove"/>
  <tile id="599" type="dynamicAbove"/>
  <tile id="600" type="dynamicAbove"/>
  <tile id="601" type="dynamicAbove"/>
  <tile id="602" type="dynamicAbove"/>
  <tile id="603" type="dynamicAbove"/>
  <tile id="604" type="dynamicAbove"/>
  <tile id="605" type="dynamicAbove"/>
  <tile id="606" type="dynamicAbove"/>
  <tile id="607" type="dynamicAbove"/>
  <tile id="608" type="dynamicAbove"/>
  <tile id="609" type="dynamicAbove"/>
  <tile id="610" type="dynamicAbove"/>
  <tile id="611" type="dynamicAbove"/>
  <tile id="612" type="dynamicAbove"/>
  <tile id="613" type="dynamicAbove"/>
  <tile id="614" type="dynamicAbove"/>
  <tile id="615" type="dynamicAbove"/>
  <tile id="616" type="dynamicAbove"/>
  <tile id="617" type="dynamicAbove"/>
  <tile id="618" type="dynamicAbove"/>
  <tile id="619" type="dynamicAbove"/>
  <tile id="620" type="dynamicAbove"/>
  <tile id="621" type="dynamicAbove"/>
  <tile id="622" type="dynamicAbove"/>
  <tile id="623" type="dynamicAbove"/>
  <tile id="624" type="dynamicAbove"/>
  <tile id="625" type="dynamicAbove"/>
  <tile id="626" type="dynamicAbove"/>
  <tile id="627" type="dynamicAbove"/>
  <tile id="628" type="dynamicAbove"/>
  <tile id="629" type="dynamicAbove"/>
  <tile id="632" type="dynamicAbove"/>
  <tile id="633" type="dynamicAbove"/>
  <tile id="634" type="dynamicAbove"/>
  <tile id="635" type="dynamicAbove"/>
  <tile id="636" type="dynamicAbove"/>
  <tile id="637" type="dynamicAbove"/>
  <tile id="640" type="dynamicAbove"/>
  <tile id="641" type="dynamicAbove"/>
  <tile id="642" type="dynamicAbove"/>
  <tile id="643" type="dynamicAbove"/>
  <tile id="644" type="dynamicAbove"/>
  <tile id="645" type="dynamicAbove"/>
  <tile id="646" type="dynamicAbove"/>
  <tile id="647" type="dynamicAbove"/>
  <tile id="648" type="dynamicAbove"/>
  <tile id="649" type="dynamicAbove"/>
  <tile id="650" type="dynamicAbove"/>
  <tile id="651" type="dynamicAbove"/>
  <tile id="652" type="dynamicAbove"/>
  <tile id="653" type="dynamicAbove"/>
  <tile id="655" type="dynamicAbove"/>
  <tile id="656" type="dynamicAbove"/>
  <tile id="657" type="dynamicAbove"/>
  <tile id="658" type="dynamicAbove"/>
  <tile id="659" type="dynamicAbove"/>
  <tile id="660" type="dynamicAbove"/>
  <tile id="661" type="dynamicAbove"/>
  <tile id="662" type="dynamicAbove"/>
  <tile id="663" type="dynamicAbove"/>
  <tile id="664" type="dynamicAbove"/>
  <tile id="665" type="dynamicAbove"/>
  <tile id="666" type="dynamicAbove"/>
  <tile id="667" type="dynamicAbove"/>
  <tile id="668" type="dynamicAbove"/>
  <tile id="669" type="dynamicAbove"/>
  <tile id="670" type="dynamicAbove"/>
  <tile id="671" type="dynamicAbove"/>
  <tile id="672" type="dynamicAbove"/>
  <tile id="673" type="dynamicAbove"/>
  <tile id="674" type="dynamicAbove"/>
  <tile id="675" type="dynamicAbove"/>
  <tile id="676" type="dynamicAbove"/>
  <tile id="677" type="dynamicAbove"/>
  <tile id="678" type="dynamicAbove"/>
  <tile id="679" type="dynamicAbove"/>
  <tile id="680" type="dynamicAbove"/>
  <tile id="681" type="dynamicAbove"/>
  <tile id="682" type="dynamicAbove"/>
  <tile id="683" type="dynamicAbove"/>
  <tile id="684" type="dynamicAbove"/>
  <tile id="685" type="dynamicAbove"/>
  <tile id="686" type="dynamicAbove"/>
  <tile id="687" type="dynamicAbove"/>
  <tile id="688" type="dynamicAbove"/>
  <tile id="689" type="dynamicAbove"/>
  <tile id="690" type="dynamicAbove"/>
  <tile id="691" type="dynamicAbove"/>
  <tile id="692" type="dynamicAbove"/>
  <tile id="693" type="dynamicAbove"/>
  <tile id="696" type="dynamicAbove"/>
  <tile id="697" type="dynamicAbove"/>
  <tile id="698" type="dynamicAbove"/>
  <tile id="699" type="dynamicAbove"/>
  <tile id="700" type="dynamicAbove"/>
  <tile id="701" type="dynamicAbove"/>
  <tile id="704" type="dynamicAbove"/>
  <tile id="705" type="dynamicAbove"/>
  <tile id="706" type="dynamicAbove"/>
  <tile id="707" type="dynamicAbove"/>
  <tile id="708" type="dynamicAbove"/>
  <tile id="709" type="dynamicAbove"/>
  <tile id="710" type="dynamicAbove"/>
  <tile id="711" type="dynamicAbove"/>
  <tile id="712" type="dynamicAbove"/>
  <tile id="713" type="dynamicAbove"/>
  <tile id="714" type="dynamicAbove"/>
  <tile id="715" type="dynamicAbove"/>
  <tile id="716" type="dynamicAbove"/>
  <tile id="717" type="dynamicAbove"/>
  <tile id="719" type="dynamicAbove"/>
  <tile id="720" type="dynamicAbove"/>
  <tile id="721" type="dynamicAbove"/>
  <tile id="722" type="dynamicAbove"/>
  <tile id="723" type="dynamicAbove"/>
  <tile id="724" type="dynamicAbove"/>
  <tile id="725" type="dynamicAbove"/>
  <tile id="726" type="dynamicAbove"/>
  <tile id="727" type="dynamicAbove"/>
  <tile id="728" type="dynamicAbove"/>
  <tile id="729" type="dynamicAbove"/>
  <tile id="730" type="dynamicAbove"/>
  <tile id="731" type="dynamicAbove"/>
  <tile id="732" type="dynamicAbove"/>
  <tile id="733" type="dynamicAbove"/>
  <tile id="734" type="dynamicAbove"/>
  <tile id="735" type="dynamicAbove"/>
  <tile id="736" type="dynamicAbove"/>
  <tile id="737" type="dynamicAbove"/>
  <tile id="738" type="dynamicAbove"/>
  <tile id="739" type="dynamicAbove"/>
  <tile id="740" type="dynamicAbove"/>
  <tile id="741" type="dynamicAbove"/>
  <tile id="742" type="dynamicAbove"/>
  <tile id="743" type="dynamicAbove"/>
  <tile id="744" type="dynamicAbove"/>
  <tile id="745" type="dynamicAbove"/>
  <tile id="746" type="dynamicAbove"/>
  <tile id="747" type="dynamicAbove"/>
  <tile id="748" type="dynamicAbove"/>
  <tile id="749" type="dynamicAbove"/>
  <tile id="750" type="dynamicAbove"/>
  <tile id="751" type="dynamicAbove"/>
  <tile id="752" type="dynamicAbove"/>
  <tile id="753" type="dynamicAbove"/>
  <tile id="754" type="dynamicAbove"/>
  <tile id="755" type="dynamicAbove"/>
  <tile id="756" type="dynamicAbove"/>
  <tile id="757" type="dynamicAbove"/>
  <tile id="760" type="dynamicAbove"/>
  <tile id="761" type="dynamicAbove"/>
  <tile id="762" type="dynamicAbove"/>
  <tile id="763" type="dynamicAbove"/>
  <tile id="764" type="dynamicAbove"/>
  <tile id="765" type="dynamicAbove"/>
  <tile id="768" type="dynamicAbove"/>
  <tile id="769" type="dynamicAbove"/>
  <tile id="770" type="dynamicAbove"/>
  <tile id="771" type="dynamicAbove"/>
  <tile id="772" type="dynamicAbove"/>
  <tile id="773" type="dynamicAbove"/>
  <tile id="774" type="dynamicAbove"/>
  <tile id="775" type="dynamicAbove"/>
  <tile id="776" type="dynamicAbove"/>
  <tile id="777" type="dynamicAbove"/>
  <tile id="778" type="dynamicAbove"/>
  <tile id="779" type="dynamicAbove"/>
  <tile id="780" type="dynamicAbove"/>
  <tile id="781" type="dynamicAbove"/>
  <tile id="783" type="dynamicAbove"/>
  <tile id="784" type="dynamicAbove"/>
  <tile id="785" type="dynamicAbove"/>
  <tile id="786" type="dynamicAbove"/>
  <tile id="787" type="dynamicAbove"/>
  <tile id="788" type="dynamicAbove"/>
  <tile id="789" type="dynamicAbove"/>
  <tile id="790" type="dynamicAbove"/>
  <tile id="791" type="dynamicAbove"/>
  <tile id="792" type="dynamicAbove"/>
  <tile id="793" type="dynamicAbove"/>
  <tile id="794" type="dynamicAbove"/>
  <tile id="795" type="dynamicAbove"/>
  <tile id="796" type="dynamicAbove"/>
  <tile id="797" type="dynamicAbove"/>
  <tile id="798" type="dynamicAbove"/>
  <tile id="799" type="dynamicAbove"/>
  <tile id="800" type="dynamicAbove"/>
  <tile id="801" type="dynamicAbove"/>
  <tile id="802" type="dynamicAbove"/>
  <tile id="803" type="dynamicAbove"/>
  <tile id="804" type="dynamicAbove"/>
  <tile id="805" type="dynamicAbove"/>
  <tile id="806" type="dynamicAbove"/>
  <tile id="807" type="dynamicAbove"/>
  <tile id="808" type="dynamicAbove"/>
  <tile id="809" type="dynamicAbove"/>
  <tile id="810" type="dynamicAbove"/>
  <tile id="811" type="dynamicAbove"/>
  <tile id="812" type="dynamicAbove"/>
  <tile id="813" type="dynamicAbove"/>
  <tile id="814" type="dynamicAbove"/>
  <tile id="815" type="dynamicAbove"/>
  <tile id="816" type="dynamicAbove"/>
  <tile id="817" type="dynamicAbove"/>
  <tile id="818" type="dynamicAbove"/>
  <tile id="819" type="dynamicAbove"/>
  <tile id="820" type="dynamicAbove"/>
  <tile id="821" type="dynamicAbove"/>
  <tile id="873" type="dynamicAbove"/>
  <tile id="874" type="dynamicAbove"/>
  <tile id="875" type="dynamicAbove"/>
  <tile id="876" type="dynamicAbove"/>
  <tile id="877" type="dynamicAbove"/>
  <tile id="878" type="dynamicAbove"/>
  <tile id="879" type="dynamicAbove"/>
  <tile id="880" type="dynamicAbove"/>
  <tile id="881" type="dynamicAbove"/>
  <tile id="882" type="dynamicAbove"/>
  <tile id="883" type="dynamicAbove"/>
  <tile id="884" type="dynamicAbove"/>
  <tile id="885" type="dynamicAbove"/>
  <tile id="2083" type="dynamicAbove"/>
  <tile id="2084" type="dynamicAbove"/>
  <tile id="2085" type="dynamicAbove"/>
  <tile id="2086" type="dynamicAbove"/>
  <tile id="2087" type="dynamicAbove"/>
  <tile id="2088" type="dynamicAbove"/>
  <tile id="2089" type="dynamicAbove"/>
  <tile id="2090" type="dynamicAbove"/>
  <tile id="2091" type="dynamicAbove"/>
  <tile id="2092" type="dynamicAbove"/>
  <tile id="2093" type="dynamicAbove"/>
  <tile id="2094" type="dynamicAbove"/>
  <tile id="2095" type="dynamicAbove"/>
  <tile id="2096" type="dynamicAbove"/>
  <tile id="2097" type="dynamicAbove"/>
  <tile id="2098" type="dynamicAbove"/>
  <tile id="2099" type="dynamicAbove"/>
  <tile id="2100" type="dynamicAbove"/>
  <tile id="2101" type="dynamicAbove"/>
  <tile id="2147" type="dynamicAbove"/>
  <tile id="2148" type="dynamicAbove"/>
  <tile id="2149" type="dynamicAbove"/>
  <tile id="2150" type="dynamicAbove"/>
  <tile id="2151" type="dynamicAbove"/>
  <tile id="2152" type="dynamicAbove"/>
  <tile id="2153" type="dynamicAbove"/>
  <tile id="2154" type="dynamicAbove"/>
  <tile id="2155" type="dynamicAbove"/>
  <tile id="2156" type="dynamicAbove"/>
  <tile id="2157" type="dynamicAbove"/>
  <tile id="2158" type="dynamicAbove"/>
  <tile id="2159" type="dynamicAbove"/>
  <tile id="2160" type="dynamicAbove"/>
  <tile id="2161" type="dynamicAbove"/>
  <tile id="2162" type="dynamicAbove"/>
  <tile id="2163" type="dynamicAbove"/>
  <tile id="2164" type="dynamicAbove"/>
  <tile id="2165" type="dynamicAbove"/>
  <tile id="2211" type="dynamicAbove"/>
  <tile id="2212" type="dynamicAbove"/>
  <tile id="2213" type="dynamicAbove"/>
  <tile id="2214" type="dynamicAbove"/>
  <tile id="2215" type="dynamicAbove"/>
  <tile id="2216" type="dynamicAbove"/>
  <tile id="2217" type="dynamicAbove"/>
  <tile id="2218" type="dynamicAbove"/>
  <tile id="2219" type="dynamicAbove"/>
  <tile id="2220" type="dynamicAbove"/>
  <tile id="2221" type="dynamicAbove"/>
  <tile id="2222" type="dynamicAbove"/>
  <tile id="2223" type="dynamicAbove"/>
  <tile id="2224" type="dynamicAbove"/>
  <tile id="2225" type="dynamicAbove"/>
  <tile id="2226" type="dynamicAbove"/>
  <tile id="2227" type="dynamicAbove"/>
  <tile id="2228" type="dynamicAbove"/>
  <tile id="2229" type="dynamicAbove"/>
  <tile id="2275" type="dynamicAbove"/>
  <tile id="2276" type="dynamicAbove"/>
  <tile id="2277" type="dynamicAbove"/>
  <tile id="2278" type="dynamicAbove"/>
  <tile id="2279" type="dynamicAbove"/>
  <tile id="2280" type="dynamicAbove"/>
  <tile id="2281" type="dynamicAbove"/>
  <tile id="2282" type="dynamicAbove"/>
  <tile id="2283" type="dynamicAbove"/>
  <tile id="2284" type="dynamicAbove"/>
  <tile id="2285" type="dynamicAbove"/>
  <tile id="2286" type="dynamicAbove"/>
  <tile id="2287" type="dynamicAbove"/>
  <tile id="2288" type="dynamicAbove"/>
  <tile id="2289" type="dynamicAbove"/>
  <tile id="2290" type="dynamicAbove"/>
  <tile id="2291" type="dynamicAbove"/>
  <tile id="2292" type="dynamicAbove"/>
  <tile id="2293" type="dynamicAbove"/>
  <tile id="2339" type="dynamicAbove"/>
  <tile id="2340" type="dynamicAbove"/>
  <tile id="2341" type="dynamicAbove"/>
  <tile id="2342" type="dynamicAbove"/>
  <tile id="2343" type="dynamicAbove"/>
  <tile id="2344" type="dynamicAbove"/>
  <tile id="2345" type="dynamicAbove"/>
  <tile id="2346" type="dynamicAbove"/>
  <tile id="2347" type="dynamicAbove"/>
  <tile id="2348" type="dynamicAbove"/>
  <tile id="2349" type="dynamicAbove"/>
  <tile id="2350" type="dynamicAbove"/>
  <tile id="2351" type="dynamicAbove"/>
  <tile id="2352" type="dynamicAbove"/>
  <tile id="2353" type="dynamicAbove"/>
  <tile id="2354" type="dynamicAbove"/>
  <tile id="2355" type="dynamicAbove"/>
  <tile id="2356" type="dynamicAbove"/>
  <tile id="2357" type="dynamicAbove"/>
  <tile id="2403" type="dynamicAbove"/>
  <tile id="2404" type="dynamicAbove"/>
  <tile id="2405" type="dynamicAbove"/>
  <tile id="2406" type="dynamicAbove"/>
  <tile id="2407" type="dynamicAbove"/>
  <tile id="2408" type="dynamicAbove"/>
  <tile id="2409" type="dynamicAbove"/>
  <tile id="2410" type="dynamicAbove"/>
  <tile id="2411" type="dynamicAbove"/>
  <tile id="2412" type="dynamicAbove"/>
  <tile id="2413" type="dynamicAbove"/>
  <tile id="2414" type="dynamicAbove"/>
  <tile id="2415" type="dynamicAbove"/>
  <tile id="2416" type="dynamicAbove"/>
  <tile id="2417" type="dynamicAbove"/>
  <tile id="2418" type="dynamicAbove"/>
  <tile id="2419" type="dynamicAbove"/>
  <tile id="2420" type="dynamicAbove"/>
  <tile id="2421" type="dynamicAbove"/>
  <tile id="2467" type="dynamicAbove"/>
  <tile id="2468" type="dynamicAbove"/>
  <tile id="2469" type="dynamicAbove"/>
  <tile id="2470" type="dynamicAbove"/>
  <tile id="2471" type="dynamicAbove"/>
  <tile id="2472" type="dynamicAbove"/>
  <tile id="2473" type="dynamicAbove"/>
  <tile id="2474" type="dynamicAbove"/>
  <tile id="2475" type="dynamicAbove"/>
  <tile id="2476" type="dynamicAbove"/>
  <tile id="2477" type="dynamicAbove"/>
  <tile id="2478" type="dynamicAbove"/>
  <tile id="2479" type="dynamicAbove"/>
  <tile id="2480" type="dynamicAbove"/>
  <tile id="2481" type="dynamicAbove"/>
  <tile id="2482" type="dynamicAbove"/>
  <tile id="2483" type="dynamicAbove"/>
  <tile id="2484" type="dynamicAbove"/>
  <tile id="2485" type="dynamicAbove"/>
  <tile id="2531" type="dynamicAbove"/>
  <tile id="2532" type="dynamicAbove"/>
  <tile id="2533" type="dynamicAbove"/>
  <tile id="2534" type="dynamicAbove"/>
  <tile id="2535" type="dynamicAbove"/>
  <tile id="2536" type="dynamicAbove"/>
  <tile id="2537" type="dynamicAbove"/>
  <tile id="2538" type="dynamicAbove"/>
  <tile id="2539" type="dynamicAbove"/>
  <tile id="2540" type="dynamicAbove"/>
  <tile id="2541" type="dynamicAbove"/>
  <tile id="2542" type="dynamicAbove"/>
  <tile id="2543" type="dynamicAbove"/>
  <tile id="2544" type="dynamicAbove"/>
  <tile id="2545" type="dynamicAbove"/>
  <tile id="2546" type="dynamicAbove"/>
  <tile id="2547" type="dynamicAbove"/>
  <tile id="2548" type="dynamicAbove"/>
  <tile id="2549" type="dynamicAbove"/>
  <tile id="2595" type="dynamicAbove"/>
  <tile id="2596" type="dynamicAbove"/>
  <tile id="2597" type="dynamicAbove"/>
  <tile id="2598" type="dynamicAbove"/>
  <tile id="2599" type="dynamicAbove"/>
  <tile id="2600" type="dynamicAbove"/>
  <tile id="2601" type="dynamicAbove"/>
  <tile id="2602" type="dynamicAbove"/>
  <tile id="2603" type="dynamicAbove"/>
  <tile id="2604" type="dynamicAbove"/>
  <tile id="2605" type="dynamicAbove"/>
  <tile id="2606" type="dynamicAbove"/>
  <tile id="2607" type="dynamicAbove"/>
  <tile id="2608" type="dynamicAbove"/>
  <tile id="2609" type="dynamicAbove"/>
  <tile id="2610" type="dynamicAbove"/>
  <tile id="2611" type="dynamicAbove"/>
  <tile id="2612" type="dynamicAbove"/>
  <tile id="2613" type="dynamicAbove"/>
  <tile id="2659" type="dynamicAbove"/>
  <tile id="2660" type="dynamicAbove"/>
  <tile id="2661" type="dynamicAbove"/>
  <tile id="2662" type="dynamicAbove"/>
  <tile id="2663" type="dynamicAbove"/>
  <tile id="2664" type="dynamicAbove"/>
  <tile id="2665" type="dynamicAbove"/>
  <tile id="2666" type="dynamicAbove"/>
  <tile id="2667" type="dynamicAbove"/>
  <tile id="2668" type="dynamicAbove"/>
  <tile id="2669" type="dynamicAbove"/>
  <tile id="2670" type="dynamicAbove"/>
  <tile id="2671" type="dynamicAbove"/>
  <tile id="2672" type="dynamicAbove"/>
  <tile id="2673" type="dynamicAbove"/>
  <tile id="2674" type="dynamicAbove"/>
  <tile id="2675" type="dynamicAbove"/>
  <tile id="2676" type="dynamicAbove"/>
  <tile id="2677" type="dynamicAbove"/>
  <tile id="2723" type="dynamicAbove"/>
  <tile id="2724" type="dynamicAbove"/>
  <tile id="2725" type="dynamicAbove"/>
  <tile id="2726" type="dynamicAbove"/>
  <tile id="2727" type="dynamicAbove"/>
  <tile id="2728" type="dynamicAbove"/>
  <tile id="2729" type="dynamicAbove"/>
  <tile id="2730" type="dynamicAbove"/>
  <tile id="2731" type="dynamicAbove"/>
  <tile id="2732" type="dynamicAbove"/>
  <tile id="2733" type="dynamicAbove"/>
  <tile id="2734" type="dynamicAbove"/>
  <tile id="2735" type="dynamicAbove"/>
  <tile id="2736" type="dynamicAbove"/>
  <tile id="2737" type="dynamicAbove"/>
  <tile id="2738" type="dynamicAbove"/>
  <tile id="2739" type="dynamicAbove"/>
  <tile id="2740" type="dynamicAbove"/>
  <tile id="2741" type="dynamicAbove"/>
  <tile id="2787" type="dynamicAbove"/>
  <tile id="2788" type="dynamicAbove"/>
  <tile id="2789" type="dynamicAbove"/>
  <tile id="2790" type="dynamicAbove"/>
  <tile id="2791" type="dynamicAbove"/>
  <tile id="2792" type="dynamicAbove"/>
  <tile id="2793" type="dynamicAbove"/>
  <tile id="2794" type="dynamicAbove"/>
  <tile id="2795" type="dynamicAbove"/>
  <tile id="2796" type="dynamicAbove"/>
  <tile id="2797" type="dynamicAbove"/>
  <tile id="2798" type="dynamicAbove"/>
  <tile id="2799" type="dynamicAbove"/>
  <tile id="2800" type="dynamicAbove"/>
  <tile id="2801" type="dynamicAbove"/>
  <tile id="2802" type="dynamicAbove"/>
  <tile id="2803" type="dynamicAbove"/>
  <tile id="2804" type="dynamicAbove"/>
  <tile id="2805" type="dynamicAbove"/>
  <tile id="2851" type="dynamicAbove"/>
  <tile id="2852" type="dynamicAbove"/>
  <tile id="2853" type="dynamicAbove"/>
  <tile id="2854" type="dynamicAbove"/>
  <tile id="2855" type="dynamicAbove"/>
  <tile id="2856" type="dynamicAbove"/>
  <tile id="2857" type="dynamicAbove"/>
  <tile id="2858" type="dynamicAbove"/>
  <tile id="2859" type="dynamicAbove"/>
  <tile id="2860" type="dynamicAbove"/>
  <tile id="2861" type="dynamicAbove"/>
  <tile id="2862" type="dynamicAbove"/>
  <tile id="2863" type="dynamicAbove"/>
  <tile id="2864" type="dynamicAbove"/>
  <tile id="2865" type="dynamicAbove"/>
  <tile id="2866" type="dynamicAbove"/>
  <tile id="2867" type="dynamicAbove"/>
  <tile id="2868" type="dynamicAbove"/>
  <tile id="2869" type="dynamicAbove"/>
  <tile id="2915" type="dynamicAbove"/>
  <tile id="2916" type="dynamicAbove"/>
  <tile id="2917" type="dynamicAbove"/>
  <tile id="2918" type="dynamicAbove"/>
  <tile id="2919" type="dynamicAbove"/>
  <tile id="2920" type="dynamicAbove"/>
  <tile id="2921" type="dynamicAbove"/>
  <tile id="2922" type="dynamicAbove"/>
  <tile id="2923" type="dynamicAbove"/>
  <tile id="2924" type="dynamicAbove"/>
  <tile id="2925" type="dynamicAbove"/>
  <tile id="2926" type="dynamicAbove"/>
  <tile id="2927" type="dynamicAbove"/>
  <tile id="2928" type="dynamicAbove"/>
  <tile id="2929" type="dynamicAbove"/>
  <tile id="2930" type="dynamicAbove"/>
  <tile id="2931" type="dynamicAbove"/>
  <tile id="2932" type="dynamicAbove"/>
  <tile id="2933" type="dynamicAbove"/>
  <tile id="2979" type="dynamicAbove"/>
  <tile id="2980" type="dynamicAbove"/>
  <tile id="2981" type="dynamicAbove"/>
  <tile id="2982" type="dynamicAbove"/>
  <tile id="2983" type="dynamicAbove"/>
  <tile id="2984" type="dynamicAbove"/>
  <tile id="2985" type="dynamicAbove"/>
  <tile id="2986" type="dynamicAbove"/>
  <tile id="2987" type="dynamicAbove"/>
  <tile id="2988" type="dynamicAbove"/>
  <tile id="2989" type="dynamicAbove"/>
  <tile id="2990" type="dynamicAbove"/>
  <tile id="2991" type="dynamicAbove"/>
  <tile id="2992" type="dynamicAbove"/>
  <tile id="2993" type="dynamicAbove"/>
  <tile id="2994" type="dynamicAbove"/>
  <tile id="2995" type="dynamicAbove"/>
  <tile id="2996" type="dynamicAbove"/>
  <tile id="2997" type="dynamicAbove"/>
  <tile id="3043" type="dynamicAbove"/>
  <tile id="3044" type="dynamicAbove"/>
  <tile id="3045" type="dynamicAbove"/>
  <tile id="3046" type="dynamicAbove"/>
  <tile id="3047" type="dynamicAbove"/>
  <tile id="3048" type="dynamicAbove"/>
  <tile id="3049" type="dynamicAbove"/>
  <tile id="3050" type="dynamicAbove"/>
  <tile id="3051" type="dynamicAbove"/>
  <tile id="3052" type="dynamicAbove"/>
  <tile id="3053" type="dynamicAbove"/>
  <tile id="3054" type="dynamicAbove"/>
  <tile id="3055" type="dynamicAbove"/>
  <tile id="3056" type="dynamicAbove"/>
  <tile id="3057" type="dynamicAbove"/>
  <tile id="3058" type="dynamicAbove"/>
  <tile id="3059" type="dynamicAbove"/>
  <tile id="3060" type="dynamicAbove"/>
  <tile id="3061" type="dynamicAbove"/>
 </tileset>
 <tileset firstgid="15153" name="props(as sprites)" tilewidth="224" tileheight="192" tilecount="271" columns="0">
  <grid orientation="orthogonal" width="1" height="1"/>
  <tile id="0">
   <image source="tiled/ERW - The Village/tilesets and props/props-sprites/barrels_0.png" width="32" height="64"/>
  </tile>
  <tile id="1">
   <image source="tiled/ERW - The Village/tilesets and props/props-sprites/barrels_1.png" width="32" height="64"/>
  </tile>
  <tile id="2">
   <image source="tiled/ERW - The Village/tilesets and props/props-sprites/barrels_2.png" width="32" height="64"/>
  </tile>
  <tile id="3">
   <image source="tiled/ERW - The Village/tilesets and props/props-sprites/barrels_3.png" width="32" height="64"/>
  </tile>
  <tile id="4">
   <image source="tiled/ERW - The Village/tilesets and props/props-sprites/barrels_4.png" width="32" height="64"/>
  </tile>
  <tile id="5">
   <image source="tiled/ERW - The Village/tilesets and props/props-sprites/barrels_5.png" width="32" height="64"/>
  </tile>
  <tile id="6">
   <image source="tiled/ERW - The Village/tilesets and props/props-sprites/barrels_6.png" width="32" height="64"/>
  </tile>
  <tile id="7">
   <image source="tiled/ERW - The Village/tilesets and props/props-sprites/barrels_7.png" width="32" height="64"/>
  </tile>
  <tile id="8">
   <image source="tiled/ERW - The Village/tilesets and props/props-sprites/barrels_8.png" width="32" height="64"/>
  </tile>
  <tile id="9">
   <image source="tiled/ERW - The Village/tilesets and props/props-sprites/barrels_9.png" width="32" height="64"/>
  </tile>
  <tile id="10">
   <image source="tiled/ERW - The Village/tilesets and props/props-sprites/barrels_10.png" width="32" height="64"/>
  </tile>
  <tile id="11">
   <image source="tiled/ERW - The Village/tilesets and props/props-sprites/barrels_11.png" width="32" height="64"/>
  </tile>
  <tile id="12">
   <image source="tiled/ERW - The Village/tilesets and props/props-sprites/barrels_12.png" width="32" height="64"/>
  </tile>
  <tile id="13">
   <image source="tiled/ERW - The Village/tilesets and props/props-sprites/barrels_13.png" width="32" height="64"/>
  </tile>
  <tile id="14">
   <image source="tiled/ERW - The Village/tilesets and props/props-sprites/barrels_14.png" width="32" height="64"/>
  </tile>
  <tile id="15">
   <image source="tiled/ERW - The Village/tilesets and props/props-sprites/barrels_15.png" width="32" height="64"/>
  </tile>
  <tile id="16">
   <image source="tiled/ERW - The Village/tilesets and props/props-sprites/barrels_16.png" width="32" height="64"/>
  </tile>
  <tile id="17">
   <image source="tiled/ERW - The Village/tilesets and props/props-sprites/barrels_17.png" width="32" height="32"/>
  </tile>
  <tile id="18">
   <image source="tiled/ERW - The Village/tilesets and props/props-sprites/barrels_18.png" width="32" height="32"/>
  </tile>
  <tile id="19">
   <image source="tiled/ERW - The Village/tilesets and props/props-sprites/barrels_19.png" width="32" height="32"/>
  </tile>
  <tile id="20">
   <image source="tiled/ERW - The Village/tilesets and props/props-sprites/barrels-pack_0.png" width="64" height="64"/>
  </tile>
  <tile id="21">
   <image source="tiled/ERW - The Village/tilesets and props/props-sprites/barrels-pack_1.png" width="96" height="64"/>
  </tile>
  <tile id="22">
   <image source="tiled/ERW - The Village/tilesets and props/props-sprites/barrels-pack_2.png" width="96" height="64"/>
  </tile>
  <tile id="23">
   <image source="tiled/ERW - The Village/tilesets and props/props-sprites/barrels-pack_3.png" width="64" height="64"/>
  </tile>
  <tile id="24">
   <image source="tiled/ERW - The Village/tilesets and props/props-sprites/barrels-pack_4.png" width="96" height="64"/>
  </tile>
  <tile id="25">
   <image source="tiled/ERW - The Village/tilesets and props/props-sprites/barrels-pack_5.png" width="64" height="64"/>
  </tile>
  <tile id="26">
   <image source="tiled/ERW - The Village/tilesets and props/props-sprites/bucket1.png" width="32" height="32"/>
  </tile>
  <tile id="27">
   <image source="tiled/ERW - The Village/tilesets and props/props-sprites/bucket2.png" width="32" height="32"/>
  </tile>
  <tile id="28">
   <image source="tiled/ERW - The Village/tilesets and props/props-sprites/bucket3.png" width="32" height="32"/>
  </tile>
  <tile id="29">
   <image source="tiled/ERW - The Village/tilesets and props/props-sprites/bucket4.png" width="32" height="32"/>
  </tile>
  <tile id="30">
   <image source="tiled/ERW - The Village/tilesets and props/props-sprites/clothes-line_0.png" width="96" height="64"/>
  </tile>
  <tile id="31">
   <image source="tiled/ERW - The Village/tilesets and props/props-sprites/clothes-line_1.png" width="96" height="64"/>
  </tile>
  <tile id="32">
   <image source="tiled/ERW - The Village/tilesets and props/props-sprites/clothes-line_14.png" width="96" height="64"/>
  </tile>
  <tile id="33">
   <image source="tiled/ERW - The Village/tilesets and props/props-sprites/clothes-line_15.png" width="96" height="64"/>
  </tile>
  <tile id="34">
   <image source="tiled/ERW - The Village/tilesets and props/props-sprites/clothes-line_16.png" width="96" height="64"/>
  </tile>
  <tile id="35">
   <image source="tiled/ERW - The Village/tilesets and props/props-sprites/clothes-line_17.png" width="96" height="64"/>
  </tile>
  <tile id="36">
   <image source="tiled/ERW - The Village/tilesets and props/props-sprites/cloths_0.png" width="32" height="32"/>
  </tile>
  <tile id="37">
   <image source="tiled/ERW - The Village/tilesets and props/props-sprites/cloths_1.png" width="32" height="32"/>
  </tile>
  <tile id="38">
   <image source="tiled/ERW - The Village/tilesets and props/props-sprites/cloths_2.png" width="32" height="32"/>
  </tile>
  <tile id="39">
   <image source="tiled/ERW - The Village/tilesets and props/props-sprites/cloths_3.png" width="32" height="32"/>
  </tile>
  <tile id="40">
   <image source="tiled/ERW - The Village/tilesets and props/props-sprites/cloths_4.png" width="32" height="32"/>
  </tile>
  <tile id="41">
   <image source="tiled/ERW - The Village/tilesets and props/props-sprites/cloths_5.png" width="32" height="32"/>
  </tile>
  <tile id="42">
   <image source="tiled/ERW - The Village/tilesets and props/props-sprites/cloths_6.png" width="32" height="32"/>
  </tile>
  <tile id="43">
   <image source="tiled/ERW - The Village/tilesets and props/props-sprites/cloths_7.png" width="32" height="32"/>
  </tile>
  <tile id="44">
   <image source="tiled/ERW - The Village/tilesets and props/props-sprites/crates_0.png" width="32" height="32"/>
  </tile>
  <tile id="45">
   <image source="tiled/ERW - The Village/tilesets and props/props-sprites/crates_1.png" width="32" height="32"/>
  </tile>
  <tile id="46">
   <image source="tiled/ERW - The Village/tilesets and props/props-sprites/crates_2.png" width="32" height="32"/>
  </tile>
  <tile id="47">
   <image source="tiled/ERW - The Village/tilesets and props/props-sprites/crates_3.png" width="32" height="32"/>
  </tile>
  <tile id="48">
   <image source="tiled/ERW - The Village/tilesets and props/props-sprites/crates_4.png" width="32" height="32"/>
  </tile>
  <tile id="49">
   <image source="tiled/ERW - The Village/tilesets and props/props-sprites/crates_5.png" width="32" height="32"/>
  </tile>
  <tile id="50">
   <image source="tiled/ERW - The Village/tilesets and props/props-sprites/crates_6.png" width="32" height="32"/>
  </tile>
  <tile id="51">
   <image source="tiled/ERW - The Village/tilesets and props/props-sprites/crates_7.png" width="32" height="32"/>
  </tile>
  <tile id="52">
   <image source="tiled/ERW - The Village/tilesets and props/props-sprites/crates_8.png" width="32" height="32"/>
  </tile>
  <tile id="53">
   <image source="tiled/ERW - The Village/tilesets and props/props-sprites/crates_9.png" width="32" height="32"/>
  </tile>
  <tile id="54">
   <image source="tiled/ERW - The Village/tilesets and props/props-sprites/crates_10.png" width="32" height="32"/>
  </tile>
  <tile id="55">
   <image source="tiled/ERW - The Village/tilesets and props/props-sprites/crates_11.png" width="32" height="32"/>
  </tile>
  <tile id="56">
   <image source="tiled/ERW - The Village/tilesets and props/props-sprites/crates-pack_0.png" width="64" height="64"/>
  </tile>
  <tile id="57">
   <image source="tiled/ERW - The Village/tilesets and props/props-sprites/crates-pack_1.png" width="64" height="64"/>
  </tile>
  <tile id="58">
   <image source="tiled/ERW - The Village/tilesets and props/props-sprites/crates-pack_2.png" width="96" height="64"/>
  </tile>
  <tile id="59">
   <image source="tiled/ERW - The Village/tilesets and props/props-sprites/crates-pack_3.png" width="96" height="64"/>
  </tile>
  <tile id="60">
   <image source="tiled/ERW - The Village/tilesets and props/props-sprites/crates-pack_4.png" width="64" height="96"/>
  </tile>
  <tile id="61">
   <image source="tiled/ERW - The Village/tilesets and props/props-sprites/crates-pack_5.png" width="96" height="96"/>
  </tile>
  <tile id="62">
   <image source="tiled/ERW - The Village/tilesets and props/props-sprites/crates-pack_6.png" width="96" height="64"/>
  </tile>
  <tile id="63">
   <image source="tiled/ERW - The Village/tilesets and props/props-sprites/crates-pack_7.png" width="64" height="64"/>
  </tile>
  <tile id="64">
   <image source="tiled/ERW - The Village/tilesets and props/props-sprites/grain-crate_0.png" width="64" height="64"/>
  </tile>
  <tile id="65">
   <image source="tiled/ERW - The Village/tilesets and props/props-sprites/grain-crate_1.png" width="32" height="32"/>
  </tile>
  <tile id="66">
   <image source="tiled/ERW - The Village/tilesets and props/props-sprites/grain-crate_2.png" width="32" height="32"/>
  </tile>
  <tile id="67">
   <image source="tiled/ERW - The Village/tilesets and props/props-sprites/grain-crate_3.png" width="32" height="64"/>
  </tile>
  <tile id="68">
   <image source="tiled/ERW - The Village/tilesets and props/props-sprites/grain-crate_4.png" width="32" height="64"/>
  </tile>
  <tile id="69">
   <image source="tiled/ERW - The Village/tilesets and props/props-sprites/grain-crate_5.png" width="64" height="64"/>
  </tile>
  <tile id="70">
   <image source="tiled/ERW - The Village/tilesets and props/props-sprites/grain-sacks_0.png" width="32" height="32"/>
  </tile>
  <tile id="71">
   <image source="tiled/ERW - The Village/tilesets and props/props-sprites/grain-sacks_1.png" width="32" height="32"/>
  </tile>
  <tile id="72">
   <image source="tiled/ERW - The Village/tilesets and props/props-sprites/grain-sacks_2.png" width="32" height="32"/>
  </tile>
  <tile id="73">
   <image source="tiled/ERW - The Village/tilesets and props/props-sprites/grain-sacks-pack_0.png" width="64" height="64"/>
  </tile>
  <tile id="74">
   <image source="tiled/ERW - The Village/tilesets and props/props-sprites/grain-sacks-pack_1.png" width="64" height="64"/>
  </tile>
  <tile id="75">
   <image source="tiled/ERW - The Village/tilesets and props/props-sprites/grain-sacks-pack_2.png" width="64" height="64"/>
  </tile>
  <tile id="76">
   <image source="tiled/ERW - The Village/tilesets and props/props-sprites/grain-sacks-pack_3.png" width="64" height="64"/>
  </tile>
  <tile id="77">
   <image source="tiled/ERW - The Village/tilesets and props/props-sprites/grain-sacks-pack_4.png" width="64" height="64"/>
  </tile>
  <tile id="78">
   <image source="tiled/ERW - The Village/tilesets and props/props-sprites/hay_0.png" width="32" height="32"/>
  </tile>
  <tile id="79">
   <image source="tiled/ERW - The Village/tilesets and props/props-sprites/hay_1.png" width="32" height="32"/>
  </tile>
  <tile id="80">
   <image source="tiled/ERW - The Village/tilesets and props/props-sprites/hay_2.png" width="32" height="32"/>
  </tile>
  <tile id="81">
   <image source="tiled/ERW - The Village/tilesets and props/props-sprites/hay_3.png" width="32" height="32"/>
  </tile>
  <tile id="82">
   <image source="tiled/ERW - The Village/tilesets and props/props-sprites/hay_4.png" width="64" height="32"/>
  </tile>
  <tile id="83">
   <image source="tiled/ERW - The Village/tilesets and props/props-sprites/hay_5.png" width="32" height="32"/>
  </tile>
  <tile id="84">
   <image source="tiled/ERW - The Village/tilesets and props/props-sprites/hay_6.png" width="64" height="32"/>
  </tile>
  <tile id="85">
   <image source="tiled/ERW - The Village/tilesets and props/props-sprites/hay_7.png" width="32" height="32"/>
  </tile>
  <tile id="86">
   <image source="tiled/ERW - The Village/tilesets and props/props-sprites/hay_8.png" width="32" height="64"/>
  </tile>
  <tile id="87">
   <image source="tiled/ERW - The Village/tilesets and props/props-sprites/hay_9.png" width="32" height="32"/>
  </tile>
  <tile id="88">
   <image source="tiled/ERW - The Village/tilesets and props/props-sprites/lamp-post1.png" width="64" height="96"/>
  </tile>
  <tile id="89">
   <image source="tiled/ERW - The Village/tilesets and props/props-sprites/lamp-post2.png" width="64" height="96"/>
  </tile>
  <tile id="90">
   <image source="tiled/ERW - The Village/tilesets and props/props-sprites/logs_0.png" width="32" height="64"/>
  </tile>
  <tile id="91">
   <image source="tiled/ERW - The Village/tilesets and props/props-sprites/logs_1.png" width="32" height="64"/>
  </tile>
  <tile id="92">
   <image source="tiled/ERW - The Village/tilesets and props/props-sprites/logs_2.png" width="64" height="64"/>
  </tile>
  <tile id="93">
   <image source="tiled/ERW - The Village/tilesets and props/props-sprites/logs_3.png" width="64" height="64"/>
  </tile>
  <tile id="94">
   <image source="tiled/ERW - The Village/tilesets and props/props-sprites/logs_4.png" width="64" height="64"/>
  </tile>
  <tile id="95">
   <image source="tiled/ERW - The Village/tilesets and props/props-sprites/logs_5.png" width="64" height="64"/>
  </tile>
  <tile id="96">
   <image source="tiled/ERW - The Village/tilesets and props/props-sprites/logs_6.png" width="64" height="64"/>
  </tile>
  <tile id="97">
   <image source="tiled/ERW - The Village/tilesets and props/props-sprites/logs_7.png" width="64" height="64"/>
  </tile>
  <tile id="98">
   <image source="tiled/ERW - The Village/tilesets and props/props-sprites/logs_8.png" width="64" height="32"/>
  </tile>
  <tile id="99">
   <image source="tiled/ERW - The Village/tilesets and props/props-sprites/logs_9.png" width="64" height="32"/>
  </tile>
  <tile id="100">
   <image source="tiled/ERW - The Village/tilesets and props/props-sprites/logs_10.png" width="32" height="32"/>
  </tile>
  <tile id="101">
   <image source="tiled/ERW - The Village/tilesets and props/props-sprites/logs_11.png" width="32" height="32"/>
  </tile>
  <tile id="102">
   <image source="tiled/ERW - The Village/tilesets and props/props-sprites/logs_12.png" width="32" height="32"/>
  </tile>
  <tile id="103">
   <image source="tiled/ERW - The Village/tilesets and props/props-sprites/logs_13.png" width="32" height="32"/>
  </tile>
  <tile id="104">
   <image source="tiled/ERW - The Village/tilesets and props/props-sprites/mail_0.png" width="32" height="64"/>
  </tile>
  <tile id="105">
   <image source="tiled/ERW - The Village/tilesets and props/props-sprites/mail_1.png" width="32" height="64"/>
  </tile>
  <tile id="106">
   <image source="tiled/ERW - The Village/tilesets and props/props-sprites/mail_2.png" width="32" height="64"/>
  </tile>
  <tile id="107">
   <image source="tiled/ERW - The Village/tilesets and props/props-sprites/pennant-bunting_0.png" width="160" height="64"/>
  </tile>
  <tile id="108">
   <image source="tiled/ERW - The Village/tilesets and props/props-sprites/pennant-bunting_1.png" width="160" height="32"/>
  </tile>
  <tile id="109">
   <image source="tiled/ERW - The Village/tilesets and props/props-sprites/pennant-bunting_2.png" width="224" height="32"/>
  </tile>
  <tile id="110">
   <image source="tiled/ERW - The Village/tilesets and props/props-sprites/pennant-bunting_3.png" width="128" height="64"/>
  </tile>
  <tile id="111">
   <image source="tiled/ERW - The Village/tilesets and props/props-sprites/pennant-bunting_4.png" width="160" height="64"/>
  </tile>
  <tile id="112">
   <image source="tiled/ERW - The Village/tilesets and props/props-sprites/pine-tree_0.png" width="128" height="192"/>
  </tile>
  <tile id="113">
   <image source="tiled/ERW - The Village/tilesets and props/props-sprites/pine-tree_1.png" width="128" height="192"/>
  </tile>
  <tile id="114">
   <image source="tiled/ERW - The Village/tilesets and props/props-sprites/pine-tree_2.png" width="128" height="192"/>
  </tile>
  <tile id="115">
   <image source="tiled/ERW - The Village/tilesets and props/props-sprites/pine-tree_3.png" width="128" height="160"/>
  </tile>
  <tile id="116">
   <image source="tiled/ERW - The Village/tilesets and props/props-sprites/pine-tree_4.png" width="128" height="160"/>
  </tile>
  <tile id="117">
   <image source="tiled/ERW - The Village/tilesets and props/props-sprites/pine-tree_5.png" width="128" height="160"/>
  </tile>
  <tile id="118">
   <image source="tiled/ERW - The Village/tilesets and props/props-sprites/pine-tree_6.png" width="128" height="160"/>
  </tile>
  <tile id="119">
   <image source="tiled/ERW - The Village/tilesets and props/props-sprites/pine-tree_7.png" width="128" height="160"/>
  </tile>
  <tile id="120">
   <image source="tiled/ERW - The Village/tilesets and props/props-sprites/pine-tree_8.png" width="128" height="160"/>
  </tile>
  <tile id="121">
   <image source="tiled/ERW - The Village/tilesets and props/props-sprites/pine-tree_9.png" width="128" height="128"/>
  </tile>
  <tile id="122">
   <image source="tiled/ERW - The Village/tilesets and props/props-sprites/pine-tree_10.png" width="128" height="128"/>
  </tile>
  <tile id="123">
   <image source="tiled/ERW - The Village/tilesets and props/props-sprites/pine-tree_11.png" width="128" height="128"/>
  </tile>
  <tile id="124">
   <image source="tiled/ERW - The Village/tilesets and props/props-sprites/pine-tree_12.png" width="64" height="64"/>
  </tile>
  <tile id="125">
   <image source="tiled/ERW - The Village/tilesets and props/props-sprites/pine-tree-shadow1.png" width="128" height="64"/>
  </tile>
  <tile id="126">
   <image source="tiled/ERW - The Village/tilesets and props/props-sprites/pine-tree-shadow2.png" width="128" height="64"/>
  </tile>
  <tile id="127">
   <image source="tiled/ERW - The Village/tilesets and props/props-sprites/pot_0.png" width="32" height="32"/>
  </tile>
  <tile id="128">
   <image source="tiled/ERW - The Village/tilesets and props/props-sprites/pot_1.png" width="32" height="32"/>
  </tile>
  <tile id="129">
   <image source="tiled/ERW - The Village/tilesets and props/props-sprites/pot_2.png" width="32" height="32"/>
  </tile>
  <tile id="130">
   <image source="tiled/ERW - The Village/tilesets and props/props-sprites/pot_3.png" width="32" height="32"/>
  </tile>
  <tile id="131">
   <image source="tiled/ERW - The Village/tilesets and props/props-sprites/pot_4.png" width="32" height="32"/>
  </tile>
  <tile id="132">
   <image source="tiled/ERW - The Village/tilesets and props/props-sprites/pot_5.png" width="32" height="32"/>
  </tile>
  <tile id="133">
   <image source="tiled/ERW - The Village/tilesets and props/props-sprites/pot_6.png" width="32" height="32"/>
  </tile>
  <tile id="134">
   <image source="tiled/ERW - The Village/tilesets and props/props-sprites/pot_7.png" width="32" height="32"/>
  </tile>
  <tile id="135">
   <image source="tiled/ERW - The Village/tilesets and props/props-sprites/pot_8.png" width="32" height="32"/>
  </tile>
  <tile id="136">
   <image source="tiled/ERW - The Village/tilesets and props/props-sprites/pot_9.png" width="32" height="32"/>
  </tile>
  <tile id="137">
   <image source="tiled/ERW - The Village/tilesets and props/props-sprites/pot_10.png" width="32" height="32"/>
  </tile>
  <tile id="138">
   <image source="tiled/ERW - The Village/tilesets and props/props-sprites/pot_11.png" width="32" height="32"/>
  </tile>
  <tile id="139">
   <image source="tiled/ERW - The Village/tilesets and props/props-sprites/potted-1plant_0.png" width="32" height="64"/>
  </tile>
  <tile id="140">
   <image source="tiled/ERW - The Village/tilesets and props/props-sprites/potted-1plant_1.png" width="32" height="64"/>
  </tile>
  <tile id="141">
   <image source="tiled/ERW - The Village/tilesets and props/props-sprites/potted-1plant_2.png" width="32" height="64"/>
  </tile>
  <tile id="142">
   <image source="tiled/ERW - The Village/tilesets and props/props-sprites/potted-1plant_3.png" width="32" height="64"/>
  </tile>
  <tile id="143">
   <image source="tiled/ERW - The Village/tilesets and props/props-sprites/potted-1plant_4.png" width="32" height="64"/>
  </tile>
  <tile id="144">
   <image source="tiled/ERW - The Village/tilesets and props/props-sprites/potted-1plant_5.png" width="32" height="64"/>
  </tile>
  <tile id="145">
   <image source="tiled/ERW - The Village/tilesets and props/props-sprites/potted-1plant_6.png" width="32" height="64"/>
  </tile>
  <tile id="146">
   <image source="tiled/ERW - The Village/tilesets and props/props-sprites/potted-1plant_7.png" width="32" height="64"/>
  </tile>
  <tile id="147">
   <image source="tiled/ERW - The Village/tilesets and props/props-sprites/potted-1plant_8.png" width="64" height="64"/>
  </tile>
  <tile id="148">
   <image source="tiled/ERW - The Village/tilesets and props/props-sprites/potted-9plant_9.png" width="64" height="64"/>
  </tile>
  <tile id="149">
   <image source="tiled/ERW - The Village/tilesets and props/props-sprites/potted-flower_0.png" width="32" height="32"/>
  </tile>
  <tile id="150">
   <image source="tiled/ERW - The Village/tilesets and props/props-sprites/potted-flower_1.png" width="32" height="32"/>
  </tile>
  <tile id="151">
   <image source="tiled/ERW - The Village/tilesets and props/props-sprites/potted-flower_2.png" width="32" height="32"/>
  </tile>
  <tile id="152">
   <image source="tiled/ERW - The Village/tilesets and props/props-sprites/potted-flower_3.png" width="32" height="32"/>
  </tile>
  <tile id="153">
   <image source="tiled/ERW - The Village/tilesets and props/props-sprites/potted-flower_4.png" width="32" height="32"/>
  </tile>
  <tile id="154">
   <image source="tiled/ERW - The Village/tilesets and props/props-sprites/potted-flower_5.png" width="32" height="32"/>
  </tile>
  <tile id="155">
   <image source="tiled/ERW - The Village/tilesets and props/props-sprites/potted-flower_6.png" width="32" height="32"/>
  </tile>
  <tile id="156">
   <image source="tiled/ERW - The Village/tilesets and props/props-sprites/potted-flower_7.png" width="32" height="32"/>
  </tile>
  <tile id="157">
   <image source="tiled/ERW - The Village/tilesets and props/props-sprites/potted-flower_8.png" width="32" height="32"/>
  </tile>
  <tile id="158">
   <image source="tiled/ERW - The Village/tilesets and props/props-sprites/potted-flower_9.png" width="32" height="64"/>
  </tile>
  <tile id="159">
   <image source="tiled/ERW - The Village/tilesets and props/props-sprites/potted-flower_10.png" width="32" height="64"/>
  </tile>
  <tile id="160">
   <image source="tiled/ERW - The Village/tilesets and props/props-sprites/potted-flower_11.png" width="32" height="64"/>
  </tile>
  <tile id="161">
   <image source="tiled/ERW - The Village/tilesets and props/props-sprites/potted-flower_12.png" width="32" height="64"/>
  </tile>
  <tile id="162">
   <image source="tiled/ERW - The Village/tilesets and props/props-sprites/potted-flower_13.png" width="32" height="64"/>
  </tile>
  <tile id="163">
   <image source="tiled/ERW - The Village/tilesets and props/props-sprites/potted-plant_0.png" width="32" height="64"/>
  </tile>
  <tile id="164">
   <image source="tiled/ERW - The Village/tilesets and props/props-sprites/potted-plant_1.png" width="32" height="64"/>
  </tile>
  <tile id="165">
   <image source="tiled/ERW - The Village/tilesets and props/props-sprites/potted-plant_2.png" width="32" height="64"/>
  </tile>
  <tile id="166">
   <image source="tiled/ERW - The Village/tilesets and props/props-sprites/potted-plant_3.png" width="32" height="64"/>
  </tile>
  <tile id="167">
   <image source="tiled/ERW - The Village/tilesets and props/props-sprites/potted-plant_4.png" width="32" height="64"/>
  </tile>
  <tile id="168">
   <image source="tiled/ERW - The Village/tilesets and props/props-sprites/potted-plant_5.png" width="32" height="64"/>
  </tile>
  <tile id="169">
   <image source="tiled/ERW - The Village/tilesets and props/props-sprites/potted-plant_6.png" width="32" height="64"/>
  </tile>
  <tile id="170">
   <image source="tiled/ERW - The Village/tilesets and props/props-sprites/potted-plant_7.png" width="32" height="64"/>
  </tile>
  <tile id="171">
   <image source="tiled/ERW - The Village/tilesets and props/props-sprites/potted-plant_8.png" width="32" height="64"/>
  </tile>
  <tile id="172">
   <image source="tiled/ERW - The Village/tilesets and props/props-sprites/potted-plant_9.png" width="32" height="64"/>
  </tile>
  <tile id="173">
   <image source="tiled/ERW - The Village/tilesets and props/props-sprites/potted-plant_10.png" width="32" height="64"/>
  </tile>
  <tile id="174">
   <image source="tiled/ERW - The Village/tilesets and props/props-sprites/potted-plant_11.png" width="32" height="64"/>
  </tile>
  <tile id="175">
   <image source="tiled/ERW - The Village/tilesets and props/props-sprites/potted-plant_12.png" width="32" height="64"/>
  </tile>
  <tile id="176">
   <image source="tiled/ERW - The Village/tilesets and props/props-sprites/potted-plant_13.png" width="32" height="64"/>
  </tile>
  <tile id="177">
   <image source="tiled/ERW - The Village/tilesets and props/props-sprites/potted-plant_14.png" width="32" height="64"/>
  </tile>
  <tile id="178">
   <image source="tiled/ERW - The Village/tilesets and props/props-sprites/potted-plant_15.png" width="32" height="64"/>
  </tile>
  <tile id="179">
   <image source="tiled/ERW - The Village/tilesets and props/props-sprites/potted-plant_16.png" width="64" height="64"/>
  </tile>
  <tile id="180">
   <image source="tiled/ERW - The Village/tilesets and props/props-sprites/potted-plant_17.png" width="64" height="64"/>
  </tile>
  <tile id="181">
   <image source="tiled/ERW - The Village/tilesets and props/props-sprites/potted-plant_18.png" width="64" height="64"/>
  </tile>
  <tile id="182">
   <image source="tiled/ERW - The Village/tilesets and props/props-sprites/potted-plant_19.png" width="64" height="64"/>
  </tile>
  <tile id="183">
   <image source="tiled/ERW - The Village/tilesets and props/props-sprites/potted-plant-pack_0.png" width="64" height="96"/>
  </tile>
  <tile id="184">
   <image source="tiled/ERW - The Village/tilesets and props/props-sprites/potted-plant-pack_1.png" width="64" height="96"/>
  </tile>
  <tile id="185">
   <image source="tiled/ERW - The Village/tilesets and props/props-sprites/potted-plant-pack_2.png" width="64" height="96"/>
  </tile>
  <tile id="186">
   <image source="tiled/ERW - The Village/tilesets and props/props-sprites/potted-plant-pack_3.png" width="64" height="96"/>
  </tile>
  <tile id="187">
   <image source="tiled/ERW - The Village/tilesets and props/props-sprites/potted-plant-pack_4.png" width="96" height="96"/>
  </tile>
  <tile id="188">
   <image source="tiled/ERW - The Village/tilesets and props/props-sprites/potted-plant-pack_5.png" width="96" height="64"/>
  </tile>
  <tile id="189">
   <image source="tiled/ERW - The Village/tilesets and props/props-sprites/potted-plant-pack_6.png" width="64" height="64"/>
  </tile>
  <tile id="190">
   <image source="tiled/ERW - The Village/tilesets and props/props-sprites/potted-plant-pack_7.png" width="64" height="64"/>
  </tile>
  <tile id="191">
   <image source="tiled/ERW - The Village/tilesets and props/props-sprites/potted-plant-pack_8.png" width="64" height="64"/>
  </tile>
  <tile id="192">
   <image source="tiled/ERW - The Village/tilesets and props/props-sprites/potted-plant-pack_9.png" width="64" height="64"/>
  </tile>
  <tile id="193">
   <image source="tiled/ERW - The Village/tilesets and props/props-sprites/potted-plant-pack_10.png" width="64" height="64"/>
  </tile>
  <tile id="194">
   <image source="tiled/ERW - The Village/tilesets and props/props-sprites/potted-plant-plant-only_0.png" width="32" height="64"/>
  </tile>
  <tile id="195">
   <image source="tiled/ERW - The Village/tilesets and props/props-sprites/potted-plant-plant-only_1.png" width="32" height="64"/>
  </tile>
  <tile id="196">
   <image source="tiled/ERW - The Village/tilesets and props/props-sprites/potted-plant-plant-only_2.png" width="32" height="64"/>
  </tile>
  <tile id="197">
   <image source="tiled/ERW - The Village/tilesets and props/props-sprites/potted-plant-plant-only_3.png" width="32" height="64"/>
  </tile>
  <tile id="198">
   <image source="tiled/ERW - The Village/tilesets and props/props-sprites/potted-plant-plant-only_4.png" width="32" height="64"/>
  </tile>
  <tile id="199">
   <image source="tiled/ERW - The Village/tilesets and props/props-sprites/potted-plant-plant-only_5.png" width="32" height="64"/>
  </tile>
  <tile id="200">
   <image source="tiled/ERW - The Village/tilesets and props/props-sprites/potted-plant-plant-only_6.png" width="32" height="64"/>
  </tile>
  <tile id="201">
   <image source="tiled/ERW - The Village/tilesets and props/props-sprites/potted-plant-plant-only_7.png" width="32" height="64"/>
  </tile>
  <tile id="202">
   <image source="tiled/ERW - The Village/tilesets and props/props-sprites/potted-plant-plant-only_8.png" width="32" height="64"/>
  </tile>
  <tile id="203">
   <image source="tiled/ERW - The Village/tilesets and props/props-sprites/potted-plant-plant-only_9.png" width="32" height="64"/>
  </tile>
  <tile id="204">
   <image source="tiled/ERW - The Village/tilesets and props/props-sprites/potted-plant-plant-only_10.png" width="32" height="64"/>
  </tile>
  <tile id="205">
   <image source="tiled/ERW - The Village/tilesets and props/props-sprites/potted-plant-plant-only_11.png" width="32" height="64"/>
  </tile>
  <tile id="206">
   <image source="tiled/ERW - The Village/tilesets and props/props-sprites/potted-plant-plant-only_12.png" width="32" height="64"/>
  </tile>
  <tile id="207">
   <image source="tiled/ERW - The Village/tilesets and props/props-sprites/potted-plant-plant-only_13.png" width="32" height="64"/>
  </tile>
  <tile id="208">
   <image source="tiled/ERW - The Village/tilesets and props/props-sprites/potted-plant-plant-only_14.png" width="32" height="64"/>
  </tile>
  <tile id="209">
   <image source="tiled/ERW - The Village/tilesets and props/props-sprites/potted-plant-plant-only_15.png" width="32" height="64"/>
  </tile>
  <tile id="210">
   <image source="tiled/ERW - The Village/tilesets and props/props-sprites/potted-plant-plant-only_16.png" width="32" height="64"/>
  </tile>
  <tile id="211">
   <image source="tiled/ERW - The Village/tilesets and props/props-sprites/potted-plant-plant-only_17.png" width="32" height="64"/>
  </tile>
  <tile id="212">
   <image source="tiled/ERW - The Village/tilesets and props/props-sprites/potted-plant-plant-only_18.png" width="32" height="64"/>
  </tile>
  <tile id="213">
   <image source="tiled/ERW - The Village/tilesets and props/props-sprites/potted-plant-plant-only_19.png" width="32" height="64"/>
  </tile>
  <tile id="214">
   <image source="tiled/ERW - The Village/tilesets and props/props-sprites/potted-plant-plant-only_20.png" width="32" height="64"/>
  </tile>
  <tile id="215">
   <image source="tiled/ERW - The Village/tilesets and props/props-sprites/potted-plant-plant-only_21.png" width="32" height="64"/>
  </tile>
  <tile id="216">
   <image source="tiled/ERW - The Village/tilesets and props/props-sprites/potted-plant-plant-only_22.png" width="32" height="64"/>
  </tile>
  <tile id="217">
   <image source="tiled/ERW - The Village/tilesets and props/props-sprites/potted-plant-plant-only_23.png" width="32" height="64"/>
  </tile>
  <tile id="218">
   <image source="tiled/ERW - The Village/tilesets and props/props-sprites/potted-plant-plant-only_24.png" width="64" height="64"/>
  </tile>
  <tile id="219">
   <image source="tiled/ERW - The Village/tilesets and props/props-sprites/potted-plant-plant-only_25.png" width="64" height="64"/>
  </tile>
  <tile id="220">
   <image source="tiled/ERW - The Village/tilesets and props/props-sprites/potted-plant-plant-only_26.png" width="64" height="64"/>
  </tile>
  <tile id="221">
   <image source="tiled/ERW - The Village/tilesets and props/props-sprites/potted-plant-plant-only_27.png" width="64" height="64"/>
  </tile>
  <tile id="222">
   <image source="tiled/ERW - The Village/tilesets and props/props-sprites/potted-plant-plant-only_28.png" width="64" height="64"/>
  </tile>
  <tile id="223">
   <image source="tiled/ERW - The Village/tilesets and props/props-sprites/potted-plant-plant-only_29.png" width="64" height="64"/>
  </tile>
  <tile id="225">
   <image source="tiled/ERW - The Village/tilesets and props/props-sprites/quest-2board_0.png" width="64" height="64"/>
  </tile>
  <tile id="226">
   <image source="tiled/ERW - The Village/tilesets and props/props-sprites/quest-2board_1.png" width="64" height="64"/>
  </tile>
  <tile id="227">
   <image source="tiled/ERW - The Village/tilesets and props/props-sprites/quest-2board_2.png" width="64" height="64"/>
  </tile>
  <tile id="228">
   <image source="tiled/ERW - The Village/tilesets and props/props-sprites/quest-2board_3.png" width="64" height="64"/>
  </tile>
  <tile id="229">
   <image source="tiled/ERW - The Village/tilesets and props/props-sprites/quest-2board_4.png" width="64" height="64"/>
  </tile>
  <tile id="230">
   <image source="tiled/ERW - The Village/tilesets and props/props-sprites/questboard_1.png" width="64" height="64"/>
  </tile>
  <tile id="231">
   <image source="tiled/ERW - The Village/tilesets and props/props-sprites/questboard_2.png" width="64" height="64"/>
  </tile>
  <tile id="232">
   <image source="tiled/ERW - The Village/tilesets and props/props-sprites/questboard_3.png" width="64" height="64"/>
  </tile>
  <tile id="233">
   <image source="tiled/ERW - The Village/tilesets and props/props-sprites/questboard_4.png" width="64" height="64"/>
  </tile>
  <tile id="234">
   <image source="tiled/ERW - The Village/tilesets and props/props-sprites/questboard_papers_1.png" width="64" height="32"/>
  </tile>
  <tile id="235">
   <image source="tiled/ERW - The Village/tilesets and props/props-sprites/questboard_papers_2.png" width="32" height="32"/>
  </tile>
  <tile id="236">
   <image source="tiled/ERW - The Village/tilesets and props/props-sprites/questboard_papers_3.png" width="32" height="32"/>
  </tile>
  <tile id="237">
   <image source="tiled/ERW - The Village/tilesets and props/props-sprites/questboard_papers_4.png" width="32" height="32"/>
  </tile>
  <tile id="238">
   <image source="tiled/ERW - The Village/tilesets and props/props-sprites/questboard_papers_5.png" width="32" height="32"/>
  </tile>
  <tile id="239">
   <image source="tiled/ERW - The Village/tilesets and props/props-sprites/questboard_papers_6.png" width="64" height="32"/>
  </tile>
  <tile id="240">
   <image source="tiled/ERW - The Village/tilesets and props/props-sprites/table1.png" width="160" height="128"/>
  </tile>
  <tile id="241">
   <image source="tiled/ERW - The Village/tilesets and props/props-sprites/table--1.png" width="96" height="64"/>
  </tile>
  <tile id="242">
   <image source="tiled/ERW - The Village/tilesets and props/props-sprites/table2.png" width="96" height="64"/>
  </tile>
  <tile id="243">
   <image source="tiled/ERW - The Village/tilesets and props/props-sprites/table--2.png" width="96" height="64"/>
  </tile>
  <tile id="244">
   <image source="tiled/ERW - The Village/tilesets and props/props-sprites/table3.png" width="128" height="96"/>
  </tile>
  <tile id="245">
   <image source="tiled/ERW - The Village/tilesets and props/props-sprites/table--3.png" width="96" height="64"/>
  </tile>
  <tile id="246">
   <image source="tiled/ERW - The Village/tilesets and props/props-sprites/table4.png" width="96" height="64"/>
  </tile>
  <tile id="247">
   <image source="tiled/ERW - The Village/tilesets and props/props-sprites/table--4.png" width="96" height="64"/>
  </tile>
  <tile id="248">
   <image source="tiled/ERW - The Village/tilesets and props/props-sprites/table-bench1.png" width="32" height="32"/>
  </tile>
  <tile id="249">
   <image source="tiled/ERW - The Village/tilesets and props/props-sprites/table-bench2.png" width="32" height="32"/>
  </tile>
  <tile id="250">
   <image source="tiled/ERW - The Village/tilesets and props/props-sprites/towel_0.png" width="32" height="32"/>
  </tile>
  <tile id="251">
   <image source="tiled/ERW - The Village/tilesets and props/props-sprites/towel_1.png" width="32" height="32"/>
  </tile>
  <tile id="252">
   <image source="tiled/ERW - The Village/tilesets and props/props-sprites/towel_2.png" width="32" height="32"/>
  </tile>
  <tile id="253">
   <image source="tiled/ERW - The Village/tilesets and props/props-sprites/towel_3.png" width="32" height="32"/>
  </tile>
  <tile id="254">
   <image source="tiled/ERW - The Village/tilesets and props/props-sprites/towel_4.png" width="32" height="32"/>
  </tile>
  <tile id="255">
   <image source="tiled/ERW - The Village/tilesets and props/props-sprites/towel_5.png" width="32" height="32"/>
  </tile>
  <tile id="256">
   <image source="tiled/ERW - The Village/tilesets and props/props-sprites/towel_6.png" width="32" height="32"/>
  </tile>
  <tile id="257">
   <image source="tiled/ERW - The Village/tilesets and props/props-sprites/towel_7.png" width="32" height="32"/>
  </tile>
  <tile id="258">
   <image source="tiled/ERW - The Village/tilesets and props/props-sprites/tufts-of-grass_0.png" width="64" height="32"/>
  </tile>
  <tile id="259">
   <image source="tiled/ERW - The Village/tilesets and props/props-sprites/tufts-of-grass_1.png" width="32" height="32"/>
  </tile>
  <tile id="260">
   <image source="tiled/ERW - The Village/tilesets and props/props-sprites/tufts-of-grass_2.png" width="96" height="32"/>
  </tile>
  <tile id="261">
   <image source="tiled/ERW - The Village/tilesets and props/props-sprites/tufts-of-grass_3.png" width="32" height="32"/>
  </tile>
  <tile id="262">
   <image source="tiled/ERW - The Village/tilesets and props/props-sprites/tufts-of-grass_4.png" width="32" height="32"/>
  </tile>
  <tile id="263">
   <image source="tiled/ERW - The Village/tilesets and props/props-sprites/tufts-of-grass_5.png" width="32" height="32"/>
  </tile>
  <tile id="264">
   <image source="tiled/ERW - The Village/tilesets and props/props-sprites/tufts-of-grass_6.png" width="32" height="32"/>
  </tile>
  <tile id="265">
   <image source="tiled/ERW - The Village/tilesets and props/props-sprites/tufts-of-grass_7.png" width="32" height="32"/>
  </tile>
  <tile id="266">
   <image source="tiled/ERW - The Village/tilesets and props/props-sprites/tufts-of-grass_8.png" width="64" height="32"/>
  </tile>
  <tile id="267">
   <image source="tiled/ERW - The Village/tilesets and props/props-sprites/tufts-of-grass_9.png" width="64" height="32"/>
  </tile>
  <tile id="268">
   <image source="tiled/ERW - The Village/tilesets and props/props-sprites/washbasin1.png" width="32" height="32"/>
  </tile>
  <tile id="269">
   <image source="tiled/ERW - The Village/tilesets and props/props-sprites/washbasin2.png" width="32" height="32"/>
  </tile>
  <tile id="270">
   <image source="tiled/ERW - The Village/tilesets and props/props-sprites/washbasin3.png" width="32" height="32"/>
  </tile>
  <tile id="271">
   <image source="tiled/ERW - The Village/tilesets and props/props-sprites/washbasin4.png" width="32" height="32"/>
  </tile>
 </tileset>
 <layer id="1" name="Grama" width="100" height="100">
  <data encoding="csv">
0,0,0,0,0,0,0,0,0,0,0,0,0,0,0,0,0,0,0,0,0,0,0,0,0,0,0,0,0,0,0,0,0,0,0,0,0,0,0,0,0,0,0,0,0,0,0,0,0,0,0,0,0,0,0,0,0,0,0,0,0,0,0,0,0,0,0,0,0,0,0,0,0,0,0,0,0,0,0,0,0,0,0,0,0,0,0,0,0,0,0,0,0,0,0,0,0,0,0,0,
0,0,0,0,0,0,0,0,0,0,0,0,0,0,0,0,0,0,0,0,0,0,0,0,0,0,0,0,0,0,0,0,0,0,0,0,0,0,0,0,0,0,0,0,0,0,0,0,0,0,0,0,0,0,0,0,0,0,0,0,0,0,0,0,0,0,0,0,0,0,0,0,0,0,0,0,0,0,0,0,0,0,0,0,0,0,0,0,0,0,0,0,0,0,0,0,0,0,0,0,
0,0,0,0,0,0,0,0,0,0,0,0,0,0,0,0,0,0,0,0,0,0,0,0,0,0,0,0,0,0,0,0,0,0,0,0,0,0,0,0,0,0,0,0,0,0,0,0,0,0,0,0,0,0,0,0,0,0,0,0,0,0,0,0,0,0,0,0,0,0,0,0,0,0,0,0,0,0,0,0,0,0,0,0,0,0,0,0,0,0,0,0,0,0,0,0,0,0,0,0,
0,0,0,0,0,0,0,0,0,0,0,0,0,0,0,0,0,0,0,0,0,0,0,0,0,0,0,0,0,0,0,0,0,0,0,0,0,0,0,0,0,0,0,0,0,0,0,0,0,0,0,0,0,0,0,0,0,0,0,0,0,0,0,0,0,0,0,0,0,0,0,0,0,0,0,0,0,0,0,0,0,0,0,0,0,0,0,0,0,0,0,0,0,0,0,0,0,0,0,0,
0,0,0,0,0,0,0,0,0,0,0,0,0,0,0,0,0,0,0,0,0,0,0,0,0,0,0,0,0,0,0,0,0,0,0,0,0,0,0,0,0,0,0,0,0,0,0,0,0,0,0,0,0,0,0,0,0,0,0,0,0,0,0,0,0,0,0,0,0,0,0,0,0,0,0,0,0,0,0,0,0,0,0,0,0,0,0,0,0,0,0,0,0,0,0,0,0,0,0,0,
0,0,0,0,0,0,0,0,0,0,0,0,0,0,0,0,0,0,0,0,0,0,0,0,0,0,0,0,0,0,0,0,0,0,0,0,0,0,0,0,0,0,0,0,0,0,0,0,0,0,0,0,0,0,0,0,0,0,0,0,0,0,0,0,0,0,0,0,0,0,0,0,0,0,0,0,0,0,0,0,0,0,0,0,0,0,0,0,0,0,0,0,0,0,0,0,0,0,0,0,
0,0,0,0,0,0,0,0,0,0,0,0,0,0,0,0,0,0,0,0,0,0,0,0,0,0,0,0,0,0,0,0,0,0,0,0,0,0,0,0,0,0,0,0,0,0,0,0,0,0,0,0,0,0,0,0,0,0,0,0,0,0,0,0,0,0,0,0,0,0,0,0,0,0,0,0,0,0,0,0,0,0,0,0,0,0,0,0,0,0,0,0,0,0,0,0,0,0,0,0,
0,0,0,0,0,0,0,0,0,0,0,0,0,0,0,0,0,0,0,0,0,0,0,0,0,0,0,0,0,0,0,0,0,0,0,0,0,0,0,0,0,0,0,0,0,0,0,0,0,0,0,0,0,0,0,0,0,0,0,0,0,0,0,0,0,0,0,0,0,0,0,0,0,0,0,0,0,0,0,0,0,0,0,0,0,0,0,0,0,0,0,0,0,0,0,0,0,0,0,0,
0,0,0,0,0,0,0,0,0,0,0,0,0,0,0,0,0,0,0,0,0,0,0,0,0,0,0,0,0,0,0,0,0,0,0,0,0,0,0,0,0,0,0,0,0,0,0,0,0,0,0,0,0,0,0,0,0,0,0,0,0,0,0,0,0,0,0,0,0,0,0,0,0,0,0,0,0,0,0,0,0,0,0,0,0,0,0,0,0,0,0,0,0,0,0,0,0,0,0,0,
0,0,0,0,0,0,0,0,0,0,0,0,0,0,0,0,0,0,0,0,0,0,0,0,0,0,0,0,0,0,0,0,0,0,0,0,0,0,0,0,0,0,0,0,0,0,0,0,0,0,0,0,0,0,0,0,0,0,0,0,0,0,0,0,0,0,0,0,0,0,0,0,0,0,0,0,0,0,0,0,0,0,0,0,0,0,0,0,0,0,0,0,0,0,0,0,0,0,0,0,
0,0,0,0,0,0,0,0,0,0,0,0,0,0,0,0,0,0,0,0,0,0,0,0,0,0,0,0,0,0,0,0,0,0,0,0,0,0,0,0,0,0,0,0,0,0,0,0,0,0,0,0,0,0,0,0,0,0,0,0,0,0,0,0,0,0,0,0,0,0,0,0,0,0,0,0,0,0,0,0,0,0,0,0,0,0,0,0,0,0,0,0,0,0,0,0,0,0,0,0,
0,0,0,0,0,0,0,0,0,0,0,0,0,0,0,0,0,0,0,0,0,0,0,0,0,0,0,0,0,0,0,0,0,0,0,0,0,0,0,0,0,0,0,0,0,0,0,0,0,0,0,0,0,0,0,0,0,0,0,0,0,0,0,0,0,0,0,0,0,0,0,0,0,0,0,0,0,0,0,0,0,0,0,0,0,0,0,0,0,0,0,0,0,0,0,0,0,0,0,0,
0,0,0,0,0,0,0,0,0,0,0,0,0,0,0,0,0,0,0,0,0,0,0,0,0,0,0,0,0,0,0,0,0,0,0,0,0,0,0,0,0,0,0,0,0,0,0,0,0,0,0,0,0,0,0,0,0,0,0,0,0,0,0,0,0,0,0,0,0,0,0,0,0,0,0,0,0,0,0,0,0,0,0,0,0,0,0,0,0,0,0,0,0,0,0,0,0,0,0,0,
0,0,0,0,0,0,0,0,0,0,0,0,0,0,0,0,0,0,0,0,0,0,0,0,0,0,0,0,0,0,0,0,0,0,0,0,0,0,0,0,0,0,0,0,0,0,0,0,0,0,0,0,0,0,0,0,0,0,0,0,0,0,0,0,0,0,0,0,0,0,0,0,0,0,0,0,0,0,0,0,0,0,0,0,0,0,0,0,0,0,0,0,0,0,0,0,0,0,0,0,
0,0,0,0,0,0,0,0,0,0,0,0,0,0,0,0,0,0,0,0,0,0,0,0,0,0,0,0,0,0,0,0,0,0,0,0,0,0,0,0,0,0,0,0,0,0,0,0,0,0,0,0,0,0,0,0,0,0,0,0,0,0,0,0,0,0,0,0,0,0,0,0,0,0,0,0,0,0,0,0,0,0,0,0,0,0,0,0,0,0,0,0,0,0,0,0,0,0,0,0,
0,0,0,0,0,0,0,0,0,0,0,0,0,0,0,0,0,0,0,0,0,0,0,0,0,0,0,0,0,0,0,0,0,0,0,0,0,0,0,0,0,0,0,0,0,0,0,0,0,0,0,0,0,0,0,0,0,0,0,0,0,0,0,0,0,0,0,0,0,0,0,0,0,0,0,0,0,0,0,0,0,0,0,0,0,0,0,0,0,0,0,0,0,0,0,0,0,0,0,0,
0,0,0,0,0,0,0,0,0,0,0,0,0,0,0,0,0,0,0,0,0,0,0,0,0,0,0,0,0,0,0,0,0,0,0,0,0,0,0,0,0,0,0,0,0,0,0,0,0,0,0,0,0,0,0,0,0,0,0,0,0,0,0,0,0,0,0,0,0,0,0,0,0,0,0,0,0,0,0,0,0,0,0,0,0,0,0,0,0,0,0,0,0,0,0,0,0,0,0,0,
0,0,0,0,0,0,0,0,0,0,0,0,0,0,0,0,0,0,0,0,0,0,0,0,0,0,0,0,0,0,0,0,0,0,0,0,0,0,0,0,0,0,0,0,0,0,0,0,0,0,0,0,0,0,0,0,0,0,0,0,0,0,0,0,0,0,0,0,0,0,0,0,0,0,0,0,0,0,0,0,0,0,0,0,0,0,0,0,0,0,0,0,0,0,0,0,0,0,0,0,
0,0,0,0,0,0,0,0,0,0,0,0,0,0,0,0,0,0,0,0,0,0,0,0,0,0,0,0,0,0,0,0,0,0,0,0,0,0,0,0,0,0,0,0,0,0,0,0,0,0,0,0,0,0,0,0,0,0,0,0,0,0,0,0,0,0,0,0,0,0,0,0,0,0,0,0,0,0,0,0,0,0,0,0,0,0,0,0,0,0,0,0,0,0,0,0,0,0,0,0,
0,0,0,0,0,0,0,0,0,0,0,0,0,0,0,0,0,0,0,0,0,0,0,0,0,0,0,0,0,0,0,0,0,0,0,0,0,0,0,0,0,0,0,0,0,0,0,0,0,0,0,0,0,0,0,0,0,0,0,0,0,0,0,0,0,0,0,0,0,0,0,0,0,0,0,0,0,0,0,0,0,0,0,0,0,0,0,0,0,0,0,0,0,0,0,0,0,0,0,0,
0,0,0,0,0,0,0,0,0,0,0,0,0,0,0,0,0,0,0,0,0,0,0,0,0,0,0,0,0,0,0,0,0,0,0,0,0,0,0,0,0,0,0,0,0,0,0,0,0,0,0,0,0,0,0,0,0,0,0,0,0,0,0,0,0,0,0,0,0,0,0,0,0,0,0,0,0,0,0,0,0,0,0,0,0,0,0,0,0,0,0,0,0,0,0,0,0,0,0,0,
0,0,0,0,0,0,0,0,0,0,0,0,0,0,0,0,0,0,0,0,0,0,0,0,0,0,0,0,0,0,0,0,0,0,0,0,0,0,0,0,0,0,0,0,0,0,0,0,0,0,0,0,0,0,0,0,0,0,0,0,0,0,0,0,0,0,0,0,0,0,0,0,0,0,0,0,0,0,0,0,0,0,0,0,0,0,0,0,0,0,0,0,0,0,0,0,0,0,0,0,
0,0,0,0,0,0,0,0,0,0,0,0,0,0,0,0,0,0,0,0,0,0,0,0,0,0,0,0,0,0,0,0,0,0,0,0,0,0,0,0,0,0,0,0,0,0,0,0,0,0,0,0,0,0,0,0,0,0,0,0,0,0,0,0,0,0,0,0,0,0,0,0,0,0,0,0,0,0,0,0,0,0,0,0,0,0,0,0,0,0,0,0,0,0,0,0,0,0,0,0,
0,0,0,0,0,0,0,0,0,0,0,0,0,0,0,0,0,0,0,0,0,0,0,0,0,0,0,0,0,0,0,0,0,0,0,0,0,0,0,0,0,0,0,0,0,0,0,0,0,0,0,0,296,0,0,0,0,0,0,0,0,0,0,0,0,0,0,0,0,0,0,0,0,0,0,0,0,0,0,0,0,0,0,0,0,0,0,0,0,0,0,0,0,0,0,0,0,0,0,0,
0,0,0,0,0,0,0,0,0,0,0,0,0,0,0,0,0,0,0,0,0,0,0,0,0,0,0,0,0,0,0,0,0,0,0,0,0,0,0,0,296,296,0,0,0,0,0,0,0,296,296,296,296,296,296,296,296,296,0,0,0,0,0,0,0,0,0,0,0,0,0,0,0,0,0,0,0,0,0,0,0,0,0,0,0,0,0,0,0,0,0,0,0,0,0,0,0,0,0,0,
0,0,0,0,0,0,0,0,0,0,0,0,0,0,0,0,0,0,0,0,0,0,0,0,0,0,0,0,0,0,0,0,0,0,0,0,0,0,0,296,296,0,296,296,0,0,0,296,296,296,296,296,296,0,296,296,296,296,296,0,0,0,0,0,0,0,0,0,0,0,0,0,0,0,0,0,0,0,0,0,0,0,0,0,0,0,0,0,0,0,0,0,0,0,0,0,0,0,0,0,
0,0,0,0,0,0,0,0,0,0,0,0,0,0,0,0,0,0,0,0,0,0,0,0,0,0,0,0,0,0,0,0,0,0,0,0,0,296,296,296,296,296,296,0,0,0,296,296,296,296,296,296,296,296,296,296,296,296,296,296,296,0,0,0,0,0,0,0,0,0,0,0,0,0,0,0,0,0,0,0,0,0,0,0,0,0,0,0,0,0,0,0,0,0,0,0,0,0,0,0,
0,0,0,0,0,0,0,0,0,0,0,0,0,0,0,0,0,0,0,0,0,0,0,0,0,0,0,0,0,0,0,296,0,0,0,296,296,296,296,296,296,296,296,296,296,296,296,296,296,0,296,296,296,296,296,296,296,296,296,296,296,296,296,296,0,0,0,0,0,0,0,0,0,0,0,0,0,0,0,0,0,0,0,0,0,0,0,0,0,0,0,0,0,0,0,0,0,0,0,0,
0,0,0,0,0,0,0,0,0,0,0,0,0,0,0,0,0,0,0,0,0,0,0,0,0,0,0,0,0,0,296,296,296,296,296,296,296,296,1297,1244,1245,1243,1244,1245,1243,1244,1244,1302,1302,1302,1302,1244,1244,1244,1244,1244,1302,1245,1243,1244,1245,296,296,296,296,296,296,296,0,0,0,0,0,0,0,0,0,0,0,0,0,0,0,0,0,0,0,0,0,0,0,0,0,0,0,0,0,0,0,0,
0,0,0,0,0,0,0,0,0,0,0,0,0,0,0,0,0,0,0,0,0,0,0,0,0,0,0,0,296,296,296,296,296,296,296,296,1243,1301,1352,1354,1300,1298,1299,1300,1298,1299,1355,1409,1409,1409,1299,1409,1299,1355,1353,1353,1354,1300,1298,1409,1467,1297,1302,1301,296,296,296,296,296,296,0,0,0,0,0,0,0,0,0,0,0,0,0,0,0,0,0,0,0,0,0,0,0,0,0,0,0,0,0,0,
0,0,0,0,0,0,0,0,0,0,0,0,0,0,0,0,0,0,0,0,0,0,0,0,0,0,296,296,296,296,296,296,296,1297,1244,1244,1298,1300,1298,1353,1409,1353,1353,1299,1353,1355,1299,1409,1355,1299,1354,1355,1353,1353,1299,1355,1299,1353,1354,1409,1300,1298,1409,1300,1301,1243,1301,296,296,296,296,296,0,0,0,0,296,0,0,0,0,0,0,0,0,0,0,0,0,0,0,0,0,0,0,0,0,0,0,0,
0,0,0,0,0,0,0,0,0,0,0,0,0,0,0,0,0,0,0,0,0,0,296,296,296,296,296,296,296,296,296,296,1243,1298,1354,1355,1353,1355,1354,1354,1353,1355,1353,1355,1354,1355,1354,1354,1299,1353,1353,1354,1354,1353,1353,1409,1354,1355,1355,1355,1299,1354,1299,1409,1300,1298,1467,296,296,296,296,296,0,0,0,0,296,0,0,0,0,0,0,0,0,0,0,0,0,0,0,0,0,0,0,0,0,0,0,0,
0,0,0,0,0,0,0,0,0,0,0,0,0,0,0,0,0,0,0,0,296,296,296,296,296,296,296,296,296,1243,1302,1244,1298,1299,1355,1409,1409,1354,1353,1355,1409,1409,1299,1409,1299,1299,1299,1355,1353,1355,1353,1299,1355,1299,1409,1409,1353,1354,1354,1353,1409,1354,1354,1299,1353,1353,1300,1244,1301,296,296,296,296,296,296,0,296,0,0,0,0,0,0,0,0,0,0,0,0,0,0,0,0,0,0,0,0,0,0,0,
0,0,0,0,0,0,0,0,0,0,0,0,0,0,0,0,0,0,0,296,296,296,296,0,296,296,296,296,1297,1298,1354,1354,1409,1355,1353,1354,1409,1354,1354,1409,1299,1409,1353,1409,1299,1353,1355,1354,1409,1353,1354,1354,1355,1355,1409,1409,1355,1409,1355,1355,1353,1353,1409,1354,1353,1353,1409,1299,1356,0,296,296,296,296,296,0,296,0,0,0,0,0,0,0,0,0,0,0,0,0,0,0,0,0,0,0,0,0,0,0,
0,0,0,0,0,0,0,0,0,0,0,0,0,0,0,0,0,0,0,0,0,0,0,296,296,296,296,1243,1298,1355,1409,1355,1299,1353,1299,1354,1355,1299,1409,1299,1299,1299,1354,1409,1354,1409,1299,1355,1299,1355,1299,1354,1355,1299,1299,1355,1353,1354,1409,1353,1409,1354,1409,1299,1353,1354,1354,1353,1300,1302,1302,1245,296,296,296,0,296,296,0,296,0,0,0,0,0,0,0,0,0,0,0,0,0,0,0,0,0,0,0,0,
0,0,0,0,0,0,0,0,0,0,0,0,0,0,0,0,0,0,0,0,0,0,296,296,296,296,1297,1298,1299,1299,1299,1409,1409,1354,1353,1299,1354,1299,1354,1354,1354,1409,1355,1299,1354,1353,1409,1354,1355,1299,1354,1353,1409,1409,1354,1355,1354,1299,1299,1355,1409,1355,1409,1353,1355,1299,1409,1355,1299,1355,1355,1467,296,296,296,296,296,296,0,296,0,0,0,0,0,0,0,0,0,0,0,0,0,0,0,0,0,0,0,0,
0,0,0,0,0,0,0,0,0,0,0,0,0,0,0,0,0,0,0,0,296,296,296,296,296,1297,1298,1299,1354,1299,1354,1353,1409,1299,1409,1409,1409,1354,1409,1409,1409,1409,1353,1299,1355,1354,1353,1299,1409,1355,1409,1409,1409,1354,1409,1353,1299,1355,1355,1409,1355,1299,1355,1355,1299,1299,1354,1409,1299,1353,1355,1356,296,296,296,296,296,296,0,296,0,0,0,0,0,0,0,0,0,0,0,0,0,0,0,0,0,0,0,0,
0,0,0,0,0,0,0,0,0,0,0,0,0,0,0,0,0,0,0,296,296,0,296,296,1243,1298,1355,1354,1409,1355,1353,1299,1355,1299,1353,1354,1354,1354,1409,1409,1299,1409,1355,1355,1355,1355,1409,1355,1355,1409,1299,1409,1299,1409,1353,1353,1354,1409,1299,1355,1299,1354,1299,1355,1409,1409,1354,1354,1354,1354,1299,1300,1301,296,296,296,296,296,296,296,0,0,0,0,0,0,0,0,0,0,0,0,0,0,0,0,0,0,0,0,
0,0,0,0,0,0,0,0,0,0,0,0,0,0,0,0,0,0,296,296,0,296,1297,1302,1298,1354,1409,1409,1299,1353,1409,1355,1355,1409,1299,1353,1355,1299,1353,1354,1354,1353,1353,1354,1355,1409,1353,1354,1354,1409,1409,1299,1353,1355,1353,1299,1409,1299,1299,1409,1353,1354,1355,1299,1354,1354,1299,1355,1353,1353,1353,1410,1411,296,296,296,296,296,296,296,0,0,0,0,0,0,0,0,0,0,0,0,0,0,0,0,0,0,0,0,
0,0,0,0,0,0,0,0,0,0,0,0,0,0,0,0,0,0,0,0,296,296,1463,1408,1353,1353,1299,1354,1355,1355,1353,1353,1409,1409,1354,1409,1353,1355,1353,1299,1355,1409,1409,1353,1353,1355,1299,1354,1354,1409,1299,1355,1355,1409,1299,1299,1353,1355,1355,1354,1299,1299,1299,1299,1299,1353,1409,1299,1409,1355,1354,1300,1301,296,296,296,296,296,296,296,0,0,0,0,0,0,0,0,0,0,0,0,0,0,0,0,0,0,0,0,
0,0,0,0,0,0,0,0,0,0,0,0,0,0,0,0,0,0,0,0,296,1243,1244,1298,1299,1299,1299,1353,1354,1355,1409,1355,1299,1354,1355,1354,1353,1409,1353,1299,1354,1409,1299,1353,1409,1354,1355,1354,1354,1409,1355,1355,1355,1299,1354,1354,1353,1355,1354,1355,1355,1409,1353,1409,1409,1355,1299,1353,1355,1354,1354,1409,1300,1245,296,296,296,296,296,296,0,0,0,0,0,0,0,0,0,0,0,0,0,0,0,0,0,0,0,0,
0,0,0,0,0,0,0,0,0,0,0,0,0,0,0,0,0,0,0,296,296,1463,1408,1353,1354,1355,1353,1354,1299,1354,1409,1409,1355,1353,1299,1355,1299,1354,1299,1354,1355,1299,1299,1409,1353,1409,1354,1299,1353,1409,1354,1299,1409,1299,1353,1353,1353,1354,1355,1354,1409,1354,1354,1353,1353,1354,1409,1409,1353,1353,1354,1299,1355,1356,296,296,296,296,296,296,0,0,0,0,0,0,0,0,0,0,0,0,0,0,0,0,0,0,0,0,
0,0,0,0,0,0,0,0,0,0,0,0,0,0,0,0,0,296,296,296,1243,1302,1298,1354,1354,1353,1355,1354,1409,1353,1353,1299,1353,1353,1355,1355,1353,1409,1353,1355,1354,1354,1353,1409,1409,1354,1355,1299,1409,1299,1354,1409,1299,1299,1409,1299,1409,1354,1355,1409,1355,1355,1353,1409,1409,1299,1409,1353,1409,1355,1353,1355,1410,1411,296,296,296,296,296,296,0,0,0,0,0,0,0,0,0,0,0,0,0,0,0,0,0,0,0,0,
0,0,0,0,0,0,0,0,0,0,0,0,0,0,0,0,0,0,296,296,1407,1408,1299,1354,1353,1299,1355,1355,1409,1354,1353,1354,1353,1355,1409,1355,1299,1353,1355,1354,1355,1354,1299,1409,1354,1353,1299,1353,1299,1354,1354,1299,1355,1355,1409,1409,1409,1355,1299,1354,1354,1299,1354,1299,1354,1299,1299,1353,1409,1355,1299,1355,1300,1302,1301,296,296,296,296,296,0,0,0,0,0,0,0,0,0,0,0,0,0,0,0,0,0,0,0,0,
0,0,0,0,0,0,0,0,0,0,0,0,0,0,0,0,0,0,296,296,1297,1298,1355,1355,1353,1409,1353,1353,1354,1354,1299,1354,1354,1353,1354,1299,1354,1353,1354,1299,1353,1409,1353,1299,1355,1354,1409,1355,1355,1355,1409,1299,1299,1409,1354,1353,1409,1354,1355,1355,1354,1355,1355,1409,1355,1353,1409,1409,1355,1409,1354,1354,1355,1354,1356,296,296,296,296,296,0,0,0,0,0,0,0,0,0,0,0,0,0,0,0,0,0,0,0,0,
0,0,0,0,0,0,0,0,0,0,0,0,0,0,0,0,0,296,296,1297,1298,1409,1354,1354,1355,1355,1355,1353,1409,1353,1355,1409,1299,1355,1409,1354,1355,1299,1355,1409,1354,1355,1409,1353,1299,1409,1355,1299,1354,1354,1299,1353,1355,1354,1354,1299,1409,1353,1409,1299,1355,1355,1353,1409,1355,1353,1299,1353,1409,1353,1353,1299,1355,1410,1465,296,296,296,296,296,0,0,0,0,0,0,0,0,0,0,0,0,0,0,0,0,0,0,0,0,
0,0,0,0,0,0,0,0,0,0,0,0,0,0,0,0,0,296,296,1412,1299,1409,1355,1355,1355,1354,1355,1409,1353,1354,1354,1409,1354,1299,1299,1299,1409,1354,1409,1354,1409,1354,1355,1409,1299,1354,1354,1355,1355,1355,1354,1353,1299,1354,1299,1409,1354,1355,1354,1354,1353,1353,1409,1353,1299,1299,1299,1355,1353,1355,1353,1353,1409,1300,1301,296,296,296,296,296,0,0,0,0,0,0,0,0,0,0,0,0,0,0,0,0,0,0,0,0,
0,0,0,0,0,0,0,0,0,0,0,0,0,0,0,0,0,296,296,1352,1354,1353,1354,1355,1299,1354,1353,1409,1355,1299,1353,1353,1299,1409,1409,1355,1299,1299,1354,1355,1355,1355,1355,1299,1354,1299,1409,1355,1409,1353,1299,1355,1353,1409,1353,1353,1299,1353,1299,1354,1355,1409,1353,1353,1409,1299,1354,1355,1355,1299,1355,1299,1409,1353,1356,296,296,296,296,296,0,0,0,0,0,0,0,0,0,0,0,0,0,0,0,0,0,0,0,0,
0,0,0,0,0,0,0,0,0,0,0,0,0,0,0,0,0,0,296,1352,1353,1354,1353,1353,1409,1353,1354,1353,1299,1409,1299,1409,1355,1354,1354,1353,1354,1353,1299,1299,1299,1353,1355,1409,1299,1409,1409,1355,1299,1355,1409,1299,1409,1354,1299,1299,1353,1299,1354,1355,1299,1299,1354,1299,1409,1409,1355,1354,1299,1299,1355,1299,1299,1353,1467,296,296,296,296,296,0,0,0,0,0,0,0,0,0,0,0,0,0,0,0,0,0,0,0,0,
0,0,0,0,0,0,0,0,0,0,0,0,0,0,0,0,0,0,0,1412,1409,1299,1409,1354,1353,1299,1299,1353,1299,1355,1299,1353,1353,1353,1409,1355,1355,1299,1409,1355,1299,1355,1354,1409,1409,1299,1299,1409,1353,1299,1299,1299,1353,1353,1299,1353,1354,1299,1409,1354,1299,1409,1354,1354,1353,1299,1353,1354,1355,1353,1353,1354,1299,1410,1465,296,296,296,296,296,0,0,0,0,0,0,0,0,0,0,0,0,0,0,0,0,0,0,0,0,
0,0,0,0,0,0,0,0,0,0,0,0,0,0,0,0,0,0,0,1352,1353,1353,1355,1409,1355,1299,1409,1299,1409,1353,1299,1409,1354,1353,1299,1299,1409,1355,1354,1353,1354,1355,1409,1299,1409,1354,1353,1409,1353,1355,1299,1353,1409,1354,1355,1353,1355,1299,1355,1299,1354,1353,1409,1409,1409,1353,1353,1299,1409,1354,1299,1355,1299,1300,1245,296,296,296,296,296,0,0,0,0,0,0,0,0,0,0,0,0,0,0,0,0,0,0,0,0,
0,0,0,0,0,0,0,0,0,0,0,0,0,0,0,0,0,0,0,1412,1355,1353,1355,1354,1299,1355,1409,1409,1353,1409,1353,1354,1353,1354,1353,1299,1353,1409,1355,1299,1355,1354,1353,1354,1409,1409,1299,1354,1299,1299,1353,1353,1299,1299,1409,1355,1355,1299,1353,1355,1353,1354,1299,1354,1354,1409,1354,1299,1355,1354,1354,1355,1353,1354,1356,296,296,296,296,0,0,0,0,0,0,0,0,0,0,0,0,0,0,0,0,0,0,0,0,0,
0,0,0,0,0,0,0,0,0,0,0,0,0,0,0,0,0,0,0,1412,1354,1353,1299,1354,1409,1355,1353,1409,1355,1409,1299,1353,1354,1299,1355,1354,1354,1409,1299,1354,1353,1355,1409,1353,1409,1354,1409,1355,1353,1354,1409,1299,1355,1355,1409,1353,1409,1353,1409,1354,1299,1353,1409,1353,1409,1353,1409,1299,1354,1354,1353,1354,1299,1410,1411,296,296,296,296,0,0,0,0,0,0,0,0,0,0,0,0,0,0,0,0,0,0,0,0,0,
0,0,0,0,0,0,0,0,0,0,0,0,0,0,0,0,0,0,0,1412,1299,1409,1354,1353,1354,1353,1409,1299,1355,1355,1353,1354,1409,1409,1409,1355,1353,1354,1354,1353,1353,1355,1299,1353,1355,1355,1354,1355,1353,1355,1354,1299,1354,1299,1299,1354,1353,1355,1355,1409,1353,1354,1409,1409,1299,1355,1355,1353,1299,1299,1355,1299,1355,1300,1245,296,296,296,296,296,0,0,0,0,0,0,0,0,0,0,0,0,0,0,0,0,0,0,0,0,
0,0,0,0,0,0,0,0,0,0,0,0,0,0,0,0,0,0,0,1352,1354,1299,1353,1355,1355,1354,1299,1355,1353,1353,1353,1354,1353,1299,1299,1299,1355,1409,1299,1409,1409,1299,1355,1409,1353,1353,1355,1409,1409,1354,1299,1354,1409,1354,1354,1299,1355,1354,1299,1354,1353,1354,1353,1409,1355,1299,1299,1409,1353,1355,1355,1299,1353,1354,1356,296,296,296,296,296,0,0,0,0,0,0,0,0,0,0,0,0,0,0,0,0,0,0,0,0,
0,0,0,0,0,0,0,0,0,0,0,0,0,0,0,0,0,0,0,1412,1354,1299,1299,1354,1354,1409,1353,1355,1354,1299,1353,1355,1299,1355,1409,1353,1353,1299,1353,1409,1355,1355,1354,1354,1353,1355,1299,1299,1354,1299,1354,1355,1299,1409,1409,1409,1409,1353,1353,1299,1409,1354,1354,1353,1354,1409,1354,1299,1355,1353,1353,1354,1410,1357,1465,296,296,296,296,296,0,0,0,0,0,0,0,0,0,0,0,0,0,0,0,0,0,0,0,0,
0,0,0,0,0,0,0,0,0,0,0,0,0,0,0,0,0,0,0,1352,1353,1299,1353,1355,1299,1355,1355,1353,1299,1353,1353,1355,1353,1299,1355,1409,1353,1355,1299,1355,1299,1299,1299,1354,1299,1355,1355,1409,1354,1299,1299,1299,1353,1353,1299,1299,1354,1355,1355,1299,1299,1409,1299,1354,1409,1353,1354,1353,1353,1354,1353,1353,1300,1245,296,296,296,296,296,0,0,0,0,0,0,0,0,0,0,0,0,0,0,0,0,0,0,0,0,0,
0,0,0,0,0,0,0,0,0,0,0,0,0,0,0,0,0,0,0,1352,1355,1299,1354,1354,1355,1355,1355,1299,1355,1409,1299,1409,1353,1354,1354,1353,1299,1355,1353,1354,1409,1299,1299,1355,1409,1354,1299,1354,1299,1355,1353,1354,1299,1409,1409,1299,1353,1353,1355,1355,1354,1299,1354,1353,1355,1299,1353,1355,1354,1355,1354,1409,1409,1356,296,296,296,296,296,0,0,0,0,0,0,0,0,0,0,0,0,0,0,0,0,0,0,0,0,0,
0,0,0,0,0,0,0,0,0,0,0,0,0,0,0,0,0,0,0,1352,1299,1353,1353,1354,1353,1299,1355,1354,1355,1353,1299,1299,1355,1355,1409,1353,1353,1299,1355,1409,1409,1299,1355,1355,1355,1353,1354,1354,1299,1354,1299,1409,1354,1353,1354,1354,1354,1409,1355,1355,1354,1353,1409,1409,1355,1299,1355,1355,1354,1354,1353,1410,1464,1465,296,296,296,296,296,0,0,0,0,0,0,0,0,0,0,0,0,0,0,0,0,0,0,0,0,0,
0,0,0,0,0,0,0,0,0,0,0,0,0,0,0,0,0,0,0,1407,1408,1409,1299,1409,1355,1299,1353,1353,1354,1299,1409,1355,1353,1353,1354,1354,1354,1355,1409,1355,1299,1353,1409,1409,1299,1353,1354,1353,1353,1409,1354,1353,1355,1299,1409,1409,1353,1299,1354,1299,1299,1354,1299,1409,1355,1355,1299,1353,1354,1409,1354,1300,1245,296,296,296,296,296,296,0,0,0,0,0,0,0,0,0,0,0,0,0,0,0,0,0,0,0,0,0,
188,133,133,132,188,186,133,133,132,133,187,133,187,186,132,188,188,132,186,133,1412,1355,1299,1354,1355,1409,1355,1299,1354,1409,1299,1299,1299,1409,1409,1355,1299,1353,1299,1409,1354,1354,1409,1355,1409,1355,1353,1353,1355,1354,1353,1353,1354,1355,1409,1354,1409,1355,1354,1354,1299,1355,1299,1409,1353,1353,1354,1354,1355,1355,1355,1353,1467,296,296,296,296,296,296,0,0,0,0,0,0,0,0,0,0,0,0,0,0,0,0,0,0,0,0,0,
186,131,188,187,131,132,131,132,131,132,131,186,186,131,188,188,188,188,131,186,1412,1355,1354,1354,1353,1409,1299,1409,1299,1354,1355,1409,1353,1299,1299,1355,1354,1355,1354,1355,1353,1353,1354,1353,1299,1353,1354,1354,1354,1299,1409,1353,1299,1409,1355,1299,1353,1299,1299,1299,1409,1353,1353,1409,1354,1353,1353,1299,1409,1299,1299,1410,1465,296,296,296,296,296,296,0,0,0,0,0,0,0,0,0,0,0,0,0,0,0,0,0,0,0,0,0,
133,188,186,132,133,186,188,188,132,187,188,133,132,186,186,131,131,133,131,133,1463,1408,1299,1355,1354,1354,1299,1355,1409,1354,1355,1409,1409,1354,1355,1353,1299,1355,1353,1353,1354,1354,1353,1354,1299,1355,1353,1299,1299,1354,1355,1353,1353,1353,1299,1354,1353,1409,1299,1355,1409,1409,1299,1299,1353,1355,1299,1409,1299,1353,1410,1411,296,296,296,296,296,296,296,0,0,0,0,0,0,0,0,0,0,0,0,0,0,0,0,0,0,0,0,0,
187,132,186,132,132,186,133,131,188,187,186,133,132,187,188,133,186,186,131,131,186,1463,1464,1408,1354,1299,1355,1299,1354,1355,1409,1354,1409,1409,1353,1355,1354,1299,1355,1354,1299,1354,1354,1353,1353,1355,1353,1299,1353,1409,1299,1353,1355,1354,1353,1353,1409,1409,1355,1353,1354,1355,1299,1354,1353,1354,1354,1299,1355,1355,1300,1245,296,296,296,296,296,0,0,0,0,0,0,0,0,0,0,0,0,0,0,0,0,0,0,0,0,0,0,0,
133,131,132,132,186,133,188,188,131,132,188,188,188,131,186,131,133,132,131,187,186,131,187,1352,1355,1353,1353,1354,1354,1354,1354,1299,1354,1353,1299,1353,1353,1409,1299,1409,1355,1353,1353,1353,1355,1299,1299,1355,1354,1354,1354,1409,1409,1354,1354,1409,1299,1354,1409,1409,1299,1354,1355,1299,1299,1354,1354,1354,1353,1409,1353,1356,296,296,296,296,296,0,0,0,0,0,0,0,0,0,0,0,0,0,0,0,0,0,0,0,0,0,0,0,
186,186,188,186,132,188,188,131,186,187,133,132,132,188,188,132,187,186,132,187,187,186,133,1407,1408,1353,1354,1353,1409,1353,1354,1353,1354,1354,1299,1353,1355,1355,1353,1299,1355,1355,1355,1409,1353,1355,1353,1354,1355,1354,1354,1354,1355,1355,1355,1299,1409,1355,1409,1354,1355,1299,1353,1354,1409,1354,1355,1299,1299,1353,1410,1465,296,296,296,296,296,0,0,0,0,0,0,0,0,0,0,0,0,0,0,0,0,0,0,0,0,0,0,0,
131,133,186,187,131,186,131,132,133,188,131,188,132,132,187,132,131,188,187,188,131,186,186,132,1463,1408,1299,1353,1353,1299,1299,1299,1354,1353,1353,1355,1354,1299,1353,1409,1354,1299,1409,1409,1409,1299,1409,1355,1409,1409,1354,1353,1354,1299,1299,1353,1299,1409,1409,1353,1355,1299,1299,1299,1353,1354,1299,1355,1410,1357,1465,296,296,296,296,296,0,0,0,0,0,0,0,0,0,0,0,0,0,0,0,0,0,0,0,0,0,0,0,0,
133,187,186,131,133,187,133,131,131,188,132,131,133,133,131,133,187,133,133,187,132,186,188,188,133,1463,1408,1299,1353,1299,1409,1409,1354,1409,1409,1354,1409,1409,1299,1409,1409,1409,1409,1355,1354,1409,1355,1409,1409,1355,1409,1353,1355,1299,1355,1353,1355,1355,1299,1355,1354,1299,1353,1353,1355,1353,1409,1410,1411,296,296,296,296,296,296,296,0,0,0,0,0,0,0,0,0,0,0,0,0,0,0,0,0,0,0,0,0,0,0,0,
188,187,188,133,132,186,187,131,131,132,188,188,131,133,132,188,186,133,131,187,133,187,187,187,187,186,1407,1408,1355,1354,1409,1355,1354,1353,1354,1354,1409,1299,1355,1299,1354,1355,1409,1355,1354,1353,1354,1353,1409,1354,1355,1409,1355,1409,1409,1299,1354,1355,1355,1354,1354,1355,1354,1299,1354,1299,1353,1467,296,296,296,296,296,296,296,296,0,0,0,0,0,0,0,0,0,0,0,0,0,0,0,0,0,0,0,0,0,0,0,0,
131,132,131,188,187,133,187,131,132,186,133,132,131,133,133,132,187,131,131,186,187,188,131,188,133,186,186,1407,1408,1354,1353,1299,1299,1409,1409,1409,1409,1409,1355,1299,1409,1409,1409,1355,1409,1355,1354,1355,1355,1354,1299,1355,1353,1354,1299,1299,1355,1353,1353,1355,1409,1355,1355,1410,1464,1357,1357,1465,296,296,296,296,296,296,0,296,296,0,0,0,0,0,0,0,0,0,0,0,0,0,0,0,0,0,0,0,0,0,0,0,
186,133,133,186,187,133,188,186,186,186,133,132,131,132,131,133,186,133,131,131,187,187,132,131,133,188,186,187,1463,1357,1357,1408,1409,1409,1353,1354,1353,1299,1410,1408,1409,1354,1354,1299,1409,1355,1355,1355,1354,1355,1354,1354,1353,1299,1299,1355,1299,1354,1354,1354,1299,1299,1353,1356,0,296,296,296,296,296,296,296,296,0,0,0,296,296,0,0,0,0,0,0,0,0,0,0,0,0,0,0,0,0,0,0,0,0,0,0,
132,186,131,188,132,187,187,187,188,187,132,133,186,131,133,131,187,132,187,132,131,187,132,132,186,188,131,133,187,187,131,1407,1464,1464,1464,1357,1464,1357,1465,1407,1464,1464,1408,1354,1409,1353,1299,1299,1299,1355,1353,1409,1353,1355,1355,1299,1299,1354,1410,1357,1408,1410,1464,1411,296,296,296,296,296,296,296,296,296,0,0,0,0,0,0,0,0,0,0,0,0,0,0,0,0,0,0,0,0,0,0,0,0,0,0,0,
132,187,133,187,187,188,131,133,132,186,187,188,186,186,187,188,186,188,186,132,186,187,186,186,188,133,133,188,133,187,186,187,133,133,187,132,131,133,133,187,188,0,1407,1357,1464,1464,1357,1464,1408,1354,1354,1410,1408,1354,1410,1408,1410,1357,1411,0,1463,1465,296,296,296,296,296,296,296,296,296,296,296,0,0,0,0,0,0,0,0,0,0,0,0,0,0,0,0,0,0,0,0,0,0,0,0,0,0,0,
131,133,188,132,186,133,131,186,186,131,188,132,187,188,133,131,132,186,131,132,186,133,132,131,188,188,186,132,186,131,188,132,133,133,132,133,131,187,131,296,0,0,0,0,0,0,0,0,1463,1464,1464,1465,1463,1357,1465,1407,1411,296,296,296,296,296,296,296,296,296,296,296,296,296,296,296,0,0,0,0,0,0,0,0,0,0,0,0,0,0,0,0,0,0,0,0,0,0,0,0,0,0,0,0,
132,186,186,188,188,188,187,133,131,132,132,188,187,186,132,186,133,131,132,133,131,132,186,188,131,186,188,187,187,188,187,131,187,186,186,132,0,0,0,296,0,296,296,296,296,296,296,296,296,296,296,296,296,296,296,296,296,296,296,296,296,296,296,296,296,296,296,296,296,296,296,0,0,0,0,0,0,0,0,0,0,0,0,0,0,0,0,0,0,0,0,0,0,0,0,0,0,0,0,0,
187,132,187,131,187,132,186,187,187,131,188,133,186,133,187,132,132,133,187,187,187,187,133,133,132,187,131,132,188,133,133,188,186,186,131,131,186,0,0,0,0,0,0,0,0,296,0,0,0,0,0,0,0,296,296,296,296,296,296,296,296,296,296,296,296,296,296,296,296,0,0,0,0,0,0,0,0,0,0,0,0,0,0,0,0,0,0,0,0,0,0,0,0,0,0,0,0,0,0,0,
186,187,187,188,187,187,132,132,131,132,186,186,132,132,132,186,131,186,131,131,188,186,132,186,133,133,186,131,186,187,188,131,132,186,186,132,131,0,0,0,0,0,0,0,0,296,296,296,296,296,296,296,296,296,296,296,296,296,296,0,0,296,296,296,296,0,0,0,0,0,0,0,0,0,0,0,0,0,0,0,0,0,0,0,0,0,0,0,0,0,0,0,0,0,0,0,0,0,0,0,
131,186,188,131,187,188,187,133,187,132,187,186,187,187,132,187,131,131,187,131,132,132,187,186,186,132,132,187,187,132,132,188,187,186,186,132,186,0,0,0,0,0,0,0,0,0,0,0,0,0,0,0,0,0,0,296,296,296,296,296,296,296,296,0,0,0,0,0,0,0,0,0,0,0,0,0,0,0,0,0,0,0,0,0,0,0,0,0,0,0,0,0,0,0,0,0,0,0,0,0,
188,188,186,132,132,133,131,186,188,187,186,186,131,131,187,187,187,187,131,133,186,187,188,187,131,132,132,131,132,186,186,132,132,131,186,131,187,0,0,0,0,0,0,0,0,0,0,0,0,0,0,0,0,0,296,296,296,296,296,0,0,296,0,0,0,0,0,0,0,0,0,0,0,0,0,0,0,0,0,0,0,0,0,0,0,0,0,0,0,0,0,0,0,0,0,0,0,0,0,0,
132,131,131,131,186,133,131,187,132,187,133,131,131,133,188,186,187,132,187,186,133,133,133,131,187,133,186,132,188,187,132,187,132,188,187,131,188,131,0,0,0,0,0,0,0,0,0,0,0,0,0,0,0,0,0,0,0,0,0,0,0,0,0,0,0,0,0,0,0,0,0,0,0,0,0,0,0,0,0,0,0,0,0,0,0,0,0,0,0,0,0,0,0,0,0,0,0,0,0,0,
133,186,187,133,188,186,131,188,186,133,133,131,187,186,133,131,132,132,188,186,132,186,186,133,133,131,133,132,186,131,186,188,186,132,186,132,131,187,0,0,0,0,0,0,0,0,0,0,0,0,0,0,0,0,0,0,0,0,0,0,0,0,0,0,0,0,0,0,0,0,0,0,0,0,0,0,0,0,0,0,0,0,0,0,0,0,0,0,0,0,0,0,0,0,0,0,0,0,0,0,
186,132,133,133,186,132,133,188,133,131,186,186,187,186,132,132,132,186,186,186,188,186,186,186,187,187,187,131,188,131,132,131,132,131,188,132,187,132,0,0,0,0,0,0,0,0,0,0,0,0,0,0,0,0,0,0,0,0,0,0,0,0,0,0,0,0,0,0,0,0,0,0,0,0,0,0,0,0,0,0,0,0,0,0,0,0,0,0,0,0,0,0,0,0,0,0,0,0,0,0,
187,187,187,188,187,186,131,131,131,131,186,187,133,187,132,186,188,131,187,186,188,187,187,132,186,132,132,188,132,133,187,132,187,133,186,131,186,188,0,0,0,0,0,0,0,0,0,0,0,0,0,0,0,0,0,0,0,0,0,0,0,0,0,0,0,0,0,0,0,0,0,0,0,0,0,0,0,0,0,0,0,0,0,0,0,0,0,0,0,0,0,0,0,0,0,0,0,0,0,0,
186,188,187,132,133,186,186,133,188,188,188,132,132,131,133,186,132,188,187,187,187,131,187,132,188,133,133,131,186,131,132,133,133,188,188,133,132,187,0,0,0,0,0,0,0,0,0,0,0,0,0,0,0,0,0,0,0,0,0,0,0,0,0,0,0,0,0,0,0,0,0,0,0,0,0,0,0,0,0,0,0,0,0,0,0,0,0,0,0,0,0,0,0,0,0,0,0,0,0,0,
131,133,186,186,133,132,187,188,131,187,133,131,187,188,187,133,131,131,186,131,133,131,131,187,188,131,186,188,131,187,187,132,187,131,186,131,133,187,0,0,0,0,0,0,0,0,0,0,0,0,0,0,0,0,0,0,0,0,0,0,0,0,0,0,0,0,0,0,0,0,0,0,0,0,0,0,0,0,0,0,0,0,0,0,0,0,0,0,0,0,0,0,0,0,0,0,0,0,0,0,
132,186,132,186,187,133,187,133,186,133,132,188,133,187,133,131,133,132,131,187,133,186,131,186,133,132,186,187,131,132,187,131,188,132,131,186,186,132,0,0,0,0,0,0,0,0,0,0,0,0,0,0,0,0,0,0,0,0,0,0,0,0,0,0,0,0,0,0,0,0,0,0,0,0,0,0,0,0,0,0,0,0,0,0,0,0,0,0,0,0,0,0,0,0,0,0,0,0,0,0,
188,186,131,133,187,133,187,132,188,187,188,187,187,131,188,133,188,132,188,188,187,131,132,131,187,187,132,131,131,131,188,187,188,186,132,132,188,132,0,0,0,0,0,0,0,0,0,0,0,0,0,0,0,0,0,0,0,0,0,0,0,0,0,0,0,0,0,0,0,0,0,0,0,0,0,0,0,0,0,0,0,0,0,0,0,0,0,0,0,0,0,0,0,0,0,0,0,0,0,0,
186,186,131,131,186,187,187,131,186,132,186,187,131,131,188,188,133,187,133,131,186,131,133,187,133,132,132,132,132,187,188,131,186,133,131,133,186,131,0,0,0,0,0,0,0,0,0,0,0,0,0,0,0,0,0,0,0,0,0,0,0,0,0,0,0,0,0,0,0,0,0,0,0,0,0,0,0,0,0,0,0,0,0,0,0,0,0,0,0,0,0,0,0,0,0,0,0,0,0,0,
133,131,131,188,132,133,133,132,133,133,132,188,132,132,187,133,187,187,133,188,131,187,187,188,132,186,131,188,187,186,187,131,187,131,188,133,133,186,0,0,0,0,0,0,0,0,0,0,0,0,0,0,0,0,0,0,0,0,0,0,0,0,0,0,0,0,0,0,0,0,0,0,0,0,0,0,0,0,0,0,0,0,0,0,0,0,0,0,0,0,0,0,0,0,0,0,0,0,0,0,
132,133,131,133,131,131,133,132,186,131,131,131,131,187,188,131,187,133,133,186,188,132,131,187,186,187,133,133,188,133,188,131,186,133,188,131,186,131,0,0,0,0,0,0,0,0,0,0,0,0,0,0,0,0,0,0,0,0,0,0,0,0,0,0,0,0,0,0,0,0,0,0,0,0,0,0,0,0,0,0,0,0,0,0,0,0,0,0,0,0,0,0,0,0,0,0,0,0,0,0,
131,133,187,131,188,132,186,132,133,133,186,186,133,132,188,132,187,187,132,131,133,132,186,186,186,131,187,132,187,188,133,133,186,132,188,132,187,131,0,0,0,0,0,0,0,0,0,0,0,0,0,0,0,0,0,0,0,0,0,0,0,0,0,0,0,0,0,0,0,0,0,0,0,0,0,0,0,0,0,0,0,0,0,0,0,0,0,0,0,0,0,0,0,0,0,0,0,0,0,0,
131,132,188,187,188,131,186,131,131,131,131,187,132,187,132,188,132,131,132,188,131,133,187,187,188,133,187,187,188,186,133,131,186,188,132,131,186,132,0,0,0,0,0,0,0,0,0,0,0,0,0,0,0,0,0,0,0,0,0,0,0,0,0,0,0,0,0,0,0,0,0,0,0,0,0,0,0,0,0,0,0,0,0,0,0,0,0,0,0,0,0,0,0,0,0,0,0,0,0,0,
132,186,131,188,188,187,131,187,133,186,188,187,133,188,133,188,186,131,187,133,131,186,133,131,187,186,133,187,131,186,186,132,186,131,186,131,133,188,0,0,0,0,0,0,0,0,0,0,0,0,0,0,0,0,0,0,0,0,0,0,0,0,0,0,0,0,0,0,0,0,0,0,0,0,0,0,0,0,0,0,0,0,0,0,0,0,0,0,0,0,0,0,0,0,0,0,0,0,0,0,
132,133,188,187,186,131,133,188,186,132,186,187,188,131,188,131,131,187,188,187,187,188,186,188,188,187,131,131,187,132,132,187,186,132,188,131,133,132,0,0,0,0,0,0,0,0,0,0,0,0,0,0,0,0,0,0,0,0,0,0,0,0,0,0,0,0,0,0,0,0,0,0,0,0,0,0,0,0,0,0,0,0,0,0,0,0,0,0,0,0,0,0,0,0,0,0,0,0,0,0,
133,133,186,132,133,131,131,187,188,186,131,132,188,133,186,187,132,186,132,187,187,186,132,187,188,133,188,186,132,187,187,131,187,131,132,131,131,186,0,0,0,0,0,0,0,0,0,0,0,0,0,0,0,0,0,0,0,0,0,0,0,0,0,0,0,0,0,0,0,0,0,0,0,0,0,0,0,0,0,0,0,0,0,0,0,0,0,0,0,0,0,0,0,0,0,0,0,0,0,0,
131,131,133,188,132,188,188,186,187,132,188,131,131,131,188,188,133,188,188,187,186,186,132,186,187,186,132,133,186,187,131,132,133,187,131,188,132,133,0,0,0,0,0,0,0,0,0,0,0,0,0,0,0,0,0,0,0,0,0,0,0,0,0,0,0,0,0,0,0,0,0,0,0,0,0,0,0,0,0,0,0,0,0,0,0,0,0,0,0,0,0,0,0,0,0,0,0,0,0,0,
132,188,186,187,133,187,132,132,131,187,186,133,188,187,186,131,187,131,133,187,133,133,133,132,132,131,132,187,186,187,187,133,186,188,186,188,131,186,0,0,0,0,0,0,0,0,0,0,0,0,0,0,0,0,0,0,0,0,0,0,0,0,0,0,0,0,0,0,0,0,0,0,0,0,0,0,0,0,0,0,0,0,0,0,0,0,0,0,0,0,0,0,0,0,0,0,0,0,0,0,
187,131,133,133,188,133,132,133,131,188,186,131,186,133,131,133,186,131,186,133,131,188,187,186,187,131,186,188,188,133,186,133,187,131,133,188,132,186,0,0,0,0,0,0,0,0,0,0,0,0,0,0,0,0,0,296,0,0,0,0,0,0,0,0,0,0,0,0,0,0,0,0,0,0,0,0,0,0,0,0,0,0,0,0,0,0,0,0,0,0,0,0,0,0,0,0,0,0,0,0,
133,188,132,188,132,187,133,133,188,188,187,132,131,187,186,188,187,188,186,188,132,132,188,131,187,132,188,186,132,186,132,132,188,186,132,131,132,133,0,0,0,0,0,0,0,0,0,0,0,0,0,0,0,0,296,0,0,0,0,0,0,0,0,0,0,0,0,0,0,0,0,0,0,0,0,0,0,0,0,0,0,0,0,0,0,0,0,0,0,0,0,0,0,0,0,0,0,0,0,0,
186,131,132,187,187,186,132,131,186,132,188,186,133,132,132,132,186,132,133,133,133,187,186,187,132,132,187,187,132,187,131,132,186,186,188,133,131,133,0,0,0,0,0,0,0,0,0,0,0,0,0,0,296,296,296,0,0,0,0,0,0,0,0,0,0,0,0,0,0,0,0,0,0,0,0,0,0,0,0,0,0,0,0,0,0,0,0,0,0,0,0,0,0,0,0,0,0,0,0,0
</data>
 </layer>
 <layer id="6" name="pedrasGuardiao" width="100" height="100">
  <data encoding="csv">
0,0,0,0,0,0,0,0,0,0,0,0,0,0,0,0,0,0,0,0,0,0,0,0,0,0,0,0,0,0,0,0,0,0,0,0,0,0,0,0,0,0,0,0,0,0,0,0,0,0,0,0,0,0,0,0,0,0,0,0,0,0,0,0,0,0,0,0,0,0,0,0,0,0,0,0,0,0,0,0,0,0,0,0,0,0,0,0,0,0,0,0,0,0,0,0,0,0,0,0,
0,0,0,0,0,0,0,0,0,0,0,0,0,0,0,0,0,0,0,0,0,0,0,0,0,0,0,0,0,0,0,0,0,0,0,0,0,0,0,0,0,0,0,0,0,0,0,0,0,0,0,0,0,0,0,0,0,0,0,0,0,0,0,0,0,0,0,0,0,0,0,0,0,0,0,0,0,0,0,0,0,0,0,0,0,0,0,0,0,0,0,0,0,0,0,0,0,0,0,0,
0,0,0,0,0,0,0,0,0,0,0,0,0,0,0,0,0,0,0,0,0,0,0,0,0,0,0,0,0,0,0,0,0,0,0,0,0,0,0,0,0,0,0,0,0,0,0,0,0,0,0,0,0,0,0,0,0,0,0,0,0,0,0,0,0,0,0,0,0,0,0,0,0,0,0,0,0,0,0,0,0,0,0,0,0,0,0,0,0,0,0,0,0,0,0,0,0,0,0,0,
0,0,0,0,0,0,0,0,0,0,0,0,0,0,0,0,0,0,0,0,0,0,0,0,0,0,0,0,0,0,0,0,0,0,0,0,0,0,0,0,0,0,0,0,0,0,0,0,0,0,0,0,0,0,0,0,0,0,0,0,0,0,0,0,0,0,0,0,0,0,0,0,0,0,0,0,0,0,0,0,0,0,0,0,0,0,0,0,0,0,0,0,0,0,0,0,0,0,0,0,
0,0,0,0,0,0,0,0,0,0,0,0,0,0,0,0,0,0,0,0,0,0,0,0,0,0,0,0,0,0,0,0,0,0,0,0,0,0,0,0,0,0,0,0,0,0,0,0,0,0,0,0,0,0,0,0,0,0,0,0,0,0,0,0,0,0,0,0,0,0,0,0,0,0,0,0,0,0,0,0,0,0,0,0,0,0,0,0,0,0,0,0,0,0,0,0,0,0,0,0,
0,0,0,0,0,0,0,0,0,0,0,0,0,0,0,0,0,0,0,0,0,0,0,0,0,0,0,0,0,0,0,0,0,0,0,0,0,0,0,0,0,0,0,0,0,0,0,0,0,0,0,0,0,0,0,0,0,0,0,0,0,0,0,0,0,0,0,0,0,0,0,0,0,0,0,0,0,0,0,0,0,0,0,0,0,0,0,0,0,0,0,0,0,0,0,0,0,0,0,0,
0,0,0,0,0,0,0,0,0,0,0,0,0,0,0,0,0,0,0,0,0,0,0,0,0,0,0,0,0,0,0,0,0,0,0,0,0,0,0,0,0,0,0,0,0,0,0,0,0,0,0,0,0,0,0,0,0,0,0,0,0,0,0,0,0,0,0,0,0,0,0,0,0,0,0,0,0,0,0,0,0,0,0,0,0,0,0,0,0,0,0,0,0,0,0,0,0,0,0,0,
0,0,0,0,0,0,0,0,0,0,0,0,0,0,0,0,0,0,0,0,0,0,0,0,0,0,0,0,0,0,0,0,0,0,0,0,0,0,0,0,0,0,0,0,0,0,0,0,0,0,0,0,0,0,0,0,0,0,0,0,0,0,0,0,0,0,0,0,0,0,0,0,0,0,0,0,0,0,0,0,0,0,0,0,0,0,0,0,0,0,0,0,0,0,0,0,0,0,0,0,
0,0,0,0,0,0,0,0,0,0,0,0,0,0,0,0,0,0,0,0,0,0,0,0,0,0,0,0,0,0,0,0,0,0,0,0,0,0,0,0,0,0,0,0,0,0,0,0,0,0,0,0,0,0,0,0,0,0,0,0,0,0,0,0,0,0,0,0,0,0,0,0,0,0,0,0,0,0,0,0,0,0,0,0,0,0,0,0,0,0,0,0,0,0,0,0,0,0,0,0,
0,0,0,0,0,0,0,0,0,0,0,0,0,0,0,0,0,0,0,0,0,0,0,0,0,0,0,0,0,0,0,0,0,0,0,0,0,0,0,0,0,0,0,0,0,0,0,0,0,0,0,0,0,0,0,0,0,0,0,0,0,0,0,0,0,0,0,0,0,0,0,0,0,0,0,0,0,0,0,0,0,0,0,0,0,0,0,0,0,0,0,0,0,0,0,0,0,0,0,0,
0,0,0,0,0,0,0,0,0,0,0,0,0,0,0,0,0,0,0,0,0,0,0,0,0,0,0,0,0,0,0,0,0,0,0,0,0,0,0,0,0,0,0,0,0,0,0,0,0,0,0,0,0,0,0,0,0,0,0,0,0,0,0,0,0,0,0,0,0,0,0,0,0,0,0,0,0,0,0,0,0,0,0,0,0,0,0,0,0,0,0,0,0,0,0,0,0,0,0,0,
0,0,0,0,0,0,0,0,0,0,0,0,0,0,0,0,0,0,0,0,0,0,0,0,0,0,0,0,0,0,0,0,0,0,0,0,0,0,0,0,0,0,0,0,0,0,0,0,0,0,0,0,0,0,0,0,0,0,0,0,0,0,0,0,0,0,0,0,0,0,0,0,0,0,0,0,0,0,0,0,0,0,0,0,0,0,0,0,0,0,0,0,0,0,0,0,0,0,0,0,
0,0,0,0,0,0,0,0,0,0,0,0,0,0,0,0,0,0,0,0,0,0,0,0,0,0,0,0,0,0,0,0,0,0,0,0,0,0,0,0,0,0,0,0,0,0,0,0,0,0,0,0,0,0,0,0,0,0,0,0,0,0,0,0,0,0,0,0,0,0,0,0,0,0,0,0,0,0,0,0,0,0,0,0,0,0,0,0,0,0,0,0,0,0,0,0,0,0,0,0,
0,0,0,0,0,0,0,0,0,0,0,0,0,0,0,0,0,0,0,0,0,0,0,0,0,0,0,0,0,0,0,0,0,0,0,0,0,0,0,0,0,0,0,0,0,0,0,0,0,0,0,0,0,0,0,0,0,0,0,0,0,0,0,0,0,0,0,0,0,0,0,0,0,0,0,0,0,0,0,0,0,0,0,0,0,0,0,0,0,0,0,0,0,0,0,0,0,0,0,0,
0,0,0,0,0,0,0,0,0,0,0,0,0,0,0,0,0,0,0,0,0,0,0,0,0,0,0,0,0,0,0,0,0,0,0,0,0,0,0,0,0,0,0,0,0,0,0,0,0,0,0,0,0,0,0,0,0,0,0,0,0,0,0,0,0,0,0,0,0,0,0,0,0,0,0,0,0,0,0,0,0,0,0,0,0,0,0,0,0,0,0,0,0,0,0,0,0,0,0,0,
0,0,0,0,0,0,0,0,0,0,0,0,0,0,0,0,0,0,0,0,0,0,0,0,0,0,0,0,0,0,0,0,0,0,0,0,0,0,0,0,0,0,0,0,0,0,0,0,0,0,0,0,0,0,0,0,0,0,0,0,0,0,0,0,0,0,0,0,0,0,0,0,0,0,0,0,0,0,0,0,0,0,0,0,0,0,0,0,0,0,0,0,0,0,0,0,0,0,0,0,
0,0,0,0,0,0,0,0,0,0,0,0,0,0,0,0,0,0,0,0,0,0,0,0,0,0,0,0,0,0,0,0,0,0,0,0,0,0,0,0,0,0,0,0,0,0,0,0,0,0,0,0,0,0,0,0,0,0,0,0,0,0,0,0,0,0,0,0,0,0,0,0,0,0,0,0,0,0,0,0,0,0,0,0,0,0,0,0,0,0,0,0,0,0,0,0,0,0,0,0,
0,0,0,0,0,0,0,0,0,0,0,0,0,0,0,0,0,0,0,0,0,0,0,0,0,0,0,0,0,0,0,0,0,0,0,0,0,0,0,0,0,0,0,0,0,0,0,0,0,0,0,0,0,0,0,0,0,0,0,0,0,0,0,0,0,0,0,0,0,0,0,0,0,0,0,0,0,0,0,0,0,0,0,0,0,0,0,0,0,0,0,0,0,0,0,0,0,0,0,0,
0,0,0,0,0,0,0,0,0,0,0,0,0,0,0,0,0,0,0,0,0,0,0,0,0,0,0,0,0,0,0,0,0,0,0,0,0,0,0,0,0,0,0,0,0,0,0,0,0,0,0,0,0,0,0,0,0,0,0,0,0,0,0,0,0,0,0,0,0,0,0,0,0,0,0,0,0,0,0,0,0,0,0,0,0,0,0,0,0,0,0,0,0,0,0,0,0,0,0,0,
0,0,0,0,0,0,0,0,0,0,0,0,0,0,0,0,0,0,0,0,0,0,0,0,0,0,0,0,0,0,0,0,0,0,0,0,0,0,0,0,0,0,0,0,0,0,0,0,0,0,0,0,0,0,0,0,0,0,0,0,0,0,0,0,0,0,0,0,0,0,0,0,0,0,0,0,0,0,0,0,0,0,0,0,0,0,0,0,0,0,0,0,0,0,0,0,0,0,0,0,
0,0,0,0,0,0,0,0,0,0,0,0,0,0,0,0,0,0,0,0,0,0,0,0,0,0,0,0,0,0,0,0,0,0,0,0,0,0,0,0,0,0,0,0,0,0,0,0,0,0,0,0,0,0,0,0,0,0,0,0,0,0,0,0,0,0,0,0,0,0,0,0,0,0,0,0,0,0,0,0,0,0,0,0,0,0,0,0,0,0,0,0,0,0,0,0,0,0,0,0,
0,0,0,0,0,0,0,0,0,0,0,0,0,0,0,0,0,0,0,0,0,0,0,0,0,0,0,0,0,0,0,0,0,0,0,0,0,0,0,0,0,0,0,0,0,0,0,0,0,0,0,0,0,0,0,0,0,0,0,0,0,0,0,0,0,0,0,0,0,0,0,0,0,0,0,0,0,0,0,0,0,0,0,0,0,0,0,0,0,0,0,0,0,0,0,0,0,0,0,0,
0,0,0,0,0,0,0,0,0,0,0,0,0,0,0,0,0,0,0,0,0,0,0,0,0,0,0,0,0,0,0,0,0,0,0,0,0,0,0,0,0,0,0,0,0,0,0,0,0,0,0,0,0,0,0,0,0,0,0,0,0,0,0,0,0,0,0,0,0,0,0,0,0,0,0,0,0,0,0,0,0,0,0,0,0,0,0,0,0,0,0,0,0,0,0,0,0,0,0,0,
0,0,0,0,0,0,0,0,0,0,0,0,0,0,0,0,0,0,0,0,0,0,0,0,0,0,0,0,0,0,0,0,0,0,0,0,0,0,0,0,0,0,0,0,0,0,0,0,0,0,0,0,0,0,0,0,0,0,0,0,0,0,0,0,0,0,0,0,0,0,0,0,0,0,0,0,0,0,0,0,0,0,0,0,0,0,0,0,0,0,0,0,0,0,0,0,0,0,0,0,
0,0,0,0,0,0,0,0,0,0,0,0,0,0,0,0,0,0,0,0,0,0,0,0,0,0,0,0,0,0,0,0,0,0,0,0,0,0,0,0,0,0,0,0,0,0,0,0,0,0,0,0,0,0,0,0,0,0,0,0,0,0,0,0,0,0,0,0,0,0,0,0,0,0,0,0,0,0,0,0,0,0,0,0,0,0,0,0,0,0,0,0,0,0,0,0,0,0,0,0,
0,0,0,0,0,0,0,0,0,0,0,0,0,0,0,0,0,0,0,0,0,0,0,0,0,0,0,0,0,0,0,0,0,0,0,0,0,0,0,0,0,0,0,0,0,0,0,0,0,0,0,0,0,0,0,0,0,0,0,0,0,0,0,0,0,0,0,0,0,0,0,0,0,0,0,0,0,0,0,0,0,0,0,0,0,0,0,0,0,0,0,0,0,0,0,0,0,0,0,0,
0,0,0,0,0,0,0,0,0,0,0,0,0,0,0,0,0,0,0,0,0,0,0,0,0,0,0,0,0,0,0,0,0,0,0,0,0,0,0,0,0,0,0,0,0,0,0,0,0,0,0,0,0,0,0,0,0,0,0,0,0,0,0,0,0,0,0,0,0,0,0,0,0,0,0,0,0,0,0,0,0,0,0,0,0,0,0,0,0,0,0,0,0,0,0,0,0,0,0,0,
0,0,0,0,0,0,0,0,0,0,0,0,0,0,0,0,0,0,0,0,0,0,0,0,0,0,0,0,0,0,0,0,0,0,0,0,0,0,0,0,0,0,0,0,0,0,0,0,0,0,0,0,0,0,0,0,0,0,0,0,0,0,0,0,0,0,0,0,0,0,0,0,0,0,0,0,0,0,0,0,0,0,0,0,0,0,0,0,0,0,0,0,0,0,0,0,0,0,0,0,
0,0,0,0,0,0,0,0,0,0,0,0,0,0,0,0,0,0,0,0,0,0,0,0,0,0,0,0,0,0,0,0,0,0,0,0,0,0,0,0,0,0,0,0,0,0,0,0,0,0,0,0,0,0,0,0,0,0,0,0,0,0,0,0,0,0,0,0,0,0,0,0,0,0,0,0,0,0,0,0,0,0,0,0,0,0,0,0,0,0,0,0,0,0,0,0,0,0,0,0,
0,0,0,0,0,0,0,0,0,0,0,0,0,0,0,0,0,0,0,0,0,0,0,0,0,0,0,0,0,0,0,0,0,0,0,0,0,0,0,0,0,0,0,0,0,0,0,0,0,0,0,0,0,0,0,0,0,0,0,0,0,0,0,0,0,0,0,0,0,0,0,0,0,0,0,0,0,0,0,0,0,0,0,0,0,0,0,0,0,0,0,0,0,0,0,0,0,0,0,0,
0,0,0,0,0,0,0,0,0,0,0,0,0,0,0,0,0,0,0,0,0,0,0,0,0,0,0,0,0,0,0,0,0,0,0,0,0,0,0,0,0,0,0,0,0,0,0,0,0,0,0,0,0,0,0,0,0,0,0,0,0,0,0,0,0,0,0,0,0,0,0,0,0,0,0,0,0,0,0,0,0,0,0,0,0,0,0,0,0,0,0,0,0,0,0,0,0,0,0,0,
0,0,0,0,0,0,0,0,0,0,0,0,0,0,0,0,0,0,0,0,0,0,0,0,0,0,0,0,0,0,0,0,0,0,0,0,0,0,0,0,0,0,0,0,0,0,0,0,0,0,0,0,0,0,0,0,0,0,0,0,0,0,0,0,0,0,0,0,0,0,0,0,0,0,0,0,0,0,0,0,0,0,0,0,0,0,0,0,0,0,0,0,0,0,0,0,0,0,0,0,
0,0,0,0,0,0,0,0,0,0,0,0,0,0,0,0,0,0,0,0,0,0,0,0,0,0,0,0,0,0,0,0,0,0,0,0,0,0,0,0,0,0,0,0,0,0,0,0,0,0,0,0,0,0,0,0,0,0,0,0,0,0,0,0,0,0,0,0,0,0,0,0,0,0,0,0,0,0,0,0,0,0,0,0,0,0,0,0,0,0,0,0,0,0,0,0,0,0,0,0,
0,0,0,0,0,0,0,0,0,0,0,0,0,0,0,0,0,0,0,0,0,0,0,0,0,0,0,0,0,0,0,0,0,0,0,0,0,0,0,0,0,0,0,0,0,0,0,0,0,0,0,0,0,0,0,0,0,0,0,0,0,0,0,0,0,0,0,0,0,0,0,0,0,0,0,0,0,0,0,0,0,0,0,0,0,0,0,0,0,0,0,0,0,0,0,0,0,0,0,0,
0,0,0,0,0,0,0,0,0,0,0,0,0,0,0,0,0,0,0,0,0,0,0,0,0,0,0,0,0,0,0,0,0,0,0,0,0,0,0,0,0,0,0,0,0,0,0,0,0,0,0,0,0,0,0,0,0,0,0,0,0,0,0,0,0,0,0,0,0,0,0,0,0,0,0,0,0,0,0,0,0,0,0,0,0,0,0,0,0,0,0,0,0,0,0,0,0,0,0,0,
0,0,0,0,0,0,0,0,0,0,0,0,0,0,0,0,0,0,0,0,0,0,0,0,0,0,0,0,0,0,0,0,0,0,0,0,0,0,0,0,0,0,0,0,0,0,0,0,0,0,0,0,0,0,0,0,0,0,0,0,0,0,0,0,0,0,0,0,0,0,0,0,0,0,0,0,0,0,0,0,0,0,0,0,0,0,0,0,0,0,0,0,0,0,0,0,0,0,0,0,
0,0,0,0,0,0,0,0,0,0,0,0,0,0,0,0,0,0,0,0,0,0,0,0,0,0,0,0,0,0,0,0,0,0,0,0,0,0,0,0,0,0,0,0,0,0,0,0,0,0,0,0,0,0,0,0,0,0,0,0,0,0,0,0,0,0,0,0,0,0,0,0,0,0,0,0,0,0,0,0,0,0,0,0,0,0,0,0,0,0,0,0,0,0,0,0,0,0,0,0,
0,0,0,0,0,0,0,0,0,0,0,0,0,0,0,0,0,0,0,0,0,0,0,0,0,0,0,0,0,0,0,0,0,0,0,0,0,0,0,0,0,0,0,0,0,0,0,0,0,0,0,0,0,0,0,0,0,0,0,0,0,0,0,0,0,0,0,0,0,0,0,0,0,0,0,0,0,0,0,0,0,0,0,0,0,0,0,0,0,0,0,0,0,0,0,0,0,0,0,0,
0,0,0,0,0,0,0,0,0,0,0,0,0,0,0,0,0,0,0,0,0,0,0,0,0,0,0,0,0,0,0,0,0,0,0,0,0,0,0,0,0,0,0,0,0,0,0,0,0,0,0,0,0,0,0,0,0,0,0,0,0,0,0,0,0,0,0,0,0,0,0,0,0,0,0,0,0,0,0,0,0,0,0,0,0,0,0,0,0,0,0,0,0,0,0,0,0,0,0,0,
0,0,0,0,0,0,0,0,0,0,0,0,0,0,0,0,0,0,0,0,0,0,0,0,0,0,0,0,0,0,0,0,0,0,0,0,0,0,0,0,0,0,0,0,0,0,0,0,0,0,0,0,0,0,0,0,0,0,0,0,0,0,0,0,0,0,0,0,0,0,0,0,0,0,0,0,0,0,0,0,0,0,0,0,0,0,0,0,0,0,0,0,0,0,0,0,0,0,0,0,
0,0,0,0,0,0,0,0,0,0,0,0,0,0,0,0,0,0,0,0,0,0,0,0,0,0,0,0,0,0,0,0,0,0,0,0,0,0,0,0,0,0,0,0,0,0,0,0,0,0,0,0,0,0,0,0,0,0,0,0,0,0,0,0,0,0,0,0,0,0,0,0,0,0,0,0,0,0,0,0,0,0,0,0,0,0,0,0,0,0,0,0,0,0,0,0,0,0,0,0,
0,0,0,0,0,0,0,0,0,0,0,0,0,0,0,0,0,0,0,0,0,0,0,0,0,0,0,0,0,0,0,0,0,0,0,0,0,0,0,0,0,0,0,0,0,0,0,0,0,0,0,0,0,0,0,0,0,0,0,0,0,0,0,0,0,0,0,0,0,0,0,0,0,0,0,0,0,0,0,0,0,0,0,0,0,0,0,0,0,0,0,0,0,0,0,0,0,0,0,0,
0,0,0,0,0,0,0,0,0,0,0,0,0,0,0,0,0,0,0,0,0,0,0,0,0,0,0,0,0,0,0,0,0,0,0,0,0,0,0,0,0,0,0,0,0,0,0,0,0,0,0,0,0,0,0,0,0,0,0,0,0,0,0,0,0,0,0,0,0,0,0,0,0,0,0,0,0,0,0,0,0,0,0,0,0,0,0,0,0,0,0,0,0,0,0,0,0,0,0,0,
0,0,0,0,0,0,0,0,0,0,0,0,0,0,0,0,0,0,0,0,0,0,0,0,0,0,0,0,0,0,0,0,0,0,0,0,0,0,0,0,0,0,0,0,0,0,0,0,0,0,0,0,0,0,0,0,0,0,0,0,0,0,0,0,0,0,0,0,0,0,0,0,0,0,0,0,0,0,0,0,0,0,0,0,0,0,0,0,0,0,0,0,0,0,0,0,0,0,0,0,
0,0,0,0,0,0,0,0,0,0,0,0,0,0,0,0,0,0,0,0,0,0,0,0,0,0,0,0,0,0,0,0,0,0,0,0,0,0,0,0,0,0,0,0,0,0,0,0,0,0,0,0,0,0,0,0,0,0,0,0,0,0,0,0,0,0,0,0,0,0,0,0,0,0,0,0,0,0,0,0,0,0,0,0,0,0,0,0,0,0,0,0,0,0,0,0,0,0,0,0,
0,0,0,0,0,0,0,0,0,0,0,0,0,0,0,0,0,0,0,0,0,0,0,0,0,0,0,0,0,0,0,0,0,0,0,0,0,0,0,0,0,0,0,0,0,0,0,0,0,0,0,0,0,0,0,0,0,0,0,0,0,0,0,0,0,0,0,0,0,0,0,0,0,0,0,0,0,0,0,0,0,0,0,0,0,0,0,0,0,0,0,0,0,0,0,0,0,0,0,0,
0,0,0,0,0,0,0,0,0,0,0,0,0,0,0,0,0,0,0,0,0,0,0,0,0,0,0,0,0,0,0,0,0,0,0,0,0,0,0,0,0,0,0,0,0,0,0,0,0,0,0,0,0,0,0,0,0,0,0,0,0,0,0,0,0,0,0,0,0,0,0,0,0,0,0,0,0,0,0,0,0,0,0,0,0,0,0,0,0,0,0,0,0,0,0,0,0,0,0,0,
0,0,0,0,0,0,0,0,0,0,0,0,0,0,0,0,0,0,0,0,0,0,0,0,0,0,0,0,0,0,0,0,0,0,0,0,0,0,0,0,0,0,0,0,0,0,0,0,0,0,0,0,0,0,0,0,0,0,0,0,0,0,0,0,0,0,0,0,0,0,0,0,0,0,0,0,0,0,0,0,0,0,0,0,0,0,0,0,0,0,0,0,0,0,0,0,0,0,0,0,
0,0,0,0,0,0,0,0,0,0,0,0,0,0,0,0,0,0,0,0,0,0,0,0,0,0,0,0,0,0,0,0,0,0,0,0,0,0,0,0,0,0,0,0,0,0,0,0,0,0,0,0,0,0,0,0,0,0,0,0,0,0,0,0,0,0,0,0,0,0,0,0,0,0,0,0,0,0,0,0,0,0,0,0,0,0,0,0,0,0,0,0,0,0,0,0,0,0,0,0,
0,0,0,0,0,0,0,0,0,0,0,0,0,0,0,0,0,0,0,0,0,0,0,0,0,0,0,0,0,0,0,0,0,0,0,0,0,0,0,0,0,0,0,0,0,0,0,0,0,0,0,0,0,0,0,0,0,0,0,0,0,0,0,0,0,0,0,0,0,0,0,0,0,0,0,0,0,0,0,0,0,0,0,0,0,0,0,0,0,0,0,0,0,0,0,0,0,0,0,0,
0,0,0,0,0,0,0,0,0,0,0,0,0,0,0,0,0,0,0,0,0,0,0,0,0,0,0,0,0,0,0,0,0,0,0,0,0,0,0,0,0,0,0,0,0,0,0,0,0,0,0,0,0,0,0,0,0,0,0,0,0,0,0,0,0,0,0,0,0,0,0,0,0,0,0,0,0,0,0,0,0,0,0,0,0,0,0,0,0,0,0,0,0,0,0,0,0,0,0,0,
0,0,0,0,0,0,0,0,0,0,0,0,0,0,0,0,0,0,0,0,0,0,0,0,0,0,0,0,0,0,0,0,0,0,0,0,0,0,0,0,0,0,0,0,0,0,0,0,0,0,0,0,0,0,0,0,0,0,0,0,0,0,0,0,0,0,0,0,0,0,0,0,0,0,0,0,0,0,0,0,0,0,0,0,0,0,0,0,0,0,0,0,0,0,0,0,0,0,0,0,
0,0,0,0,0,0,0,0,0,0,0,0,0,0,0,0,0,0,0,0,0,0,0,0,0,0,0,0,0,0,0,0,0,0,0,0,0,0,0,0,0,0,0,0,0,0,0,0,0,0,0,0,0,0,0,0,0,0,0,0,0,0,0,0,0,0,0,0,0,0,0,0,0,0,0,0,0,0,0,0,0,0,0,0,0,0,0,0,0,0,0,0,0,0,0,0,0,0,0,0,
0,0,0,0,0,0,0,0,0,0,0,0,0,0,0,0,0,0,0,0,0,0,0,0,0,0,0,0,0,0,0,0,0,0,0,0,0,0,0,0,0,0,0,0,0,0,0,0,0,0,0,0,0,0,0,0,0,0,0,0,0,0,0,0,0,0,0,0,0,0,0,0,0,0,0,0,0,0,0,0,0,0,0,0,0,0,0,0,0,0,0,0,0,0,0,0,0,0,0,0,
0,0,0,0,0,0,0,0,0,0,0,0,0,0,0,0,0,0,0,0,0,0,0,0,0,0,0,0,0,0,0,0,0,0,0,0,0,0,0,0,0,0,0,0,0,0,0,0,0,0,0,0,0,0,0,0,0,0,0,0,0,0,0,0,0,0,0,0,0,0,0,0,0,0,0,0,0,0,0,0,0,0,0,0,0,0,0,0,0,0,0,0,0,0,0,0,0,0,0,0,
0,0,0,0,0,0,0,0,0,0,0,0,0,0,0,0,0,0,0,0,0,0,0,0,0,0,0,0,0,0,0,0,0,0,0,0,0,0,0,0,0,0,0,0,0,0,0,0,0,0,0,0,0,0,0,0,0,0,0,0,0,0,0,0,0,0,0,0,0,0,0,0,0,0,0,0,0,0,0,0,0,0,0,0,0,0,0,0,0,0,0,0,0,0,0,0,0,0,0,0,
0,0,0,0,0,0,0,0,0,0,0,0,0,0,0,0,0,0,0,0,0,0,0,0,0,0,0,0,0,0,0,0,0,0,0,0,0,0,0,0,0,0,0,0,0,0,0,0,0,0,0,0,0,0,0,0,0,0,0,0,0,0,0,0,0,0,0,0,0,0,0,0,0,0,0,0,0,0,0,0,0,0,0,0,0,0,0,0,0,0,0,0,0,0,0,0,0,0,0,0,
0,0,0,0,0,0,0,0,0,0,0,0,0,0,0,0,0,0,0,0,0,0,0,0,0,0,0,0,0,0,0,0,0,0,0,0,0,0,0,0,0,0,0,0,0,0,0,0,0,0,0,0,0,0,0,0,0,0,0,0,0,0,0,0,0,0,0,0,0,0,0,0,0,0,0,0,0,0,0,0,0,0,0,0,0,0,0,0,0,0,0,0,0,0,0,0,0,0,0,0,
0,0,0,0,0,0,0,0,0,0,0,0,0,0,0,0,0,0,0,0,0,0,0,0,0,0,0,0,0,0,0,0,0,0,0,0,0,0,0,0,0,0,0,0,0,0,0,0,0,0,0,0,0,0,0,0,0,0,0,0,0,0,0,0,0,0,0,0,0,0,0,0,0,0,0,0,0,0,0,0,0,0,0,0,0,0,0,0,0,0,0,0,0,0,0,0,0,0,0,0,
0,0,0,0,0,0,0,0,0,0,0,0,0,0,0,0,0,0,0,0,0,0,0,0,0,0,0,0,0,0,0,0,0,0,0,0,0,0,0,0,0,0,0,0,0,0,0,0,0,0,0,0,0,0,0,0,0,0,0,0,0,0,0,0,0,0,0,0,0,0,0,0,0,0,0,0,0,0,0,0,0,0,0,0,0,0,0,0,0,0,0,0,0,0,0,0,0,0,0,0,
0,0,0,0,0,0,0,0,0,0,0,0,0,0,0,0,0,0,0,0,0,0,0,0,0,0,0,0,0,0,0,0,0,0,0,0,0,0,0,0,0,0,0,0,0,0,0,0,0,0,0,0,0,0,0,0,0,0,0,0,0,0,0,0,0,0,0,0,0,0,0,0,0,0,0,0,0,0,0,0,0,0,0,0,0,0,0,0,0,0,0,0,0,0,0,0,0,0,0,0,
0,0,0,0,0,0,0,0,0,0,0,0,0,0,0,0,0,0,0,0,0,0,0,0,0,0,0,0,0,0,0,0,0,0,0,0,0,0,0,0,0,0,0,0,0,0,0,0,0,0,0,0,0,0,0,0,0,0,0,0,0,0,0,0,0,0,0,0,0,0,0,0,0,0,0,0,0,0,0,0,0,0,0,0,0,0,0,0,0,0,0,0,0,0,0,0,0,0,0,0,
0,0,0,0,0,0,0,0,0,0,0,0,0,0,0,0,0,0,0,0,0,0,0,0,0,0,0,0,0,0,0,0,0,0,0,0,0,0,0,0,0,0,0,0,0,0,0,0,0,0,0,0,0,0,0,0,0,0,0,0,0,0,0,0,0,0,0,0,0,0,0,0,0,0,0,0,0,0,0,0,0,0,0,0,0,0,0,0,0,0,0,0,0,0,0,0,0,0,0,0,
0,0,0,0,0,0,0,0,0,0,0,0,0,0,0,0,0,0,0,0,0,0,0,0,0,0,0,0,0,0,0,0,0,0,0,0,0,0,0,0,0,0,0,0,0,0,0,0,0,0,0,0,0,0,0,0,0,0,0,0,0,0,0,0,0,0,0,0,0,0,0,0,0,0,0,0,0,0,0,0,0,0,0,0,0,0,0,0,0,0,0,0,0,0,0,0,0,0,0,0,
0,0,0,0,0,0,0,0,0,0,0,0,0,0,0,0,0,0,0,0,0,0,0,0,0,0,0,0,0,0,0,0,0,0,0,0,0,0,0,0,0,0,0,0,0,0,0,0,0,0,0,0,0,0,0,0,0,0,0,0,0,0,0,0,0,0,0,0,0,0,0,0,0,0,0,0,0,0,0,0,0,0,0,0,0,0,0,0,0,0,0,0,0,0,0,0,0,0,0,0,
0,0,0,0,2521,2026,2027,0,0,0,0,0,0,0,0,0,0,0,0,0,0,0,0,0,0,0,0,0,0,0,0,0,0,0,0,0,0,0,0,0,0,0,0,0,0,0,0,0,0,0,0,0,0,0,0,0,0,0,0,0,0,0,0,0,0,0,0,0,0,0,0,0,0,0,0,0,0,0,0,0,0,0,0,0,0,0,0,0,0,0,0,0,0,0,0,0,0,0,0,0,
0,2466,2354,2357,2080,2135,2303,2027,0,0,0,0,0,0,0,0,0,0,0,0,0,0,0,0,0,0,0,0,0,0,0,0,0,0,0,0,0,0,0,0,0,0,0,0,0,0,0,0,0,0,0,0,0,0,0,0,0,0,0,0,0,0,0,0,0,0,0,0,0,0,0,0,0,0,0,0,0,0,0,0,0,0,0,0,0,0,0,0,0,0,0,0,0,0,0,0,0,0,0,0,
0,2413,2191,2687,2135,2796,2081,2082,2027,0,0,0,0,0,0,0,0,0,0,0,0,0,0,0,0,0,0,0,0,0,0,0,0,0,0,0,0,0,0,0,0,0,0,0,0,0,0,0,0,0,0,0,0,0,0,0,0,0,0,0,0,0,0,0,0,0,0,0,0,0,0,0,0,0,0,0,0,0,0,0,0,0,0,0,0,0,0,0,0,0,0,0,0,0,0,0,0,0,0,0,
2576,2080,2798,2688,2081,2686,2136,2081,2138,0,0,0,0,0,0,0,0,0,0,0,0,0,0,0,0,0,2582,2361,2089,0,0,0,0,0,0,0,0,0,0,0,0,0,0,0,0,0,0,0,0,0,0,0,0,0,0,0,0,0,0,0,0,0,0,0,0,0,0,0,0,0,0,0,0,0,0,0,0,0,0,0,0,0,0,0,0,0,0,0,0,0,0,0,0,0,0,0,0,0,0,0,
2523,2191,2633,2137,2689,2630,2081,2796,2303,2357,2354,2357,2577,0,0,0,0,0,0,0,0,0,0,0,0,2472,2086,2805,2475,0,0,0,0,0,0,0,0,0,0,0,0,0,0,0,0,0,0,0,0,0,0,0,0,0,0,0,0,0,0,0,0,0,0,0,0,0,0,0,0,0,0,0,0,0,0,0,0,0,0,0,0,0,0,0,0,0,0,0,0,0,0,0,0,0,0,0,0,0,0,0,
2413,2137,2136,2135,2191,2135,2081,2135,2302,2412,2410,2244,2358,2357,2354,2356,2522,0,0,0,0,0,0,0,0,2584,2308,2252,2471,0,0,0,0,0,0,0,0,0,0,0,0,0,0,0,0,0,0,0,0,0,0,0,0,0,0,0,0,0,0,0,0,0,0,0,0,0,0,0,0,0,0,0,0,0,0,0,0,0,0,0,0,0,0,0,0,0,0,0,0,0,0,0,0,0,0,0,0,0,0,0,
2189,2301,2796,2135,2685,2849,2741,2302,2520,0,0,2245,2411,2410,2409,2301,2303,2083,0,0,0,0,0,0,0,2529,2530,0,0,0,0,0,0,0,0,0,0,0,0,0,0,0,0,0,0,0,0,0,0,0,0,0,0,0,0,0,0,0,0,0,0,0,0,0,0,0,0,0,0,0,0,0,0,0,0,0,0,0,0,0,0,0,0,0,0,0,0,0,0,0,0,0,0,0,0,0,0,0,0,0,
0,2189,2411,2409,2410,2410,2411,2247,0,0,0,0,0,0,0,2519,2244,2414,0,0,0,0,0,0,2085,2305,2585,0,0,0,0,0,0,0,0,0,0,0,0,0,0,0,0,0,0,0,0,0,0,0,0,0,0,0,0,0,0,0,0,0,0,0,0,0,0,0,0,0,0,0,0,0,0,0,0,0,0,0,0,0,0,0,0,0,0,0,0,0,0,0,0,0,0,0,0,0,0,0,0,0,
0,0,0,0,0,0,0,0,0,0,0,0,0,0,0,0,2189,2520,2527,2363,2360,2528,0,0,2584,2198,2253,0,0,0,0,0,0,0,0,0,0,0,0,0,0,0,0,0,0,0,0,0,0,0,0,0,0,0,0,0,0,0,0,0,0,0,0,0,0,0,0,0,0,0,0,0,0,0,0,0,0,0,0,0,0,0,0,0,0,0,0,0,0,0,0,0,0,0,0,0,0,0,0,0,
0,0,0,0,0,0,0,0,0,0,0,0,0,0,0,0,0,2582,2086,2308,2307,2309,2363,2362,2305,2475,0,0,0,0,0,0,0,0,0,0,0,0,0,0,0,0,0,0,0,0,0,0,0,0,0,0,0,0,0,0,0,0,0,0,0,0,0,0,0,0,0,0,0,0,0,0,0,0,0,0,0,0,0,0,0,0,0,0,0,0,0,0,0,0,0,0,0,0,0,0,0,0,0,0,
0,0,0,0,0,0,0,0,0,0,0,0,0,0,0,0,2085,2305,2198,2253,2251,2417,2307,2141,2198,2581,0,0,0,0,0,0,0,0,0,0,0,0,0,0,0,0,0,0,0,0,0,0,0,0,0,0,0,0,0,0,0,0,0,0,0,0,0,0,0,0,0,0,0,0,0,0,0,0,0,0,0,0,0,0,0,0,0,0,0,0,0,0,0,0,0,0,0,0,0,0,0,0,0,0,
0,0,0,0,0,0,0,0,0,0,0,0,0,0,0,0,2584,2198,2526,0,0,0,2525,2415,2581,0,0,0,0,0,0,0,0,0,0,0,0,0,0,0,0,0,0,0,0,0,0,0,0,0,0,0,0,0,0,0,0,0,0,0,0,0,0,0,0,0,0,0,0,0,0,0,0,0,0,0,0,0,0,0,0,0,0,0,0,0,0,0,0,0,0,0,0,0,0,0,0,0,0,0,
0,0,0,0,0,0,0,0,0,0,0,0,0,0,0,0,2529,2309,2089,0,0,0,0,0,0,0,0,0,0,0,0,0,0,0,0,0,0,0,0,0,0,0,0,0,0,0,0,0,0,0,0,0,0,0,0,0,0,0,0,0,0,0,0,0,0,0,0,0,0,0,0,0,0,0,0,0,0,0,0,0,0,0,0,0,0,0,0,0,0,0,0,0,0,0,0,0,0,0,0,0,
0,0,0,0,0,0,0,0,0,0,0,0,0,0,0,0,2525,2196,2088,2583,0,0,0,0,0,0,0,0,0,0,0,0,0,0,0,0,0,0,0,0,0,0,0,0,0,0,0,0,0,0,0,0,0,0,0,0,0,0,0,0,0,0,0,0,0,0,0,0,0,0,0,0,0,0,0,0,0,0,0,0,0,0,0,0,0,0,0,0,0,0,0,0,0,0,0,0,0,0,0,0,
0,0,0,0,0,0,0,0,0,0,0,0,0,0,0,0,0,2580,2307,2309,2360,2473,0,0,0,0,0,0,0,0,0,0,0,0,0,0,0,0,0,0,0,0,0,0,0,0,0,0,0,0,0,0,0,0,0,0,0,0,0,0,0,0,0,0,0,0,0,0,0,0,0,0,0,0,0,0,0,0,0,0,0,0,0,0,0,0,0,0,0,0,0,0,0,0,0,0,0,0,0,0,
0,0,0,0,0,0,0,0,0,0,0,0,0,0,0,0,0,0,2195,2252,2307,2309,2033,0,0,0,0,0,0,0,0,0,0,0,0,0,0,0,0,0,0,0,0,0,0,0,0,0,0,0,0,0,0,0,0,0,0,0,0,0,0,0,0,0,0,0,0,0,0,0,0,0,0,0,0,0,0,0,0,0,0,0,0,0,0,0,0,0,0,0,0,0,0,0,0,0,0,0,0,0,
0,0,0,0,0,0,0,0,0,0,0,0,0,0,0,0,0,0,0,0,2525,2250,2364,2033,0,0,0,0,0,0,0,0,0,0,0,0,0,0,0,0,0,0,0,0,0,0,0,0,0,0,0,0,0,0,0,0,0,0,0,0,0,0,0,0,0,0,0,0,0,0,0,0,0,0,0,0,0,0,0,0,0,0,0,0,0,0,0,0,0,0,0,0,0,0,0,0,0,0,0,0,
0,0,0,0,0,0,0,0,0,0,0,0,0,0,0,0,0,0,0,0,0,2525,2307,2309,2033,0,0,0,0,0,0,0,0,0,0,0,0,0,0,0,0,0,0,0,0,0,0,0,0,0,0,0,0,0,0,0,0,0,0,0,0,0,0,0,0,0,0,0,0,0,0,0,0,0,0,0,0,0,0,0,0,0,0,0,0,0,0,0,0,0,0,0,0,0,0,0,0,0,0,0,
0,0,0,0,0,0,0,0,0,0,0,0,0,0,0,0,0,0,0,0,0,0,2470,2307,2475,0,0,0,0,0,0,0,0,0,0,0,0,0,0,0,0,0,0,0,0,0,0,0,0,0,0,0,0,0,0,0,0,0,0,0,0,0,0,0,0,0,0,0,0,0,0,0,0,0,0,0,0,0,0,0,0,0,0,0,0,0,0,0,0,0,0,0,0,0,0,0,0,0,0,0,
0,0,0,0,0,0,2117,2121,2120,2120,2121,1900,0,2031,2362,2362,2363,2360,2583,0,0,0,0,2140,2585,0,0,0,0,0,0,0,0,0,0,0,0,0,0,0,0,0,0,0,0,0,0,0,0,0,0,0,0,0,0,0,0,0,0,0,0,0,0,0,0,0,0,0,0,0,0,0,0,0,0,0,0,0,0,0,0,0,0,0,0,0,0,0,0,0,0,0,0,0,0,0,0,0,0,0,
0,0,0,0,2117,2121,2172,2392,1954,2336,2450,2173,2174,2580,2418,2252,2418,2307,2364,2360,2528,0,0,2419,2309,2583,0,0,0,0,0,0,0,0,0,0,0,0,0,0,0,0,0,0,0,0,0,0,0,0,0,0,0,0,0,0,0,0,0,0,0,0,0,0,0,0,0,0,0,0,0,0,0,0,0,0,0,0,0,0,0,0,0,0,0,0,0,0,0,0,0,0,0,0,0,0,0,0,0,0,
0,0,0,0,1951,2446,1952,1954,2448,2339,2008,1954,1899,1843,1844,0,0,2251,2418,2307,2364,2033,2582,2086,2254,2253,0,0,0,0,0,0,0,0,0,0,0,0,0,0,0,0,0,0,0,0,0,0,0,0,0,0,0,0,0,0,0,0,0,0,0,0,0,0,0,0,0,0,0,0,0,0,0,0,0,0,0,0,0,0,0,0,0,0,0,0,0,0,0,0,0,0,0,0,0,0,0,0,0,0,
0,0,0,2171,1897,1952,1898,2339,1954,2449,2008,2336,2008,1953,1955,0,0,0,0,2470,2307,2088,2305,2198,2581,0,0,0,0,0,0,0,0,0,0,0,0,0,0,0,0,0,0,0,0,0,0,0,0,0,0,0,0,0,0,0,0,0,0,0,0,0,0,0,0,0,0,0,0,0,0,0,0,0,0,0,0,0,0,0,0,0,0,0,0,0,0,0,0,0,0,0,0,0,0,0,0,0,0,0,
0,0,0,2230,2395,2008,2392,1953,2009,2227,2392,1954,1898,2449,2286,0,0,0,0,0,2525,2417,2416,2581,0,0,0,0,0,0,0,0,0,0,0,0,0,0,0,0,0,0,0,0,0,0,0,0,0,0,0,0,0,0,0,0,0,0,0,0,0,0,0,0,0,0,0,0,0,0,0,0,0,0,0,0,0,0,0,0,0,0,0,0,0,0,0,0,0,0,0,0,0,0,0,0,0,0,0,0,
0,0,1896,2172,1953,1954,2396,2336,2173,2172,1898,2450,2450,1952,2173,1844,0,0,0,0,0,0,0,0,0,0,0,0,0,0,0,0,0,0,0,0,0,0,0,0,0,0,0,0,0,0,0,0,0,0,0,0,0,0,0,0,0,0,0,0,0,0,0,0,0,0,0,0,0,0,0,0,0,0,0,0,0,0,0,0,0,0,0,0,0,0,0,0,0,0,0,0,0,0,0,0,0,0,0,0,
0,0,1951,1953,2337,2008,1952,2341,2008,1953,2449,1953,1898,1898,1954,1899,2174,0,0,0,0,0,0,0,0,0,0,0,0,0,0,0,0,0,0,0,0,0,0,0,0,0,0,0,0,0,0,0,0,0,0,0,0,0,0,0,0,0,0,0,0,0,0,0,0,0,0,0,0,0,0,0,0,0,0,0,0,0,0,0,0,0,0,0,0,0,0,0,0,0,0,0,0,0,0,0,0,0,0,0,
0,0,2285,1953,1952,2391,2336,1954,1953,1954,1952,2338,2393,1953,2396,2341,1955,0,0,0,0,0,0,0,0,0,0,0,0,0,0,0,0,0,0,0,0,0,0,0,0,0,0,0,0,0,0,0,0,0,0,0,0,0,0,0,0,0,0,0,0,0,0,0,0,0,0,0,0,0,0,0,0,0,0,0,0,0,0,0,0,0,0,0,0,0,0,0,0,0,0,0,0,0,0,0,0,0,0,0,
0,0,2230,1954,1954,1898,2446,1898,1898,1954,2450,1954,1953,1954,1954,1898,1955,0,0,0,0,0,0,0,0,0,0,0,0,0,0,0,0,0,0,0,0,0,0,0,0,0,0,0,0,0,0,0,0,0,0,0,0,0,0,0,0,0,0,0,0,0,0,0,0,0,0,0,0,0,0,0,0,0,0,0,0,0,0,0,0,0,0,0,0,0,0,0,0,0,0,0,0,0,0,0,0,0,0,0,
0,0,2285,2336,2340,2008,1952,2008,1952,1952,1954,2449,1952,1898,2391,1954,1955,0,0,0,0,0,0,0,0,0,0,0,0,0,0,0,0,0,0,0,0,0,0,0,0,0,0,0,0,0,0,0,0,0,0,0,0,0,0,0,0,0,0,0,0,0,0,0,0,0,0,0,0,0,0,0,0,0,0,0,0,0,0,0,0,0,0,0,0,0,0,0,0,0,0,0,0,0,0,0,0,0,0,0,
0,0,2230,2396,1954,2450,1952,1954,1954,1898,2450,1953,2450,1898,2008,2228,2010,0,0,0,0,0,0,0,0,0,0,0,0,0,0,0,0,0,0,0,0,0,0,0,0,0,0,0,0,0,0,0,0,0,0,0,0,0,0,0,0,0,0,0,0,0,0,0,0,0,0,0,0,0,0,0,0,0,0,0,0,0,0,0,0,0,0,0,0,0,0,0,0,0,0,0,0,0,0,0,0,0,0,0,
0,0,2062,2007,1898,1953,1952,1954,1954,2336,2008,1898,1898,2008,2008,2231,0,0,0,0,0,0,0,0,0,0,0,0,0,0,0,0,0,0,0,0,0,0,0,0,0,0,0,0,0,0,0,0,0,0,0,0,0,0,0,0,0,0,0,0,0,0,0,0,0,0,0,0,0,0,0,0,0,0,0,0,0,0,0,0,0,0,0,0,0,0,0,0,0,0,0,0,0,0,0,0,0,0,0,0,
0,0,0,2282,2007,2008,1898,2447,1952,2448,2008,2008,2008,2228,2175,2283,0,0,0,0,0,0,0,0,0,0,0,0,0,0,0,0,0,0,0,0,0,0,0,0,0,0,0,0,0,0,0,0,0,0,0,0,0,0,0,0,0,0,0,0,0,0,0,0,0,0,0,0,0,0,0,0,0,0,0,0,0,0,0,0,0,0,0,0,0,0,0,0,0,0,0,0,0,0,0,0,0,0,0,0,
0,0,0,0,2282,2063,2176,2176,2175,2175,2176,2175,2063,2010,0,0,0,0,0,0,0,0,0,0,0,0,0,0,0,0,0,0,0,0,0,0,0,0,0,0,0,0,0,0,0,0,0,0,0,0,0,0,0,0,0,0,0,0,0,0,0,0,0,0,0,0,0,0,0,0,0,0,0,0,0,0,0,0,0,0,0,0,0,0,0,0,0,0,0,0,0,0,0,0,0,0,0,0,0,0,
0,0,0,0,0,0,0,0,0,0,0,0,0,0,0,0,0,0,0,0,0,0,0,0,0,0,0,0,0,0,0,0,0,0,0,0,0,0,0,0,0,0,0,0,0,0,0,0,0,0,0,0,0,0,0,0,0,0,0,0,0,0,0,0,0,0,0,0,0,0,0,0,0,0,0,0,0,0,0,0,0,0,0,0,0,0,0,0,0,0,0,0,0,0,0,0,0,0,0,0,
0,0,0,0,0,0,0,0,0,0,0,0,0,0,0,0,0,0,0,0,0,0,0,0,0,0,0,0,0,0,0,0,0,0,0,0,0,0,0,0,0,0,0,0,0,0,0,0,0,0,0,0,0,0,0,0,0,0,0,0,0,0,0,0,0,0,0,0,0,0,0,0,0,0,0,0,0,0,0,0,0,0,0,0,0,0,0,0,0,0,0,0,0,0,0,0,0,0,0,0
</data>
 </layer>
 <layer id="8" name="pedrasCidade" width="100" height="100">
  <data encoding="csv">
0,0,0,0,0,0,0,0,0,0,0,0,0,0,0,0,0,0,0,0,0,0,0,0,0,0,0,0,0,0,0,0,0,0,0,0,0,0,0,0,0,0,0,0,0,0,0,0,0,0,0,0,0,0,0,0,0,0,0,0,0,0,0,0,0,0,0,0,0,0,0,0,0,0,0,0,0,0,0,0,0,0,0,0,0,0,0,0,0,0,0,0,0,0,0,0,0,0,0,0,
0,0,0,0,0,0,0,0,0,0,0,0,0,0,0,0,0,0,0,0,0,0,0,0,0,0,0,0,0,0,0,0,0,0,0,0,0,0,0,0,0,0,0,0,0,0,0,0,0,0,0,0,0,0,0,0,0,0,0,0,0,0,0,0,0,0,0,0,0,0,0,0,0,0,0,0,0,0,0,0,0,0,0,0,0,0,0,0,0,0,0,0,0,0,0,0,0,0,0,0,
0,0,0,0,0,0,0,0,0,0,0,0,0,0,0,0,0,0,0,0,0,0,0,0,0,0,0,0,0,0,0,0,0,0,0,0,0,0,0,0,0,0,0,0,0,0,0,0,0,0,0,0,0,0,0,0,0,0,0,0,0,0,0,0,0,0,0,0,0,0,0,0,0,0,0,0,0,0,0,0,0,0,0,0,0,0,0,0,0,0,0,0,0,0,0,0,0,0,0,0,
0,0,0,0,0,0,0,0,0,0,0,0,0,0,0,0,0,0,0,0,0,0,0,0,0,0,0,0,0,0,0,0,0,0,0,0,0,0,0,0,0,0,0,0,0,0,0,0,0,0,0,0,0,0,0,0,0,0,0,0,0,0,0,0,0,0,0,0,0,0,0,0,0,0,0,0,0,0,0,0,0,0,0,0,0,0,0,0,0,0,0,0,0,0,0,0,0,0,0,0,
0,0,0,0,0,0,0,0,0,0,0,0,0,0,0,0,0,0,0,0,0,0,0,0,0,0,0,0,0,0,0,0,0,0,0,0,0,0,0,0,0,0,0,0,0,0,0,0,0,0,0,0,0,0,0,0,0,0,0,0,0,0,0,0,0,0,0,0,0,0,0,0,0,0,0,0,0,0,0,0,0,0,0,0,0,0,0,0,0,0,0,0,0,0,0,0,0,0,0,0,
0,0,0,0,0,0,0,0,0,0,0,0,0,0,0,0,0,0,0,0,0,0,0,0,0,0,0,0,0,0,0,0,0,0,0,0,0,0,0,0,0,0,0,0,0,0,0,0,0,0,0,0,0,0,0,0,0,0,0,0,0,0,0,0,0,0,0,0,0,0,0,0,0,0,0,0,0,0,0,0,0,0,0,0,0,0,0,0,0,0,0,0,0,0,0,0,0,0,0,0,
0,0,0,0,0,0,0,0,0,0,0,0,0,0,0,0,0,0,0,0,0,0,0,0,0,0,0,0,0,0,0,0,0,0,0,0,0,0,0,0,0,0,0,0,0,0,0,0,0,0,0,0,0,0,0,0,0,0,0,0,0,0,0,0,0,0,0,0,0,0,0,0,0,0,0,0,0,0,0,0,0,0,0,0,0,0,0,0,0,0,0,0,0,0,0,0,0,0,0,0,
0,0,0,0,0,0,0,0,0,0,0,0,0,0,0,0,0,0,0,0,0,0,0,0,0,0,0,0,0,0,0,0,0,0,0,0,0,0,0,0,0,0,0,0,0,0,0,0,0,0,0,0,0,0,0,0,0,0,0,0,0,0,0,0,0,0,0,0,0,0,0,0,0,0,0,0,0,0,0,0,0,0,0,0,0,0,0,0,0,0,0,0,0,0,0,0,0,0,0,0,
0,0,0,0,0,0,0,0,0,0,0,0,0,0,0,0,0,0,0,0,0,0,0,0,0,0,0,0,0,0,0,0,0,0,0,0,0,0,0,0,0,0,0,0,0,0,0,0,0,0,0,0,0,0,0,0,0,0,0,0,0,0,0,0,0,0,0,0,0,0,0,0,0,0,0,0,0,0,0,0,0,0,0,0,0,0,0,0,0,0,0,0,0,0,0,0,0,0,0,0,
0,0,0,0,0,0,0,0,0,0,0,0,0,0,0,0,0,0,0,0,0,0,0,0,0,0,0,0,0,0,0,0,0,0,0,0,0,0,0,0,0,0,0,0,0,0,0,0,0,0,0,0,0,0,0,0,0,0,0,0,0,0,0,0,0,0,0,0,0,0,0,0,0,0,0,0,0,0,0,0,0,0,0,0,0,0,0,0,0,0,0,0,0,0,0,0,0,0,0,0,
0,0,0,0,0,0,0,0,0,0,0,0,0,0,0,0,0,0,0,0,0,0,0,0,0,0,0,0,0,0,0,0,0,0,0,0,0,0,0,0,0,0,0,0,0,0,0,0,0,0,0,0,0,0,0,0,0,0,0,0,0,0,0,0,0,0,0,0,0,0,0,0,0,0,0,0,0,0,0,0,0,0,0,0,0,0,0,0,0,0,0,0,0,0,0,0,0,0,0,0,
0,0,0,0,0,0,0,0,0,0,0,0,0,0,0,0,0,0,0,0,0,0,0,0,0,0,0,0,0,0,0,0,0,0,0,0,0,0,0,0,0,0,0,0,0,0,0,0,0,0,0,0,0,0,0,0,0,0,0,0,0,0,0,0,0,0,0,0,0,0,0,0,0,0,0,0,0,0,0,0,0,0,0,0,0,0,0,0,0,0,0,0,0,0,0,0,0,0,0,0,
0,0,0,0,0,0,0,0,0,0,0,0,0,0,0,0,0,0,0,0,0,0,0,0,0,0,0,0,0,0,0,0,0,0,0,0,0,0,0,0,0,0,0,0,0,0,0,0,0,0,0,0,0,0,0,0,0,0,0,0,0,0,0,0,0,0,0,0,0,0,0,0,0,0,0,0,0,0,0,0,0,0,0,0,0,0,0,0,0,0,0,0,0,0,0,0,0,0,0,0,
0,0,0,0,0,0,0,0,0,0,0,0,0,0,0,0,0,0,0,0,0,0,0,0,0,0,0,0,0,0,0,0,0,0,0,0,0,0,0,0,0,0,0,0,0,0,0,0,0,0,0,0,0,0,0,0,0,0,0,0,0,0,0,0,0,0,0,0,0,0,0,0,0,0,0,0,0,0,0,0,0,0,0,0,0,0,0,0,0,0,0,0,0,0,0,0,0,0,0,0,
0,0,0,0,0,0,0,0,0,0,0,0,0,0,0,0,0,0,0,0,0,0,0,0,0,0,0,0,0,0,0,0,0,0,0,0,0,0,0,0,0,0,0,0,0,0,0,0,0,0,0,0,0,0,0,0,0,0,0,0,0,0,0,0,0,0,0,0,0,0,0,0,0,0,0,0,0,0,0,0,0,0,0,0,0,0,0,0,0,0,0,0,0,0,0,0,0,0,0,0,
0,0,0,0,0,0,0,0,0,0,0,0,0,0,0,0,0,0,0,0,0,0,0,0,0,0,0,0,0,0,0,0,0,0,0,0,0,0,0,0,0,0,0,0,0,0,0,0,0,0,0,0,0,0,0,0,0,0,0,0,0,0,0,0,0,0,0,0,0,0,0,0,0,0,0,0,0,0,0,0,0,0,0,0,0,0,0,0,0,0,0,0,0,0,0,0,0,0,0,0,
0,0,0,0,0,0,0,0,0,0,0,0,0,0,0,0,0,0,0,0,0,0,0,0,0,0,0,0,0,0,0,0,0,0,0,0,0,0,0,0,0,0,0,0,0,0,0,0,0,0,0,0,0,0,0,0,0,0,0,0,0,0,0,0,0,0,0,0,0,0,0,0,0,0,0,0,0,0,0,0,0,0,0,0,0,0,0,0,0,0,0,0,0,0,0,0,0,0,0,0,
0,0,0,0,0,0,0,0,0,0,0,0,0,0,0,0,0,0,0,0,0,0,0,0,0,0,0,0,0,0,0,0,0,0,0,0,0,0,0,0,0,0,0,0,0,0,0,0,0,0,0,0,0,0,0,0,0,0,0,0,0,0,0,0,0,0,0,0,0,0,0,0,0,0,0,0,0,0,0,0,0,0,0,0,0,0,0,0,0,0,0,0,0,0,0,0,0,0,0,0,
0,0,0,0,0,0,0,0,0,0,0,0,0,0,0,0,0,0,0,0,0,0,0,0,0,0,0,0,0,0,0,0,0,0,0,0,0,0,0,0,0,0,0,0,0,0,0,0,0,0,0,0,0,0,0,0,0,0,0,0,0,0,0,0,0,0,0,0,0,0,0,0,0,0,0,0,0,0,0,0,0,0,0,0,0,0,0,0,0,0,0,0,0,0,0,0,0,0,0,0,
0,0,0,0,0,0,0,0,0,0,0,0,0,0,0,0,0,0,0,0,0,0,0,0,0,0,0,0,0,0,0,0,0,0,0,0,0,0,0,0,0,0,0,0,0,0,0,0,0,0,0,0,0,0,0,0,0,0,0,0,0,0,0,0,0,0,0,0,0,0,0,0,0,0,0,0,0,0,0,0,0,0,0,0,0,0,0,0,0,0,0,0,0,0,0,0,0,0,0,0,
0,0,0,0,0,0,0,0,0,0,0,0,0,0,0,0,0,0,0,0,0,0,0,0,0,0,0,0,0,0,0,0,0,0,0,0,0,0,0,0,0,0,0,0,0,0,0,0,0,0,0,0,0,0,0,0,0,0,0,0,0,0,0,0,0,0,0,0,0,0,0,0,0,0,0,0,0,0,0,0,0,0,0,0,0,0,0,0,0,0,0,0,0,0,0,0,0,0,0,0,
0,0,0,0,0,0,0,0,0,0,0,0,0,0,0,0,0,0,0,0,0,0,0,0,0,0,0,0,0,0,0,0,0,0,0,0,0,0,0,0,0,0,0,0,0,0,0,0,0,0,0,0,0,0,0,0,0,0,0,0,0,0,0,0,0,0,0,0,0,0,0,0,0,0,0,0,0,0,0,0,0,0,0,0,0,0,0,0,0,0,0,0,0,0,0,0,0,0,0,0,
0,0,0,0,0,0,0,0,0,0,0,0,0,0,0,0,0,0,0,0,0,0,0,0,0,0,0,0,0,0,0,0,0,0,0,0,0,0,0,0,0,0,0,0,0,0,0,0,0,0,0,0,0,0,0,0,0,0,0,0,0,0,0,0,0,0,0,0,0,0,0,0,0,0,0,0,0,0,0,0,0,0,0,0,0,0,0,0,0,0,0,0,0,0,0,0,0,0,0,0,
0,0,0,0,0,0,0,0,0,0,0,0,0,0,0,0,0,0,0,0,0,0,0,0,0,0,0,0,0,0,0,0,0,0,0,0,0,0,0,0,0,0,0,0,0,0,0,0,0,0,0,0,0,0,0,0,0,0,0,0,0,0,0,0,0,0,0,0,0,0,0,0,0,0,0,0,0,0,0,0,0,0,0,0,0,0,0,0,0,0,0,0,0,0,0,0,0,0,0,0,
0,0,0,0,0,0,0,0,0,0,0,0,0,0,0,0,0,0,0,0,0,0,0,0,0,0,0,0,0,0,0,0,0,0,0,0,0,0,0,0,0,0,0,0,0,0,0,0,0,0,0,0,0,0,0,0,0,0,0,0,0,0,0,0,0,0,0,0,0,0,0,0,0,0,0,0,0,0,0,0,0,0,0,0,0,0,0,0,0,0,0,0,0,0,0,0,0,0,0,0,
0,0,0,0,0,0,0,0,0,0,0,0,0,0,0,0,0,0,0,0,0,0,0,0,0,0,0,0,0,0,0,0,0,0,0,0,0,0,0,0,0,0,0,0,0,0,0,0,0,0,0,0,0,0,0,0,0,0,0,0,0,0,0,0,0,0,0,0,0,0,0,0,0,0,0,0,0,0,0,0,0,0,0,0,0,0,0,0,0,0,0,0,0,0,0,0,0,0,0,0,
0,0,0,0,0,0,0,0,0,0,0,0,0,0,0,0,0,0,0,0,0,0,0,0,0,0,0,0,0,0,0,0,0,0,0,0,0,0,0,0,0,0,0,0,0,0,0,0,0,0,0,0,0,0,0,0,0,0,0,0,0,0,0,0,0,0,0,0,0,0,0,0,0,0,0,0,0,0,0,0,0,0,0,0,0,0,0,0,0,0,0,0,0,0,0,0,0,0,0,0,
0,0,0,0,0,0,0,0,0,0,0,0,0,0,0,0,0,0,0,0,0,0,0,0,0,0,0,0,0,0,0,0,0,0,0,0,0,0,0,0,0,0,0,0,0,0,0,0,0,0,0,0,0,0,0,0,0,0,0,0,0,0,0,0,0,0,0,0,0,0,0,0,0,0,0,0,0,0,0,0,0,0,0,0,0,0,0,0,0,0,0,0,0,0,0,0,0,0,0,0,
0,0,0,0,0,0,0,0,0,0,0,0,0,0,0,0,0,0,0,0,0,0,0,0,0,0,0,0,0,0,0,0,0,0,0,0,0,0,0,0,0,0,0,0,0,0,0,0,0,0,0,0,0,0,0,0,0,0,0,0,0,0,0,0,0,0,0,0,0,0,0,0,0,0,0,0,0,0,0,0,0,0,0,0,0,0,0,0,0,0,0,0,0,0,0,0,0,0,0,0,
0,0,0,0,0,0,0,0,0,0,0,0,0,0,0,0,0,0,0,0,0,0,0,0,0,0,0,0,0,0,0,0,0,0,0,0,0,0,0,0,0,0,0,0,0,0,0,0,0,0,0,0,0,0,0,0,0,0,0,0,0,0,0,0,0,0,0,0,0,0,0,0,0,0,0,0,0,0,0,0,0,0,0,0,0,0,0,0,0,0,0,0,0,0,0,0,0,0,0,0,
0,0,0,0,0,0,0,0,0,0,0,0,0,0,0,0,0,0,0,0,0,0,0,0,0,0,0,0,0,0,0,0,0,0,0,0,0,0,0,0,0,0,0,0,0,0,0,0,0,0,0,0,0,0,0,0,0,0,0,0,0,0,0,0,0,0,0,0,0,0,0,0,0,0,0,0,0,0,0,0,0,0,0,0,0,0,0,0,0,0,0,0,0,0,0,0,0,0,0,0,
0,0,0,0,0,0,0,0,0,0,0,0,0,0,0,0,0,0,0,0,0,0,0,0,0,0,0,0,0,0,0,0,0,0,0,0,0,0,0,0,0,0,0,0,0,0,0,0,0,0,0,0,0,0,0,0,0,0,0,0,0,0,0,0,0,0,0,0,0,0,0,0,0,0,0,0,0,0,0,0,0,0,0,0,0,0,0,0,0,0,0,0,0,0,0,0,0,0,0,0,
0,0,0,0,0,0,0,0,0,0,0,0,0,0,0,0,0,0,0,0,0,0,0,0,0,0,0,0,0,0,0,0,0,0,0,0,0,0,0,0,0,0,0,0,0,0,0,0,0,0,0,0,0,0,0,0,0,0,0,0,0,0,0,0,0,0,0,0,0,0,0,0,0,0,0,0,0,0,0,0,0,0,0,0,0,0,0,0,0,0,0,0,0,0,0,0,0,0,0,0,
0,0,0,0,0,0,0,0,0,0,0,0,0,0,0,0,0,0,0,0,0,0,0,0,0,0,0,0,0,0,0,0,0,0,0,0,0,0,0,0,0,0,0,0,0,0,0,0,0,0,0,0,0,0,0,0,0,0,0,0,0,0,0,0,0,0,0,0,0,0,0,0,0,0,0,0,0,0,0,0,0,0,0,0,0,0,0,0,0,0,0,0,0,0,0,0,0,0,0,0,
0,0,0,0,0,0,0,0,0,0,0,0,0,0,0,0,0,0,0,0,0,0,0,0,0,0,0,0,0,0,0,0,0,0,0,0,0,0,0,0,0,0,0,0,0,0,0,0,0,0,0,0,0,0,0,0,0,0,0,0,0,0,0,0,0,0,0,0,0,0,0,0,0,0,0,0,0,0,0,0,0,0,0,0,0,0,0,0,0,0,0,0,0,0,0,0,0,0,0,0,
0,0,0,0,0,0,0,0,0,0,0,0,0,0,0,0,0,0,0,0,0,0,0,0,0,0,0,0,0,0,0,0,0,0,0,0,0,0,0,0,0,0,0,0,0,0,0,0,0,0,0,0,0,0,0,0,0,0,0,0,0,0,0,0,0,0,0,0,0,0,0,0,0,0,0,0,0,0,0,0,0,0,0,0,0,0,0,0,0,0,0,0,0,0,0,0,0,0,0,0,
0,0,0,0,0,0,0,0,0,0,0,0,0,0,0,0,0,0,0,0,0,0,0,0,0,0,0,0,0,0,0,0,0,0,0,0,0,0,0,0,0,0,0,0,0,0,0,0,0,0,0,0,0,0,0,0,0,0,0,0,0,0,0,0,0,0,0,0,0,0,0,0,0,0,0,0,0,0,0,0,0,0,0,0,0,0,0,0,0,0,0,0,0,0,0,0,0,0,0,0,
0,0,0,0,0,0,0,0,0,0,0,0,0,0,0,0,0,0,0,0,0,0,0,0,0,0,0,0,0,0,0,0,0,0,0,0,0,0,0,0,0,0,0,0,0,0,0,0,0,0,0,0,0,0,0,0,0,0,0,0,0,0,0,0,0,0,0,0,0,0,0,0,0,0,0,0,0,0,0,0,0,0,0,0,0,0,0,0,0,0,0,0,0,0,0,0,0,0,0,0,
0,0,0,0,0,0,0,0,0,0,0,0,0,0,0,0,0,0,0,0,0,0,0,0,0,0,0,0,0,0,0,0,0,0,0,0,0,0,0,0,0,0,0,0,0,0,0,0,0,0,0,0,0,0,0,0,0,0,0,0,0,0,0,0,0,0,0,0,0,0,0,0,0,0,0,0,0,0,0,0,0,0,0,0,0,0,0,0,0,0,0,0,0,0,0,0,0,0,0,0,
0,0,0,0,0,0,0,0,0,0,0,0,0,0,0,0,0,0,0,0,0,0,0,0,0,0,0,0,0,0,0,0,0,0,0,0,0,0,0,0,0,0,0,0,0,0,0,0,0,0,0,0,0,0,0,0,0,0,0,0,0,0,0,0,0,0,0,0,0,0,0,0,0,0,0,0,0,0,0,0,0,0,0,0,0,0,0,0,0,0,0,0,0,0,0,0,0,0,0,0,
0,0,0,0,0,0,0,0,0,0,0,0,0,0,0,0,0,0,0,0,0,0,0,0,0,0,0,0,0,0,0,0,0,0,0,0,0,0,0,0,0,0,0,0,0,0,0,0,0,0,0,0,0,0,0,0,0,0,0,0,0,0,0,0,0,0,0,0,0,0,0,0,0,0,0,0,0,0,0,0,0,0,0,0,0,0,0,0,0,0,0,0,0,0,0,0,0,0,0,0,
0,0,0,0,0,0,0,0,0,0,0,0,0,0,0,0,0,0,0,0,0,0,0,0,0,0,0,0,0,0,0,0,0,0,0,0,0,0,0,0,0,0,0,0,0,0,0,0,0,0,0,0,0,0,0,0,0,0,0,0,0,0,0,0,0,0,0,0,0,0,0,0,0,0,0,0,0,0,0,0,0,0,0,0,0,0,0,0,0,0,0,0,0,0,0,0,0,0,0,0,
0,0,0,0,0,0,0,0,0,0,0,0,0,0,0,0,0,0,0,0,0,0,0,0,0,0,0,0,0,0,0,0,0,0,0,0,0,0,0,0,0,0,0,0,0,0,0,0,0,0,0,0,0,0,0,0,0,0,0,0,0,0,0,0,0,0,0,0,0,0,0,0,0,0,0,0,0,0,0,0,0,0,0,0,0,0,0,0,0,0,0,0,0,0,0,0,0,0,0,0,
0,0,0,0,0,0,0,0,0,0,0,0,0,0,0,0,0,0,0,0,0,0,0,0,0,0,0,0,0,0,0,0,0,0,0,0,0,0,0,0,0,0,0,0,0,0,0,0,0,0,0,0,0,0,0,0,0,0,0,0,0,0,0,0,0,0,0,0,0,0,0,0,0,0,0,0,0,0,0,0,0,0,0,0,0,0,0,0,0,0,0,0,0,0,0,0,0,0,0,0,
0,0,0,0,0,0,0,0,0,0,0,0,0,0,0,0,0,0,0,0,0,0,0,0,0,0,0,0,0,0,0,0,0,0,0,0,0,0,0,0,0,0,0,0,0,0,0,0,0,0,0,0,0,0,0,0,0,0,0,0,0,0,0,0,0,0,0,0,0,0,0,0,0,0,0,0,0,0,0,0,0,0,0,0,0,0,0,0,0,0,0,0,0,0,0,0,0,0,0,0,
0,0,0,0,0,0,0,0,0,0,0,0,0,0,0,0,0,0,0,0,0,0,0,0,0,0,0,0,0,0,0,0,0,0,0,0,0,0,0,0,0,0,0,0,0,0,0,0,0,0,0,0,0,0,0,0,0,0,0,0,0,0,0,0,0,0,0,0,0,0,0,0,0,0,0,0,0,0,0,0,0,0,0,0,0,0,0,0,0,0,0,0,0,0,0,0,0,0,0,0,
0,0,0,0,0,0,0,0,0,0,0,0,0,0,0,0,0,0,0,0,0,0,0,0,0,0,0,0,0,0,0,0,0,0,0,0,0,0,0,0,0,0,0,0,0,0,0,0,0,0,0,0,0,0,0,0,0,0,0,0,0,0,0,0,0,0,0,0,0,0,0,0,0,0,0,0,0,0,0,0,0,0,0,0,0,0,0,0,0,0,0,0,0,0,0,0,0,0,0,0,
0,0,0,0,0,0,0,0,0,0,0,0,0,0,0,0,0,0,0,0,0,0,0,0,0,0,0,0,0,0,0,0,0,0,0,0,0,0,0,0,0,0,0,0,0,0,0,0,0,0,0,0,0,0,0,0,0,0,0,0,0,0,0,0,0,0,0,0,0,0,0,0,0,0,0,0,0,0,0,0,0,0,0,0,0,0,0,0,0,0,0,0,0,0,0,0,0,0,0,0,
0,0,0,0,0,0,0,0,0,0,0,0,0,0,0,0,0,0,0,0,0,0,0,0,0,0,0,0,0,0,0,0,0,0,0,0,0,0,0,0,0,0,0,0,0,0,0,0,0,0,0,0,0,0,0,0,0,0,0,0,0,0,0,0,0,0,0,0,0,0,0,0,0,0,0,0,0,0,0,0,0,0,0,0,0,0,0,0,0,0,0,0,0,0,0,0,0,0,0,0,
0,0,0,0,0,0,0,0,0,0,0,0,0,0,0,0,0,0,0,0,0,0,0,0,0,0,0,0,0,0,0,0,0,0,0,0,0,0,0,0,0,0,0,0,0,0,0,0,0,0,0,0,0,0,0,0,0,0,0,0,0,0,0,0,0,0,0,0,0,0,0,0,0,0,0,0,0,0,0,0,0,0,0,0,0,0,0,0,0,0,0,0,0,0,0,0,0,0,0,0,
0,0,0,0,0,0,0,0,0,0,0,0,0,0,0,0,0,0,0,0,0,0,0,0,0,0,0,0,0,0,0,0,0,0,0,0,0,0,0,0,0,0,0,0,0,0,0,0,0,0,0,0,0,0,0,0,0,0,0,0,0,0,0,0,0,0,0,0,0,0,0,0,0,0,0,0,0,0,0,0,0,0,0,0,0,0,0,0,0,0,0,0,0,0,0,0,0,0,0,0,
0,0,0,0,0,0,0,0,0,0,0,0,0,0,0,0,0,0,0,0,0,0,0,0,0,0,0,0,0,0,0,0,0,0,0,0,0,0,0,0,0,0,0,0,0,0,0,0,0,0,0,0,0,0,0,0,0,0,0,0,0,0,0,0,0,0,0,0,0,0,0,0,0,0,0,0,0,0,0,0,0,0,0,0,0,0,0,0,0,0,0,0,0,0,0,0,0,0,0,0,
0,0,0,0,0,0,0,0,0,0,0,0,0,0,0,0,0,0,0,0,0,0,0,0,0,0,0,0,0,0,0,0,0,0,0,0,0,0,0,0,0,0,0,0,0,0,0,0,0,0,0,0,0,0,0,0,0,0,0,0,0,0,0,0,0,0,0,0,0,0,0,0,0,0,0,0,0,0,0,0,0,0,0,0,0,0,0,0,0,0,0,0,0,0,0,0,0,0,0,0,
0,0,0,0,0,0,0,0,0,0,0,0,0,0,0,0,0,0,0,0,0,0,0,0,0,0,0,0,0,0,0,0,0,0,0,0,0,0,0,0,0,0,0,0,0,0,0,0,0,0,0,0,0,0,0,0,0,0,0,0,0,0,0,0,0,0,0,0,0,0,0,0,0,0,0,0,0,0,0,0,0,0,0,0,0,0,0,0,0,0,0,0,0,0,0,0,0,0,0,0,
0,0,0,0,0,0,0,0,0,0,0,0,0,0,0,0,0,0,0,0,0,0,0,0,0,0,0,0,0,0,0,0,0,0,0,0,0,0,0,0,0,0,0,0,0,0,0,0,0,0,0,0,0,0,0,0,0,0,0,0,0,0,0,0,0,0,0,0,0,0,0,0,0,0,0,0,0,0,0,0,0,0,0,0,0,0,0,0,0,0,0,0,0,0,0,0,0,0,0,0,
0,0,0,0,0,0,0,0,0,0,0,0,0,0,0,0,0,0,0,0,0,0,0,0,0,0,0,0,0,0,0,0,0,0,0,0,0,0,0,0,0,0,0,0,0,0,0,0,0,0,0,0,0,0,0,0,0,0,0,0,0,0,0,0,0,0,0,0,0,0,0,0,0,0,0,0,0,0,0,0,0,0,0,0,0,0,0,0,0,0,0,0,0,0,0,0,0,0,0,0,
0,0,0,0,0,0,0,0,0,0,0,0,0,0,0,0,0,0,0,0,0,0,0,0,0,0,0,0,0,0,0,0,0,0,0,0,0,0,0,0,0,0,0,0,0,0,0,0,0,0,0,0,0,0,0,0,0,0,0,0,0,0,0,0,0,0,0,0,0,0,0,0,0,0,0,0,0,0,0,0,0,0,0,0,0,0,0,0,0,0,0,0,0,0,0,0,0,0,0,0,
0,0,0,0,0,0,0,0,0,0,0,0,0,0,0,0,0,0,0,0,0,0,0,0,0,0,0,0,0,0,0,0,0,0,0,0,0,0,0,0,0,0,0,0,0,0,0,0,0,0,0,0,0,0,0,0,0,0,0,0,0,0,0,0,0,0,0,0,0,0,0,0,0,0,0,0,0,0,0,0,0,0,0,0,0,0,0,0,0,0,0,0,0,0,0,0,0,0,0,0,
0,0,0,0,0,0,0,0,0,0,0,0,0,0,0,0,0,0,0,0,0,0,0,0,0,0,0,0,0,0,0,0,0,0,0,0,0,0,0,0,0,0,0,0,0,0,0,0,0,0,0,0,0,0,0,0,0,0,0,0,0,0,0,0,0,0,0,0,0,0,0,0,0,0,0,0,0,0,0,0,0,0,0,0,0,0,0,0,0,0,0,0,0,0,0,0,0,0,0,0,
0,0,0,0,0,0,0,0,0,0,0,0,0,0,0,0,0,0,0,0,0,0,0,0,0,0,0,0,0,0,0,0,0,0,0,0,0,0,0,0,0,0,0,0,0,0,0,0,0,0,0,0,0,0,0,0,0,0,0,0,0,0,0,0,0,0,0,0,0,0,0,0,0,0,0,0,0,0,0,0,0,0,0,0,0,0,0,0,0,0,0,0,0,0,0,0,0,0,0,0,
0,0,0,0,0,0,0,0,0,0,0,0,0,0,0,0,0,0,0,0,0,0,0,0,0,0,0,0,0,0,0,0,0,0,0,0,0,0,0,0,0,0,0,0,0,0,0,0,0,0,0,0,0,0,0,0,0,0,0,0,0,0,0,0,0,0,0,0,0,0,0,0,0,0,0,0,0,0,0,0,0,0,0,0,0,0,0,0,0,0,0,0,0,0,0,0,0,0,0,0,
0,0,0,0,0,0,0,0,0,0,0,0,0,0,0,0,0,0,0,0,0,0,0,0,0,0,0,0,0,0,0,0,0,0,0,0,0,0,0,0,0,0,0,0,0,0,0,0,0,0,0,0,0,0,0,0,0,0,0,0,0,0,0,0,0,0,0,0,0,0,0,0,0,0,0,0,0,0,0,0,0,0,0,0,0,0,0,0,0,0,0,0,0,0,0,0,0,0,0,0,
0,0,0,0,0,0,0,0,0,0,0,0,0,0,0,0,0,0,0,0,0,0,0,0,0,0,0,0,0,0,0,0,0,0,0,0,0,0,0,0,0,0,0,0,0,0,0,0,0,0,0,0,0,0,0,0,0,0,0,0,0,0,0,0,0,0,0,0,0,0,0,0,0,0,0,0,0,0,0,0,0,0,0,0,0,0,0,0,0,0,0,0,0,0,0,0,0,0,0,0,
0,0,0,0,0,0,0,0,0,0,0,0,0,0,0,0,0,0,0,0,0,0,0,0,0,0,0,0,0,0,0,0,0,0,0,0,0,0,0,0,0,0,0,0,0,0,0,0,0,0,0,0,0,0,0,0,0,0,0,0,0,0,0,0,0,0,0,0,0,0,0,0,0,0,0,0,0,0,0,0,0,0,0,0,0,0,0,0,0,0,0,0,0,0,0,0,0,0,0,0,
0,0,0,0,0,0,0,0,0,0,0,0,0,0,0,0,0,0,0,0,0,0,0,0,0,0,0,0,0,0,0,0,0,0,0,0,0,0,0,0,0,0,0,0,0,0,0,0,0,0,0,0,0,0,0,0,0,0,0,0,0,0,0,0,0,0,0,0,0,0,0,0,0,0,0,0,0,0,0,0,0,0,0,0,0,0,0,0,0,0,0,0,0,0,0,0,0,0,0,0,
0,0,0,0,0,0,0,0,0,0,0,0,0,0,0,0,0,0,0,0,0,0,0,0,0,0,0,0,0,0,0,0,0,0,0,0,0,0,0,0,0,0,0,0,0,0,0,0,0,0,0,0,0,0,0,0,0,0,0,0,0,0,0,0,0,0,0,0,0,0,0,0,0,0,0,0,0,0,0,0,0,0,0,0,0,0,0,0,0,0,0,0,0,0,0,0,0,0,0,0,
0,0,0,0,0,0,0,0,0,0,0,0,0,0,0,0,0,0,0,0,0,0,0,0,0,0,0,0,0,0,0,0,0,0,0,0,0,0,0,0,0,0,0,0,0,0,0,0,0,0,0,0,0,0,0,0,0,0,0,0,0,0,0,0,0,0,0,0,0,0,0,0,0,0,0,0,0,0,0,0,0,0,0,0,0,0,0,0,0,0,0,0,0,0,0,0,0,0,0,0,
0,0,0,0,0,0,0,0,0,0,0,0,0,0,0,0,0,0,0,0,0,0,0,0,0,0,0,0,0,0,0,0,0,0,0,0,0,0,0,0,0,0,0,0,0,0,0,0,0,0,0,0,0,0,0,0,0,0,0,0,0,0,0,0,0,0,0,0,0,0,0,0,0,0,0,0,0,0,0,0,0,0,0,0,0,0,0,0,0,0,0,0,0,0,0,0,0,0,0,0,
0,0,0,0,0,0,0,0,0,0,0,0,0,0,0,0,0,0,0,0,0,0,0,0,0,0,0,0,0,0,0,0,0,0,0,0,0,0,0,0,0,0,0,0,0,0,0,0,0,0,0,0,0,0,0,0,0,0,0,0,0,0,0,0,0,0,0,0,0,0,0,0,0,0,0,0,0,0,0,0,0,0,0,0,0,0,0,0,0,0,0,0,0,0,0,0,0,0,0,0,
0,0,0,0,0,0,0,0,0,0,0,0,0,0,0,0,0,0,0,0,0,0,0,0,0,0,0,0,0,0,0,0,0,0,0,0,0,0,0,0,0,0,0,0,0,0,0,0,0,0,0,0,0,0,0,0,0,0,0,0,0,0,0,0,0,0,0,0,0,0,0,0,0,0,0,0,0,0,0,0,0,0,0,0,0,0,0,0,0,0,0,0,0,0,0,0,0,0,0,0,
0,0,0,0,0,0,0,0,0,0,0,0,0,0,0,0,0,0,0,0,0,0,0,0,0,0,0,0,0,0,0,0,0,0,0,0,0,0,0,0,0,0,0,0,0,0,0,0,0,0,0,0,0,0,0,0,0,0,0,0,0,0,0,0,0,0,0,0,0,0,0,0,0,0,0,0,0,0,0,0,0,0,0,0,0,0,0,0,0,0,0,0,0,0,0,0,0,0,0,0,
0,0,0,0,0,0,0,0,0,0,0,0,0,0,0,0,0,0,0,0,0,0,0,0,0,0,0,0,0,0,0,0,0,0,0,0,0,0,0,0,0,0,0,0,0,0,0,0,0,0,0,0,0,0,0,0,0,0,0,0,0,0,0,0,0,0,0,0,0,0,0,0,0,0,0,0,0,0,0,0,0,0,0,0,0,0,0,0,0,0,0,0,0,0,0,0,0,0,0,0,
0,0,0,0,0,0,0,0,0,0,0,0,0,0,0,0,0,0,0,0,0,0,0,0,0,0,0,0,0,0,0,0,0,0,0,0,0,0,0,0,0,0,0,0,0,0,0,0,0,0,0,0,0,0,0,0,0,0,0,0,0,0,0,0,0,0,0,0,0,0,0,0,0,0,0,0,0,0,0,0,0,0,0,0,0,0,0,0,0,0,0,0,0,0,0,0,0,0,0,0,
0,0,0,0,0,0,0,0,0,0,0,0,0,0,0,0,0,0,0,0,0,0,0,0,0,0,0,0,0,0,0,0,0,0,0,0,0,0,0,0,0,0,0,0,0,0,0,0,0,0,0,0,0,0,0,0,0,0,0,0,0,0,0,0,0,0,0,0,0,0,0,0,0,0,0,0,0,0,0,0,0,0,0,0,0,0,0,0,0,0,0,0,0,0,0,0,0,0,0,0,
0,0,0,0,0,0,0,0,0,0,0,0,0,0,0,0,0,0,0,0,0,0,0,0,0,0,0,0,0,0,0,0,0,0,0,0,0,0,0,0,0,0,0,0,0,0,0,0,0,0,0,0,0,0,0,0,0,0,0,0,0,0,0,0,0,0,0,0,0,0,0,0,0,0,0,0,0,0,0,0,0,0,0,0,0,0,0,0,0,0,0,0,0,0,0,0,0,0,0,0,
0,0,0,0,0,0,0,0,0,0,0,0,0,0,0,0,0,0,0,0,0,0,0,0,0,0,0,0,0,0,0,0,0,0,0,0,0,0,0,0,0,0,0,0,0,0,0,0,0,0,0,0,0,0,0,0,0,0,0,0,0,0,0,0,0,0,0,0,0,0,0,0,0,0,0,0,0,0,0,0,0,0,0,0,0,0,0,0,0,0,0,0,0,0,0,0,0,0,0,0,
0,0,0,0,0,0,0,0,0,0,0,0,0,0,0,0,0,0,0,0,0,0,0,0,0,0,0,0,0,0,0,0,0,0,0,0,0,0,0,0,0,0,0,0,0,0,0,0,0,0,0,0,0,0,0,0,0,0,0,0,0,0,0,0,0,0,0,0,0,0,0,0,0,0,0,0,0,0,0,0,0,0,0,0,0,0,0,0,0,0,0,0,0,0,0,0,0,0,0,0,
0,0,0,0,0,0,0,0,0,0,0,0,0,0,0,0,0,0,0,0,0,0,0,0,0,0,0,0,0,0,0,0,0,0,0,0,0,0,0,0,0,0,0,0,0,0,0,0,0,0,0,0,0,0,0,0,0,0,0,0,0,0,0,0,0,0,0,0,0,0,0,0,0,0,0,0,0,0,0,0,0,0,0,0,0,0,0,0,0,0,0,0,0,0,0,0,0,0,0,0,
0,0,0,0,0,0,0,0,0,0,0,0,0,0,0,0,0,0,0,0,0,0,0,0,0,0,0,0,0,0,0,0,0,0,0,0,0,0,0,0,0,0,0,0,0,0,0,0,0,0,0,0,0,0,0,0,0,0,0,0,0,0,0,0,0,0,0,0,0,0,0,0,0,0,0,0,0,0,0,0,0,0,0,0,0,0,0,0,0,0,0,0,0,0,0,0,0,0,0,0,
0,0,0,0,0,0,0,0,0,0,0,0,0,0,0,0,0,0,0,0,0,0,0,0,0,0,0,0,0,0,0,0,0,0,0,0,0,0,0,0,0,0,0,0,0,0,0,0,0,0,0,0,0,0,0,0,0,0,0,0,0,0,0,0,0,0,0,0,0,0,0,0,0,0,0,0,0,0,0,0,0,0,0,0,0,0,0,0,0,0,0,0,0,0,0,0,0,0,0,0,
0,0,0,0,0,0,0,0,0,0,0,0,0,0,0,0,0,0,0,0,0,0,0,0,0,0,0,0,0,0,0,0,0,0,0,0,0,0,0,0,0,0,0,0,0,0,0,0,0,0,0,0,0,0,0,0,0,0,0,0,0,0,0,0,0,0,0,0,0,0,0,0,0,0,0,0,0,0,0,0,0,0,0,0,0,0,0,0,0,0,0,0,0,0,0,0,0,0,0,0,
0,0,0,0,0,0,0,0,0,0,0,0,0,0,0,0,0,0,0,0,0,0,0,0,0,0,0,0,0,0,0,0,0,0,0,0,0,0,0,0,0,0,0,0,0,0,0,0,0,0,0,0,0,0,0,0,0,0,0,0,0,0,0,0,0,0,0,0,0,0,0,0,0,0,0,0,0,0,0,0,0,0,0,0,0,0,0,0,0,0,0,0,0,0,0,0,0,0,0,0,
0,0,0,0,0,0,0,0,0,0,0,0,0,0,0,0,0,0,0,0,0,0,0,0,0,0,0,0,0,0,0,0,0,0,0,0,0,0,0,0,0,0,0,0,0,0,0,0,0,0,0,0,0,0,0,0,0,0,0,0,0,0,0,0,0,0,0,0,0,0,0,0,0,0,0,0,0,0,0,0,0,0,0,0,0,0,0,0,0,0,0,0,0,0,0,0,0,0,0,0,
0,0,0,0,0,0,0,0,0,0,0,0,0,0,0,0,0,0,0,0,0,0,0,0,0,0,0,0,0,0,0,0,0,0,0,0,0,0,0,0,0,0,0,0,0,0,0,0,0,0,0,0,0,0,0,0,0,0,0,0,0,0,0,0,0,0,0,0,0,0,0,0,0,0,0,0,0,0,0,0,0,0,0,0,0,0,0,0,0,0,0,0,0,0,0,0,0,0,0,0,
0,0,0,0,0,0,0,0,0,0,0,0,0,0,0,0,0,0,0,0,0,0,0,0,0,0,0,0,0,0,0,0,0,0,0,0,0,0,0,0,0,0,0,0,0,0,0,0,0,0,0,0,0,0,0,0,0,0,0,0,0,0,0,0,0,0,0,0,0,0,0,0,0,0,0,0,0,0,0,0,0,0,0,0,0,0,0,0,0,0,0,0,0,0,0,0,0,0,0,0,
0,0,0,0,0,0,0,0,0,0,0,0,0,0,0,0,0,0,0,0,0,0,0,0,0,0,0,0,0,0,0,0,0,0,0,0,0,0,0,0,0,0,0,0,0,0,0,0,0,0,0,0,0,0,0,0,0,0,0,0,0,0,0,0,0,0,0,0,0,0,0,0,0,0,0,0,0,0,0,0,0,0,0,0,0,0,0,0,0,0,0,0,0,0,0,0,0,0,0,0,
0,0,0,0,0,0,0,0,0,0,0,0,0,0,0,0,0,0,0,0,0,0,0,0,0,0,0,0,0,0,0,0,0,0,0,0,0,0,0,0,0,0,0,0,0,0,0,0,0,0,0,0,0,0,0,0,0,0,0,0,0,0,0,0,0,0,0,0,0,0,0,0,0,0,0,0,0,0,0,0,0,0,0,0,0,0,0,0,0,0,0,0,0,0,0,0,0,0,0,0,
0,0,0,0,0,0,0,0,0,0,0,0,0,0,0,0,0,0,0,0,0,0,0,0,0,0,0,0,0,0,0,0,0,0,0,0,0,0,0,0,0,0,0,0,0,0,0,0,0,0,0,0,0,0,0,0,0,0,0,0,0,0,0,0,0,0,0,0,0,0,0,0,0,0,0,0,0,0,0,0,0,0,0,0,0,0,0,0,0,0,0,0,0,0,0,0,0,0,0,0,
0,0,0,0,0,0,0,0,0,0,0,0,0,0,0,0,0,0,0,0,0,0,0,0,0,0,0,0,0,0,0,0,0,0,0,0,0,0,0,0,0,0,0,0,0,0,0,0,0,0,0,0,0,0,0,0,0,0,0,0,0,0,0,0,0,0,0,0,0,0,0,0,0,0,0,0,0,0,0,0,0,0,0,0,0,0,0,0,0,0,0,0,0,0,0,0,0,0,0,0,
0,0,0,0,0,0,0,0,0,0,0,0,0,0,0,0,0,0,0,0,0,0,0,0,0,0,0,0,0,0,0,0,0,0,0,0,0,0,0,0,0,0,0,0,0,0,0,0,0,0,0,0,0,0,0,0,0,0,0,0,0,0,0,0,0,0,0,0,0,0,0,0,0,0,0,0,0,0,0,0,0,0,0,0,0,0,0,0,0,0,0,0,0,0,0,0,0,0,0,0,
0,0,0,0,0,0,0,0,0,0,0,0,0,0,0,0,0,0,0,0,0,0,0,0,0,0,0,0,0,0,0,0,0,0,0,0,0,0,0,0,0,0,0,0,0,0,0,0,0,0,0,0,0,0,0,0,0,0,0,0,0,0,0,0,0,0,0,0,0,0,0,0,0,0,0,0,0,0,0,0,0,0,0,0,0,0,0,0,0,0,0,0,0,0,0,0,0,0,0,0,
0,0,0,0,0,0,0,0,0,0,0,0,0,0,0,0,0,0,0,0,0,0,0,0,0,0,0,0,0,0,0,0,0,0,0,0,0,0,0,0,0,0,0,0,0,0,0,0,0,0,0,0,0,0,0,0,0,0,0,0,0,0,0,0,0,0,0,0,0,0,0,0,0,0,0,0,0,0,0,0,0,0,0,0,0,0,0,0,0,0,0,0,0,0,0,0,0,0,0,0,
0,0,0,0,0,0,0,0,0,0,0,0,0,0,0,0,0,0,0,0,0,0,0,0,0,0,0,0,0,0,0,0,0,0,0,0,0,0,0,0,0,0,0,0,0,0,0,0,0,0,0,0,0,0,0,0,0,0,0,0,0,0,0,0,0,0,0,0,0,0,0,0,0,0,0,0,0,0,0,0,0,0,0,0,0,0,0,0,0,0,0,0,0,0,0,0,0,0,0,0,
0,0,0,0,0,0,0,0,0,0,0,0,0,0,0,0,0,0,0,0,0,0,0,0,0,0,0,0,0,0,0,0,0,0,0,0,0,0,0,0,0,0,0,0,0,0,0,0,0,0,0,0,0,0,0,0,0,0,0,0,0,0,0,0,0,0,0,0,0,0,0,0,0,0,0,0,0,0,0,0,0,0,0,0,0,0,0,0,0,0,0,0,0,0,0,0,0,0,0,0,
0,0,0,0,0,0,0,0,0,0,0,0,0,0,0,0,0,0,0,0,0,0,0,0,0,0,0,0,0,0,0,0,0,0,0,0,0,0,0,0,0,0,0,0,0,0,0,0,0,0,0,0,0,0,0,0,0,0,0,0,0,0,0,0,0,0,0,0,0,0,0,0,0,0,0,0,0,0,0,0,0,0,0,0,0,0,0,0,0,0,0,0,0,0,0,0,0,0,0,0,
0,0,0,0,0,0,0,0,0,0,0,0,0,0,0,0,0,0,0,0,0,0,0,0,0,0,0,0,0,0,0,0,0,0,0,0,0,0,0,0,0,0,0,0,0,0,0,0,0,0,0,0,0,0,0,0,0,0,0,0,0,0,0,0,0,0,0,0,0,0,0,0,0,0,0,0,0,0,0,0,0,0,0,0,0,0,0,0,0,0,0,0,0,0,0,0,0,0,0,0,
0,0,0,0,0,0,0,0,0,0,0,0,0,0,0,0,0,0,0,0,0,0,0,0,0,0,0,0,0,0,0,0,0,0,0,0,0,0,0,0,0,0,0,0,0,0,0,0,0,0,0,0,0,0,0,0,0,0,0,0,0,0,0,0,0,0,0,0,0,0,0,0,0,0,0,0,0,0,0,0,0,0,0,0,0,0,0,0,0,0,0,0,0,0,0,0,0,0,0,0,
0,0,0,0,0,0,0,0,0,0,0,0,0,0,0,0,0,0,0,0,0,0,0,0,0,0,0,0,0,0,0,0,0,0,0,0,0,0,0,0,0,0,0,0,0,0,0,0,0,0,0,0,0,0,0,0,0,0,0,0,0,0,0,0,0,0,0,0,0,0,0,0,0,0,0,0,0,0,0,0,0,0,0,0,0,0,0,0,0,0,0,0,0,0,0,0,0,0,0,0,
0,0,0,0,0,0,0,0,0,0,0,0,0,0,0,0,0,0,0,0,0,0,0,0,0,0,0,0,0,0,0,0,0,0,0,0,0,0,0,0,0,0,0,0,0,0,0,0,0,0,0,0,0,0,0,0,0,0,0,0,0,0,0,0,0,0,0,0,0,0,0,0,0,0,0,0,0,0,0,0,0,0,0,0,0,0,0,0,0,0,0,0,0,0,0,0,0,0,0,0,
0,0,0,0,0,0,0,0,0,0,0,0,0,0,0,0,0,0,0,0,0,0,0,0,0,0,0,0,0,0,0,0,0,0,0,0,0,0,0,0,0,0,0,0,0,0,0,0,0,0,0,0,0,0,0,0,0,0,0,0,0,0,0,0,0,0,0,0,0,0,0,0,0,0,0,0,0,0,0,0,0,0,0,0,0,0,0,0,0,0,0,0,0,0,0,0,0,0,0,0
</data>
 </layer>
 <layer id="2" name="Mato" width="100" height="100">
  <data encoding="csv">
0,0,0,0,0,0,0,0,0,0,0,0,0,0,0,0,0,0,0,0,0,0,0,0,0,0,0,0,0,0,0,0,0,0,0,0,0,0,0,0,0,0,0,0,0,0,0,0,0,0,0,0,0,0,0,0,0,0,0,0,0,0,0,0,0,0,0,0,0,0,0,0,0,0,0,0,0,0,0,0,0,0,0,0,0,0,0,0,0,0,0,0,0,0,0,0,0,0,0,0,
0,0,0,0,0,0,0,0,0,0,0,0,0,0,0,0,0,0,0,0,0,0,0,0,0,0,0,0,0,0,0,0,0,0,0,0,0,0,0,0,0,0,0,0,0,0,0,0,0,0,0,0,0,0,0,0,0,0,0,0,0,0,0,0,0,0,0,0,0,0,0,0,0,0,0,0,0,0,0,0,0,0,0,0,0,0,0,0,0,0,0,0,0,0,0,0,0,0,0,0,
0,0,0,0,0,0,0,0,0,0,0,0,0,0,0,0,0,0,0,0,0,0,0,0,0,0,0,0,0,0,0,0,0,0,0,0,0,0,0,0,0,0,0,0,0,0,0,0,0,0,0,0,0,0,0,0,0,0,0,0,0,0,0,0,0,0,0,0,0,0,0,0,0,0,0,0,0,0,0,0,0,0,0,0,0,0,0,0,0,0,0,0,0,0,0,0,0,0,0,0,
0,0,0,0,0,0,0,0,0,0,0,0,0,0,0,0,0,0,0,0,0,0,0,0,0,0,0,0,0,0,0,0,0,0,0,0,0,0,0,0,0,0,0,0,0,0,0,0,0,0,0,0,0,0,0,0,0,0,0,0,0,0,0,0,0,0,0,0,0,0,0,0,0,0,0,0,0,0,0,0,0,0,0,0,0,0,0,0,0,0,0,0,0,0,0,0,0,0,0,0,
0,0,0,0,0,0,0,0,0,0,0,0,0,0,0,0,0,0,0,0,0,0,0,0,0,0,0,0,0,0,0,0,0,0,0,0,0,0,0,0,0,0,0,0,0,0,0,0,0,0,0,0,0,0,0,0,0,0,0,0,0,0,0,0,0,0,0,0,0,0,0,0,0,0,0,0,0,0,0,0,0,0,0,0,0,0,0,0,0,0,0,0,0,0,0,0,0,0,0,0,
0,0,0,0,0,0,0,0,0,0,0,0,0,0,0,0,0,0,0,0,0,0,0,0,0,0,0,0,0,0,0,0,0,0,0,0,0,0,0,0,0,0,0,0,0,0,0,0,0,0,0,0,0,0,0,0,0,0,0,0,0,0,0,0,0,0,0,0,0,0,0,0,0,0,0,0,0,0,0,0,0,0,0,0,0,0,0,0,0,0,0,0,0,0,0,0,0,0,0,0,
0,0,0,0,0,0,0,0,0,0,0,0,0,0,0,0,0,0,0,0,0,0,0,0,0,0,0,0,0,0,0,0,0,0,0,0,0,0,0,0,0,0,0,0,0,0,0,0,0,0,0,0,0,0,0,0,0,0,0,0,0,0,0,0,0,0,0,0,0,0,0,0,0,0,0,0,0,0,0,0,0,0,0,0,0,0,0,0,0,0,0,0,0,0,0,0,0,0,0,0,
0,0,0,0,0,0,0,0,0,0,0,0,0,0,0,0,0,0,0,0,0,0,0,0,0,0,0,0,0,0,0,0,0,0,0,0,0,0,0,0,0,0,0,0,0,0,0,0,0,0,0,0,0,0,0,0,0,0,0,0,0,0,0,0,0,0,0,0,0,0,0,0,0,0,0,0,0,0,0,0,0,0,0,0,0,0,0,0,0,0,0,0,0,0,0,0,0,0,0,0,
0,0,0,0,0,0,0,0,0,0,0,0,0,0,0,0,0,0,0,0,0,0,0,0,0,0,0,0,0,0,0,0,0,0,0,0,0,0,0,0,0,0,0,0,0,0,0,0,0,0,0,0,0,0,0,0,0,0,0,0,0,0,0,0,0,0,0,0,0,0,0,0,0,0,0,0,0,0,0,0,0,0,0,0,0,0,0,0,0,0,0,0,0,0,0,0,0,0,0,0,
0,0,0,0,0,0,0,0,0,0,0,0,0,0,0,0,0,0,0,0,0,0,0,0,0,0,0,0,0,0,0,0,0,0,0,0,0,0,0,0,0,0,0,0,0,0,0,0,0,0,0,0,0,0,0,0,0,0,0,0,0,0,0,0,0,0,0,0,0,0,0,0,0,0,0,0,0,0,0,0,0,0,0,0,0,0,0,0,0,0,0,0,0,0,0,0,0,0,0,0,
0,0,0,0,0,0,0,0,0,0,0,0,0,0,0,0,0,0,0,0,0,0,0,0,0,0,0,0,0,0,0,0,0,0,0,0,0,0,0,0,0,0,0,0,0,0,0,0,0,0,0,0,0,0,0,0,0,0,0,0,0,0,0,0,0,0,0,0,0,0,0,0,0,0,0,0,0,0,0,0,0,0,0,0,0,0,0,0,0,0,0,0,0,0,0,0,0,0,0,0,
0,0,0,0,0,0,0,0,0,0,0,0,0,0,0,0,0,0,0,0,0,0,0,0,0,0,0,0,0,0,0,0,0,0,0,0,0,0,0,0,0,0,0,0,0,0,0,0,0,0,0,0,0,0,0,0,0,0,0,0,0,0,0,0,0,0,0,0,0,0,0,0,0,0,0,0,0,0,0,0,0,0,0,0,0,0,0,0,0,0,0,0,0,0,0,0,0,0,0,0,
0,0,0,0,0,0,0,0,0,0,0,0,0,0,0,0,0,0,0,0,0,0,0,0,0,0,0,0,0,0,0,0,0,0,0,0,0,0,0,0,0,0,0,0,0,0,0,0,0,0,0,0,0,0,0,0,0,0,0,0,0,0,0,0,0,0,0,0,0,0,0,0,0,0,0,0,0,0,0,0,0,0,0,0,0,0,0,0,0,0,0,0,0,0,0,0,0,0,0,0,
0,0,0,0,0,0,0,0,0,0,0,0,0,0,0,0,0,0,0,0,0,0,0,0,0,0,0,0,0,0,0,0,0,0,0,0,0,0,0,0,0,0,0,0,0,0,0,0,0,0,0,0,0,0,0,0,0,0,0,0,0,0,0,0,0,0,0,0,0,0,0,0,0,0,0,0,0,0,0,0,0,0,0,0,0,0,0,0,0,0,0,0,0,0,0,0,0,0,0,0,
0,0,0,0,0,0,0,0,0,0,0,0,0,0,0,0,0,0,0,0,0,0,0,0,0,0,0,0,0,0,0,0,0,0,0,0,0,0,0,0,0,0,0,0,0,0,0,0,0,0,0,0,0,0,0,0,0,0,0,0,0,0,0,0,0,0,0,0,0,0,0,0,0,0,0,0,0,0,0,0,0,0,0,0,0,0,0,0,0,0,0,0,0,0,0,0,0,0,0,0,
0,0,0,0,0,0,0,0,0,0,0,0,0,0,0,0,0,0,0,0,0,0,0,0,0,0,0,0,0,0,0,0,0,0,0,0,0,0,0,0,0,0,0,0,0,0,0,0,0,0,0,0,0,0,0,0,0,0,0,0,0,0,0,0,0,0,0,0,0,0,0,0,0,0,0,0,0,0,0,0,0,0,0,0,0,0,0,0,0,0,0,0,0,0,0,0,0,0,0,0,
0,0,0,0,0,0,0,0,0,0,0,0,0,0,0,0,0,0,0,0,0,0,0,0,0,0,0,0,0,0,0,0,0,0,0,0,0,0,0,0,0,0,0,0,0,0,0,0,0,0,0,0,0,0,0,0,0,0,0,0,0,0,0,0,0,0,0,0,0,0,0,0,0,0,0,0,0,0,0,0,0,0,0,0,0,0,0,0,0,0,0,0,0,0,0,0,0,0,0,0,
0,0,0,0,0,0,0,0,0,0,0,0,0,0,0,0,0,0,0,0,0,0,0,0,0,0,0,0,0,0,0,0,0,0,0,0,0,0,0,0,0,0,0,0,0,0,0,0,0,0,0,0,0,0,0,0,0,0,0,0,0,0,0,0,0,0,0,0,0,0,0,0,0,0,0,0,0,0,0,0,0,0,0,0,0,0,0,0,0,0,0,0,0,0,0,0,0,0,0,0,
0,0,0,0,0,0,0,0,0,0,0,0,0,0,0,0,0,0,0,0,0,0,0,0,0,0,0,0,0,0,0,0,0,0,0,0,0,0,0,0,0,0,0,0,0,0,0,0,0,0,0,0,0,0,0,0,0,0,0,0,0,0,0,0,0,0,0,0,0,0,0,0,0,0,0,0,0,0,0,0,0,0,0,0,0,0,0,0,0,0,0,0,0,0,0,0,0,0,0,0,
0,0,0,0,0,0,0,0,0,0,0,0,0,0,0,0,0,0,0,0,0,0,0,0,0,0,0,0,0,0,0,0,0,0,0,0,0,0,0,0,0,0,0,0,0,0,0,0,0,0,0,0,0,0,0,0,0,0,0,0,0,0,0,0,0,0,0,0,0,0,0,0,0,0,0,0,0,0,0,0,0,0,0,0,0,0,0,0,0,0,0,0,0,0,0,0,0,0,0,0,
0,0,0,0,0,0,0,0,0,0,0,0,0,0,0,0,0,0,0,0,0,0,0,0,0,0,0,0,0,0,0,0,0,0,0,0,0,0,0,0,0,0,0,0,0,0,0,0,0,0,0,0,0,0,0,0,0,0,0,0,0,0,0,0,0,0,0,0,0,0,0,0,0,0,0,0,0,0,0,0,0,0,0,0,0,0,0,0,0,0,0,0,0,0,0,0,0,0,0,0,
0,0,0,0,0,0,0,0,0,0,0,0,0,0,0,0,0,0,0,0,0,0,0,0,0,0,0,0,0,0,0,0,0,0,0,0,0,0,0,0,0,0,0,0,0,0,0,0,0,0,0,0,0,0,0,0,0,0,0,0,0,0,0,0,0,0,0,0,0,0,0,0,0,0,0,0,0,0,0,0,0,0,0,0,0,0,0,0,0,0,0,0,0,0,0,0,0,0,0,0,
0,0,0,0,0,0,0,0,0,0,0,0,0,0,0,0,0,0,0,0,0,0,0,0,0,0,0,0,0,0,0,0,0,0,0,0,0,0,0,0,0,0,0,0,0,0,0,0,0,0,0,0,0,0,0,0,0,0,0,0,0,0,0,0,0,0,0,0,0,0,0,0,0,0,0,0,0,0,0,0,0,0,0,0,0,0,0,0,0,0,0,0,0,0,0,0,0,0,0,0,
0,0,0,0,0,0,0,0,0,0,0,0,0,0,0,0,0,0,0,0,0,0,0,0,0,0,0,0,0,0,0,0,0,0,0,0,0,0,0,0,0,0,0,0,0,0,0,0,0,0,0,0,0,0,0,0,0,0,0,0,0,0,0,0,0,0,0,0,0,0,0,0,0,0,0,0,0,0,0,0,0,0,0,0,0,0,0,0,0,0,0,0,0,0,0,0,0,0,0,0,
0,0,0,0,0,0,0,0,0,0,0,0,0,0,0,0,0,0,0,0,0,0,0,0,0,0,0,0,0,0,0,0,0,0,0,0,0,0,0,0,0,0,0,0,0,0,0,0,0,0,0,0,0,0,0,0,0,0,0,0,0,0,0,0,0,0,0,0,0,0,0,0,0,0,0,0,0,0,0,0,0,0,0,0,0,0,0,0,0,0,0,0,0,0,0,0,0,0,0,0,
0,0,0,0,0,0,0,0,0,0,0,0,0,0,0,0,0,0,0,0,0,0,0,0,0,0,0,0,0,0,0,0,0,0,0,0,0,0,0,0,0,0,0,0,0,0,0,0,0,0,0,0,0,0,0,0,0,0,0,0,0,0,0,0,0,0,0,0,0,0,0,0,0,0,0,0,0,0,0,0,0,0,0,0,0,0,0,0,0,0,0,0,0,0,0,0,0,0,0,0,
0,0,0,0,0,0,0,0,0,0,0,0,0,0,0,0,0,0,0,0,0,0,0,0,0,0,0,0,0,0,0,0,0,0,0,0,0,0,0,0,0,0,0,0,0,0,0,0,0,0,0,0,0,0,0,0,0,0,0,0,0,0,0,0,0,0,0,0,0,0,0,0,0,0,0,0,0,0,0,0,0,0,0,0,0,0,0,0,0,0,0,0,0,0,0,0,0,0,0,0,
0,0,0,0,0,0,0,0,0,0,0,0,0,0,0,0,0,0,0,0,0,0,0,0,0,0,0,0,0,0,0,0,0,0,0,0,0,0,0,0,0,0,0,0,0,0,0,0,0,0,0,0,0,0,0,0,0,0,0,0,0,0,0,0,0,0,0,0,0,0,0,0,0,0,0,0,0,0,0,0,0,0,0,0,0,0,0,0,0,0,0,0,0,0,0,0,0,0,0,0,
0,0,0,0,0,0,0,0,0,0,0,0,0,0,0,0,0,0,0,0,0,0,0,0,0,0,0,0,0,0,0,0,0,0,0,0,0,0,0,0,0,0,0,0,0,0,0,0,0,0,0,0,0,0,0,0,0,0,0,0,0,0,0,0,0,0,0,0,0,0,0,0,0,0,0,0,0,0,0,0,0,0,0,0,0,0,0,0,0,0,0,0,0,0,0,0,0,0,0,0,
0,0,0,0,0,0,0,0,0,0,0,0,0,0,0,0,0,0,0,0,0,0,0,0,0,0,0,0,0,0,0,0,0,0,0,0,0,0,0,0,0,0,0,0,0,0,0,0,0,0,0,0,0,0,0,0,0,0,0,0,0,0,0,0,0,0,0,0,0,0,0,0,0,0,0,0,0,0,0,0,0,0,0,0,0,0,0,0,0,0,0,0,0,0,0,0,0,0,0,0,
0,0,0,0,0,0,0,0,0,0,0,0,0,0,0,0,0,0,0,0,0,0,0,0,0,0,0,0,0,0,0,0,0,0,0,0,0,0,0,0,0,0,0,0,0,0,0,0,0,0,0,0,0,0,0,0,0,0,0,0,0,0,0,0,0,0,0,0,0,0,0,0,0,0,0,0,0,0,0,0,0,0,0,0,0,0,0,0,0,0,0,0,0,0,0,0,0,0,0,0,
0,0,0,0,0,0,0,0,0,0,0,0,0,0,0,0,0,0,0,0,0,0,0,0,0,0,0,0,0,0,0,0,0,0,0,0,0,0,0,0,0,0,0,0,0,0,0,0,0,0,0,0,0,0,0,0,0,0,0,0,0,0,0,0,0,0,0,0,0,0,0,0,0,0,0,0,0,0,0,0,0,0,0,0,0,0,0,0,0,0,0,0,0,0,0,0,0,0,0,0,
0,0,0,0,0,0,0,0,0,0,0,0,0,0,0,0,0,0,0,0,0,0,0,0,0,0,0,0,0,0,0,0,0,0,0,0,0,0,0,0,0,0,0,0,0,0,0,0,0,0,0,0,0,0,0,0,0,0,0,0,0,0,0,0,0,0,0,0,0,0,0,0,0,0,0,0,0,0,0,0,0,0,0,0,0,0,0,0,0,0,0,0,0,0,0,0,0,0,0,0,
0,0,0,0,0,0,0,0,0,0,0,0,0,0,0,0,0,0,0,0,0,0,0,0,0,0,0,0,0,0,0,0,0,0,0,0,0,0,0,0,0,0,0,0,0,0,0,0,0,0,0,0,0,0,0,0,0,0,0,0,0,0,0,0,0,0,0,0,0,0,0,0,0,0,0,0,0,0,0,0,0,0,0,0,0,0,0,0,0,0,0,0,0,0,0,0,0,0,0,0,
0,0,0,0,0,0,0,0,0,0,0,0,0,0,0,0,0,0,0,0,0,0,0,0,0,0,0,0,0,0,0,0,0,0,0,0,0,0,0,0,0,0,0,0,0,0,0,0,0,0,0,0,0,0,0,0,0,0,0,0,0,0,0,0,0,0,0,0,0,0,0,0,0,0,0,0,0,0,0,0,0,0,0,0,0,0,0,0,0,0,0,0,0,0,0,0,0,0,0,0,
0,0,0,0,0,0,0,0,0,0,0,0,0,0,0,0,0,0,0,0,0,0,0,0,0,0,0,0,0,0,0,0,0,0,0,0,0,0,0,0,0,0,0,0,0,0,0,0,0,0,0,0,0,0,0,0,0,0,0,0,0,0,0,0,0,0,0,0,0,0,0,0,0,0,0,0,0,0,0,0,0,0,0,0,0,0,0,0,0,0,0,0,0,0,0,0,0,0,0,0,
0,0,0,0,0,0,0,0,0,0,0,0,0,0,0,0,0,0,0,0,0,0,0,0,0,0,0,0,0,0,0,0,0,0,0,0,0,0,0,0,0,0,0,0,0,0,0,0,0,0,0,0,0,0,0,0,0,0,0,0,0,0,0,0,0,0,0,0,0,0,0,0,0,0,0,0,0,0,0,0,0,0,0,0,0,0,0,0,0,0,0,0,0,0,0,0,0,0,0,0,
0,0,0,0,0,0,0,0,0,0,0,0,0,0,0,0,0,0,0,0,0,0,0,0,0,0,0,0,0,0,0,0,0,0,0,0,0,0,0,0,0,0,0,0,0,0,0,0,0,0,0,0,0,0,0,0,0,0,0,0,0,0,0,0,0,0,0,0,0,0,0,0,0,0,0,0,0,0,0,0,0,0,0,0,0,0,0,0,0,0,0,0,0,0,0,0,0,0,0,0,
0,0,0,0,0,0,0,0,0,0,0,0,0,0,0,0,0,0,0,0,0,0,0,0,0,0,0,0,0,0,0,0,0,0,0,0,0,0,0,0,0,0,0,0,0,0,0,0,0,0,0,0,0,0,0,0,0,0,0,0,0,0,0,0,0,0,0,0,0,0,0,0,0,0,0,0,0,0,0,0,0,0,0,0,0,0,0,0,0,0,0,0,0,0,0,0,0,0,0,0,
0,0,0,0,0,0,0,0,0,0,0,0,0,0,0,0,0,0,0,0,0,0,0,0,0,0,0,0,0,0,0,0,0,0,0,0,0,0,0,0,0,0,0,0,0,0,0,0,0,0,0,0,0,0,0,0,0,0,0,0,0,0,0,0,0,0,0,0,0,0,0,0,0,0,0,0,0,0,0,0,0,0,0,0,0,0,0,0,0,0,0,0,0,0,0,0,0,0,0,0,
0,0,0,0,0,0,0,0,0,0,0,0,0,0,0,0,0,0,0,0,0,0,0,0,0,0,0,0,0,0,0,0,0,0,0,0,0,0,0,0,0,0,0,0,0,0,0,0,0,0,0,0,0,0,0,0,0,0,0,0,0,0,0,0,0,0,0,0,0,0,0,0,0,0,0,0,0,0,0,0,0,0,0,0,0,0,0,0,0,0,0,0,0,0,0,0,0,0,0,0,
0,0,0,0,0,0,0,0,0,0,0,0,0,0,0,0,0,0,0,0,0,0,0,0,0,0,0,0,0,0,0,0,0,0,0,0,0,0,0,0,0,0,0,0,0,0,0,0,0,0,0,0,0,0,0,0,0,0,0,0,0,0,0,0,0,0,0,0,0,0,0,0,0,0,0,0,0,0,0,0,0,0,0,0,0,0,0,0,0,0,0,0,0,0,0,0,0,0,0,0,
0,0,0,0,0,0,0,0,0,0,0,0,0,0,0,0,0,0,0,0,0,0,0,0,0,0,0,0,0,0,0,0,0,0,0,0,0,0,0,0,0,0,0,0,0,0,0,0,0,0,0,0,0,0,0,0,0,0,0,0,0,0,0,0,0,0,0,0,0,0,0,0,0,0,0,0,0,0,0,0,0,0,0,0,0,0,0,0,0,0,0,0,0,0,0,0,0,0,0,0,
0,0,0,0,0,0,0,0,0,0,0,0,0,0,0,0,0,0,0,0,0,0,0,0,0,0,0,0,0,0,0,0,0,0,0,0,0,0,0,0,0,0,0,0,0,0,0,0,0,0,0,0,0,0,0,0,0,0,0,0,0,0,0,0,0,0,0,0,0,0,0,0,0,0,0,0,0,0,0,0,0,0,0,0,0,0,0,0,0,0,0,0,0,0,0,0,0,0,0,0,
0,0,0,0,0,0,0,0,0,0,0,0,0,0,0,0,0,0,0,0,0,0,0,0,0,0,0,0,0,0,0,0,0,0,0,0,0,0,0,0,0,0,0,0,0,0,0,0,0,0,0,0,0,0,0,0,0,0,0,0,0,0,0,0,0,0,0,0,0,0,0,0,0,0,0,0,0,0,0,0,0,0,0,0,0,0,0,0,0,0,0,0,0,0,0,0,0,0,0,0,
0,0,0,0,0,0,0,0,0,0,0,0,0,0,0,0,0,0,0,0,0,0,0,0,0,0,0,0,0,0,0,0,0,0,0,0,0,0,0,0,0,0,0,0,0,0,0,0,0,0,0,0,0,0,0,0,0,0,0,0,0,0,0,0,0,0,0,0,0,0,0,0,0,0,0,0,0,0,0,0,0,0,0,0,0,0,0,0,0,0,0,0,0,0,0,0,0,0,0,0,
0,0,0,0,0,0,0,0,0,0,0,0,0,0,0,0,0,0,0,0,0,0,0,0,0,0,0,0,0,0,0,0,0,0,0,0,0,0,0,0,0,0,0,0,0,0,0,0,0,0,0,0,0,0,0,0,0,0,0,0,0,0,0,0,0,0,0,0,0,0,0,0,0,0,0,0,0,0,0,0,0,0,0,0,0,0,0,0,0,0,0,0,0,0,0,0,0,0,0,0,
0,0,0,0,0,0,0,0,0,0,0,0,0,0,0,0,0,0,0,0,0,0,0,0,0,0,0,0,0,0,0,0,0,0,0,0,0,0,0,0,0,0,0,0,0,0,0,0,0,0,0,0,0,0,0,0,0,0,0,0,0,0,0,0,0,0,0,0,0,0,0,0,0,0,0,0,0,0,0,0,0,0,0,0,0,0,0,0,0,0,0,0,0,0,0,0,0,0,0,0,
0,0,0,0,0,0,0,0,0,0,0,0,0,0,0,0,0,0,0,0,0,0,0,0,0,0,0,0,0,0,0,0,0,0,0,0,0,0,0,0,0,0,0,0,0,0,0,0,0,0,0,0,0,0,0,0,0,0,0,0,0,0,0,0,0,0,0,0,0,0,0,0,0,0,0,0,0,0,0,0,0,0,0,0,0,0,0,0,0,0,0,0,0,0,0,0,0,0,0,0,
0,0,0,0,0,0,0,0,0,0,0,0,0,0,0,0,0,0,0,0,0,0,0,0,0,0,0,0,0,0,0,0,0,0,0,0,0,0,0,0,0,0,0,0,0,0,0,0,0,0,0,0,0,0,0,0,0,0,0,0,0,0,0,0,0,0,0,0,0,0,0,0,0,0,0,0,0,0,0,0,0,0,0,0,0,0,0,0,0,0,0,0,0,0,0,0,0,0,0,0,
0,0,0,0,0,0,0,0,0,0,0,0,0,0,0,0,0,0,0,0,0,0,0,0,0,0,0,0,0,0,0,0,0,0,0,0,0,0,0,0,0,0,0,0,0,0,0,0,0,0,0,0,0,0,0,0,0,0,0,0,0,0,0,0,0,0,0,0,0,0,0,0,0,0,0,0,0,0,0,0,0,0,0,0,0,0,0,0,0,0,0,0,0,0,0,0,0,0,0,0,
0,0,0,0,0,0,0,0,0,0,0,0,0,0,0,0,0,0,0,0,0,0,0,0,0,0,0,0,0,0,0,0,0,0,0,0,0,0,0,0,0,0,0,0,0,0,0,0,0,0,0,0,0,0,0,0,0,0,0,0,0,0,0,0,0,0,0,0,0,0,0,0,0,0,0,0,0,0,0,0,0,0,0,0,0,0,0,0,0,0,0,0,0,0,0,0,0,0,0,0,
0,0,0,0,0,0,0,0,0,0,0,0,0,0,0,0,0,0,0,0,0,0,0,0,0,0,0,0,0,0,0,0,0,0,0,0,0,0,0,0,0,0,0,0,0,0,0,0,0,0,0,0,0,0,0,0,0,0,0,0,0,0,0,0,0,0,0,0,0,0,0,0,0,0,0,0,0,0,0,0,0,0,0,0,0,0,0,0,0,0,0,0,0,0,0,0,0,0,0,0,
0,0,0,0,0,0,0,0,0,0,0,0,0,0,0,0,0,0,0,0,0,0,0,0,0,0,0,0,0,0,0,0,0,0,0,0,0,0,0,0,0,0,0,0,0,0,0,0,0,0,0,0,0,0,0,0,0,0,0,0,0,0,0,0,0,0,0,0,0,0,0,0,0,0,0,0,0,0,0,0,0,0,0,0,0,0,0,0,0,0,0,0,0,0,0,0,0,0,0,0,
0,0,0,0,0,0,0,0,0,0,0,0,0,0,0,0,0,0,0,0,0,0,0,0,0,0,0,0,0,0,0,0,0,0,0,0,0,0,0,0,0,0,0,0,0,0,0,0,0,0,0,0,0,0,0,0,0,0,0,0,0,0,0,0,0,0,0,0,0,0,0,0,0,0,0,0,0,0,0,0,0,0,0,0,0,0,0,0,0,0,0,0,0,0,0,0,0,0,0,0,
0,0,0,0,0,0,0,0,0,0,0,0,0,0,0,0,0,0,0,0,0,0,0,0,0,0,0,0,0,0,0,0,0,0,0,0,0,0,0,0,0,0,0,0,0,0,0,0,0,0,0,0,0,0,0,0,0,0,0,0,0,0,0,0,0,0,0,0,0,0,0,0,0,0,0,0,0,0,0,0,0,0,0,0,0,0,0,0,0,0,0,0,0,0,0,0,0,0,0,0,
0,0,0,0,0,0,0,0,0,0,0,0,0,0,0,0,0,0,0,0,0,0,0,0,0,0,0,0,0,0,0,0,0,0,0,0,0,0,0,0,0,0,0,0,0,0,0,0,0,0,0,0,0,0,0,0,0,0,0,0,0,0,0,0,0,0,0,0,0,0,0,0,0,0,0,0,0,0,0,0,0,0,0,0,0,0,0,0,0,0,0,0,0,0,0,0,0,0,0,0,
0,0,0,0,0,0,0,0,0,0,0,0,0,0,0,0,0,0,0,0,0,0,0,0,0,0,0,0,0,0,0,0,0,0,0,0,0,0,0,0,0,0,0,0,0,0,0,0,0,0,0,0,0,0,0,0,0,0,0,0,0,0,0,0,0,0,0,0,0,0,0,0,0,0,0,0,0,0,0,0,0,0,0,0,0,0,0,0,0,0,0,0,0,0,0,0,0,0,0,0,
0,0,0,0,0,0,0,0,0,0,0,0,0,0,0,0,0,0,0,0,0,0,0,0,0,0,0,0,0,0,0,0,0,0,0,0,0,0,0,0,0,0,0,0,0,0,0,0,0,0,0,0,0,0,0,0,0,0,0,0,0,0,0,0,0,0,0,0,0,0,0,0,0,0,0,0,0,0,0,0,0,0,0,0,0,0,0,0,0,0,0,0,0,0,0,0,0,0,0,0,
0,0,0,0,0,0,0,0,0,0,0,0,0,0,0,0,0,0,0,0,0,0,0,0,0,0,0,0,0,0,0,0,0,0,0,0,0,0,0,0,0,0,0,0,0,0,0,0,0,0,0,0,0,0,0,0,0,0,0,0,0,0,0,0,0,0,0,0,0,0,0,0,0,0,0,0,0,0,0,0,0,0,0,0,0,0,0,0,0,0,0,0,0,0,0,0,0,0,0,0,
0,0,0,0,0,0,0,0,516,0,0,0,0,0,0,0,0,0,0,0,0,0,0,0,0,0,0,0,0,0,0,0,0,0,0,0,0,0,0,0,0,0,0,0,0,0,0,0,0,0,0,0,0,0,0,0,0,0,0,0,0,0,0,0,0,0,0,0,0,0,0,0,0,0,0,0,0,0,0,0,0,0,0,0,0,0,0,0,0,0,0,0,0,0,0,0,0,0,0,0,
0,0,793,846,0,0,0,0,0,0,0,0,0,793,849,0,572,792,515,0,0,0,0,0,0,0,0,0,0,0,0,0,0,0,0,0,0,0,0,0,0,0,0,0,0,0,0,0,0,0,0,0,0,0,0,0,0,0,0,0,0,0,0,0,0,0,0,0,0,0,0,0,0,0,0,0,0,0,0,0,0,0,0,0,0,0,0,0,0,0,0,0,0,0,0,0,0,0,0,0,
0,684,571,0,0,0,0,0,574,0,0,0,0,0,0,0,0,0,0,0,629,0,0,0,0,0,0,0,0,0,0,0,0,0,0,0,0,0,0,0,0,0,0,0,0,0,0,0,0,0,0,0,0,0,0,0,0,0,0,0,0,0,0,0,0,0,0,0,0,0,0,0,0,0,0,0,0,0,0,0,0,0,0,0,0,0,0,0,0,0,0,0,0,0,0,0,0,0,0,0,
0,519,0,627,0,0,0,0,0,791,0,0,0,0,0,0,794,0,0,0,737,0,0,0,0,0,0,0,0,0,0,0,0,0,0,0,0,0,0,0,0,0,0,0,0,0,0,0,0,0,0,0,0,0,0,0,0,0,0,0,0,0,0,0,0,0,0,0,0,0,0,0,0,0,0,0,0,0,0,0,0,0,0,0,0,0,0,0,0,0,0,0,0,0,0,0,0,0,0,0,
0,0,0,574,0,0,0,0,0,628,0,0,0,680,0,0,0,0,0,0,736,0,0,0,0,0,0,0,0,0,0,0,0,0,0,0,0,0,0,0,0,0,0,0,0,0,0,0,0,0,0,0,0,0,0,0,0,0,0,0,0,0,0,0,0,0,0,0,0,0,0,0,0,0,0,0,0,0,0,0,0,0,0,0,0,0,0,0,0,0,0,0,0,0,0,0,0,0,0,0,
0,0,0,0,0,0,0,0,0,628,848,0,0,570,847,0,0,573,571,573,0,0,0,0,0,0,0,0,0,0,0,0,0,0,0,0,0,0,0,0,0,0,0,0,0,0,0,0,0,0,0,0,0,0,0,0,0,0,0,0,0,0,0,0,0,0,0,0,0,0,0,0,0,0,0,0,0,0,0,0,0,0,0,0,0,0,0,0,0,0,0,0,0,0,0,0,0,0,0,0,
0,0,0,0,0,0,0,0,0,0,790,0,0,570,0,0,739,681,0,0,0,0,845,0,0,0,0,0,0,0,0,0,0,0,0,0,0,0,0,0,0,0,0,0,0,0,0,0,0,0,0,0,0,0,0,0,0,0,0,0,0,0,0,0,0,0,0,0,0,0,0,0,0,0,0,0,0,0,0,0,0,0,0,0,0,0,0,0,0,0,0,0,0,0,0,0,0,0,0,0,
0,0,0,0,0,0,0,0,0,0,0,628,845,0,0,0,0,845,0,0,0,0,518,790,846,0,0,0,0,0,0,0,0,0,0,0,0,0,0,0,0,0,0,0,0,0,0,0,0,0,0,0,0,0,0,0,0,0,0,0,0,0,0,0,0,0,0,0,0,0,0,0,0,0,0,0,0,0,0,0,0,0,0,0,0,0,0,0,0,0,0,0,0,0,0,0,0,0,0,0,
0,0,0,0,0,0,0,0,0,0,0,0,0,790,0,0,0,0,0,572,0,0,793,0,739,0,0,0,0,0,0,0,0,0,0,0,0,0,0,0,0,0,0,0,0,0,0,0,0,0,0,0,0,0,0,0,0,0,0,0,0,0,0,0,0,0,0,0,0,0,0,0,0,0,0,0,0,0,0,0,0,0,0,0,0,0,0,0,0,0,0,0,0,0,0,0,0,0,0,0,
0,0,0,0,0,0,0,0,0,0,0,0,0,0,0,0,0,0,0,518,0,0,0,0,518,0,0,0,0,0,0,0,0,0,0,0,0,0,0,0,0,0,0,0,0,0,0,0,0,0,0,0,0,0,0,0,0,0,0,0,0,0,0,0,0,0,0,0,0,0,0,0,0,0,0,0,0,0,0,0,0,0,0,0,0,0,0,0,0,0,0,0,0,0,0,0,0,0,0,0,
0,0,0,0,0,0,0,0,0,0,0,0,0,0,0,0,0,516,518,793,0,0,0,0,0,0,0,0,0,0,0,0,0,0,0,0,0,0,0,0,0,0,0,0,0,0,0,0,0,0,0,0,0,0,0,0,0,0,0,0,0,0,0,0,0,0,0,0,0,0,0,0,0,0,0,0,0,0,0,0,0,0,0,0,0,0,0,0,0,0,0,0,0,0,0,0,0,0,0,0,
0,0,0,0,0,0,0,0,0,0,0,0,0,0,0,0,0,0,0,0,0,0,571,0,790,0,0,0,625,736,0,0,0,0,0,0,0,0,0,0,0,0,0,0,0,0,0,0,0,0,0,0,0,0,0,0,0,0,0,0,0,0,0,0,0,0,0,0,0,0,0,0,0,0,0,0,0,0,0,0,0,0,0,0,0,0,0,0,0,0,0,0,0,0,0,0,0,0,0,0,
0,0,0,0,0,0,0,0,0,0,0,0,0,0,0,0,0,0,0,0,0,518,0,0,0,0,0,0,0,790,847,736,518,0,0,0,0,0,0,0,0,0,0,0,0,0,0,0,0,0,0,0,0,0,0,0,0,0,0,0,0,0,0,0,0,0,0,0,0,0,0,0,0,0,0,0,0,0,0,0,0,0,0,0,0,0,0,0,0,0,0,0,0,0,0,0,0,0,0,0,
0,0,0,0,0,0,0,573,0,790,0,846,626,0,0,573,0,0,0,0,0,0,0,0,0,0,0,0,518,517,0,0,519,794,0,0,0,0,0,0,0,0,0,0,0,0,0,0,0,0,0,0,0,0,0,0,0,0,0,0,0,0,0,0,0,0,0,0,0,0,0,0,0,0,0,0,0,0,0,0,0,0,0,0,0,0,0,0,0,0,0,0,0,0,0,0,0,0,0,0,
0,0,0,0,0,0,0,0,0,0,0,0,0,0,0,0,0,0,0,0,0,0,0,0,0,0,0,0,0,0,0,0,0,0,0,0,0,0,0,0,0,0,0,0,0,0,0,0,0,0,0,0,0,0,0,0,0,0,0,0,0,0,0,0,0,0,0,0,0,0,0,0,0,0,0,0,0,0,0,0,0,0,0,0,0,0,0,0,0,0,0,0,0,0,0,0,0,0,0,0,
0,0,519,0,0,0,0,0,0,0,0,0,848,0,0,0,0,0,0,0,0,0,0,0,0,0,0,0,515,0,0,0,0,0,0,0,0,0,0,0,0,0,0,0,0,0,0,0,0,0,0,0,0,0,0,0,0,0,0,0,0,0,0,0,0,0,0,0,0,0,0,0,0,0,0,0,0,0,0,0,0,0,0,0,0,0,0,0,0,0,0,0,0,0,0,0,0,0,0,0,
0,0,0,0,0,0,737,0,0,739,0,0,0,0,0,0,0,0,0,0,0,0,0,0,0,0,0,0,794,0,0,0,0,792,0,0,0,0,0,0,0,0,0,0,0,0,0,0,0,0,0,0,0,0,0,0,0,0,0,0,0,0,0,0,0,0,0,0,0,0,0,0,0,0,0,0,0,0,0,0,0,0,0,0,0,0,0,0,0,0,0,0,0,0,0,0,0,0,0,0,
0,0,0,0,573,0,0,0,0,0,848,0,0,0,0,0,0,0,0,0,848,680,0,846,0,0,0,0,628,682,684,0,0,739,625,0,0,0,0,0,0,0,0,0,0,0,0,0,0,0,0,0,0,0,0,0,0,0,0,0,0,0,0,0,0,0,0,0,0,0,0,0,0,0,0,0,0,0,0,0,0,0,0,0,0,0,0,0,0,0,0,0,0,0,0,0,0,0,0,0,
0,0,0,0,849,0,0,0,0,0,0,0,0,629,683,0,0,0,0,0,0,0,0,0,517,0,629,0,846,793,519,628,0,0,791,0,0,0,0,0,0,0,0,0,0,0,0,0,0,0,0,0,0,0,0,0,0,0,0,0,0,0,0,0,0,0,0,0,0,0,0,0,0,0,0,0,0,0,0,0,0,0,0,0,0,0,0,0,0,0,0,0,0,0,0,0,0,0,0,0,
0,0,0,0,0,0,0,0,0,0,0,0,0,0,0,0,0,0,0,0,0,845,0,680,519,0,0,0,683,0,0,0,0,847,0,0,0,0,0,0,0,0,0,0,0,0,0,0,0,0,0,0,0,0,0,0,0,0,0,0,0,0,0,0,0,0,0,0,0,0,0,0,0,0,0,0,0,0,0,0,0,0,0,0,0,0,0,0,0,0,0,0,0,0,0,0,0,0,0,0,
0,0,792,846,0,0,0,0,570,0,0,0,0,516,0,0,0,0,0,0,0,0,0,0,0,794,682,0,518,0,845,792,0,845,0,0,0,0,0,0,0,0,0,0,0,0,0,0,0,0,0,0,0,0,0,0,0,0,0,0,0,0,0,0,0,0,0,0,0,0,0,0,0,0,0,0,0,0,0,0,0,0,0,0,0,0,0,0,0,0,0,0,0,0,0,0,0,0,0,0,
0,0,0,0,0,516,0,0,0,680,0,0,0,0,0,0,0,0,0,0,0,0,0,0,0,0,793,0,0,0,0,0,0,515,735,0,625,0,0,0,0,0,0,0,0,0,0,0,0,0,0,0,0,0,0,0,0,0,0,0,0,0,0,0,0,0,0,0,0,0,0,0,0,0,0,0,0,0,0,0,0,0,0,0,0,0,0,0,0,0,0,0,0,0,0,0,0,0,0,0,
0,0,519,0,0,0,847,0,0,0,845,681,794,517,0,0,0,0,0,0,0,0,0,0,0,0,0,0,0,519,849,0,0,0,0,0,684,735,0,0,0,0,0,0,0,0,0,0,0,0,0,0,0,0,0,0,0,0,0,0,0,0,0,0,0,0,0,0,0,0,0,0,0,0,0,0,0,0,0,0,0,0,0,0,0,0,0,0,0,0,0,0,0,0,0,0,0,0,0,0,
0,0,0,0,0,0,0,0,0,0,0,0,0,793,0,0,0,0,0,0,0,0,0,0,0,0,0,848,0,0,0,0,739,0,739,847,0,573,0,0,0,0,0,0,0,0,0,0,0,0,0,0,0,0,0,0,0,0,0,0,0,0,0,0,0,0,0,0,0,0,0,0,0,0,0,0,0,0,0,0,0,0,0,0,0,0,0,0,0,0,0,0,0,0,0,0,0,0,0,0,
0,0,0,0,0,0,0,0,0,0,0,0,0,0,0,0,0,0,0,0,0,0,0,0,0,0,0,738,0,0,0,681,518,628,0,0,0,0,0,0,0,0,0,0,0,0,0,0,0,0,0,0,0,0,0,0,0,0,0,0,0,0,0,0,0,0,0,0,0,0,0,0,0,0,0,0,0,0,0,0,0,0,0,0,0,0,0,0,0,0,0,0,0,0,0,0,0,0,0,0,
0,0,627,849,0,0,0,0,0,0,0,0,0,0,0,0,0,0,0,0,0,0,0,0,0,0,0,0,0,0,0,0,848,849,0,0,0,0,0,0,0,0,0,0,0,0,0,0,0,0,0,0,0,0,0,0,0,0,0,0,0,0,0,0,0,0,0,0,0,0,0,0,0,0,0,0,0,0,0,0,0,0,0,0,0,0,0,0,0,0,0,0,0,0,0,0,0,0,0,0,
681,0,0,519,0,0,0,0,849,0,0,0,0,0,0,0,0,0,0,0,0,0,0,0,0,0,625,0,0,737,0,628,629,0,0,0,0,0,0,0,0,0,0,0,0,0,0,0,0,0,0,0,0,0,0,0,0,0,0,0,0,0,0,0,0,0,0,0,0,0,0,0,0,0,0,0,0,0,0,0,0,0,0,0,0,0,0,0,0,0,0,0,0,0,0,0,0,0,0,0,
682,0,626,0,0,0,0,0,0,0,0,0,0,0,0,0,849,0,0,0,0,0,0,0,0,0,0,0,0,0,0,0,0,0,0,735,738,0,0,0,0,0,0,0,0,0,0,0,0,0,0,0,0,0,0,0,0,0,0,0,0,0,0,0,0,0,0,0,0,0,0,0,0,0,0,0,0,0,0,0,0,0,0,0,0,0,0,0,0,0,0,0,0,0,0,0,0,0,0,0,
0,790,792,0,0,0,0,0,0,0,0,0,0,0,0,0,515,0,0,0,0,0,0,0,0,0,628,0,0,519,0,0,0,0,0,682,515,0,0,0,0,0,0,0,0,0,0,0,0,0,0,0,0,0,0,0,0,0,0,0,0,0,0,0,0,0,0,0,0,0,0,0,0,0,0,0,0,0,0,0,0,0,0,0,0,0,0,0,0,0,0,0,0,0,0,0,0,0,0,0,
0,570,0,0,0,0,0,0,0,0,846,0,0,0,0,0,0,0,519,0,0,0,0,0,0,0,0,0,738,847,848,791,848,0,0,572,0,0,0,0,0,0,0,0,0,0,0,0,0,0,0,0,0,0,0,0,0,0,0,0,0,0,0,0,0,0,0,0,0,0,0,0,0,0,0,0,0,0,0,0,0,0,0,0,0,0,0,0,0,0,0,0,0,0,0,0,0,0,0,0,
0,571,0,0,0,0,683,0,0,0,0,0,0,0,0,0,0,791,739,736,0,0,738,571,627,0,791,0,683,683,0,736,0,0,0,516,0,0,0,0,0,0,0,0,0,0,0,0,0,0,0,0,0,0,0,0,0,0,0,0,0,0,0,0,0,0,0,0,0,0,0,0,0,0,0,0,0,0,0,0,0,0,0,0,0,0,0,0,0,0,0,0,0,0,0,0,0,0,0,0,
0,735,0,0,0,0,0,0,0,0,0,0,0,0,0,0,0,0,574,628,515,570,794,682,0,0,0,737,626,517,0,0,572,0,0,574,0,0,0,0,0,0,0,0,0,0,0,0,0,0,0,0,0,0,0,0,0,0,0,0,0,0,0,0,0,0,0,0,0,0,0,0,0,0,0,0,0,0,0,0,0,0,0,0,0,0,0,0,0,0,0,0,0,0,0,0,0,0,0,0,
0,0,518,0,0,0,0,0,0,0,0,0,0,0,0,0,0,0,625,0,0,849,0,738,0,0,0,0,0,0,0,0,0,0,847,0,0,0,0,0,0,0,0,0,0,0,0,0,0,0,0,0,0,0,0,0,0,0,0,0,0,0,0,0,0,0,0,0,0,0,0,0,0,0,0,0,0,0,0,0,0,0,0,0,0,0,0,0,0,0,0,0,0,0,0,0,0,0,0,0,
0,738,517,0,0,0,518,516,0,0,0,0,0,0,0,0,0,0,572,0,0,0,0,737,0,0,572,515,0,0,0,739,573,847,0,0,629,0,0,0,0,0,0,0,0,0,0,0,0,0,0,0,0,0,0,0,0,0,0,0,0,0,0,0,0,0,0,0,0,0,0,0,0,0,0,0,0,0,0,0,0,0,0,0,0,0,0,0,0,0,0,0,0,0,0,0,0,0,0,0,
0,739,0,0,0,0,0,0,0,0,684,0,0,0,572,0,0,0,571,0,0,570,0,0,0,0,0,629,0,0,680,739,792,0,0,0,736,0,0,0,0,0,0,0,0,0,0,0,0,0,0,0,0,0,0,0,0,0,0,0,0,0,0,0,0,0,0,0,0,0,0,0,0,0,0,0,0,0,0,0,0,0,0,0,0,0,0,0,0,0,0,0,0,0,0,0,0,0,0,0,
0,849,0,0,0,0,0,0,0,0,0,0,0,0,0,0,0,739,0,0,0,682,0,848,0,629,0,682,0,0,736,0,0,515,846,0,516,0,0,0,0,0,0,0,0,0,0,0,0,0,0,0,0,0,0,0,0,0,0,0,0,0,0,0,0,0,0,0,0,0,0,0,0,0,0,0,0,0,0,0,0,0,0,0,0,0,0,0,0,0,0,0,0,0,0,0,0,0,0,0,
0,681,0,0,0,0,0,0,0,0,0,0,0,0,0,0,0,0,0,517,0,519,0,683,0,793,0,0,0,0,848,0,0,574,846,0,0,0,0,0,0,0,0,0,0,0,0,0,0,0,0,0,0,0,0,0,0,0,0,0,0,0,0,0,0,0,0,0,0,0,0,0,0,0,0,0,0,0,0,0,0,0,0,0,0,0,0,0,0,0,0,0,0,0,0,0,0,0,0,0,
0,790,684,0,0,0,0,0,0,0,0,0,0,0,0,0,684,684,574,739,0,627,625,516,625,0,0,791,0,0,572,0,627,0,0,682,0,0,0,0,0,0,0,0,0,0,0,0,0,0,0,0,0,0,0,0,0,0,0,0,0,0,0,0,0,0,0,0,0,0,0,0,0,0,0,0,0,0,0,0,0,0,0,0,0,0,0,0,0,0,0,0,0,0,0,0,0,0,0,0,
0,0,0,0,846,791,519,0,0,0,682,0,0,0,515,739,572,0,0,0,625,519,571,0,794,0,0,517,847,519,570,0,848,0,627,736,0,0,0,0,0,0,0,0,0,0,0,0,0,0,0,0,0,0,0,0,0,0,0,0,0,0,0,0,0,0,0,0,0,0,0,0,0,0,0,0,0,0,0,0,0,0,0,0,0,0,0,0,0,0,0,0,0,0,0,0,0,0,0,0,
0,0,0,0,0,629,570,682,0,0,570,792,574,739,793,0,0,0,0,0,0,0,0,0,0,0,0,0,0,0,0,0,0,0,0,0,0,0,0,0,0,0,0,0,0,0,0,0,0,0,0,0,0,0,0,0,0,0,0,0,0,0,0,0,0,0,0,0,0,0,0,0,0,0,0,0,0,0,0,0,0,0,0,0,0,0,0,0,0,0,0,0,0,0,0,0,0,0,0,0
</data>
 </layer>
 <layer id="3" name="Arbusto/Pedra" width="100" height="100">
  <data encoding="csv">
0,0,0,0,0,0,0,0,0,0,0,0,0,0,0,0,0,0,0,0,0,0,0,0,0,0,0,0,0,0,0,0,0,0,0,0,0,0,0,0,0,0,0,0,0,0,0,0,0,0,0,0,0,0,0,0,0,0,0,0,0,0,0,0,0,0,0,0,0,0,0,0,0,0,0,0,0,0,0,0,0,0,0,0,0,0,0,0,0,0,0,0,0,0,0,0,0,0,0,0,
0,0,0,0,0,0,0,0,0,0,0,0,0,0,0,0,0,0,0,0,0,0,0,0,0,0,0,0,0,0,0,0,0,0,0,0,0,0,0,0,0,0,0,0,0,0,0,0,0,0,0,0,0,0,0,0,0,0,0,0,0,0,0,0,0,0,0,0,0,0,0,0,0,0,0,0,0,0,0,0,0,0,0,0,0,0,0,0,0,0,0,0,0,0,0,0,0,0,0,0,
0,0,0,0,0,0,0,0,0,0,0,0,0,0,0,0,0,0,0,0,0,0,0,0,0,0,0,0,0,0,0,0,0,0,0,0,0,0,0,0,0,0,0,0,0,0,0,0,0,0,0,0,0,0,0,0,0,0,0,0,0,0,0,0,0,0,0,0,0,0,0,0,0,0,0,0,0,0,0,0,0,0,0,0,0,0,0,0,0,0,0,0,0,0,0,0,0,0,0,0,
0,0,0,0,0,0,0,0,0,0,0,0,0,0,0,0,0,0,0,0,0,0,0,0,0,0,0,0,0,0,0,0,0,0,0,0,0,0,0,0,0,0,0,0,0,0,0,0,0,0,0,0,0,0,0,0,0,0,0,0,0,0,0,0,0,0,0,0,0,0,0,0,0,0,0,0,0,0,0,0,0,0,0,0,0,0,0,0,0,0,0,0,0,0,0,0,0,0,0,0,
0,0,0,0,0,0,0,0,0,0,0,0,0,0,0,0,0,0,0,0,0,0,0,0,0,0,0,0,0,0,0,0,0,0,0,0,0,0,0,0,0,0,0,0,0,0,0,0,0,0,0,0,0,0,0,0,0,0,0,0,0,0,0,0,0,0,0,0,0,0,0,0,0,0,0,0,0,0,0,0,0,0,0,0,0,0,0,0,0,0,0,0,0,0,0,0,0,0,0,0,
0,0,0,0,0,0,0,0,0,0,0,0,0,0,0,0,0,0,0,0,0,0,0,0,0,0,0,0,0,0,0,0,0,0,0,0,0,0,0,0,0,0,0,0,0,0,0,0,0,0,0,0,0,0,0,0,0,0,0,0,0,0,0,0,0,0,0,0,0,0,0,0,0,0,0,0,0,0,0,0,0,0,0,0,0,0,0,0,0,0,0,0,0,0,0,0,0,0,0,0,
0,0,0,0,0,0,0,0,0,0,0,0,0,0,0,0,0,0,0,0,0,0,0,0,0,0,0,0,0,0,0,0,0,0,0,0,0,0,0,0,0,0,0,0,0,0,0,0,0,0,0,0,0,0,0,0,0,0,0,0,0,0,0,0,0,0,0,0,0,0,0,0,0,0,0,0,0,0,0,0,0,0,0,0,0,0,0,0,0,0,0,0,0,0,0,0,0,0,0,0,
0,0,0,0,0,0,0,0,0,0,0,0,0,0,0,0,0,0,0,0,0,0,0,0,0,0,0,0,0,0,0,0,0,0,0,0,0,0,0,0,0,0,0,0,0,0,0,0,0,0,0,0,0,0,0,0,0,0,0,0,0,0,0,0,0,0,0,0,0,0,0,0,0,0,0,0,0,0,0,0,0,0,0,0,0,0,0,0,0,0,0,0,0,0,0,0,0,0,0,0,
0,0,0,0,0,0,0,0,0,0,0,0,0,0,0,0,0,0,0,0,0,0,0,0,0,0,0,0,0,0,0,0,0,0,0,0,0,0,0,0,0,0,0,0,0,0,0,0,0,0,0,0,0,0,0,0,0,0,0,0,0,0,0,0,0,0,0,0,0,0,0,0,0,0,0,0,0,0,0,0,0,0,0,0,0,0,0,0,0,0,0,0,0,0,0,0,0,0,0,0,
0,0,0,0,0,0,0,0,0,0,0,0,0,0,0,0,0,0,0,0,0,0,0,0,0,0,0,0,0,0,0,0,0,0,0,0,0,0,0,0,0,0,0,0,0,0,0,0,0,0,0,0,0,0,0,0,0,0,0,0,0,0,0,0,0,0,0,0,0,0,0,0,0,0,0,0,0,0,0,0,0,0,0,0,0,0,0,0,0,0,0,0,0,0,0,0,0,0,0,0,
0,0,0,0,0,0,0,0,0,0,0,0,0,0,0,0,0,0,0,0,0,0,0,0,0,0,0,0,0,0,0,0,0,0,0,0,0,0,0,0,0,0,0,0,0,0,0,0,0,0,0,0,0,0,0,0,0,0,0,0,0,0,0,0,0,0,0,0,0,0,0,0,0,0,0,0,0,0,0,0,0,0,0,0,0,0,0,0,0,0,0,0,0,0,0,0,0,0,0,0,
0,0,0,0,0,0,0,0,0,0,0,0,0,0,0,0,0,0,0,0,0,0,0,0,0,0,0,0,0,0,0,0,0,0,0,0,0,0,0,0,0,0,0,0,0,0,0,0,0,0,0,0,0,0,0,0,0,0,0,0,0,0,0,0,0,0,0,0,0,0,0,0,0,0,0,0,0,0,0,0,0,0,0,0,0,0,0,0,0,0,0,0,0,0,0,0,0,0,0,0,
0,0,0,0,0,0,0,0,0,0,0,0,0,0,0,0,0,0,0,0,0,0,0,0,0,0,0,0,0,0,0,0,0,0,0,0,0,0,0,0,0,0,0,0,0,0,0,0,0,0,0,0,0,0,0,0,0,0,0,0,0,0,0,0,0,0,0,0,0,0,0,0,0,0,0,0,0,0,0,0,0,0,0,0,0,0,0,0,0,0,0,0,0,0,0,0,0,0,0,0,
0,0,0,0,0,0,0,0,0,0,0,0,0,0,0,0,0,0,0,0,0,0,0,0,0,0,0,0,0,0,0,0,0,0,0,0,0,0,0,0,0,0,0,0,0,0,0,0,0,0,0,0,0,0,0,0,0,0,0,0,0,0,0,0,0,0,0,0,0,0,0,0,0,0,0,0,0,0,0,0,0,0,0,0,0,0,0,0,0,0,0,0,0,0,0,0,0,0,0,0,
0,0,0,0,0,0,0,0,0,0,0,0,0,0,0,0,0,0,0,0,0,0,0,0,0,0,0,0,0,0,0,0,0,0,0,0,0,0,0,0,0,0,0,0,0,0,0,0,0,0,0,0,0,0,0,0,0,0,0,0,0,0,0,0,0,0,0,0,0,0,0,0,0,0,0,0,0,0,0,0,0,0,0,0,0,0,0,0,0,0,0,0,0,0,0,0,0,0,0,0,
0,0,0,0,0,0,0,0,0,0,0,0,0,0,0,0,0,0,0,0,0,0,0,0,0,0,0,0,0,0,0,0,0,0,0,0,0,0,0,0,0,0,0,0,0,0,0,0,0,0,0,0,0,0,0,0,0,0,0,0,0,0,0,0,0,0,0,0,0,0,0,0,0,0,0,0,0,0,0,0,0,0,0,0,0,0,0,0,0,0,0,0,0,0,0,0,0,0,0,0,
0,0,0,0,0,0,0,0,0,0,0,0,0,0,0,0,0,0,0,0,0,0,0,0,0,0,0,0,0,0,0,0,0,0,0,0,0,0,0,0,0,0,0,0,0,0,0,0,0,0,0,0,0,0,0,0,0,0,0,0,0,0,0,0,0,0,0,0,0,0,0,0,0,0,0,0,0,0,0,0,0,0,0,0,0,0,0,0,0,0,0,0,0,0,0,0,0,0,0,0,
0,0,0,0,0,0,0,0,0,0,0,0,0,0,0,0,0,0,0,0,0,0,0,0,0,0,0,0,0,0,0,0,0,0,0,0,0,0,0,0,0,0,0,0,0,0,0,0,0,0,0,0,0,0,0,0,0,0,0,0,0,0,0,0,0,0,0,0,0,0,0,0,0,0,0,0,0,0,0,0,0,0,0,0,0,0,0,0,0,0,0,0,0,0,0,0,0,0,0,0,
0,0,0,0,0,0,0,0,0,0,0,0,0,0,0,0,0,0,0,0,0,0,0,0,0,0,0,0,0,0,0,0,0,0,0,0,0,0,0,0,0,0,0,0,0,0,0,0,0,0,0,0,0,0,0,0,0,0,0,0,0,0,0,0,0,0,0,0,0,0,0,0,0,0,0,0,0,0,0,0,0,0,0,0,0,0,0,0,0,0,0,0,0,0,0,0,0,0,0,0,
0,0,0,0,0,0,0,0,0,0,0,0,0,0,0,0,0,0,0,0,0,0,0,0,0,0,0,0,0,0,0,0,0,0,0,0,0,0,0,0,0,0,0,0,0,0,0,0,0,0,0,0,0,0,0,0,0,0,0,0,0,0,0,0,0,0,0,0,0,0,0,0,0,0,0,0,0,0,0,0,0,0,0,0,0,0,0,0,0,0,0,0,0,0,0,0,0,0,0,0,
0,0,0,0,0,0,0,0,0,0,0,0,0,0,0,0,0,0,0,0,0,0,0,0,0,0,0,0,0,0,0,0,0,0,0,0,0,0,0,0,0,0,0,0,0,0,0,0,0,0,0,0,0,0,0,0,0,0,0,0,0,0,0,0,0,0,0,0,0,0,0,0,0,0,0,0,0,0,0,0,0,0,0,0,0,0,0,0,0,0,0,0,0,0,0,0,0,0,0,0,
0,0,0,0,0,0,0,0,0,0,0,0,0,0,0,0,0,0,0,0,0,0,0,0,0,0,0,0,0,0,0,0,0,0,0,0,0,0,0,0,0,0,0,0,0,0,0,0,0,0,0,0,0,0,0,0,0,0,0,0,0,0,0,0,0,0,0,0,0,0,0,0,0,0,0,0,0,0,0,0,0,0,0,0,0,0,0,0,0,0,0,0,0,0,0,0,0,0,0,0,
0,0,0,0,0,0,0,0,0,0,0,0,0,0,0,0,0,0,0,0,0,0,0,0,0,0,0,0,0,0,0,0,0,0,0,0,0,0,0,0,0,0,0,0,0,0,0,0,0,0,0,0,0,0,0,0,0,0,0,0,0,0,0,0,0,0,0,0,0,0,0,0,0,0,0,0,0,0,0,0,0,0,0,0,0,0,0,0,0,0,0,0,0,0,0,0,0,0,0,0,
0,0,0,0,0,0,0,0,0,0,0,0,0,0,0,0,0,0,0,0,0,0,0,0,0,0,0,0,0,0,0,0,0,0,0,0,0,0,0,0,0,0,0,0,0,0,0,0,0,0,0,0,0,0,0,0,0,0,0,0,0,0,0,0,0,0,0,0,0,0,0,0,0,0,0,0,0,0,0,0,0,0,0,0,0,0,0,0,0,0,0,0,0,0,0,0,0,0,0,0,
0,0,0,0,0,0,0,0,0,0,0,0,0,0,0,0,0,0,0,0,0,0,0,0,0,0,0,0,0,0,0,0,0,0,0,0,0,0,0,0,0,0,0,0,0,0,0,0,0,0,0,0,0,0,0,0,0,0,0,0,0,0,0,0,0,0,0,0,0,0,0,0,0,0,0,0,0,0,0,0,0,0,0,0,0,0,0,0,0,0,0,0,0,0,0,0,0,0,0,0,
0,0,0,0,0,0,0,0,0,0,0,0,0,0,0,0,0,0,0,0,0,0,0,0,0,0,0,0,0,0,0,0,0,0,0,0,0,0,0,0,0,0,0,0,0,0,0,0,0,0,0,0,0,0,0,0,0,0,0,0,0,0,0,0,0,0,0,0,0,0,0,0,0,0,0,0,0,0,0,0,0,0,0,0,0,0,0,0,0,0,0,0,0,0,0,0,0,0,0,0,
0,0,0,0,0,0,0,0,0,0,0,0,0,0,0,0,0,0,0,0,0,0,0,0,0,0,0,0,0,0,0,0,0,0,0,0,0,0,0,0,0,0,0,0,0,0,0,0,0,0,0,0,0,0,0,0,0,0,0,0,0,0,0,0,0,0,0,0,0,0,0,0,0,0,0,0,0,0,0,0,0,0,0,0,0,0,0,0,0,0,0,0,0,0,0,0,0,0,0,0,
0,0,0,0,0,0,0,0,0,0,0,0,0,0,0,0,0,0,0,0,0,0,0,0,0,0,0,0,0,0,0,0,0,0,0,0,0,0,0,0,0,0,0,0,0,0,0,0,0,0,0,0,0,0,0,0,0,0,0,0,0,0,0,0,0,0,0,0,0,0,0,0,0,0,0,0,0,0,0,0,0,0,0,0,0,0,0,0,0,0,0,0,0,0,0,0,0,0,0,0,
0,0,0,0,0,0,0,0,0,0,0,0,0,0,0,0,0,0,0,0,0,0,0,0,0,0,0,0,0,0,0,0,0,0,0,0,0,0,0,0,0,0,0,0,0,0,0,0,0,0,0,0,0,0,0,0,0,0,0,0,0,0,0,0,0,0,0,0,0,0,0,0,0,0,0,0,0,0,0,0,0,0,0,0,0,0,0,0,0,0,0,0,0,0,0,0,0,0,0,0,
0,0,0,0,0,0,0,0,0,0,0,0,0,0,0,0,0,0,0,0,0,0,0,0,0,0,0,0,0,0,0,0,0,0,0,0,0,0,0,0,0,0,0,0,0,0,0,0,0,0,0,0,0,0,0,0,0,0,0,0,0,0,0,0,0,0,0,0,0,0,0,0,0,0,0,0,0,0,0,0,0,0,0,0,0,0,0,0,0,0,0,0,0,0,0,0,0,0,0,0,
0,0,0,0,0,0,0,0,0,0,0,0,0,0,0,0,0,0,0,0,0,0,0,0,0,0,0,0,0,0,0,0,0,0,0,0,0,0,0,0,0,0,0,0,0,0,0,0,0,0,0,0,0,0,0,0,0,0,0,0,0,0,0,0,0,0,0,0,0,0,0,0,0,0,0,0,0,0,0,0,0,0,0,0,0,0,0,0,0,0,0,0,0,0,0,0,0,0,0,0,
0,0,0,0,0,0,0,0,0,0,0,0,0,0,0,0,0,0,0,0,0,0,0,0,0,0,0,0,0,0,0,0,0,0,0,0,0,0,0,0,0,0,0,0,0,0,0,0,0,0,0,0,0,0,0,0,0,0,0,0,0,0,0,0,0,0,0,0,0,0,0,0,0,0,0,0,0,0,0,0,0,0,0,0,0,0,0,0,0,0,0,0,0,0,0,0,0,0,0,0,
0,0,0,0,0,0,0,0,0,0,0,0,0,0,0,0,0,0,0,0,0,0,0,0,0,0,0,0,0,0,0,0,0,0,0,0,0,0,0,0,0,0,0,0,0,0,0,0,0,0,0,0,0,0,0,0,0,0,0,0,0,0,0,0,0,0,0,0,0,0,0,0,0,0,0,0,0,0,0,0,0,0,0,0,0,0,0,0,0,0,0,0,0,0,0,0,0,0,0,0,
0,0,0,0,0,0,0,0,0,0,0,0,0,0,0,0,0,0,0,0,0,0,0,0,0,0,0,0,0,0,0,0,0,0,0,0,0,0,0,0,0,0,0,0,0,0,0,0,0,0,0,0,0,0,0,0,0,0,0,0,0,0,0,0,0,0,0,0,0,0,0,0,0,0,0,0,0,0,0,0,0,0,0,0,0,0,0,0,0,0,0,0,0,0,0,0,0,0,0,0,
0,0,0,0,0,0,0,0,0,0,0,0,0,0,0,0,0,0,0,0,0,0,0,0,0,0,0,0,0,0,0,0,0,0,0,0,0,0,0,0,0,0,0,0,0,0,0,0,0,0,0,0,0,0,0,0,0,0,0,0,0,0,0,0,0,0,0,0,0,0,0,0,0,0,0,0,0,0,0,0,0,0,0,0,0,0,0,0,0,0,0,0,0,0,0,0,0,0,0,0,
0,0,0,0,0,0,0,0,0,0,0,0,0,0,0,0,0,0,0,0,0,0,0,0,0,0,0,0,0,0,0,0,0,0,0,0,0,0,0,0,0,0,0,0,0,0,0,0,0,0,0,0,0,0,0,0,0,0,0,0,0,0,0,0,0,0,0,0,0,0,0,0,0,0,0,0,0,0,0,0,0,0,0,0,0,0,0,0,0,0,0,0,0,0,0,0,0,0,0,0,
0,0,0,0,0,0,0,0,0,0,0,0,0,0,0,0,0,0,0,0,0,0,0,0,0,0,0,0,0,0,0,0,0,0,0,0,0,0,0,0,0,0,0,0,0,0,0,0,0,0,0,0,0,0,0,0,0,0,0,0,0,0,0,0,0,0,0,0,0,0,0,0,0,0,0,0,0,0,0,0,0,0,0,0,0,0,0,0,0,0,0,0,0,0,0,0,0,0,0,0,
0,0,0,0,0,0,0,0,0,0,0,0,0,0,0,0,0,0,0,0,0,0,0,0,0,0,0,0,0,0,0,0,0,0,0,0,0,0,0,0,0,0,0,0,0,0,0,0,0,0,0,0,0,0,0,0,0,0,0,0,0,0,0,0,0,0,0,0,0,0,0,0,0,0,0,0,0,0,0,0,0,0,0,0,0,0,0,0,0,0,0,0,0,0,0,0,0,0,0,0,
0,0,0,0,0,0,0,0,0,0,0,0,0,0,0,0,0,0,0,0,0,0,0,0,0,0,0,0,0,0,0,0,0,0,0,0,0,0,0,0,0,0,0,0,0,0,0,0,0,0,0,0,0,0,0,0,0,0,0,0,0,0,0,0,0,0,0,0,0,0,0,0,0,0,0,0,0,0,0,0,0,0,0,0,0,0,0,0,0,0,0,0,0,0,0,0,0,0,0,0,
0,0,0,0,0,0,0,0,0,0,0,0,0,0,0,0,0,0,0,0,0,0,0,0,0,0,0,0,0,0,0,0,0,0,0,0,0,0,0,0,0,0,0,0,0,0,0,0,0,0,0,0,0,0,0,0,0,0,0,0,0,0,0,0,0,0,0,0,0,0,0,0,0,0,0,0,0,0,0,0,0,0,0,0,0,0,0,0,0,0,0,0,0,0,0,0,0,0,0,0,
0,0,0,0,0,0,0,0,0,0,0,0,0,0,0,0,0,0,0,0,0,0,0,0,0,0,0,0,0,0,0,0,0,0,0,0,0,0,0,0,0,0,0,0,0,0,0,0,0,0,0,0,0,0,0,0,0,0,0,0,0,0,0,0,0,0,0,0,0,0,0,0,0,0,0,0,0,0,0,0,0,0,0,0,0,0,0,0,0,0,0,0,0,0,0,0,0,0,0,0,
0,0,0,0,0,0,0,0,0,0,0,0,0,0,0,0,0,0,0,0,0,0,0,0,0,0,0,0,0,0,0,0,0,0,0,0,0,0,0,0,0,0,0,0,0,0,0,0,0,0,0,0,0,0,0,0,0,0,0,0,0,0,0,0,0,0,0,0,0,0,0,0,0,0,0,0,0,0,0,0,0,0,0,0,0,0,0,0,0,0,0,0,0,0,0,0,0,0,0,0,
0,0,0,0,0,0,0,0,0,0,0,0,0,0,0,0,0,0,0,0,0,0,0,0,0,0,0,0,0,0,0,0,0,0,0,0,0,0,0,0,0,0,0,0,0,0,0,0,0,0,0,0,0,0,0,0,0,0,0,0,0,0,0,0,0,0,0,0,0,0,0,0,0,0,0,0,0,0,0,0,0,0,0,0,0,0,0,0,0,0,0,0,0,0,0,0,0,0,0,0,
0,0,0,0,0,0,0,0,0,0,0,0,0,0,0,0,0,0,0,0,0,0,0,0,0,0,0,0,0,0,0,0,0,0,0,0,0,0,0,0,0,0,0,0,0,0,0,0,0,0,0,0,0,0,0,0,0,0,0,0,0,0,0,0,0,0,0,0,0,0,0,0,0,0,0,0,0,0,0,0,0,0,0,0,0,0,0,0,0,0,0,0,0,0,0,0,0,0,0,0,
0,0,0,0,0,0,0,0,0,0,0,0,0,0,0,0,0,0,0,0,0,0,0,0,0,0,0,0,0,0,0,0,0,0,0,0,0,0,0,0,0,0,0,0,0,0,0,0,0,0,0,0,0,0,0,0,0,0,0,0,0,0,0,0,0,0,0,0,0,0,0,0,0,0,0,0,0,0,0,0,0,0,0,0,0,0,0,0,0,0,0,0,0,0,0,0,0,0,0,0,
0,0,0,0,0,0,0,0,0,0,0,0,0,0,0,0,0,0,0,0,0,0,0,0,0,0,0,0,0,0,0,0,0,0,0,0,0,0,0,0,0,0,0,0,0,0,0,0,0,0,0,0,0,0,0,0,0,0,0,0,0,0,0,0,0,0,0,0,0,0,0,0,0,0,0,0,0,0,0,0,0,0,0,0,0,0,0,0,0,0,0,0,0,0,0,0,0,0,0,0,
0,0,0,0,0,0,0,0,0,0,0,0,0,0,0,0,0,0,0,0,0,0,0,0,0,0,0,0,0,0,0,0,0,0,0,0,0,0,0,0,0,0,0,0,0,0,0,0,0,0,0,0,0,0,0,0,0,0,0,0,0,0,0,0,0,0,0,0,0,0,0,0,0,0,0,0,0,0,0,0,0,0,0,0,0,0,0,0,0,0,0,0,0,0,0,0,0,0,0,0,
0,0,0,0,0,0,0,0,0,0,0,0,0,0,0,0,0,0,0,0,0,0,0,0,0,0,0,0,0,0,0,0,0,0,0,0,0,0,0,0,0,0,0,0,0,0,0,0,0,0,0,0,0,0,0,0,0,0,0,0,0,0,0,0,0,0,0,0,0,0,0,0,0,0,0,0,0,0,0,0,0,0,0,0,0,0,0,0,0,0,0,0,0,0,0,0,0,0,0,0,
0,0,0,0,0,0,0,0,0,0,0,0,0,0,0,0,0,0,0,0,0,0,0,0,0,0,0,0,0,0,0,0,0,0,0,0,0,0,0,0,0,0,0,0,0,0,0,0,0,0,0,0,0,0,0,0,0,0,0,0,0,0,0,0,0,0,0,0,0,0,0,0,0,0,0,0,0,0,0,0,0,0,0,0,0,0,0,0,0,0,0,0,0,0,0,0,0,0,0,0,
0,0,0,0,0,0,0,0,0,0,0,0,0,0,0,0,0,0,0,0,0,0,0,0,0,0,0,0,0,0,0,0,0,0,0,0,0,0,0,0,0,0,0,0,0,0,0,0,0,0,0,0,0,0,0,0,0,0,0,0,0,0,0,0,0,0,0,0,0,0,0,0,0,0,0,0,0,0,0,0,0,0,0,0,0,0,0,0,0,0,0,0,0,0,0,0,0,0,0,0,
0,0,0,0,0,0,0,0,0,0,0,0,0,0,0,0,0,0,0,0,0,0,0,0,0,0,0,0,0,0,0,0,0,0,0,0,0,0,0,0,0,0,0,0,0,0,0,0,0,0,0,0,0,0,0,0,0,0,0,0,0,0,0,0,0,0,0,0,0,0,0,0,0,0,0,0,0,0,0,0,0,0,0,0,0,0,0,0,0,0,0,0,0,0,0,0,0,0,0,0,
0,0,0,0,0,0,0,0,0,0,0,0,0,0,0,0,0,0,0,0,0,0,0,0,0,0,0,0,0,0,0,0,0,0,0,0,0,0,0,0,0,0,0,0,0,0,0,0,0,0,0,0,0,0,0,0,0,0,0,0,0,0,0,0,0,0,0,0,0,0,0,0,0,0,0,0,0,0,0,0,0,0,0,0,0,0,0,0,0,0,0,0,0,0,0,0,0,0,0,0,
0,0,0,0,0,0,0,0,0,0,0,0,0,0,0,0,0,0,0,0,0,0,0,0,0,0,0,0,0,0,0,0,0,0,0,0,0,0,0,0,0,0,0,0,0,0,0,0,0,0,0,0,0,0,0,0,0,0,0,0,0,0,0,0,0,0,0,0,0,0,0,0,0,0,0,0,0,0,0,0,0,0,0,0,0,0,0,0,0,0,0,0,0,0,0,0,0,0,0,0,
0,0,0,0,0,0,0,0,0,0,0,0,0,0,0,0,0,0,0,0,0,0,0,0,0,0,0,0,0,0,0,0,0,0,0,0,0,0,0,0,0,0,0,0,0,0,0,0,0,0,0,0,0,0,0,0,0,0,0,0,0,0,0,0,0,0,0,0,0,0,0,0,0,0,0,0,0,0,0,0,0,0,0,0,0,0,0,0,0,0,0,0,0,0,0,0,0,0,0,0,
0,0,0,0,0,0,0,0,0,0,0,0,0,0,0,0,0,0,0,0,0,0,0,0,0,0,0,0,0,0,0,0,0,0,0,0,0,0,0,0,0,0,0,0,0,0,0,0,0,0,0,0,0,0,0,0,0,0,0,0,0,0,0,0,0,0,0,0,0,0,0,0,0,0,0,0,0,0,0,0,0,0,0,0,0,0,0,0,0,0,0,0,0,0,0,0,0,0,0,0,
0,0,0,0,0,0,0,0,0,0,0,0,0,0,0,0,0,0,0,0,0,0,0,0,0,0,0,0,0,0,0,0,0,0,0,0,0,0,0,0,0,0,0,0,0,0,0,0,0,0,0,0,0,0,0,0,0,0,0,0,0,0,0,0,0,0,0,0,0,0,0,0,0,0,0,0,0,0,0,0,0,0,0,0,0,0,0,0,0,0,0,0,0,0,0,0,0,0,0,0,
0,0,0,0,0,0,0,0,0,0,0,0,0,0,0,0,0,0,0,0,0,0,0,0,0,0,0,0,0,0,0,0,0,0,0,0,0,0,0,0,0,0,0,0,0,0,0,0,0,0,0,0,0,0,0,0,0,0,0,0,0,0,0,0,0,0,0,0,0,0,0,0,0,0,0,0,0,0,0,0,0,0,0,0,0,0,0,0,0,0,0,0,0,0,0,0,0,0,0,0,
0,0,0,0,0,0,0,0,0,0,0,0,0,0,0,0,0,0,0,0,0,0,0,0,0,0,0,0,0,0,0,0,0,0,0,0,0,0,0,0,0,0,0,0,0,0,0,0,0,0,0,0,0,0,0,0,0,0,0,0,0,0,0,0,0,0,0,0,0,0,0,0,0,0,0,0,0,0,0,0,0,0,0,0,0,0,0,0,0,0,0,0,0,0,0,0,0,0,0,0,
0,0,0,0,0,0,0,0,0,0,0,0,0,0,0,0,0,0,0,0,0,0,0,0,0,0,0,0,0,0,0,0,0,0,0,0,0,0,0,0,0,0,0,0,0,0,0,0,0,0,0,0,0,0,0,0,0,0,0,0,0,0,0,0,0,0,0,0,0,0,0,0,0,0,0,0,0,0,0,0,0,0,0,0,0,0,0,0,0,0,0,0,0,0,0,0,0,0,0,0,
0,0,0,0,0,0,0,0,0,0,0,0,0,0,0,0,0,0,0,0,0,0,0,0,0,0,0,0,0,0,0,0,0,0,0,0,0,0,0,0,0,0,0,0,0,0,0,0,0,0,0,0,0,0,0,0,0,0,0,0,0,0,0,0,0,0,0,0,0,0,0,0,0,0,0,0,0,0,0,0,0,0,0,0,0,0,0,0,0,0,0,0,0,0,0,0,0,0,0,0,
0,0,0,0,0,0,0,0,0,0,0,0,0,0,0,0,0,0,0,0,0,0,0,0,0,0,0,0,0,0,0,0,0,0,0,0,0,0,0,0,0,0,0,0,0,0,0,0,0,0,0,0,0,0,0,0,0,0,0,0,0,0,0,0,0,0,0,0,0,0,0,0,0,0,0,0,0,0,0,0,0,0,0,0,0,0,0,0,0,0,0,0,0,0,0,0,0,0,0,0,
0,0,0,0,0,0,0,0,0,0,0,0,0,0,0,0,0,0,0,0,0,0,0,0,0,0,0,0,0,0,0,0,0,0,0,0,0,0,0,0,0,0,0,0,0,0,0,0,0,0,0,0,0,0,0,0,0,0,0,0,0,0,0,0,0,0,0,0,0,0,0,0,0,0,0,0,0,0,0,0,0,0,0,0,0,0,0,0,0,0,0,0,0,0,0,0,0,0,0,0,
0,0,8213,0,0,0,0,0,0,7985,8235,0,0,0,0,0,0,0,0,0,0,0,0,0,0,0,0,0,0,0,0,0,0,0,0,0,0,0,0,0,0,0,0,0,0,0,0,0,0,0,0,0,0,0,0,0,0,0,0,0,0,0,0,0,0,0,0,0,0,0,0,0,0,0,0,0,0,0,0,0,0,0,0,0,0,0,0,0,0,0,0,0,0,0,0,0,0,0,0,0,
0,0,0,7989,0,0,0,0,0,0,0,0,0,8235,0,0,0,0,0,0,0,0,0,0,0,0,0,0,0,0,0,0,0,0,0,0,0,0,0,0,0,0,0,0,0,0,0,0,0,0,0,0,0,0,0,0,0,0,0,0,0,0,0,0,0,0,0,0,0,0,0,0,0,0,0,0,0,0,0,0,0,0,0,0,0,0,0,0,0,0,0,0,0,0,0,0,0,0,0,0,
0,0,0,0,0,0,0,0,0,0,0,0,7987,0,0,0,0,0,0,0,0,8225,0,0,0,0,0,0,0,0,0,0,0,0,0,0,0,0,0,0,0,0,0,0,0,0,0,0,0,0,0,0,0,0,0,0,0,0,0,0,0,0,0,0,0,0,0,0,0,0,0,0,0,0,0,0,0,0,0,0,0,0,0,0,0,0,0,0,0,0,0,0,0,0,0,0,0,0,0,0,
0,0,0,0,0,0,0,0,0,0,0,0,0,0,0,0,0,0,0,0,7996,0,0,0,0,0,0,0,0,0,0,0,0,0,0,0,0,0,0,0,0,0,0,0,0,0,0,0,0,0,0,0,0,0,0,0,0,0,0,0,0,0,0,0,0,0,0,0,0,0,0,0,0,0,0,0,0,0,0,0,0,0,0,0,0,0,0,0,0,0,0,0,0,0,0,0,0,0,0,0,
0,0,0,0,0,0,0,0,0,0,0,0,7988,0,0,0,0,0,0,0,0,0,0,0,0,0,0,0,0,0,0,0,0,0,0,0,0,0,0,0,0,0,0,0,0,0,0,0,0,0,0,0,0,0,0,0,0,0,0,0,0,0,0,0,0,0,0,0,0,0,0,0,0,0,0,0,0,0,0,0,0,0,0,0,0,0,0,0,0,0,0,0,0,0,0,0,0,0,0,0,
0,0,0,0,0,0,0,0,0,0,0,0,0,0,0,0,0,0,0,0,0,0,0,0,0,0,0,0,0,0,0,0,0,0,0,0,0,0,0,0,0,0,0,0,0,0,0,0,0,0,0,0,0,0,0,0,0,0,0,0,0,0,0,0,0,0,0,0,0,0,0,0,0,0,0,0,0,0,0,0,0,0,0,0,0,0,0,0,0,0,0,0,0,0,0,0,0,0,0,0,
0,0,0,0,0,0,8212,0,0,0,0,0,0,0,0,0,0,0,0,0,0,0,0,0,0,0,0,0,0,0,0,0,0,0,0,0,0,0,0,0,0,0,0,0,0,0,0,0,0,0,0,0,0,0,0,0,0,0,0,0,0,0,0,0,0,0,0,0,0,0,0,0,0,0,0,0,0,0,0,0,0,0,0,0,0,0,0,0,0,0,0,0,0,0,0,0,0,0,0,0,
0,0,0,0,0,0,0,0,0,0,0,0,0,0,0,0,0,0,0,7984,0,0,0,0,0,0,0,0,0,0,0,0,0,0,0,0,0,0,0,0,0,0,0,0,0,0,0,0,0,0,0,0,0,0,0,0,0,0,0,0,0,0,0,0,0,0,0,0,0,0,0,0,0,0,0,0,0,0,0,0,0,0,0,0,0,0,0,0,0,0,0,0,0,0,0,0,0,0,0,0,
0,0,0,0,0,0,0,0,0,0,0,0,0,0,0,0,0,0,0,0,0,0,0,0,0,0,0,0,0,0,0,0,0,0,0,0,0,0,0,0,0,0,0,0,0,0,0,0,0,0,0,0,0,0,0,0,0,0,0,0,0,0,0,0,0,0,0,0,0,0,0,0,0,0,0,0,0,0,0,0,0,0,0,0,0,0,0,0,0,0,0,0,0,0,0,0,0,0,0,0,
0,0,0,8210,0,0,0,0,0,0,0,0,0,0,0,0,0,0,0,0,0,0,0,8220,0,0,0,0,0,0,0,0,0,0,0,0,0,0,0,0,0,0,0,0,0,0,0,0,0,0,0,0,0,0,0,0,0,0,0,0,0,0,0,0,0,0,0,0,0,0,0,0,0,0,0,0,0,0,0,0,0,0,0,0,0,0,0,0,0,0,0,0,0,0,0,0,0,0,0,0,
0,0,0,0,0,0,0,0,0,0,0,0,0,0,0,0,0,0,0,0,0,0,0,0,0,0,0,0,0,0,0,0,0,0,0,0,0,0,0,0,0,0,0,0,0,0,0,0,0,0,0,0,0,0,0,0,0,0,0,0,0,0,0,0,0,0,0,0,0,0,0,0,0,0,0,0,0,0,0,0,0,0,0,0,0,0,0,0,0,0,0,0,0,0,0,0,0,0,0,0,
0,0,0,0,0,0,0,0,0,0,0,0,0,0,0,0,0,0,0,0,0,8003,0,0,0,0,0,0,0,0,0,0,0,0,0,0,0,0,0,0,0,0,0,0,0,0,0,0,0,0,0,0,0,0,0,0,0,0,0,0,0,0,0,0,0,0,0,0,0,0,0,0,0,0,0,0,0,0,0,0,0,0,0,0,0,0,0,0,0,0,0,0,0,0,0,0,0,0,0,0,
0,0,0,0,0,0,0,0,7988,7990,0,0,0,0,0,0,0,0,0,0,0,0,0,0,0,0,0,0,0,0,0,0,0,0,0,0,0,0,0,0,0,0,0,0,0,0,0,0,0,0,0,0,0,0,0,0,0,0,0,0,0,0,0,0,0,0,0,0,0,0,0,0,0,0,0,0,0,0,0,0,0,0,0,0,0,0,0,0,0,0,0,0,0,0,0,0,0,0,0,0,
0,0,0,0,0,0,0,0,0,0,0,0,0,0,0,0,0,0,0,0,0,0,0,0,0,0,0,0,0,0,0,0,8209,0,0,0,0,0,0,0,0,0,0,0,0,0,0,0,0,0,0,0,0,0,0,0,0,0,0,0,0,0,0,0,0,0,0,0,0,0,0,0,0,0,0,0,0,0,0,0,0,0,0,0,0,0,0,0,0,0,0,0,0,0,0,0,0,0,0,0,
0,0,0,0,0,0,0,0,0,0,0,0,8226,0,0,0,0,0,0,0,0,0,0,0,0,0,0,0,0,0,8003,0,0,0,0,0,0,0,0,0,0,0,0,0,0,0,0,0,0,0,0,0,0,0,0,0,0,0,0,0,0,0,0,0,0,0,0,0,0,0,0,0,0,0,0,0,0,0,0,0,0,0,0,0,0,0,0,0,0,0,0,0,0,0,0,0,0,0,0,0,
0,0,0,0,0,0,0,0,0,0,0,0,8005,7991,8230,0,0,0,0,0,0,0,0,0,0,0,0,0,0,0,0,0,0,0,0,0,0,0,0,0,0,0,0,0,0,0,0,0,0,0,0,0,0,0,0,0,0,0,0,0,0,0,0,0,0,0,0,0,0,0,0,0,0,0,0,0,0,0,0,0,0,0,0,0,0,0,0,0,0,0,0,0,0,0,0,0,0,0,0,0,
0,0,7989,0,0,0,0,0,0,0,0,0,0,8003,0,0,0,0,0,0,0,0,0,0,0,0,0,0,0,0,0,0,0,0,0,0,0,0,0,0,0,0,0,0,0,0,0,0,0,0,0,0,0,0,0,0,0,0,0,0,0,0,0,0,0,0,0,0,0,0,0,0,0,0,0,0,0,0,0,0,0,0,0,0,0,0,0,0,0,0,0,0,0,0,0,0,0,0,0,0,
0,0,0,0,0,0,0,0,0,0,0,0,0,0,0,0,0,0,0,0,0,0,0,0,0,8210,0,0,0,0,0,0,0,0,0,0,0,0,0,0,0,0,0,0,0,0,0,0,0,0,0,0,0,0,0,0,0,0,0,0,0,0,0,0,0,0,0,0,0,0,0,0,0,0,0,0,0,0,0,0,0,0,0,0,0,0,0,0,0,0,0,0,0,0,0,0,0,0,0,0,
0,0,0,0,0,0,0,0,0,0,0,0,0,0,0,0,0,0,0,0,0,0,0,0,7992,0,0,0,0,0,0,0,0,0,0,0,0,0,0,0,0,0,0,0,0,0,0,0,0,0,0,0,0,0,0,0,0,0,0,0,0,0,0,0,0,0,0,0,0,0,0,0,0,0,0,0,0,0,0,0,0,0,0,0,0,0,0,0,0,0,0,0,0,0,0,0,0,0,0,0,
0,0,0,0,0,0,0,0,0,0,0,0,0,0,0,0,0,0,0,0,0,0,0,0,0,0,0,0,0,0,0,0,0,0,0,0,0,0,0,0,0,0,0,0,0,0,0,0,0,0,0,0,0,0,0,0,0,0,0,0,0,0,0,0,0,0,0,0,0,0,0,0,0,0,0,0,0,0,0,0,0,0,0,0,0,0,0,0,0,0,0,0,0,0,0,0,0,0,0,0,
0,0,0,8225,7987,8230,0,0,0,0,0,7988,0,0,0,0,0,0,0,0,0,0,0,0,0,0,0,0,0,0,0,8222,0,0,0,0,0,0,0,0,0,0,0,0,0,0,0,0,0,0,0,0,0,0,0,0,0,0,0,0,0,0,0,0,0,0,0,0,0,0,0,0,0,0,0,0,0,0,0,0,0,0,0,0,0,0,0,0,0,0,0,0,0,0,0,0,0,0,0,0,
0,0,0,7989,7989,0,0,0,0,0,0,0,0,0,0,0,0,0,0,7989,8210,0,0,0,0,0,0,0,0,0,7984,8002,0,0,0,0,0,0,0,0,0,0,0,0,0,0,0,0,0,0,0,0,0,0,0,0,0,0,0,0,0,0,0,0,0,0,0,0,0,0,0,0,0,0,0,0,0,0,0,0,0,0,0,0,0,0,0,0,0,0,0,0,0,0,0,0,0,0,0,0,
0,0,0,0,0,0,0,0,0,0,0,0,0,0,0,0,0,0,0,0,0,0,0,0,0,0,0,0,0,0,8002,0,0,0,0,0,0,0,0,0,0,0,0,0,0,0,0,0,0,0,0,0,0,0,0,0,0,0,0,0,0,0,0,0,0,0,0,0,0,0,0,0,0,0,0,0,0,0,0,0,0,0,0,0,0,0,0,0,0,0,0,0,0,0,0,0,0,0,0,0,
0,0,0,0,0,0,0,0,0,0,0,0,0,0,0,0,0,0,0,0,0,0,0,0,0,0,0,0,0,0,0,0,0,0,0,0,0,0,0,0,0,0,0,0,0,0,0,0,0,0,0,0,0,0,0,0,0,0,0,0,0,0,0,0,0,0,0,0,0,0,0,0,0,0,0,0,0,0,0,0,0,0,0,0,0,0,0,0,0,0,0,0,0,0,0,0,0,0,0,0,
0,0,0,0,0,0,0,0,0,0,0,0,0,0,0,0,0,0,0,0,0,0,0,0,0,0,0,0,0,0,0,0,0,0,0,0,0,0,0,0,0,0,0,0,0,0,0,0,0,0,0,0,0,0,0,0,0,0,0,0,0,0,0,0,0,0,0,0,0,0,0,0,0,0,0,0,0,0,0,0,0,0,0,0,0,0,0,0,0,0,0,0,0,0,0,0,0,0,0,0,
0,0,0,0,0,0,0,0,0,0,0,0,0,0,0,0,0,0,0,0,0,0,0,0,0,0,0,0,0,0,0,0,0,0,0,0,0,0,0,0,0,0,0,0,0,0,0,0,0,0,0,0,0,0,0,0,0,0,0,0,0,0,0,0,0,0,0,0,0,0,0,0,0,0,0,0,0,0,0,0,0,0,0,0,0,0,0,0,0,0,0,0,0,0,0,0,0,0,0,0,
0,0,0,0,0,0,0,0,0,0,0,0,0,0,0,0,0,0,0,0,0,0,0,0,0,0,0,0,8211,0,0,0,0,0,0,0,0,0,0,0,0,0,0,0,0,0,0,0,0,0,0,0,0,0,0,0,0,0,0,0,0,0,0,0,0,0,0,0,0,0,0,0,0,0,0,0,0,0,0,0,0,0,0,0,0,0,0,0,0,0,0,0,0,0,0,0,0,0,0,0,
0,0,0,0,0,0,0,0,0,0,0,0,0,0,0,0,0,0,0,0,0,0,0,0,0,0,0,0,0,0,0,0,0,0,0,0,0,0,0,0,0,0,0,0,0,0,0,0,0,0,0,0,0,0,0,0,0,0,0,0,0,0,0,0,0,0,0,0,0,0,0,0,0,0,0,0,0,0,0,0,0,0,0,0,0,0,0,0,0,0,0,0,0,0,0,0,0,0,0,0,
0,0,0,0,0,0,0,0,0,0,0,0,0,0,0,0,0,0,0,0,0,0,0,0,0,0,0,7990,0,0,0,0,0,0,0,0,0,0,0,0,0,0,0,0,0,0,0,0,0,0,0,0,0,0,0,0,0,0,0,0,0,0,0,0,0,0,0,0,0,0,0,0,0,0,0,0,0,0,0,0,0,0,0,0,0,0,0,0,0,0,0,0,0,0,0,0,0,0,0,0,
0,0,0,0,0,0,0,0,0,0,0,0,0,0,0,0,0,0,0,0,0,0,0,0,0,0,0,0,0,0,0,0,0,0,0,0,8225,0,0,0,0,0,0,0,0,0,0,0,0,0,0,0,0,0,0,0,0,0,0,0,0,0,0,0,0,0,0,0,0,0,0,0,0,0,0,0,0,0,0,0,0,0,0,0,0,0,0,0,0,0,0,0,0,0,0,0,0,0,0,0,
0,0,0,0,0,0,0,0,0,0,0,0,0,0,0,0,0,0,0,0,0,0,0,0,0,0,0,0,0,0,0,0,0,0,0,7991,0,0,0,0,0,0,0,0,0,0,0,0,0,0,0,0,0,0,0,0,0,0,0,0,0,0,0,0,0,0,0,0,0,0,0,0,0,0,0,0,0,0,0,0,0,0,0,0,0,0,0,0,0,0,0,0,0,0,0,0,0,0,0,0,
0,0,0,0,0,0,0,0,0,0,0,0,0,0,0,0,0,0,0,0,0,0,0,0,0,0,0,0,0,0,0,0,0,0,0,0,0,0,0,0,0,0,0,0,0,0,0,0,0,0,0,0,0,0,0,0,0,0,0,0,0,0,0,0,0,0,0,0,0,0,0,0,0,0,0,0,0,0,0,0,0,0,0,0,0,0,0,0,0,0,0,0,0,0,0,0,0,0,0,0,
0,0,0,0,0,0,0,0,0,0,0,0,0,0,0,0,0,0,0,0,0,0,0,0,0,0,0,0,0,0,0,0,0,0,0,0,0,0,0,0,0,0,0,0,0,0,0,0,0,0,0,0,0,0,0,0,0,0,0,0,0,0,0,0,0,0,0,0,0,0,0,0,0,0,0,0,0,0,0,0,0,0,0,0,0,0,0,0,0,0,0,0,0,0,0,0,0,0,0,0,
0,0,0,0,0,0,0,0,0,0,0,0,0,0,0,0,0,0,0,0,7989,0,0,0,0,0,0,0,0,0,0,0,0,0,0,0,0,0,0,0,0,0,0,0,0,0,0,0,0,0,0,0,0,0,0,0,0,0,0,0,0,0,0,0,0,0,0,0,0,0,0,0,0,0,0,0,0,0,0,0,0,0,0,0,0,0,0,0,0,0,0,0,0,0,0,0,0,0,0,0,
0,0,0,0,0,0,0,0,0,0,0,0,0,0,0,0,0,0,0,0,0,0,0,0,0,0,0,0,0,0,0,0,0,0,0,0,0,0,0,0,0,0,0,0,0,0,0,0,0,0,0,0,0,0,0,0,0,0,0,0,0,0,0,0,0,0,0,0,0,0,0,0,0,0,0,0,0,0,0,0,0,0,0,0,0,0,0,0,0,0,0,0,0,0,0,0,0,0,0,0,
0,0,0,0,0,0,0,0,0,0,0,0,0,0,0,0,0,0,0,0,0,0,0,7994,8231,0,8212,0,0,0,0,0,0,0,0,0,0,0,0,0,0,0,0,0,0,0,0,0,0,0,0,0,0,0,0,0,0,0,0,0,0,0,0,0,0,0,0,0,0,0,0,0,0,0,0,0,0,0,0,0,0,0,0,0,0,0,0,0,0,0,0,0,0,0,0,0,0,0,0,0,
0,0,0,0,0,0,0,0,0,0,0,0,0,0,0,0,0,0,8223,0,0,0,0,0,8008,0,7985,0,0,0,0,0,0,0,0,0,8214,0,0,0,0,0,0,0,0,0,0,0,0,0,0,0,0,0,0,0,0,0,0,0,0,0,0,0,0,0,0,0,0,0,0,0,0,0,0,0,0,0,0,0,0,0,0,0,0,0,0,0,0,0,0,0,0,0,0,0,0,0,0,0,
0,0,0,0,0,0,0,0,0,0,0,0,0,0,0,0,7991,0,0,0,0,0,0,0,0,0,0,0,0,0,0,0,0,0,0,0,0,0,0,0,0,0,0,0,0,0,0,0,0,0,0,0,0,0,0,0,0,0,0,0,0,0,0,0,0,0,0,0,0,0,0,0,0,0,0,0,0,0,0,0,0,0,0,0,0,0,0,0,0,0,0,0,0,0,0,0,0,0,0,0
</data>
 </layer>
 <layer id="4" name="Arvore" width="100" height="100">
  <data encoding="csv">
0,0,0,0,0,0,0,0,0,0,0,0,0,0,0,0,0,0,0,0,0,0,0,0,0,0,0,0,0,0,0,0,0,0,0,0,0,0,0,0,0,0,0,0,0,0,0,0,0,0,0,0,0,0,0,0,0,0,0,0,0,0,0,0,0,0,0,0,0,0,0,0,0,0,0,0,0,0,0,0,0,0,0,0,0,0,0,0,0,0,0,0,0,0,0,0,0,0,0,0,
0,0,0,0,0,0,0,0,0,0,0,0,0,0,0,0,0,0,0,0,0,0,0,0,0,0,0,0,0,0,0,0,0,0,0,0,0,0,0,0,0,0,0,0,0,0,0,0,0,0,0,0,0,0,0,0,0,0,0,0,0,0,0,0,0,0,0,0,0,0,0,0,0,0,0,0,0,0,0,0,0,0,0,0,0,0,0,0,0,0,0,0,0,0,0,0,0,0,0,0,
0,0,0,0,0,0,0,0,0,0,0,0,0,0,0,0,0,0,0,0,0,0,0,0,0,0,0,0,0,0,0,0,0,0,0,0,0,0,0,0,0,0,0,0,0,0,0,0,0,0,0,0,0,0,0,0,0,0,0,0,0,0,0,0,0,0,0,0,0,0,0,0,0,0,0,0,0,0,0,0,0,0,0,0,0,0,0,0,0,0,0,0,0,0,0,0,0,0,0,0,
0,0,0,0,0,0,0,0,0,0,0,0,0,0,0,0,0,0,0,0,0,0,0,0,0,0,0,0,0,0,0,0,0,0,0,0,0,0,0,0,0,0,0,0,0,0,0,0,0,0,0,0,0,0,0,0,0,0,0,0,0,0,0,0,0,0,0,0,0,0,0,0,0,0,0,0,0,0,0,0,0,0,0,0,0,0,0,0,0,0,0,0,0,0,0,0,0,0,0,0,
0,0,0,0,0,0,0,0,0,0,0,0,0,0,0,0,0,0,0,0,0,0,0,0,0,0,0,0,0,0,0,0,0,0,0,0,0,0,0,0,0,0,0,0,0,0,0,0,0,0,0,0,0,0,0,0,0,0,0,0,0,0,0,0,0,0,0,0,0,0,0,0,0,0,0,0,0,0,0,0,0,0,0,0,0,0,0,0,0,0,0,0,0,0,0,0,0,0,0,0,
0,0,0,0,0,0,0,0,0,0,0,0,0,0,0,0,0,0,0,0,0,0,0,0,0,0,0,0,0,0,0,0,0,0,0,0,0,0,0,0,0,0,0,0,0,0,0,0,0,0,0,0,0,0,0,0,0,0,0,0,0,0,0,0,0,0,0,0,0,0,0,0,0,0,0,0,0,0,0,0,0,0,0,0,0,0,0,0,0,0,0,0,0,0,0,0,0,0,0,0,
0,0,0,0,0,0,0,0,0,0,0,0,0,0,0,0,0,0,0,0,0,0,0,0,0,0,0,0,0,0,0,0,0,0,0,0,0,0,0,0,0,0,0,0,0,0,0,0,0,0,0,0,0,0,0,0,0,0,0,0,0,0,0,0,0,0,0,0,0,0,0,0,0,0,0,0,0,0,0,0,0,0,0,0,0,0,0,0,0,0,0,0,0,0,0,0,0,0,0,0,
0,0,0,0,0,0,0,0,0,0,0,0,0,0,0,0,0,0,0,0,0,0,0,0,0,0,0,0,0,0,0,0,0,0,0,0,0,0,0,0,0,0,0,0,0,0,0,0,0,0,0,0,0,0,0,0,0,0,0,0,0,0,0,0,0,0,0,0,0,0,0,0,0,0,0,0,0,0,0,0,0,0,0,0,0,0,0,0,0,0,0,0,0,0,0,0,0,0,0,0,
0,0,0,0,0,0,0,0,0,0,0,0,0,0,0,0,0,0,0,0,0,0,0,0,0,0,0,0,0,0,0,0,0,0,0,0,0,0,0,0,0,0,0,0,0,0,0,0,0,0,0,0,0,0,0,0,0,0,0,0,0,0,0,0,0,0,0,0,0,0,0,0,0,0,0,0,0,0,0,0,0,0,0,0,0,0,0,0,0,0,0,0,0,0,0,0,0,0,0,0,
0,0,0,0,0,0,0,0,0,0,0,0,0,0,0,0,0,0,0,0,0,0,0,0,0,0,0,0,0,0,0,0,0,0,0,0,0,0,0,0,0,0,0,0,0,0,0,0,0,0,0,0,0,0,0,0,0,0,0,0,0,0,0,0,0,0,0,0,0,0,0,0,0,0,0,0,0,0,0,0,0,0,0,0,0,0,0,0,0,0,0,0,0,0,0,0,0,0,0,0,
0,0,0,0,0,0,0,0,0,0,0,0,0,0,0,0,0,0,0,0,0,0,0,0,0,0,0,0,0,0,0,0,0,0,0,0,0,0,0,0,0,0,0,0,0,0,0,0,0,0,0,0,0,0,0,0,0,0,0,0,0,0,0,0,0,0,0,0,0,0,0,0,0,0,0,0,0,0,0,0,0,0,0,0,0,0,0,0,0,0,0,0,0,0,0,0,0,0,0,0,
0,0,0,0,0,0,0,0,0,0,0,0,0,0,0,0,0,0,0,0,0,0,0,0,0,0,0,0,0,0,0,0,0,0,0,0,0,0,0,0,0,0,0,0,0,0,0,0,0,0,0,0,0,0,0,0,0,0,0,0,0,0,0,0,0,0,0,0,0,0,0,0,0,0,0,0,0,0,0,0,0,0,0,0,0,0,0,0,0,0,0,0,0,0,0,0,0,0,0,0,
0,0,0,0,0,0,0,0,0,0,0,0,0,0,0,0,0,0,0,0,0,0,0,0,0,0,0,0,0,0,0,0,0,0,0,0,0,0,0,0,0,0,0,0,0,0,0,0,0,0,0,0,0,0,0,0,0,0,0,0,0,0,0,0,0,0,0,0,0,0,0,0,0,0,0,0,0,0,0,0,0,0,0,0,0,0,0,0,0,0,0,0,0,0,0,0,0,0,0,0,
0,0,0,0,0,0,0,0,0,0,0,0,0,0,0,0,0,0,0,0,0,0,0,0,0,0,0,0,0,0,0,0,0,0,0,0,0,0,0,0,0,0,0,0,0,0,0,0,0,0,0,0,0,0,0,0,0,0,0,0,0,0,0,0,0,0,0,0,0,0,0,0,0,0,0,0,0,0,0,0,0,0,0,0,0,0,0,0,0,0,0,0,0,0,0,0,0,0,0,0,
0,0,0,0,0,0,0,0,0,0,0,0,0,0,0,0,0,0,0,0,0,0,0,0,0,0,0,0,0,0,0,0,0,0,0,0,0,0,0,0,0,0,0,0,0,0,0,0,0,0,0,0,0,0,0,0,0,0,0,0,0,0,0,0,0,0,0,0,0,0,0,0,0,0,0,0,0,0,0,0,0,0,0,0,0,0,0,0,0,0,0,0,0,0,0,0,0,0,0,0,
0,0,0,0,0,0,0,0,0,0,0,0,0,0,0,0,0,0,0,0,0,0,0,0,0,0,0,0,0,0,0,0,0,0,0,0,0,0,0,0,0,0,0,0,0,0,0,0,0,0,0,0,0,0,0,0,0,0,0,0,0,0,0,0,0,0,0,0,0,0,0,0,0,0,0,0,0,0,0,0,0,0,0,0,0,0,0,0,0,0,0,0,0,0,0,0,0,0,0,0,
0,0,0,0,0,0,0,0,0,0,0,0,0,0,0,0,0,0,0,0,0,0,0,0,0,0,0,0,0,0,0,0,0,0,0,0,0,0,0,0,0,0,0,0,0,0,0,0,0,0,0,0,0,0,0,0,0,0,0,0,0,0,0,0,0,0,0,0,0,0,0,0,0,0,0,0,0,0,0,0,0,0,0,0,0,0,0,0,0,0,0,0,0,0,0,0,0,0,0,0,
0,0,0,0,0,0,0,0,0,0,0,0,0,0,0,0,0,0,0,0,0,0,0,0,0,0,0,0,0,0,0,0,0,0,0,0,0,0,0,0,0,0,0,0,0,0,0,0,0,0,0,0,0,0,0,0,0,0,0,0,0,0,0,0,0,0,0,0,0,0,0,0,0,0,0,0,0,0,0,0,0,0,0,0,0,0,0,0,0,0,0,0,0,0,0,0,0,0,0,0,
0,0,0,0,0,0,0,0,0,0,0,0,0,0,0,0,0,0,0,0,0,0,0,0,0,0,0,0,0,0,0,0,0,0,0,0,0,0,0,0,0,0,0,0,0,0,0,0,0,0,0,0,0,0,0,0,0,0,0,0,0,0,0,0,0,0,0,0,0,0,0,0,0,0,0,0,0,0,0,0,0,0,0,0,0,0,0,0,0,0,0,0,0,0,0,0,0,0,0,0,
0,0,0,0,0,0,0,0,0,0,0,0,0,0,0,0,0,0,0,0,0,0,0,0,0,0,0,0,0,0,0,0,0,0,0,0,0,0,0,0,0,0,0,0,0,0,0,0,0,0,0,0,0,0,0,0,0,0,0,0,0,0,0,0,0,0,0,0,0,0,0,0,0,0,0,0,0,0,0,0,0,0,0,0,0,0,0,0,0,0,0,0,0,0,0,0,0,0,0,0,
0,0,0,0,0,0,0,0,0,0,0,0,0,0,0,0,0,0,0,0,0,0,0,0,0,0,0,0,0,0,0,0,0,0,0,0,0,0,0,0,0,0,0,0,0,0,0,0,0,0,0,0,0,0,0,0,0,0,0,0,0,0,0,0,0,0,0,0,0,0,0,0,0,0,0,0,0,0,0,0,0,0,0,0,0,0,0,0,0,0,0,0,0,0,0,0,0,0,0,0,
0,0,0,0,0,0,0,0,0,0,0,0,0,0,0,0,0,0,0,0,0,0,0,0,0,0,0,0,0,0,0,0,0,0,0,0,0,0,0,0,0,0,0,0,0,0,0,0,0,0,0,0,0,0,0,0,0,0,0,0,0,0,0,0,0,0,0,0,0,0,0,0,0,0,0,0,0,0,0,0,0,0,0,0,0,0,0,0,0,0,0,0,0,0,0,0,0,0,0,0,
0,0,0,0,0,0,0,0,0,0,0,0,0,0,0,0,0,0,0,0,0,0,0,0,0,0,0,0,0,0,0,0,0,0,0,0,0,0,0,0,0,0,0,0,0,0,0,0,0,0,0,0,0,0,0,0,0,0,0,0,0,0,0,0,0,0,0,0,0,0,0,0,0,0,0,0,0,0,0,0,0,0,0,0,0,0,0,0,0,0,0,0,0,0,0,0,0,0,0,0,
0,0,0,0,0,0,0,0,0,0,0,0,0,0,0,0,0,0,0,0,0,0,0,0,0,0,0,0,0,0,0,0,0,0,0,0,0,0,0,0,0,0,0,0,0,0,0,0,0,0,0,0,0,0,0,0,0,0,0,0,0,0,0,0,0,0,0,0,0,0,0,0,0,0,0,0,0,0,0,0,0,0,0,0,0,0,0,0,0,0,0,0,0,0,0,0,0,0,0,0,
0,0,0,0,0,0,0,0,0,0,0,0,0,0,0,0,0,0,0,0,0,0,0,0,0,0,0,0,0,0,0,0,0,0,0,0,0,0,0,0,0,0,0,0,0,0,0,0,0,0,0,0,0,0,0,0,0,0,0,0,0,0,0,0,0,0,0,0,0,0,0,0,0,0,0,0,0,0,0,0,0,0,0,0,0,0,0,0,0,0,0,0,0,0,0,0,0,0,0,0,
0,0,0,0,0,0,0,0,0,0,0,0,0,0,0,0,0,0,0,0,0,0,0,0,0,0,0,0,0,0,0,0,0,0,0,0,0,0,0,0,0,0,0,0,0,0,0,0,0,0,0,0,0,0,0,0,0,0,0,0,0,0,0,0,0,0,0,0,0,0,0,0,0,0,0,0,0,0,0,0,0,0,0,0,0,0,0,0,0,0,0,0,0,0,0,0,0,0,0,0,
0,0,0,0,0,0,0,0,0,0,0,0,0,0,0,0,0,0,0,0,0,0,0,0,0,0,0,0,0,0,0,0,0,0,0,0,0,0,0,0,0,0,0,0,0,0,0,0,0,0,0,0,0,0,0,0,0,0,0,0,0,0,0,0,0,0,0,0,0,0,0,0,0,0,0,0,0,0,0,0,0,0,0,0,0,0,0,0,0,0,0,0,0,0,0,0,0,0,0,0,
0,0,0,0,0,0,0,0,0,0,0,0,0,0,0,0,0,0,0,0,0,0,0,0,0,0,0,0,0,0,0,0,0,0,0,0,0,0,0,0,0,0,0,0,0,0,0,0,0,0,0,0,0,0,0,0,0,0,0,0,0,0,0,0,0,0,0,0,0,0,0,0,0,0,0,0,0,0,0,0,0,0,0,0,0,0,0,0,0,0,0,0,0,0,0,0,0,0,0,0,
0,0,0,0,0,0,0,0,0,0,0,0,0,0,0,0,0,0,0,0,0,0,0,0,0,0,0,0,0,0,0,0,0,0,0,0,0,0,0,0,0,0,0,0,0,0,0,0,0,0,0,0,0,0,0,0,0,0,0,0,0,0,0,0,0,0,0,0,0,0,0,0,0,0,0,0,0,0,0,0,0,0,0,0,0,0,0,0,0,0,0,0,0,0,0,0,0,0,0,0,
0,0,0,0,0,0,0,0,0,0,0,0,0,0,0,0,0,0,0,0,0,0,0,0,0,0,0,0,0,0,0,0,0,0,0,0,0,0,0,0,0,0,0,0,0,0,0,0,0,0,0,0,0,0,0,0,0,0,0,0,0,0,0,0,0,0,0,0,0,0,0,0,0,0,0,0,0,0,0,0,0,0,0,0,0,0,0,0,0,0,0,0,0,0,0,0,0,0,0,0,
0,0,0,0,0,0,0,0,0,0,0,0,0,0,0,0,0,0,0,0,0,0,0,0,0,0,0,0,0,0,0,0,0,0,0,0,0,0,0,0,0,0,0,0,0,0,0,0,0,0,0,0,0,0,0,0,0,0,0,0,0,0,0,0,0,0,0,0,0,0,0,0,0,0,0,0,0,0,0,0,0,0,0,0,0,0,0,0,0,0,0,0,0,0,0,0,0,0,0,0,
0,0,0,0,0,0,0,0,0,0,0,0,0,0,0,0,0,0,0,0,0,0,0,0,0,0,0,0,0,0,0,0,0,0,0,0,0,0,0,0,0,0,0,0,0,0,0,0,0,0,0,0,0,0,0,0,0,0,0,0,0,0,0,0,0,0,0,0,0,0,0,0,0,0,0,0,0,0,0,0,0,0,0,0,0,0,0,0,0,0,0,0,0,0,0,0,0,0,0,0,
0,0,0,0,0,0,0,0,0,0,0,0,0,0,0,0,0,0,0,0,0,0,0,0,0,0,0,0,0,0,0,0,0,0,0,0,0,0,0,0,0,0,0,0,0,0,0,0,0,0,0,0,0,0,0,0,0,0,0,0,0,0,0,0,0,0,0,0,0,0,0,0,0,0,0,0,0,0,0,0,0,0,0,0,0,0,0,0,0,0,0,0,0,0,0,0,0,0,0,0,
0,0,0,0,0,0,0,0,0,0,0,0,0,0,0,0,0,0,0,0,0,0,0,0,0,0,0,0,0,0,0,0,0,0,0,0,0,0,0,0,0,0,0,0,0,0,0,0,0,0,0,0,0,0,0,0,0,0,0,0,0,0,0,0,0,0,0,0,0,0,0,0,0,0,0,0,0,0,0,0,0,0,0,0,0,0,0,0,0,0,0,0,0,0,0,0,0,0,0,0,
0,0,0,0,0,0,0,0,0,0,0,0,0,0,0,0,0,0,0,0,0,0,0,0,0,0,0,0,0,0,0,0,0,0,0,0,0,0,0,0,0,0,0,0,0,0,0,0,0,0,0,0,0,0,0,0,0,0,0,0,0,0,0,0,0,0,0,0,0,0,0,0,0,0,0,0,0,0,0,0,0,0,0,0,0,0,0,0,0,0,0,0,0,0,0,0,0,0,0,0,
0,0,0,0,0,0,0,0,0,0,0,0,0,0,0,0,0,0,0,0,0,0,0,0,0,0,0,0,0,0,0,0,0,0,0,0,0,0,0,0,0,0,0,0,0,0,0,0,0,0,0,0,0,0,0,0,0,0,0,0,0,0,0,0,0,0,0,0,0,0,0,0,0,0,0,0,0,0,0,0,0,0,0,0,0,0,0,0,0,0,0,0,0,0,0,0,0,0,0,0,
0,0,0,0,0,0,0,0,0,0,0,0,0,0,0,0,0,0,0,0,0,0,0,0,0,0,0,0,0,0,0,0,0,0,0,0,0,0,0,0,0,0,0,0,0,0,0,0,0,0,0,0,0,0,0,0,0,0,0,0,0,0,0,0,0,0,0,0,0,0,0,0,0,0,0,0,0,0,0,0,0,0,0,0,0,0,0,0,0,0,0,0,0,0,0,0,0,0,0,0,
0,0,0,0,0,0,0,0,0,0,0,0,0,0,0,0,0,0,0,0,0,0,0,0,0,0,0,0,0,0,0,0,0,0,0,0,0,0,0,0,0,0,0,0,0,0,0,0,0,0,0,0,0,0,0,0,0,0,0,0,0,0,0,0,0,0,0,0,0,0,0,0,0,0,0,0,0,0,0,0,0,0,0,0,0,0,0,0,0,0,0,0,0,0,0,0,0,0,0,0,
0,0,0,0,0,0,0,0,0,0,0,0,0,0,0,0,0,0,0,0,0,0,0,0,0,0,0,0,0,0,0,0,0,0,0,0,0,0,0,0,0,0,0,0,0,0,0,0,0,0,0,0,0,0,0,0,0,0,0,0,0,0,0,0,0,0,0,0,0,0,0,0,0,0,0,0,0,0,0,0,0,0,0,0,0,0,0,0,0,0,0,0,0,0,0,0,0,0,0,0,
0,0,0,0,0,0,0,0,0,0,0,0,0,0,0,0,0,0,0,0,0,0,0,0,0,0,0,0,0,0,0,0,0,0,0,0,0,0,0,0,0,0,0,0,0,0,0,0,0,0,0,0,0,0,0,0,0,0,0,0,0,0,0,0,0,0,0,0,0,0,0,0,0,0,0,0,0,0,0,0,0,0,0,0,0,0,0,0,0,0,0,0,0,0,0,0,0,0,0,0,
0,0,0,0,0,0,0,0,0,0,0,0,0,0,0,0,0,0,0,0,0,0,0,0,0,0,0,0,0,0,0,0,0,0,0,0,0,0,0,0,0,0,0,0,0,0,0,0,0,0,0,0,0,0,0,0,0,0,0,0,0,0,0,0,0,0,0,0,0,0,0,0,0,0,0,0,0,0,0,0,0,0,0,0,0,0,0,0,0,0,0,0,0,0,0,0,0,0,0,0,
0,0,0,0,0,0,0,0,0,0,0,0,0,0,0,0,0,0,0,0,0,0,0,0,0,0,0,0,0,0,0,0,0,0,0,0,0,0,0,0,0,0,0,0,0,0,0,0,0,0,0,0,0,0,0,0,0,0,0,0,0,0,0,0,0,0,0,0,0,0,0,0,0,0,0,0,0,0,0,0,0,0,0,0,0,0,0,0,0,0,0,0,0,0,0,0,0,0,0,0,
0,0,0,0,0,0,0,0,0,0,0,0,0,0,0,0,0,0,0,0,0,0,0,0,0,0,0,0,0,0,0,0,0,0,0,0,0,0,0,0,0,0,0,0,0,0,0,0,0,0,0,0,0,0,0,0,0,0,0,0,0,0,0,0,0,0,0,0,0,0,0,0,0,0,0,0,0,0,0,0,0,0,0,0,0,0,0,0,0,0,0,0,0,0,0,0,0,0,0,0,
0,0,0,0,0,0,0,0,0,0,0,0,0,0,0,0,0,0,0,0,0,0,0,0,0,0,0,0,0,0,0,0,0,0,0,0,0,0,0,0,0,0,0,0,0,0,0,0,0,0,0,0,0,0,0,0,0,0,0,0,0,0,0,0,0,0,0,0,0,0,0,0,0,0,0,0,0,0,0,0,0,0,0,0,0,0,0,0,0,0,0,0,0,0,0,0,0,0,0,0,
0,0,0,0,0,0,0,0,0,0,0,0,0,0,0,0,0,0,0,0,0,0,0,0,0,0,0,0,0,0,0,0,0,0,0,0,0,0,0,0,0,0,0,0,0,0,0,0,0,0,0,0,0,0,0,0,0,0,0,0,0,0,0,0,0,0,0,0,0,0,0,0,0,0,0,0,0,0,0,0,0,0,0,0,0,0,0,0,0,0,0,0,0,0,0,0,0,0,0,0,
0,0,0,0,0,0,0,0,0,0,0,0,0,0,0,0,0,0,0,0,0,0,0,0,0,0,0,0,0,0,0,0,0,0,0,0,0,0,0,0,0,0,0,0,0,0,0,0,0,0,0,0,0,0,0,0,0,0,0,0,0,0,0,0,0,0,0,0,0,0,0,0,0,0,0,0,0,0,0,0,0,0,0,0,0,0,0,0,0,0,0,0,0,0,0,0,0,0,0,0,
0,0,0,0,0,0,0,0,0,0,0,0,0,0,0,0,0,0,0,0,0,0,0,0,0,0,0,0,0,0,0,0,0,0,0,0,0,0,0,0,0,0,0,0,0,0,0,0,0,0,0,0,0,0,0,0,0,0,0,0,0,0,0,0,0,0,0,0,0,0,0,0,0,0,0,0,0,0,0,0,0,0,0,0,0,0,0,0,0,0,0,0,0,0,0,0,0,0,0,0,
0,0,0,0,0,0,0,0,0,0,0,0,0,0,0,0,0,0,0,0,0,0,0,0,0,0,0,0,0,0,0,0,0,0,0,0,0,0,0,0,0,0,0,0,0,0,0,0,0,0,0,0,0,0,0,0,0,0,0,0,0,0,0,0,0,0,0,0,0,0,0,0,0,0,0,0,0,0,0,0,0,0,0,0,0,0,0,0,0,0,0,0,0,0,0,0,0,0,0,0,
0,0,0,0,0,0,0,0,0,0,0,0,0,0,0,0,0,0,0,0,0,0,0,0,0,0,0,0,0,0,0,0,0,0,0,0,0,0,0,0,0,0,0,0,0,0,0,0,0,0,0,0,0,0,0,0,0,0,0,0,0,0,0,0,0,0,0,0,0,0,0,0,0,0,0,0,0,0,0,0,0,0,0,0,0,0,0,0,0,0,0,0,0,0,0,0,0,0,0,0,
0,0,0,0,0,0,0,0,0,0,0,0,0,0,0,0,0,0,0,0,0,0,0,0,0,0,0,0,0,0,0,0,0,0,0,0,0,0,0,0,0,0,0,0,0,0,0,0,0,0,0,0,0,0,0,0,0,0,0,0,0,0,0,0,0,0,0,0,0,0,0,0,0,0,0,0,0,0,0,0,0,0,0,0,0,0,0,0,0,0,0,0,0,0,0,0,0,0,0,0,
0,0,0,0,0,0,0,0,0,0,0,0,0,0,0,0,0,0,0,0,0,0,0,0,0,0,0,0,0,0,0,0,0,0,0,0,0,0,0,0,0,0,0,0,0,0,0,0,0,0,0,0,0,0,0,0,0,0,0,0,0,0,0,0,0,0,0,0,0,0,0,0,0,0,0,0,0,0,0,0,0,0,0,0,0,0,0,0,0,0,0,0,0,0,0,0,0,0,0,0,
0,0,0,0,0,0,0,0,0,0,0,0,0,0,0,0,0,0,0,0,0,0,0,0,0,0,0,0,0,0,0,0,0,0,0,0,0,0,0,0,0,0,0,0,0,0,0,0,0,0,0,0,0,0,0,0,0,0,0,0,0,0,0,0,0,0,0,0,0,0,0,0,0,0,0,0,0,0,0,0,0,0,0,0,0,0,0,0,0,0,0,0,0,0,0,0,0,0,0,0,
0,0,0,0,0,0,0,0,0,0,0,0,0,0,0,0,0,0,0,0,0,0,0,0,0,0,0,0,0,0,0,0,0,0,0,0,0,0,0,0,0,0,0,0,0,0,0,0,0,0,0,0,0,0,0,0,0,0,0,0,0,0,0,0,0,0,0,0,0,0,0,0,0,0,0,0,0,0,0,0,0,0,0,0,0,0,0,0,0,0,0,0,0,0,0,0,0,0,0,0,
0,0,0,0,0,0,0,0,0,0,0,0,0,0,0,0,0,0,0,0,0,0,0,0,0,0,0,0,0,0,0,0,0,0,0,0,0,0,0,0,0,0,0,0,0,0,0,0,0,0,0,0,0,0,0,0,0,0,0,0,0,0,0,0,0,0,0,0,0,0,0,0,0,0,0,0,0,0,0,0,0,0,0,0,0,0,0,0,0,0,0,0,0,0,0,0,0,0,0,0,
0,0,0,0,0,0,0,0,0,0,0,0,0,0,0,0,0,0,0,0,0,0,0,0,0,0,0,0,0,0,0,0,0,0,0,0,0,0,0,0,0,0,0,0,0,0,0,0,0,0,0,0,0,0,0,0,0,0,0,0,0,0,0,0,0,0,0,0,0,0,0,0,0,0,0,0,0,0,0,0,0,0,0,0,0,0,0,0,0,0,0,0,0,0,0,0,0,0,0,0,
0,0,0,0,0,0,0,0,0,0,0,0,0,0,0,0,0,0,0,0,0,0,0,0,0,0,0,0,0,0,0,0,0,0,0,0,0,0,0,0,0,0,0,0,0,0,0,0,0,0,0,0,0,0,0,0,0,0,0,0,0,0,0,0,0,0,0,0,0,0,0,0,0,0,0,0,0,0,0,0,0,0,0,0,0,0,0,0,0,0,0,0,0,0,0,0,0,0,0,0,
0,0,0,0,0,0,0,0,0,0,0,0,0,0,0,0,0,0,0,0,0,0,0,0,0,0,0,0,0,0,0,0,0,0,0,0,0,0,0,0,0,0,0,0,0,0,0,0,0,0,0,0,0,0,0,0,0,0,0,0,0,0,0,0,0,0,0,0,0,0,0,0,0,0,0,0,0,0,0,0,0,0,0,0,0,0,0,0,0,0,0,0,0,0,0,0,0,0,0,0,
0,0,0,0,0,0,0,0,0,0,0,0,0,0,0,0,0,0,0,0,0,0,0,0,0,0,0,0,0,0,0,0,0,0,0,0,0,0,0,0,0,0,0,0,0,0,0,0,0,0,0,0,0,0,0,0,0,0,0,0,0,0,0,0,0,0,0,0,0,0,0,0,0,0,0,0,0,0,0,0,0,0,0,0,0,0,0,0,0,0,0,0,0,0,0,0,0,0,0,0,
0,0,0,0,0,0,0,0,0,0,0,0,0,0,0,0,0,0,0,0,0,0,0,0,0,0,0,0,0,0,0,0,0,0,0,0,0,0,0,0,0,0,0,0,0,0,0,0,0,0,0,0,0,0,0,0,0,0,0,0,0,0,0,0,0,0,0,0,0,0,0,0,0,0,0,0,0,0,0,0,0,0,0,0,0,0,0,0,0,0,0,0,0,0,0,0,0,0,0,0,
0,0,0,0,0,0,0,0,0,0,0,0,0,0,0,0,0,0,0,0,0,0,0,0,0,0,0,0,0,0,0,0,0,0,0,0,0,0,0,0,0,0,0,0,0,0,0,0,0,0,0,0,0,0,0,0,0,0,0,0,0,0,0,0,0,0,0,0,0,0,0,0,0,0,0,0,0,0,0,0,0,0,0,0,0,0,0,0,0,0,0,0,0,0,0,0,0,0,0,0,
0,0,0,0,0,0,0,0,0,0,0,0,0,0,0,0,0,0,0,0,0,0,0,0,0,0,0,0,0,0,0,0,0,0,0,0,0,0,0,0,0,0,0,0,0,0,0,0,0,0,0,0,0,0,0,0,0,0,0,0,0,0,0,0,0,0,0,0,0,0,0,0,0,0,0,0,0,0,0,0,0,0,0,0,0,0,0,0,0,0,0,0,0,0,0,0,0,0,0,0,
0,0,0,0,0,0,0,0,0,0,0,0,0,0,0,0,0,0,0,0,0,0,0,0,0,0,0,0,0,0,0,0,0,0,0,0,0,0,0,0,0,0,0,0,0,0,0,0,0,0,0,0,0,0,0,0,0,0,0,0,0,0,0,0,0,0,0,0,0,0,0,0,0,0,0,0,0,0,0,0,0,0,0,0,0,0,0,0,0,0,0,0,0,0,0,0,0,0,0,0,
0,0,0,0,0,0,0,0,0,0,0,0,0,0,0,0,0,0,0,0,0,0,0,0,0,0,0,0,0,0,0,0,0,0,0,0,0,0,0,0,0,0,0,0,0,0,0,0,0,0,0,0,0,0,0,0,0,0,0,0,0,0,0,0,0,0,0,0,0,0,0,0,0,0,0,0,0,0,0,0,0,0,0,0,0,0,0,0,0,0,0,0,0,0,0,0,0,0,0,0,
0,0,0,0,0,0,0,0,0,0,0,0,0,0,0,0,0,0,0,0,0,0,0,0,0,0,0,0,0,0,0,0,0,0,0,0,0,0,0,0,0,0,0,0,0,0,0,0,0,0,0,0,0,0,0,0,0,0,0,0,0,0,0,0,0,0,0,0,0,0,0,0,0,0,0,0,0,0,0,0,0,0,0,0,0,0,0,0,0,0,0,0,0,0,0,0,0,0,0,0,
0,0,0,0,0,0,0,0,0,0,8439,0,0,0,0,0,0,0,0,0,0,0,0,0,0,0,0,0,0,0,0,0,0,0,0,0,0,0,0,0,0,0,0,0,0,0,0,0,0,0,0,0,0,0,0,0,0,0,0,0,0,0,0,0,0,0,0,0,0,0,0,0,0,0,0,0,0,0,0,0,0,0,0,0,0,0,0,0,0,0,0,0,0,0,0,0,0,0,0,0,
0,0,0,0,0,0,0,0,0,0,0,0,0,8444,0,0,0,0,0,0,0,0,0,0,0,0,0,0,0,0,0,0,0,0,0,0,0,0,0,0,0,0,0,0,0,0,0,0,0,0,0,0,0,0,0,0,0,0,0,0,0,0,0,0,0,0,0,0,0,0,0,0,0,0,0,0,0,0,0,0,0,0,0,0,0,0,0,0,0,0,0,0,0,0,0,0,0,0,0,0,
0,0,0,0,0,0,0,0,0,0,0,0,0,0,0,0,0,0,0,0,0,0,0,0,0,0,0,0,0,0,0,0,0,0,0,0,0,0,0,0,0,0,0,0,0,0,0,0,0,0,0,0,0,0,0,0,0,0,0,0,0,0,0,0,0,0,0,0,0,0,0,0,0,0,0,0,0,0,0,0,0,0,0,0,0,0,0,0,0,0,0,0,0,0,0,0,0,0,0,0,
0,0,0,0,0,0,0,0,0,0,0,0,0,0,0,0,8444,0,0,0,0,0,0,0,0,0,0,0,0,0,0,0,0,0,0,0,0,0,0,0,0,0,0,0,0,0,0,0,0,0,0,0,0,0,0,0,0,0,0,0,0,0,0,0,0,0,0,0,0,0,0,0,0,0,0,0,0,0,0,0,0,0,0,0,0,0,0,0,0,0,0,0,0,0,0,0,0,0,0,0,
0,0,0,0,0,0,0,0,0,0,0,0,0,0,8439,0,0,0,0,0,0,8444,0,0,0,0,0,0,0,0,0,0,0,0,0,0,0,0,0,0,0,0,0,0,0,0,0,0,0,0,0,0,0,0,0,0,0,0,0,0,0,0,0,0,0,0,0,0,0,0,0,0,0,0,0,0,0,0,0,0,0,0,0,0,0,0,0,0,0,0,0,0,0,0,0,0,0,0,0,0,
0,0,0,0,0,0,0,0,0,8447,0,0,0,0,0,0,0,0,0,0,0,0,0,0,0,0,0,0,0,0,0,0,0,0,0,0,0,0,0,0,0,0,0,0,0,0,0,0,0,0,0,0,0,0,0,0,0,0,0,0,0,0,0,0,0,0,0,0,0,0,0,0,0,0,0,0,0,0,0,0,0,0,0,0,0,0,0,0,0,0,0,0,0,0,0,0,0,0,0,0,
0,0,0,0,0,0,0,0,0,0,0,0,0,0,0,0,0,0,0,0,0,0,0,0,0,0,0,0,0,0,0,0,0,0,0,0,0,0,0,0,0,0,0,0,0,0,0,0,0,0,0,0,0,0,0,0,0,0,0,0,0,0,0,0,0,0,0,0,0,0,0,0,0,0,0,0,0,0,0,0,0,0,0,0,0,0,0,0,0,0,0,0,0,0,0,0,0,0,0,0,
0,0,0,0,0,0,0,0,0,0,0,0,0,0,0,0,0,0,0,0,0,0,0,0,0,0,0,0,0,0,0,0,0,0,0,0,0,0,0,0,0,0,0,0,0,0,0,0,0,0,0,0,0,0,0,0,0,0,0,0,0,0,0,0,0,0,0,0,0,0,0,0,0,0,0,0,0,0,0,0,0,0,0,0,0,0,0,0,0,0,0,0,0,0,0,0,0,0,0,0,
0,0,0,0,0,0,0,0,0,0,0,0,0,0,0,0,8445,0,0,0,0,0,0,0,0,0,0,0,0,0,0,0,0,0,0,0,0,0,0,0,0,0,0,0,0,0,0,0,0,0,0,0,0,0,0,0,0,0,0,0,0,0,0,0,0,0,0,0,0,0,0,0,0,0,0,0,0,0,0,0,0,0,0,0,0,0,0,0,0,0,0,0,0,0,0,0,0,0,0,0,
0,0,0,0,0,0,0,0,0,0,0,0,0,0,0,0,0,0,0,0,0,0,0,0,0,0,0,0,0,0,0,0,0,0,0,0,0,0,0,0,0,0,0,0,0,0,0,0,0,0,0,0,0,0,0,0,0,0,0,0,0,0,0,0,0,0,0,0,0,0,0,0,0,0,0,0,0,0,0,0,0,0,0,0,0,0,0,0,0,0,0,0,0,0,0,0,0,0,0,0,
0,0,0,0,0,0,0,0,0,0,0,0,0,0,0,0,0,0,0,0,0,0,0,0,0,0,0,0,8443,0,0,0,0,0,0,0,0,0,0,0,0,0,0,0,0,0,0,0,0,0,0,0,0,0,0,0,0,0,0,0,0,0,0,0,0,0,0,0,0,0,0,0,0,0,0,0,0,0,0,0,0,0,0,0,0,0,0,0,0,0,0,0,0,0,0,0,0,0,0,0,
0,0,0,0,0,0,0,0,0,0,8442,0,0,0,0,0,0,0,0,0,0,0,0,0,0,0,0,0,0,0,0,0,0,0,0,0,0,0,0,0,0,0,0,0,0,0,0,0,0,0,0,0,0,0,0,0,0,0,0,0,0,0,0,0,0,0,0,0,0,0,0,0,0,0,0,0,0,0,0,0,0,0,0,0,0,0,0,0,0,0,0,0,0,0,0,0,0,0,0,0,
0,0,0,0,0,0,0,0,0,0,0,0,0,0,0,0,0,0,0,0,0,0,0,0,0,0,0,0,0,0,0,0,0,0,0,0,0,0,0,0,0,0,0,0,0,0,0,0,0,0,0,0,0,0,0,0,0,0,0,0,0,0,0,0,0,0,0,0,0,0,0,0,0,0,0,0,0,0,0,0,0,0,0,0,0,0,0,0,0,0,0,0,0,0,0,0,0,0,0,0,
0,8439,0,0,0,0,0,0,0,0,0,0,0,0,0,0,0,0,0,0,0,0,0,0,0,0,0,0,0,0,0,0,0,0,0,0,0,0,0,0,0,0,0,0,0,0,0,0,0,0,0,0,0,0,0,0,0,0,0,0,0,0,0,0,0,0,0,0,0,0,0,0,0,0,0,0,0,0,0,0,0,0,0,0,0,0,0,0,0,0,0,0,0,0,0,0,0,0,0,0,
0,0,0,0,0,0,0,0,0,0,0,0,0,0,0,0,0,0,0,0,0,0,0,0,0,0,0,0,0,0,0,0,0,0,0,0,0,0,0,0,0,0,0,0,0,0,0,0,0,0,0,0,0,0,0,0,0,0,0,0,0,0,0,0,0,0,0,0,0,0,0,0,0,0,0,0,0,0,0,0,0,0,0,0,0,0,0,0,0,0,0,0,0,0,0,0,0,0,0,0,
8442,0,0,0,8444,0,0,0,0,0,0,0,0,0,0,0,0,0,0,8442,0,0,0,0,0,0,8444,0,0,0,0,0,0,0,0,0,0,0,0,0,0,0,0,0,0,0,0,0,0,0,0,0,0,0,0,0,0,0,0,0,0,0,0,0,0,0,0,0,0,0,0,0,0,0,0,0,0,0,0,0,0,0,0,0,0,0,0,0,0,0,0,0,0,0,0,0,0,0,0,0,
0,0,0,0,0,0,0,0,0,0,0,0,0,0,0,0,0,0,0,0,0,0,0,0,0,0,0,0,8446,0,0,0,0,0,0,0,0,0,0,0,0,0,0,0,0,0,0,0,0,0,0,0,0,0,0,0,0,0,0,0,0,0,0,0,0,0,0,0,0,0,0,0,0,0,0,0,0,0,0,0,0,0,0,0,0,0,0,0,0,0,0,0,0,0,0,0,0,0,0,0,
0,0,0,0,0,0,0,8439,0,0,0,0,0,0,0,0,0,0,0,0,0,0,0,0,0,8439,0,0,0,8442,0,0,0,0,0,0,0,0,0,0,0,0,0,0,0,0,0,0,0,0,0,0,0,0,0,0,0,0,0,0,0,0,0,0,0,0,0,0,0,0,0,0,0,0,0,0,0,0,0,0,0,0,0,0,0,0,0,0,0,0,0,0,0,0,0,0,0,0,0,0,
0,0,0,0,0,0,0,0,0,0,0,0,0,0,0,0,0,0,0,0,0,0,0,0,0,0,0,0,0,0,0,0,0,0,0,0,0,0,0,0,0,0,0,0,0,0,0,0,0,0,0,0,0,0,0,0,0,0,0,0,0,0,0,0,0,0,0,0,0,0,0,0,0,0,0,0,0,0,0,0,0,0,0,0,0,0,0,0,0,0,0,0,0,0,0,0,0,0,0,0,
0,0,0,0,0,0,8442,0,0,0,8446,0,0,0,0,0,0,0,0,0,0,0,0,0,0,0,0,0,0,0,0,0,0,0,0,0,0,0,0,0,0,0,0,0,0,0,0,0,0,0,0,0,0,0,0,0,0,0,0,0,0,0,0,0,0,0,0,0,0,0,0,0,0,0,0,0,0,0,0,0,0,0,0,0,0,0,0,0,0,0,0,0,0,0,0,0,0,0,0,0,
0,0,0,0,0,8450,0,0,0,0,0,0,0,8453,0,0,0,0,0,0,0,0,0,0,0,0,0,0,0,0,0,0,0,0,0,0,0,0,0,0,0,0,0,0,0,0,0,0,0,0,0,0,0,0,0,0,0,0,0,0,0,0,0,0,0,0,0,0,0,0,0,0,0,0,0,0,0,0,0,0,0,0,0,0,0,0,0,0,0,0,0,0,0,0,0,0,0,0,0,0,
0,0,0,0,0,0,0,0,0,0,0,0,0,0,0,0,0,0,0,0,0,0,0,0,0,8439,0,0,0,0,0,0,0,0,0,0,0,0,0,0,0,0,0,0,0,0,0,0,0,0,0,0,0,0,0,0,0,0,0,0,0,0,0,0,0,0,0,0,0,0,0,0,0,0,0,0,0,0,0,0,0,0,0,0,0,0,0,0,0,0,0,0,0,0,0,0,0,0,0,0,
0,8448,0,0,0,0,0,0,0,0,0,0,0,0,0,0,0,0,0,0,0,0,0,0,0,0,0,0,0,0,0,0,0,0,0,0,0,0,0,0,0,0,0,0,0,0,0,0,0,0,0,0,0,0,0,0,0,0,0,0,0,0,0,0,0,0,0,0,0,0,0,0,0,0,0,0,0,0,0,0,0,0,0,0,0,0,0,0,0,0,0,0,0,0,0,0,0,0,0,0,
0,0,0,0,0,0,0,0,0,0,0,0,0,0,0,0,0,0,0,0,0,0,0,0,0,0,0,0,0,0,0,0,0,0,0,0,0,0,0,0,0,0,0,0,0,0,0,0,0,0,0,0,0,0,0,0,0,0,0,0,0,0,0,0,0,0,0,0,0,0,0,0,0,0,0,0,0,0,0,0,0,0,0,0,0,0,0,0,0,0,0,0,0,0,0,0,0,0,0,0,
0,0,0,0,0,0,0,0,0,0,0,0,0,0,0,0,0,0,0,0,0,0,0,0,0,0,0,0,0,0,0,0,0,0,0,0,0,0,0,0,0,0,0,0,0,0,0,0,0,0,0,0,0,0,0,0,0,0,0,0,0,0,0,0,0,0,0,0,0,0,0,0,0,0,0,0,0,0,0,0,0,0,0,0,0,0,0,0,0,0,0,0,0,0,0,0,0,0,0,0,
0,0,0,0,0,0,0,0,0,0,0,0,0,0,0,8440,0,0,0,0,0,0,0,0,0,0,0,0,0,0,0,0,0,0,0,0,0,0,0,0,0,0,0,0,0,0,0,0,0,0,0,0,0,0,0,0,0,0,0,0,0,0,0,0,0,0,0,0,0,0,0,0,0,0,0,0,0,0,0,0,0,0,0,0,0,0,0,0,0,0,0,0,0,0,0,0,0,0,0,0,
8443,0,0,0,0,0,0,0,0,0,0,0,0,0,0,0,0,0,0,0,0,0,0,8443,0,0,0,0,0,0,0,0,0,0,0,0,0,0,0,0,0,0,0,0,0,0,0,0,0,0,0,0,0,0,0,0,0,0,0,0,0,0,0,0,0,0,0,0,0,0,0,0,0,0,0,0,0,0,0,0,0,0,0,0,0,0,0,0,0,0,0,0,0,0,0,0,0,0,0,0,
0,0,0,0,0,0,0,0,0,0,0,0,0,0,0,0,8444,0,0,0,8445,0,0,0,0,0,0,0,0,0,0,0,0,0,0,0,0,0,0,0,0,0,0,0,0,0,0,0,0,0,0,0,0,0,0,0,0,0,0,0,0,0,0,0,0,0,0,0,0,0,0,0,0,0,0,0,0,0,0,0,0,0,0,0,0,0,0,0,0,0,0,0,0,0,0,0,0,0,0,0,
0,0,0,0,0,0,0,0,0,0,0,0,0,0,0,0,0,0,0,0,0,0,0,0,0,0,0,0,0,0,0,0,0,0,0,0,0,0,0,0,0,0,0,0,0,0,0,0,0,0,0,0,0,0,0,0,0,0,0,0,0,0,0,0,0,0,0,0,0,0,0,0,0,0,0,0,0,0,0,0,0,0,0,0,0,0,0,0,0,0,0,0,0,0,0,0,0,0,0,0,
0,0,0,0,0,0,0,0,0,0,0,0,0,0,0,0,0,0,0,0,0,0,0,0,0,0,0,8446,0,0,8444,0,0,0,0,0,0,0,0,0,0,0,0,0,0,0,0,0,0,0,0,0,0,0,0,0,0,0,0,0,0,0,0,0,0,0,0,0,0,0,0,0,0,0,0,0,0,0,0,0,0,0,0,0,0,0,0,0,0,0,0,0,0,0,0,0,0,0,0,0,
0,0,0,0,0,0,0,0,0,0,0,0,0,0,0,0,0,0,0,0,0,0,0,0,0,0,0,0,8439,0,0,0,0,0,0,0,0,0,0,0,0,0,0,0,0,0,0,0,0,0,0,0,0,0,0,0,0,0,0,0,0,0,0,0,0,0,0,0,0,0,0,0,0,0,0,0,0,0,0,0,0,0,0,0,0,0,0,0,0,0,0,0,0,0,0,0,0,0,0,0,
0,0,0,0,0,0,0,0,0,0,0,0,0,0,0,0,0,0,0,0,0,0,0,0,0,0,0,0,0,0,0,0,0,0,0,0,0,0,0,0,0,0,0,0,0,0,0,0,0,0,0,0,0,0,0,0,0,0,0,0,0,0,0,0,0,0,0,0,0,0,0,0,0,0,0,0,0,0,0,0,0,0,0,0,0,0,0,0,0,0,0,0,0,0,0,0,0,0,0,0,
0,8446,0,0,0,0,0,0,0,0,0,0,0,0,0,0,0,0,0,0,0,0,0,0,0,0,0,0,0,0,0,0,0,0,0,0,0,0,0,0,0,0,0,0,0,0,0,0,0,0,0,0,0,0,0,0,0,0,0,0,0,0,0,0,0,0,0,0,0,0,0,0,0,0,0,0,0,0,0,0,0,0,0,0,0,0,0,0,0,0,0,0,0,0,0,0,0,0,0,0,
0,0,0,0,0,0,0,0,0,0,0,0,0,0,0,0,8442,0,0,0,0,0,0,0,0,0,0,0,0,0,0,0,0,0,0,0,0,0,0,0,0,0,0,0,0,0,0,0,0,0,0,0,0,0,0,0,0,0,0,0,0,0,0,0,0,0,0,0,0,0,0,0,0,0,0,0,0,0,0,0,0,0,0,0,0,0,0,0,0,0,0,0,0,0,0,0,0,0,0,0,
0,0,8451,0,0,0,0,0,0,0,0,8445,0,0,0,8446,0,0,0,0,0,0,0,0,0,0,0,0,0,0,0,0,0,0,0,0,0,0,0,0,0,0,0,0,0,0,0,0,0,0,0,0,0,0,0,0,0,0,0,0,0,0,0,0,0,0,0,0,0,0,0,0,0,0,0,0,0,0,0,0,0,0,0,0,0,0,0,0,0,0,0,0,0,0,0,0,0,0,0,0,
0,0,0,0,0,0,8447,0,0,0,0,0,0,0,0,0,0,0,0,0,0,0,0,0,0,0,0,0,0,0,0,0,0,0,0,0,0,0,0,0,0,0,0,0,0,0,0,0,0,0,0,0,0,0,0,0,0,0,0,0,0,0,0,0,0,0,0,0,0,0,0,0,0,0,0,0,0,0,0,0,0,0,0,0,0,0,0,0,0,0,0,0,0,0,0,0,0,0,0,0
</data>
 </layer>
 <layer id="5" name="Objetos" width="100" height="100">
  <data encoding="csv">
0,0,0,0,0,0,0,0,0,0,0,0,0,0,0,0,0,0,0,0,0,0,0,0,0,0,0,0,0,0,0,0,0,0,0,0,0,0,0,0,0,0,0,0,0,0,0,0,0,0,0,0,0,0,0,0,0,0,0,0,0,0,0,0,0,0,0,0,0,0,0,0,0,0,0,0,0,0,0,0,0,0,0,0,0,0,0,0,0,0,0,0,0,0,0,0,0,0,0,0,
0,0,0,0,0,0,0,0,0,0,0,0,0,0,0,0,0,0,0,0,0,0,0,0,0,0,0,0,0,0,0,0,0,0,0,0,0,0,0,0,0,0,0,0,0,0,0,0,0,0,0,0,0,0,0,0,0,0,0,0,0,0,0,0,0,0,0,0,0,0,0,0,0,0,0,0,0,0,0,0,0,0,0,0,0,0,0,0,0,0,0,0,0,0,0,0,0,0,0,0,
0,0,0,0,0,0,0,0,0,0,0,0,0,0,0,0,0,0,0,0,0,0,0,0,0,0,0,0,0,0,0,0,0,0,0,0,0,0,0,0,0,0,0,0,0,0,0,0,0,0,0,0,0,0,0,0,0,0,0,0,0,0,0,0,0,0,0,0,0,0,0,0,0,0,0,0,0,0,0,0,0,0,0,0,0,0,0,0,0,0,0,0,0,0,0,0,0,0,0,0,
0,0,0,0,0,0,0,0,0,0,0,0,0,0,0,0,0,0,0,0,0,0,0,0,0,0,0,0,0,0,0,0,0,0,0,0,0,0,0,0,0,0,0,0,0,0,0,0,0,0,0,0,0,0,0,0,0,0,0,0,0,0,0,0,0,0,0,0,0,0,0,0,0,0,0,0,0,0,0,0,0,0,0,0,0,0,0,0,0,0,0,0,0,0,0,0,0,0,0,0,
0,0,0,0,0,0,0,0,0,0,0,0,0,0,0,0,0,0,0,0,0,0,0,0,0,0,0,0,0,0,0,0,0,0,0,0,0,0,0,0,0,0,0,0,0,0,0,0,0,0,0,0,0,0,0,0,0,0,0,0,0,0,0,0,0,0,0,0,0,0,0,0,0,0,0,0,0,0,0,0,0,0,0,0,0,0,0,0,0,0,0,0,0,0,0,0,0,0,0,0,
0,0,0,0,0,0,0,0,0,0,0,0,0,0,0,0,0,0,0,0,0,0,0,0,0,0,0,0,0,0,0,0,0,0,0,0,0,0,0,0,0,0,0,0,0,0,0,0,0,0,0,0,0,0,0,0,0,0,0,0,0,0,0,0,0,0,0,0,0,0,0,0,0,0,0,0,0,0,0,0,0,0,0,0,0,0,0,0,0,0,0,0,0,0,0,0,0,0,0,0,
0,0,0,0,0,0,0,0,0,0,0,0,0,0,0,0,0,0,0,0,0,0,0,0,0,0,0,0,0,0,0,0,0,0,0,0,0,0,0,0,0,0,0,0,0,0,0,0,0,0,0,0,0,0,0,0,0,0,0,0,0,0,0,0,0,0,0,0,0,0,0,0,0,0,0,0,0,0,0,0,0,0,0,0,0,0,0,0,0,0,0,0,0,0,0,0,0,0,0,0,
0,0,0,0,0,0,0,0,0,0,0,0,0,0,0,0,0,0,0,0,0,0,0,0,0,0,0,0,0,0,0,0,0,0,0,0,0,0,0,0,0,0,0,0,0,0,0,0,0,0,0,0,0,0,0,0,0,0,0,0,0,0,0,0,0,0,0,0,0,0,0,0,0,0,0,0,0,0,0,0,0,0,0,0,0,0,0,0,0,0,0,0,0,0,0,0,0,0,0,0,
0,0,0,0,0,0,0,0,0,0,0,0,0,0,0,0,0,0,0,0,0,0,0,0,0,0,0,0,0,0,0,0,0,0,0,0,0,0,0,0,0,0,0,0,0,0,0,0,0,0,0,0,0,0,0,0,0,0,0,0,0,0,0,0,0,0,0,0,0,0,0,0,0,0,0,0,0,0,0,0,0,0,0,0,0,0,0,0,0,0,0,0,0,0,0,0,0,0,0,0,
0,0,0,0,0,0,0,0,0,0,0,0,0,0,0,0,0,0,0,0,0,0,0,0,0,0,0,0,0,0,0,0,0,0,0,0,0,0,0,0,0,0,0,0,0,0,0,0,0,0,0,0,0,0,0,0,0,0,0,0,0,0,0,0,0,0,0,0,0,0,0,0,0,0,0,0,0,0,0,0,0,0,0,0,0,0,0,0,0,0,0,0,0,0,0,0,0,0,0,0,
0,0,0,0,0,0,0,0,0,0,0,0,0,0,0,0,0,0,0,0,0,0,0,0,0,0,0,0,0,0,0,0,0,0,0,0,0,0,0,0,0,0,0,0,0,0,0,0,0,0,0,0,0,0,0,0,0,0,0,0,0,0,0,0,0,0,0,0,0,0,0,0,0,0,0,0,0,0,0,0,0,0,0,0,0,0,0,0,0,0,0,0,0,0,0,0,0,0,0,0,
0,0,0,0,0,0,0,0,0,0,0,0,0,0,0,0,0,0,0,0,0,0,0,0,0,0,0,0,0,0,0,0,0,0,0,0,0,0,0,0,0,0,0,0,0,0,0,0,0,0,0,0,0,0,0,0,0,0,0,0,0,0,0,0,0,0,0,0,0,0,0,0,0,0,0,0,0,0,0,0,0,0,0,0,0,0,0,0,0,0,0,0,0,0,0,0,0,0,0,0,
0,0,0,0,0,0,0,0,0,0,0,0,0,0,0,0,0,0,0,0,0,0,0,0,0,0,0,0,0,0,0,0,0,0,0,0,0,0,0,0,0,0,0,0,0,0,0,0,0,0,0,0,0,0,0,0,0,0,0,0,0,0,0,0,0,0,0,0,0,0,0,0,0,0,0,0,0,0,0,0,0,0,0,0,0,0,0,0,0,0,0,0,0,0,0,0,0,0,0,0,
0,0,0,0,0,0,0,0,0,0,0,0,0,0,0,0,0,0,0,0,0,0,0,0,0,0,0,0,0,0,0,0,0,0,0,0,0,0,0,0,0,0,0,0,0,0,0,0,0,0,0,0,0,0,0,0,0,0,0,0,0,0,0,0,0,0,0,0,0,0,0,0,0,0,0,0,0,0,0,0,0,0,0,0,0,0,0,0,0,0,0,0,0,0,0,0,0,0,0,0,
0,0,0,0,0,0,0,0,0,0,0,0,0,0,0,0,0,0,0,0,0,0,0,0,0,0,0,0,0,0,0,0,0,0,0,0,0,0,0,0,0,0,0,0,0,0,0,0,0,0,0,0,0,0,0,0,0,0,0,0,0,0,0,0,0,0,0,0,0,0,0,0,0,0,0,0,0,0,0,0,0,0,0,0,0,0,0,0,0,0,0,0,0,0,0,0,0,0,0,0,
0,0,0,0,0,0,0,0,0,0,0,0,0,0,0,0,0,0,0,0,0,0,0,0,0,0,0,0,0,0,0,0,0,0,0,0,0,0,0,0,0,0,0,0,0,0,0,0,0,0,0,0,0,0,0,0,0,0,0,0,0,0,0,0,0,0,0,0,0,0,0,0,0,0,0,0,0,0,0,0,0,0,0,0,0,0,0,0,0,0,0,0,0,0,0,0,0,0,0,0,
0,0,0,0,0,0,0,0,0,0,0,0,0,0,0,0,0,0,0,0,0,0,0,0,0,0,0,0,0,0,0,0,0,0,0,0,0,0,0,0,0,0,0,0,0,0,0,0,0,0,0,0,0,0,0,0,0,0,0,0,0,0,0,0,0,0,0,0,0,0,0,0,0,0,0,0,0,0,0,0,0,0,0,0,0,0,0,0,0,0,0,0,0,0,0,0,0,0,0,0,
0,0,0,0,0,0,0,0,0,0,0,0,0,0,0,0,0,0,0,0,0,0,0,0,0,0,0,0,0,0,0,0,0,0,0,0,0,0,0,0,0,0,0,0,0,0,0,0,0,0,0,0,0,0,0,0,0,0,0,0,0,0,0,0,0,0,0,0,0,0,0,0,0,0,0,0,0,0,0,0,0,0,0,0,0,0,0,0,0,0,0,0,0,0,0,0,0,0,0,0,
0,0,0,0,0,0,0,0,0,0,0,0,0,0,0,0,0,0,0,0,0,0,0,0,0,0,0,0,0,0,0,0,0,0,0,0,0,0,0,0,0,0,0,0,0,0,0,0,0,0,0,0,0,0,0,0,0,0,0,0,0,0,0,0,0,0,0,0,0,0,0,0,0,0,0,0,0,0,0,0,0,0,0,0,0,0,0,0,0,0,0,0,0,0,0,0,0,0,0,0,
0,0,0,0,0,0,0,0,0,0,0,0,0,0,0,0,0,0,0,0,0,0,0,0,0,0,0,0,0,0,0,0,0,0,0,0,0,0,0,0,0,0,0,0,0,0,0,0,0,0,0,0,0,0,0,0,0,0,0,0,0,0,0,0,0,0,0,0,0,0,0,0,0,0,0,0,0,0,0,0,0,0,0,0,0,0,0,0,0,0,0,0,0,0,0,0,0,0,0,0,
0,0,0,0,0,0,0,0,0,0,0,0,0,0,0,0,0,0,0,0,0,0,0,0,0,0,0,0,0,0,0,0,0,0,0,0,0,0,0,0,0,0,0,0,0,0,0,0,0,0,0,0,0,0,0,0,0,0,0,0,0,0,0,0,0,0,0,0,0,0,0,0,0,0,0,0,0,0,0,0,0,0,0,0,0,0,0,0,0,0,0,0,0,0,0,0,0,0,0,0,
0,0,0,0,0,0,0,0,0,0,0,0,0,0,0,0,0,0,0,0,0,0,0,0,0,0,0,0,0,0,0,0,0,0,0,0,0,0,0,0,0,0,0,0,0,0,0,0,0,0,0,0,0,0,0,0,0,0,0,0,0,0,0,0,0,0,0,0,0,0,0,0,0,0,0,0,0,0,0,0,0,0,0,0,0,0,0,0,0,0,0,0,0,0,0,0,0,0,0,0,
0,0,0,0,0,0,0,0,0,0,0,0,0,0,0,0,0,0,0,0,0,0,0,0,0,0,0,0,0,0,0,0,0,0,0,0,0,0,0,0,0,0,0,0,0,0,0,0,0,0,0,0,0,0,0,0,0,0,0,0,0,0,0,0,0,0,0,0,0,0,0,0,0,0,0,0,0,0,0,0,0,0,0,0,0,0,0,0,0,0,0,0,0,0,0,0,0,0,0,0,
0,0,0,0,0,0,0,0,0,0,0,0,0,0,0,0,0,0,0,0,0,0,0,0,0,0,0,0,0,0,0,0,0,0,0,0,0,0,0,0,0,0,0,0,0,0,0,0,0,0,0,0,0,0,0,0,0,0,0,0,0,0,0,0,0,0,0,0,0,0,0,0,0,0,0,0,0,0,0,0,0,0,0,0,0,0,0,0,0,0,0,0,0,0,0,0,0,0,0,0,
0,0,0,0,0,0,0,0,0,0,0,0,0,0,0,0,0,0,0,0,0,0,0,0,0,0,0,0,0,0,0,0,0,0,0,0,0,0,0,0,0,0,0,0,0,0,0,0,0,0,0,0,0,0,0,0,0,0,0,0,0,0,0,0,0,0,0,0,0,0,0,0,0,0,0,0,0,0,0,0,0,0,0,0,0,0,0,0,0,0,0,0,0,0,0,0,0,0,0,0,
0,0,0,0,0,0,0,0,0,0,0,0,0,0,0,0,0,0,0,0,0,0,0,0,0,0,0,0,0,0,0,0,0,0,0,0,0,0,0,0,0,0,0,0,0,0,0,0,0,0,0,0,0,0,0,0,0,0,0,0,0,0,0,0,0,0,0,0,0,0,0,0,0,0,0,0,0,0,0,0,0,0,0,0,0,0,0,0,0,0,0,0,0,0,0,0,0,0,0,0,
0,0,0,0,0,0,0,0,0,0,0,0,0,0,0,0,0,0,0,0,0,0,0,0,0,0,0,0,0,0,0,0,0,0,0,0,0,0,0,0,0,0,0,0,0,0,0,0,0,0,0,0,0,0,0,0,0,0,0,0,0,0,0,0,0,0,0,0,0,0,0,0,0,0,0,0,0,0,0,0,0,0,0,0,0,0,0,0,0,0,0,0,0,0,0,0,0,0,0,0,
0,0,0,0,0,0,0,0,0,0,0,0,0,0,0,0,0,0,0,0,0,0,0,0,0,0,0,0,0,0,0,0,0,0,0,0,0,0,0,0,0,0,0,0,0,0,0,0,0,0,0,0,0,0,0,0,0,0,0,0,0,0,0,0,0,0,0,0,0,0,0,0,0,0,0,0,0,0,0,0,0,0,0,0,0,0,0,0,0,0,0,0,0,0,0,0,0,0,0,0,
0,0,0,0,0,0,0,0,0,0,0,0,0,0,0,0,0,0,0,0,0,0,0,0,0,0,0,0,0,0,0,0,0,0,0,0,0,0,0,0,0,0,0,0,0,0,0,0,0,0,0,0,0,0,0,0,0,0,0,0,0,0,0,0,0,0,0,0,0,0,0,0,0,0,0,0,0,0,0,0,0,0,0,0,0,0,0,0,0,0,0,0,0,0,0,0,0,0,0,0,
0,0,0,0,0,0,0,0,0,0,0,0,0,0,0,0,0,0,0,0,0,0,0,0,0,0,0,0,0,0,0,0,0,0,0,0,0,0,0,0,0,0,0,0,0,0,0,0,0,0,0,0,0,0,0,0,0,0,0,0,0,0,0,0,0,0,0,0,0,0,0,0,0,0,0,0,0,0,0,0,0,0,0,0,0,0,0,0,0,0,0,0,0,0,0,0,0,0,0,0,
0,0,0,0,0,0,0,0,0,0,0,0,0,0,0,0,0,0,0,0,0,0,0,0,0,0,0,0,0,0,0,0,0,0,0,0,0,0,0,0,0,0,0,0,0,0,0,0,0,0,0,0,0,0,0,0,0,0,0,0,0,0,0,0,0,0,0,0,0,0,0,0,0,0,0,0,0,0,0,0,0,0,0,0,0,0,0,0,0,0,0,0,0,0,0,0,0,0,0,0,
0,0,0,0,0,0,0,0,0,0,0,0,0,0,0,0,0,0,0,0,0,0,0,0,0,0,0,0,0,0,0,0,0,0,0,0,0,0,0,0,0,0,0,0,0,0,0,0,0,0,0,0,0,0,0,0,0,0,0,0,0,0,0,0,0,0,0,0,0,0,0,0,0,0,0,0,0,0,0,0,0,0,0,0,0,0,0,0,0,0,0,0,0,0,0,0,0,0,0,0,
0,0,0,0,0,0,0,0,0,0,0,0,0,0,0,0,0,0,0,0,0,0,0,0,0,0,0,0,0,0,0,0,0,0,0,0,0,0,0,0,0,0,0,0,0,0,0,0,0,0,0,0,0,0,0,0,0,0,0,0,0,0,0,0,0,0,0,0,0,0,0,0,0,0,0,0,0,0,0,0,0,0,0,0,0,0,0,0,0,0,0,0,0,0,0,0,0,0,0,0,
0,0,0,0,0,0,0,0,0,0,0,0,0,0,0,0,0,0,0,0,0,0,0,0,0,0,0,0,0,0,0,0,0,0,0,0,0,0,0,0,0,0,0,0,0,0,0,0,0,0,0,0,0,0,0,0,0,0,0,0,0,0,0,0,0,0,0,0,0,0,0,0,0,0,0,0,0,0,0,0,0,0,0,0,0,0,0,0,0,0,0,0,0,0,0,0,0,0,0,0,
0,0,0,0,0,0,0,0,0,0,0,0,0,0,0,0,0,0,0,0,0,0,0,0,0,0,0,0,0,0,0,0,0,0,0,0,0,0,0,0,0,0,0,0,0,0,0,0,0,0,0,0,0,0,0,0,0,0,0,0,0,0,0,0,0,0,0,0,0,0,0,0,0,0,0,0,0,0,0,0,0,0,0,0,0,0,0,0,0,0,0,0,0,0,0,0,0,0,0,0,
0,0,0,0,0,0,0,0,0,0,0,0,0,0,0,0,0,0,0,0,0,0,0,0,0,0,0,0,0,0,0,0,0,0,0,0,0,0,0,0,0,0,0,0,0,0,0,0,0,0,0,0,0,0,0,0,0,0,0,0,0,0,0,0,0,0,0,0,0,0,0,0,0,0,0,0,0,0,0,0,0,0,0,0,0,0,0,0,0,0,0,0,0,0,0,0,0,0,0,0,
0,0,0,0,0,0,0,0,0,0,0,0,0,0,0,0,0,0,0,0,0,0,0,0,0,0,0,0,0,0,0,0,0,0,0,0,0,0,0,0,0,0,0,0,0,0,0,0,0,0,0,0,0,0,0,0,0,0,0,0,0,0,0,0,0,0,0,0,0,0,0,0,0,0,0,0,0,0,0,0,0,0,0,0,0,0,0,0,0,0,0,0,0,0,0,0,0,0,0,0,
0,0,0,0,0,0,0,0,0,0,0,0,0,0,0,0,0,0,0,0,0,0,0,0,0,0,0,0,0,0,0,0,0,0,0,0,0,0,0,0,0,0,0,0,0,0,0,0,0,0,0,0,0,0,0,0,0,0,0,0,0,0,0,0,0,0,0,0,0,0,0,0,0,0,0,0,0,0,0,0,0,0,0,0,0,0,0,0,0,0,0,0,0,0,0,0,0,0,0,0,
0,0,0,0,0,0,0,0,0,0,0,0,0,0,0,0,0,0,0,0,0,0,0,0,0,0,0,0,0,0,0,0,0,0,0,0,0,0,0,0,0,0,0,0,0,0,0,0,0,0,0,0,0,0,0,0,0,0,0,0,0,0,0,0,0,0,0,0,0,0,0,0,0,0,0,0,0,0,0,0,0,0,0,0,0,0,0,0,0,0,0,0,0,0,0,0,0,0,0,0,
0,0,0,0,0,0,0,0,0,0,0,0,0,0,0,0,0,0,0,0,0,0,0,0,0,0,0,0,0,0,0,0,0,0,0,0,0,0,0,0,0,0,0,0,0,0,0,0,0,0,0,0,0,0,0,0,0,0,0,0,0,0,0,0,0,0,0,0,0,0,0,0,0,0,0,0,0,0,0,0,0,0,0,0,0,0,0,0,0,0,0,0,0,0,0,0,0,0,0,0,
0,0,0,0,0,0,0,0,0,0,0,0,0,0,0,0,0,0,0,0,0,0,0,0,0,0,0,0,0,0,0,0,0,0,0,0,0,0,0,0,0,0,0,0,0,0,0,0,0,0,0,0,0,0,0,0,0,0,0,0,0,0,0,0,0,0,0,0,0,0,0,0,0,0,0,0,0,0,0,0,0,0,0,0,0,0,0,0,0,0,0,0,0,0,0,0,0,0,0,0,
0,0,0,0,0,0,0,0,0,0,0,0,0,0,0,0,0,0,0,0,0,0,0,0,0,0,0,0,0,0,0,0,0,0,0,0,0,0,0,0,0,0,0,0,0,0,0,0,0,0,0,0,0,0,0,0,0,0,0,0,0,0,0,0,0,0,0,0,0,0,0,0,0,0,0,0,0,0,0,0,0,0,0,0,0,0,0,0,0,0,0,0,0,0,0,0,0,0,0,0,
0,0,0,0,0,0,0,0,0,0,0,0,0,0,0,0,0,0,0,0,0,0,0,0,0,0,0,0,0,0,0,0,0,0,0,0,0,0,0,0,0,0,0,0,0,0,0,0,0,0,0,0,0,0,0,0,0,0,0,0,0,0,0,0,0,0,0,0,0,0,0,0,0,0,0,0,0,0,0,0,0,0,0,0,0,0,0,0,0,0,0,0,0,0,0,0,0,0,0,0,
0,0,0,0,0,0,0,0,0,0,0,0,0,0,0,0,0,0,0,0,0,0,0,0,0,0,0,0,0,0,0,0,0,0,0,0,0,0,0,0,0,0,0,0,0,0,0,0,0,0,0,0,0,0,0,0,0,0,0,0,0,0,0,0,0,0,0,0,0,0,0,0,0,0,0,0,0,0,0,0,0,0,0,0,0,0,0,0,0,0,0,0,0,0,0,0,0,0,0,0,
0,0,0,0,0,0,0,0,0,0,0,0,0,0,0,0,0,0,0,0,0,0,0,0,0,0,0,0,0,0,0,0,0,0,0,0,0,0,0,0,0,0,0,0,0,0,0,0,0,0,0,0,0,0,0,0,0,0,0,0,0,0,0,0,0,0,0,0,0,0,0,0,0,0,0,0,0,0,0,0,0,0,0,0,0,0,0,0,0,0,0,0,0,0,0,0,0,0,0,0,
0,0,0,0,0,0,0,0,0,0,0,0,0,0,0,0,0,0,0,0,0,0,0,0,0,0,0,0,0,0,0,0,0,0,0,0,0,0,0,0,0,0,0,0,0,0,0,0,0,0,0,0,0,0,0,0,0,0,0,0,0,0,0,0,0,0,0,0,0,0,0,0,0,0,0,0,0,0,0,0,0,0,0,0,0,0,0,0,0,0,0,0,0,0,0,0,0,0,0,0,
0,0,0,0,0,0,0,0,0,0,0,0,0,0,0,0,0,0,0,0,0,0,0,0,0,0,0,0,0,0,0,0,0,0,0,0,0,0,0,0,0,0,0,0,0,0,0,0,0,0,0,0,0,0,0,0,0,0,0,0,0,0,0,0,0,0,0,0,0,0,0,0,0,0,0,0,0,0,0,0,0,0,0,0,0,0,0,0,0,0,0,0,0,0,0,0,0,0,0,0,
0,0,0,0,0,0,0,0,0,0,0,0,0,0,0,0,0,0,0,0,0,0,0,0,0,0,0,0,0,0,0,0,0,0,0,0,0,0,0,0,0,0,0,0,0,0,0,0,0,0,0,0,0,0,0,0,0,0,0,0,0,0,0,0,0,0,0,0,0,0,0,0,0,0,0,0,0,0,0,0,0,0,0,0,0,0,0,0,0,0,0,0,0,0,0,0,0,0,0,0,
0,0,0,0,0,0,0,0,0,0,0,0,0,0,0,0,0,0,0,0,0,0,0,0,0,0,0,0,0,0,0,0,0,0,0,0,0,0,0,0,0,0,0,0,0,0,0,0,0,0,0,0,0,0,0,0,0,0,0,0,0,0,0,0,0,0,0,0,0,0,0,0,0,0,0,0,0,0,0,0,0,0,0,0,0,0,0,0,0,0,0,0,0,0,0,0,0,0,0,0,
0,0,0,0,0,0,0,0,0,0,0,0,0,0,0,0,0,0,0,0,0,0,0,0,0,0,0,0,0,0,0,0,0,0,0,0,0,0,0,0,0,0,0,0,0,0,0,0,0,0,0,0,0,0,0,0,0,0,0,0,0,0,0,0,0,0,0,0,0,0,0,0,0,0,0,0,0,0,0,0,0,0,0,0,0,0,0,0,0,0,0,0,0,0,0,0,0,0,0,0,
0,0,0,0,0,0,0,0,0,0,0,0,0,0,0,0,0,0,0,0,0,0,0,0,0,0,0,0,0,0,0,0,0,0,0,0,0,0,0,0,0,0,0,0,0,0,0,0,0,0,0,0,0,0,0,0,0,0,0,0,0,0,0,0,0,0,0,0,0,0,0,0,0,0,0,0,0,0,0,0,0,0,0,0,0,0,0,0,0,0,0,0,0,0,0,0,0,0,0,0,
0,0,0,0,0,0,0,0,0,0,0,0,0,0,0,0,0,0,0,0,0,0,0,0,0,0,0,0,0,0,0,0,0,0,0,0,0,0,0,0,0,0,0,0,0,0,0,0,0,0,0,0,0,0,0,0,0,0,0,0,0,0,0,0,0,0,0,0,0,0,0,0,0,0,0,0,0,0,0,0,0,0,0,0,0,0,0,0,0,0,0,0,0,0,0,0,0,0,0,0,
0,0,0,0,0,0,0,0,0,0,0,0,0,0,0,0,0,0,0,0,0,0,0,0,0,0,0,0,0,0,0,0,0,0,0,0,0,0,0,0,0,0,0,0,0,0,0,0,0,0,0,0,0,0,0,0,0,0,0,0,0,0,0,0,0,0,0,0,0,0,0,0,0,0,0,0,0,0,0,0,0,0,0,0,0,0,0,0,0,0,0,0,0,0,0,0,0,0,0,0,
0,0,0,0,0,0,0,0,0,0,0,0,0,0,0,0,0,0,0,0,0,0,0,0,0,0,0,0,0,0,0,0,0,0,0,0,0,0,0,0,0,0,0,0,0,0,0,0,0,0,0,0,0,0,0,0,0,0,0,0,0,0,0,0,0,0,0,0,0,0,0,0,0,0,0,0,0,0,0,0,0,0,0,0,0,0,0,0,0,0,0,0,0,0,0,0,0,0,0,0,
0,0,0,0,0,0,0,0,0,0,0,0,0,0,0,0,0,0,0,0,0,0,0,0,0,0,0,0,0,0,0,0,0,0,0,0,0,0,0,0,0,0,0,0,0,0,0,0,0,0,0,0,0,0,0,0,0,0,0,0,0,0,0,0,0,0,0,0,0,0,0,0,0,0,0,0,0,0,0,0,0,0,0,0,0,0,0,0,0,0,0,0,0,0,0,0,0,0,0,0,
0,0,0,0,0,0,0,0,0,0,0,0,0,0,0,0,0,0,0,0,0,0,0,0,0,0,0,0,0,0,0,0,0,0,0,0,0,0,0,0,0,0,0,0,0,0,0,0,0,0,0,0,0,0,0,0,0,0,0,0,0,0,0,0,0,0,0,0,0,0,0,0,0,0,0,0,0,0,0,0,0,0,0,0,0,0,0,0,0,0,0,0,0,0,0,0,0,0,0,0,
0,0,0,0,0,0,0,0,0,0,0,0,0,0,0,0,0,0,0,0,0,0,0,0,0,0,0,0,0,0,0,0,0,0,0,0,0,0,0,0,0,0,0,0,0,0,0,0,0,0,0,0,0,0,0,0,0,0,0,0,0,0,0,0,0,0,0,0,0,0,0,0,0,0,0,0,0,0,0,0,0,0,0,0,0,0,0,0,0,0,0,0,0,0,0,0,0,0,0,0,
0,0,0,0,0,0,0,0,0,0,0,0,0,0,0,0,0,0,0,0,0,0,0,0,0,0,0,0,0,0,0,0,0,0,0,0,0,0,0,0,0,0,0,0,0,0,0,0,0,0,0,0,0,0,0,0,0,0,0,0,0,0,0,0,0,0,0,0,0,0,0,0,0,0,0,0,0,0,0,0,0,0,0,0,0,0,0,0,0,0,0,0,0,0,0,0,0,0,0,0,
0,0,0,0,0,0,0,0,0,0,0,0,0,0,0,0,0,0,0,0,0,0,0,0,0,0,0,0,0,0,0,0,0,0,0,0,0,0,0,0,0,0,0,0,0,0,0,0,0,0,0,0,0,0,0,0,0,0,0,0,0,0,0,0,0,0,0,0,0,0,0,0,0,0,0,0,0,0,0,0,0,0,0,0,0,0,0,0,0,0,0,0,0,0,0,0,0,0,0,0,
0,0,0,0,0,0,0,0,0,0,0,0,0,0,0,0,0,0,0,0,0,0,0,0,0,0,0,0,0,0,0,0,0,0,0,0,0,0,0,0,0,0,0,0,0,0,0,0,0,0,0,0,0,0,0,0,0,0,0,0,0,0,0,0,0,0,0,0,0,0,0,0,0,0,0,0,0,0,0,0,0,0,0,0,0,0,0,0,0,0,0,0,0,0,0,0,0,0,0,0,
0,0,0,0,0,0,0,0,0,0,0,0,0,0,0,0,0,0,0,0,0,0,0,0,0,0,0,0,0,0,0,0,0,0,0,0,0,0,0,0,0,0,0,0,0,0,0,0,0,0,0,0,0,0,0,0,0,0,0,0,0,0,0,0,0,0,0,0,0,0,0,0,0,0,0,0,0,0,0,0,0,0,0,0,0,0,0,0,0,0,0,0,0,0,0,0,0,0,0,0,
0,0,0,0,0,0,0,0,0,0,0,0,0,0,0,0,0,0,0,0,0,0,0,0,0,0,0,0,0,0,0,0,0,0,0,0,0,0,0,0,0,0,0,0,0,0,0,0,0,0,0,0,0,0,0,0,0,0,0,0,0,0,0,0,0,0,0,0,0,0,0,0,0,0,0,0,0,0,0,0,0,0,0,0,0,0,0,0,0,0,0,0,0,0,0,0,0,0,0,0,
0,0,0,0,0,0,0,0,0,0,0,0,0,0,0,0,0,0,0,0,0,0,0,0,0,0,0,0,0,0,0,0,0,0,0,0,0,0,0,0,0,0,0,0,0,0,0,0,0,0,0,0,0,0,0,0,0,0,0,0,0,0,0,0,0,0,0,0,0,0,0,0,0,0,0,0,0,0,0,0,0,0,0,0,0,0,0,0,0,0,0,0,0,0,0,0,0,0,0,0,
0,0,0,0,0,0,0,0,0,0,0,0,0,0,0,0,0,0,0,0,0,0,0,0,0,0,0,0,0,0,0,0,0,0,0,0,0,0,0,0,0,0,0,0,0,0,0,0,0,0,0,0,0,0,0,0,0,0,0,0,0,0,0,0,0,0,0,0,0,0,0,0,0,0,0,0,0,0,0,0,0,0,0,0,0,0,0,0,0,0,0,0,0,0,0,0,0,0,0,0,
0,0,0,0,0,0,0,0,0,0,0,0,0,0,0,0,0,0,0,0,0,0,0,0,0,0,0,0,0,0,0,0,0,0,0,0,0,0,0,0,0,0,0,0,0,0,0,0,0,0,0,0,0,0,0,0,0,0,0,0,0,0,0,0,0,0,0,0,0,0,0,0,0,0,0,0,0,0,0,0,0,0,0,0,0,0,0,0,0,0,0,0,0,0,0,0,0,0,0,0,
0,0,0,0,0,0,0,0,0,0,0,0,0,0,0,0,0,0,0,0,0,0,0,0,0,0,0,0,0,0,0,0,0,0,0,0,0,0,0,0,0,0,0,0,0,0,0,0,0,0,0,0,0,0,0,0,0,0,0,0,0,0,0,0,0,0,0,0,0,0,0,0,0,0,0,0,0,0,0,0,0,0,0,0,0,0,0,0,0,0,0,0,0,0,0,0,0,0,0,0,
0,0,0,0,0,0,0,0,0,0,0,0,0,0,0,0,0,0,0,0,0,0,0,0,0,0,0,0,0,0,0,0,0,0,0,0,0,0,0,0,0,0,0,0,0,0,0,0,0,0,0,0,0,0,0,0,0,0,0,0,0,0,0,0,0,0,0,0,0,0,0,0,0,0,0,0,0,0,0,0,0,0,0,0,0,0,0,0,0,0,0,0,0,0,0,0,0,0,0,0,
0,0,2147491782,0,0,0,0,0,0,0,0,0,0,0,0,0,0,0,0,0,0,0,0,0,0,0,0,0,0,0,0,0,0,0,0,0,0,0,0,0,0,0,0,0,0,0,0,0,0,0,0,0,0,0,0,0,0,0,0,0,0,0,0,0,0,0,0,0,0,0,0,0,0,0,0,0,0,0,0,0,0,0,0,0,0,0,0,0,0,0,0,0,0,0,0,0,0,0,0,0,
0,0,0,0,0,0,0,0,0,0,0,0,0,0,0,0,0,0,0,0,0,0,0,0,0,0,0,0,0,0,0,0,0,0,0,0,0,0,0,0,0,0,0,0,0,0,0,0,0,0,0,0,0,0,0,0,0,0,0,0,0,0,0,0,0,0,0,0,0,0,0,0,0,0,0,0,0,0,0,0,0,0,0,0,0,0,0,0,0,0,0,0,0,0,0,0,0,0,0,0,
0,0,0,0,8009,0,0,0,0,0,0,0,0,0,0,0,0,0,0,0,0,0,0,0,0,0,0,0,0,0,0,0,0,0,0,0,0,0,0,0,0,0,0,0,0,0,0,0,0,0,0,0,0,0,0,0,0,0,0,0,0,0,0,0,0,0,0,0,0,0,0,0,0,0,0,0,0,0,0,0,0,0,0,0,0,0,0,0,0,0,0,0,0,0,0,0,0,0,0,0,
0,0,0,0,0,0,0,0,0,0,0,0,0,0,0,0,0,0,0,0,0,0,0,0,0,0,0,0,0,0,0,0,0,0,0,0,0,0,0,0,0,0,0,0,0,0,0,0,0,0,0,0,0,0,0,0,0,0,0,0,0,0,0,0,0,0,0,0,0,0,0,0,0,0,0,0,0,0,0,0,0,0,0,0,0,0,0,0,0,0,0,0,0,0,0,0,0,0,0,0,
8501,0,0,0,0,0,0,0,0,0,0,0,0,0,0,0,0,0,0,0,0,0,0,0,0,0,0,0,0,0,0,0,0,0,0,0,0,0,0,0,0,0,0,0,0,0,0,0,0,0,0,0,0,0,0,0,0,0,0,0,0,0,0,0,0,0,0,0,0,0,0,0,0,0,0,0,0,0,0,0,0,0,0,0,0,0,0,0,0,0,0,0,0,0,0,0,0,0,0,0,
0,0,0,0,0,0,0,0,0,0,0,0,0,0,0,0,0,0,0,0,0,0,0,0,0,0,0,0,0,0,0,0,0,0,0,0,0,0,0,0,0,0,0,0,0,0,0,0,0,0,0,0,0,0,0,0,0,0,0,0,0,0,0,0,0,0,0,0,0,0,0,0,0,0,0,0,0,0,0,0,0,0,0,0,0,0,0,0,0,0,0,0,0,0,0,0,0,0,0,0,
0,0,0,0,0,0,0,0,0,0,0,0,0,0,0,0,0,0,0,0,0,0,0,0,0,0,0,0,0,0,0,0,0,0,0,0,0,0,0,0,0,0,0,0,0,0,0,0,0,0,0,0,0,0,0,0,0,0,0,0,0,0,0,0,0,0,0,0,0,0,0,0,0,0,0,0,0,0,0,0,0,0,0,0,0,0,0,0,0,0,0,0,0,0,0,0,0,0,0,0,
0,0,0,0,0,0,0,0,0,0,0,0,0,0,0,0,0,0,0,0,0,0,0,0,0,0,0,0,0,0,0,0,0,0,0,0,0,0,0,0,0,0,0,0,0,0,0,0,0,0,0,0,0,0,0,0,0,0,0,0,0,0,0,0,0,0,0,0,0,0,0,0,0,0,0,0,0,0,0,0,0,0,0,0,0,0,0,0,0,0,0,0,0,0,0,0,0,0,0,0,
0,0,0,0,0,0,0,0,0,0,0,0,0,0,0,0,0,0,0,0,0,0,0,0,0,0,0,0,0,0,0,0,0,0,0,0,0,0,0,0,0,0,0,0,0,0,0,0,0,0,0,0,0,0,0,0,0,0,0,0,0,0,0,0,0,0,0,0,0,0,0,0,0,0,0,0,0,0,0,0,0,0,0,0,0,0,0,0,0,0,0,0,0,0,0,0,0,0,0,0,
0,0,0,0,0,0,0,0,0,0,0,0,0,0,0,0,0,0,0,0,0,0,0,0,0,0,0,0,0,0,0,0,0,0,0,0,0,0,0,0,0,0,0,0,0,0,0,0,0,0,0,0,0,0,0,0,0,0,0,0,0,0,0,0,0,0,0,0,0,0,0,0,0,0,0,0,0,0,0,0,0,0,0,0,0,0,0,0,0,0,0,0,0,0,0,0,0,0,0,0,
0,0,0,0,0,0,0,0,0,0,0,0,0,0,0,0,0,0,0,0,0,0,0,0,0,0,0,0,0,0,0,0,0,0,0,0,0,0,0,0,0,0,0,0,0,0,0,0,0,0,0,0,0,0,0,0,0,0,0,0,0,0,0,0,0,0,0,0,0,0,0,0,0,0,0,0,0,0,0,0,0,0,0,0,0,0,0,0,0,0,0,0,0,0,0,0,0,0,0,0,
0,0,0,0,0,0,0,0,0,0,0,0,0,0,0,0,0,0,0,0,0,0,0,0,0,0,0,0,0,0,0,0,0,0,0,0,0,0,0,0,0,0,0,0,0,0,0,0,0,0,0,0,0,0,0,0,0,0,0,0,0,0,0,0,0,0,0,0,0,0,0,0,0,0,0,0,0,0,0,0,0,0,0,0,0,0,0,0,0,0,0,0,0,0,0,0,0,0,0,0,
0,0,0,0,0,0,0,0,0,0,0,0,0,0,0,0,0,0,0,0,0,0,0,0,0,0,0,0,0,0,0,0,0,0,0,0,0,0,0,0,0,0,0,0,0,0,0,0,0,0,0,0,0,0,0,0,0,0,0,0,0,0,0,0,0,0,0,0,0,0,0,0,0,0,0,0,0,0,0,0,0,0,0,0,0,0,0,0,0,0,0,0,0,0,0,0,0,0,0,0,
0,0,0,0,0,0,0,0,0,0,0,0,0,0,0,0,0,0,0,0,0,0,0,0,0,0,0,0,0,0,0,0,0,0,0,0,0,0,0,0,0,0,0,0,0,0,0,0,0,0,0,0,0,0,0,0,0,0,0,0,0,0,0,0,0,0,0,0,0,0,0,0,0,0,0,0,0,0,0,0,0,0,0,0,0,0,0,0,0,0,0,0,0,0,0,0,0,0,0,0,
0,0,0,0,0,0,0,0,0,0,0,0,0,0,0,0,0,0,0,0,0,0,0,0,0,0,0,0,0,0,0,0,0,0,0,0,0,0,0,0,0,0,0,0,0,0,0,0,0,0,0,0,0,0,0,0,0,0,0,0,0,0,0,0,0,0,0,0,0,0,0,0,0,0,0,0,0,0,0,0,0,0,0,0,0,0,0,0,0,0,0,0,0,0,0,0,0,0,0,0,
0,0,0,0,0,0,0,0,0,0,0,0,0,0,0,0,0,0,0,0,0,0,0,0,0,0,0,0,0,0,0,0,0,0,0,0,0,0,0,0,0,0,0,0,0,0,0,0,0,0,0,0,0,0,0,0,0,0,0,0,0,0,0,0,0,0,0,0,0,0,0,0,0,0,0,0,0,0,0,0,0,0,0,0,0,0,0,0,0,0,0,0,0,0,0,0,0,0,0,0,
0,0,0,0,0,0,0,0,0,0,0,0,0,0,0,0,0,0,0,0,0,0,0,0,0,0,0,0,0,0,0,0,0,0,0,0,0,0,0,0,0,0,0,0,0,0,0,0,0,0,0,0,0,0,0,0,0,0,0,0,0,0,0,0,0,0,0,0,0,0,0,0,0,0,0,0,0,0,0,0,0,0,0,0,0,0,0,0,0,0,0,0,0,0,0,0,0,0,0,0,
0,0,0,0,0,0,0,0,0,0,0,0,0,0,0,0,0,0,0,0,0,0,0,0,0,0,0,0,0,0,0,0,0,0,0,0,0,0,0,0,0,0,0,0,0,0,0,0,0,0,0,0,0,0,0,0,0,0,0,0,0,0,0,0,0,0,0,0,0,0,0,0,0,0,0,0,0,0,0,0,0,0,0,0,0,0,0,0,0,0,0,0,0,0,0,0,0,0,0,0,
0,0,0,0,0,0,0,0,0,0,0,0,0,0,0,0,0,0,0,0,0,0,0,0,0,0,0,0,0,0,0,0,0,0,0,0,0,0,0,0,0,0,0,0,0,0,0,0,0,0,0,0,0,0,0,0,0,0,0,0,0,0,0,0,0,0,0,0,0,0,0,0,0,0,0,0,0,0,0,0,0,0,0,0,0,0,0,0,0,0,0,0,0,0,0,0,0,0,0,0,
0,0,0,0,0,0,0,0,0,0,0,0,0,0,0,0,0,0,0,0,0,0,0,0,0,0,0,0,0,0,0,0,0,0,0,0,0,0,0,0,0,0,0,0,0,0,0,0,0,0,0,0,0,0,0,0,0,0,0,0,0,0,0,0,0,0,0,0,0,0,0,0,0,0,0,0,0,0,0,0,0,0,0,0,0,0,0,0,0,0,0,0,0,0,0,0,0,0,0,0,
0,0,0,0,0,0,0,0,0,0,0,0,0,0,0,0,0,0,0,0,0,0,0,0,0,0,0,0,0,0,0,0,0,0,0,0,0,0,0,0,0,0,0,0,0,0,0,0,0,0,0,0,0,0,0,0,0,0,0,0,0,0,0,0,0,0,0,0,0,0,0,0,0,0,0,0,0,0,0,0,0,0,0,0,0,0,0,0,0,0,0,0,0,0,0,0,0,0,0,0,
0,0,0,0,0,0,0,0,0,0,0,0,0,0,0,0,0,0,0,0,0,0,0,0,0,0,0,0,0,0,0,0,0,0,0,0,0,0,0,0,0,0,0,0,0,0,0,0,0,0,0,0,0,0,0,0,0,0,0,0,0,0,0,0,0,0,0,0,0,0,0,0,0,0,0,0,0,0,0,0,0,0,0,0,0,0,0,0,0,0,0,0,0,0,0,0,0,0,0,0,
0,0,0,0,0,0,0,0,0,0,0,0,0,0,0,0,0,0,0,0,0,0,0,0,0,0,0,0,0,0,0,0,0,0,0,0,0,0,0,0,0,0,0,0,0,0,0,0,0,0,0,0,0,0,0,0,0,0,0,0,0,0,0,0,0,0,0,0,0,0,0,0,0,0,0,0,0,0,0,0,0,0,0,0,0,0,0,0,0,0,0,0,0,0,0,0,0,0,0,0,
0,0,0,0,0,0,0,0,0,0,0,0,0,0,0,0,0,0,0,0,0,0,0,0,0,0,0,0,0,0,0,0,0,0,0,0,0,0,0,0,0,0,0,0,0,0,0,0,0,0,0,0,0,0,0,0,0,0,0,0,0,0,0,0,0,0,0,0,0,0,0,0,0,0,0,0,0,0,0,0,0,0,0,0,0,0,0,0,0,0,0,0,0,0,0,0,0,0,0,0,
0,0,0,0,0,0,0,0,0,0,0,0,0,0,0,0,0,0,0,0,0,0,0,0,0,0,0,0,0,0,0,0,0,0,0,0,0,0,0,0,0,0,0,0,0,0,0,0,0,0,0,0,0,0,0,0,0,0,0,0,0,0,0,0,0,0,0,0,0,0,0,0,0,0,0,0,0,0,0,0,0,0,0,0,0,0,0,0,0,0,0,0,0,0,0,0,0,0,0,0,
0,0,0,0,0,0,0,0,0,0,0,0,0,0,0,0,0,0,0,0,0,0,0,0,0,0,0,0,0,0,0,0,0,0,0,0,0,0,0,0,0,0,0,0,0,0,0,0,0,0,0,0,0,0,0,0,0,0,0,0,0,0,0,0,0,0,0,0,0,0,0,0,0,0,0,0,0,0,0,0,0,0,0,0,0,0,0,0,0,0,0,0,0,0,0,0,0,0,0,0,
0,0,0,0,0,0,0,0,0,0,0,0,0,0,0,0,0,0,0,0,0,0,0,0,0,0,0,0,0,0,0,0,0,0,0,0,0,0,0,0,0,0,0,0,0,0,0,0,0,0,0,0,0,0,0,0,0,0,0,0,0,0,0,0,0,0,0,0,0,0,0,0,0,0,0,0,0,0,0,0,0,0,0,0,0,0,0,0,0,0,0,0,0,0,0,0,0,0,0,0,
0,0,0,0,0,0,0,0,0,0,0,0,0,0,0,0,0,0,0,0,0,0,0,0,0,0,0,0,0,0,0,0,0,0,0,0,0,0,0,0,0,0,0,0,0,0,0,0,0,0,0,0,0,0,0,0,0,0,0,0,0,0,0,0,0,0,0,0,0,0,0,0,0,0,0,0,0,0,0,0,0,0,0,0,0,0,0,0,0,0,0,0,0,0,0,0,0,0,0,0,
0,0,0,0,0,0,0,0,0,0,0,0,0,0,0,0,0,0,0,0,0,0,0,0,0,0,0,0,0,0,0,0,0,0,0,0,0,0,0,0,0,0,0,0,0,0,0,0,0,0,0,0,0,0,0,0,0,0,0,0,0,0,0,0,0,0,0,0,0,0,0,0,0,0,0,0,0,0,0,0,0,0,0,0,0,0,0,0,0,0,0,0,0,0,0,0,0,0,0,0,
0,0,0,0,0,0,0,0,0,0,0,0,0,0,0,0,0,0,0,0,0,0,0,0,0,0,0,0,0,0,0,0,0,0,0,0,0,0,0,0,0,0,0,0,0,0,0,0,0,0,0,0,0,0,0,0,0,0,0,0,0,0,0,0,0,0,0,0,0,0,0,0,0,0,0,0,0,0,0,0,0,0,0,0,0,0,0,0,0,0,0,0,0,0,0,0,0,0,0,0,
0,0,0,0,0,0,0,0,0,0,0,0,0,0,0,0,0,0,0,0,0,0,0,0,0,0,0,0,0,0,0,0,0,0,0,0,0,0,0,0,0,0,0,0,0,0,0,0,0,0,0,0,0,0,0,0,0,0,0,0,0,0,0,0,0,0,0,0,0,0,0,0,0,0,0,0,0,0,0,0,0,0,0,0,0,0,0,0,0,0,0,0,0,0,0,0,0,0,0,0,
0,0,0,0,0,0,0,0,0,0,0,0,0,0,0,0,0,0,0,0,0,0,0,0,0,0,0,0,0,0,0,0,0,0,0,0,0,0,0,0,0,0,0,0,0,0,0,0,0,0,0,0,0,0,0,0,0,0,0,0,0,0,0,0,0,0,0,0,0,0,0,0,0,0,0,0,0,0,0,0,0,0,0,0,0,0,0,0,0,0,0,0,0,0,0,0,0,0,0,0,
0,0,0,0,0,0,0,0,0,0,0,0,0,0,0,0,0,0,0,0,0,0,0,0,0,0,0,0,0,0,0,0,0,0,0,0,0,0,0,0,0,0,0,0,0,0,0,0,0,0,0,0,0,0,0,0,0,0,0,0,0,0,0,0,0,0,0,0,0,0,0,0,0,0,0,0,0,0,0,0,0,0,0,0,0,0,0,0,0,0,0,0,0,0,0,0,0,0,0,0
</data>
 </layer>
 <layer id="7" name="Objetos_2" width="100" height="100">
  <data encoding="csv">
0,0,0,0,0,0,0,0,0,0,0,0,0,0,0,0,0,0,0,0,0,0,0,0,0,0,0,0,0,0,0,0,0,0,0,0,0,0,0,0,0,0,0,0,0,0,0,0,0,0,0,0,0,0,0,0,0,0,0,0,0,0,0,0,0,0,0,0,0,0,0,0,0,0,0,0,0,0,0,0,0,0,0,0,0,0,0,0,0,0,0,0,0,0,0,0,0,0,0,0,
0,0,0,0,0,0,0,0,0,0,0,0,0,0,0,0,0,0,0,0,0,0,0,0,0,0,0,0,0,0,0,0,0,0,0,0,0,0,0,0,0,0,0,0,0,0,0,0,0,0,0,0,0,0,0,0,0,0,0,0,0,0,0,0,0,0,0,0,0,0,0,0,0,0,0,0,0,0,0,0,0,0,0,0,0,0,0,0,0,0,0,0,0,0,0,0,0,0,0,0,
0,0,0,0,0,0,0,0,0,0,0,0,0,0,0,0,0,0,0,0,0,0,0,0,0,0,0,0,0,0,0,0,0,0,0,0,0,0,0,0,0,0,0,0,0,0,0,0,0,0,0,0,0,0,0,0,0,0,0,0,0,0,0,0,0,0,0,0,0,0,0,0,0,0,0,0,0,0,0,0,0,0,0,0,0,0,0,0,0,0,0,0,0,0,0,0,0,0,0,0,
0,0,0,0,0,0,0,0,0,0,0,0,0,0,0,0,0,0,0,0,0,0,0,0,0,0,0,0,0,0,0,0,0,0,0,0,0,0,0,0,0,0,0,0,0,0,0,0,0,0,0,0,0,0,0,0,0,0,0,0,0,0,0,0,0,0,0,0,0,0,0,0,0,0,0,0,0,0,0,0,0,0,0,0,0,0,0,0,0,0,0,0,0,0,0,0,0,0,0,0,
0,0,0,0,0,0,0,0,0,0,0,0,0,0,0,0,0,0,0,0,0,0,0,0,0,0,0,0,0,0,0,0,0,0,0,0,0,0,0,0,0,0,0,0,0,0,0,0,0,0,0,0,0,0,0,0,0,0,0,0,0,0,0,0,0,0,0,0,0,0,0,0,0,0,0,0,0,0,0,0,0,0,0,0,0,0,0,0,0,0,0,0,0,0,0,0,0,0,0,0,
0,0,0,0,0,0,0,0,0,0,0,0,0,0,0,0,0,0,0,0,0,0,0,0,0,0,0,0,0,0,0,0,0,0,0,0,0,0,0,0,0,0,0,0,0,0,0,0,0,0,0,0,0,0,0,0,0,0,0,0,0,0,0,0,0,0,0,0,0,0,0,0,0,0,0,0,0,0,0,0,0,0,0,0,0,0,0,0,0,0,0,0,0,0,0,0,0,0,0,0,
0,0,0,0,0,0,0,0,0,0,0,0,0,0,0,0,0,0,0,0,0,0,0,0,0,0,0,0,0,0,0,0,0,0,0,0,0,0,0,0,0,0,0,0,0,0,0,0,0,0,0,0,0,0,0,0,0,0,0,0,0,0,0,0,0,0,0,0,0,0,0,0,0,0,0,0,0,0,0,0,0,0,0,0,0,0,0,0,0,0,0,0,0,0,0,0,0,0,0,0,
0,0,0,0,0,0,0,0,0,0,0,0,0,0,0,0,0,0,0,0,0,0,0,0,0,0,0,0,0,0,0,0,0,0,0,0,0,0,0,0,0,0,0,0,0,0,0,0,0,0,0,0,0,0,0,0,0,0,0,0,0,0,0,0,0,0,0,0,0,0,0,0,0,0,0,0,0,0,0,0,0,0,0,0,0,0,0,0,0,0,0,0,0,0,0,0,0,0,0,0,
0,0,0,0,0,0,0,0,0,0,0,0,0,0,0,0,0,0,0,0,0,0,0,0,0,0,0,0,0,0,0,0,0,0,0,0,0,0,0,0,0,0,0,0,0,0,0,0,0,0,0,0,0,0,0,0,0,0,0,0,0,0,0,0,0,0,0,0,0,0,0,0,0,0,0,0,0,0,0,0,0,0,0,0,0,0,0,0,0,0,0,0,0,0,0,0,0,0,0,0,
0,0,0,0,0,0,0,0,0,0,0,0,0,0,0,0,0,0,0,0,0,0,0,0,0,0,0,0,0,0,0,0,0,0,0,0,0,0,0,0,0,0,0,0,0,0,0,0,0,0,0,0,0,0,0,0,0,0,0,0,0,0,0,0,0,0,0,0,0,0,0,0,0,0,0,0,0,0,0,0,0,0,0,0,0,0,0,0,0,0,0,0,0,0,0,0,0,0,0,0,
0,0,0,0,0,0,0,0,0,0,0,0,0,0,0,0,0,0,0,0,0,0,0,0,0,0,0,0,0,0,0,0,0,0,0,0,0,0,0,0,0,0,0,0,0,0,0,0,0,0,0,0,0,0,0,0,0,0,0,0,0,0,0,0,0,0,0,0,0,0,0,0,0,0,0,0,0,0,0,0,0,0,0,0,0,0,0,0,0,0,0,0,0,0,0,0,0,0,0,0,
0,0,0,0,0,0,0,0,0,0,0,0,0,0,0,0,0,0,0,0,0,0,0,0,0,0,0,0,0,0,0,0,0,0,0,0,0,0,0,0,0,0,0,0,0,0,0,0,0,0,0,0,0,0,0,0,0,0,0,0,0,0,0,0,0,0,0,0,0,0,0,0,0,0,0,0,0,0,0,0,0,0,0,0,0,0,0,0,0,0,0,0,0,0,0,0,0,0,0,0,
0,0,0,0,0,0,0,0,0,0,0,0,0,0,0,0,0,0,0,0,0,0,0,0,0,0,0,0,0,0,0,0,0,0,0,0,0,0,0,0,0,0,0,0,0,0,0,0,0,0,0,0,0,0,0,0,0,0,0,0,0,0,0,0,0,0,0,0,0,0,0,0,0,0,0,0,0,0,0,0,0,0,0,0,0,0,0,0,0,0,0,0,0,0,0,0,0,0,0,0,
0,0,0,0,0,0,0,0,0,0,0,0,0,0,0,0,0,0,0,0,0,0,0,0,0,0,0,0,0,0,0,0,0,0,0,0,0,0,0,0,0,0,0,0,0,0,0,0,0,0,0,0,0,0,0,0,0,0,0,0,0,0,0,0,0,0,0,0,0,0,0,0,0,0,0,0,0,0,0,0,0,0,0,0,0,0,0,0,0,0,0,0,0,0,0,0,0,0,0,0,
0,0,0,0,0,0,0,0,0,0,0,0,0,0,0,0,0,0,0,0,0,0,0,0,0,0,0,0,0,0,0,0,0,0,0,0,0,0,0,0,0,0,0,0,0,0,0,0,0,0,0,0,0,0,0,0,0,0,0,0,0,0,0,0,0,0,0,0,0,0,0,0,0,0,0,0,0,0,0,0,0,0,0,0,0,0,0,0,0,0,0,0,0,0,0,0,0,0,0,0,
0,0,0,0,0,0,0,0,0,0,0,0,0,0,0,0,0,0,0,0,0,0,0,0,0,0,0,0,0,0,0,0,0,0,0,0,0,0,0,0,0,0,0,0,0,0,0,0,0,0,0,0,0,0,0,0,0,0,0,0,0,0,0,0,0,0,0,0,0,0,0,0,0,0,0,0,0,0,0,0,0,0,0,0,0,0,0,0,0,0,0,0,0,0,0,0,0,0,0,0,
0,0,0,0,0,0,0,0,0,0,0,0,0,0,0,0,0,0,0,0,0,0,0,0,0,0,0,0,0,0,0,0,0,0,0,0,0,0,0,0,0,0,0,0,0,0,0,0,0,0,0,0,0,0,0,0,0,0,0,0,0,0,0,0,0,0,0,0,0,0,0,0,0,0,0,0,0,0,0,0,0,0,0,0,0,0,0,0,0,0,0,0,0,0,0,0,0,0,0,0,
0,0,0,0,0,0,0,0,0,0,0,0,0,0,0,0,0,0,0,0,0,0,0,0,0,0,0,0,0,0,0,0,0,0,0,0,0,0,0,0,0,0,0,0,0,0,0,0,0,0,0,0,0,0,0,0,0,0,0,0,0,0,0,0,0,0,0,0,0,0,0,0,0,0,0,0,0,0,0,0,0,0,0,0,0,0,0,0,0,0,0,0,0,0,0,0,0,0,0,0,
0,0,0,0,0,0,0,0,0,0,0,0,0,0,0,0,0,0,0,0,0,0,0,0,0,0,0,0,0,0,0,0,0,0,0,0,0,0,0,0,0,0,0,0,0,0,0,0,0,0,0,0,0,0,0,0,0,0,0,0,0,0,0,0,0,0,0,0,0,0,0,0,0,0,0,0,0,0,0,0,0,0,0,0,0,0,0,0,0,0,0,0,0,0,0,0,0,0,0,0,
0,0,0,0,0,0,0,0,0,0,0,0,0,0,0,0,0,0,0,0,0,0,0,0,0,0,0,0,0,0,0,0,0,0,0,0,0,0,0,0,0,0,0,0,0,0,0,0,0,0,0,0,0,0,0,0,0,0,0,0,0,0,0,0,0,0,0,0,0,0,0,0,0,0,0,0,0,0,0,0,0,0,0,0,0,0,0,0,0,0,0,0,0,0,0,0,0,0,0,0,
0,0,0,0,0,0,0,0,0,0,0,0,0,0,0,0,0,0,0,0,0,0,0,0,0,0,0,0,0,0,0,0,0,0,0,0,0,0,0,0,0,0,0,0,0,0,0,0,0,0,0,0,0,0,0,0,0,0,0,0,0,0,0,0,0,0,0,0,0,0,0,0,0,0,0,0,0,0,0,0,0,0,0,0,0,0,0,0,0,0,0,0,0,0,0,0,0,0,0,0,
0,0,0,0,0,0,0,0,0,0,0,0,0,0,0,0,0,0,0,0,0,0,0,0,0,0,0,0,0,0,0,0,0,0,0,0,0,0,0,0,0,0,0,0,0,0,0,0,0,0,0,0,0,0,0,0,0,0,0,0,0,0,0,0,0,0,0,0,0,0,0,0,0,0,0,0,0,0,0,0,0,0,0,0,0,0,0,0,0,0,0,0,0,0,0,0,0,0,0,0,
0,0,0,0,0,0,0,0,0,0,0,0,0,0,0,0,0,0,0,0,0,0,0,0,0,0,0,0,0,0,0,0,0,0,0,0,0,0,0,0,0,0,0,0,0,0,0,0,0,0,0,0,0,0,0,0,0,0,0,0,0,0,0,0,0,0,0,0,0,0,0,0,0,0,0,0,0,0,0,0,0,0,0,0,0,0,0,0,0,0,0,0,0,0,0,0,0,0,0,0,
0,0,0,0,0,0,0,0,0,0,0,0,0,0,0,0,0,0,0,0,0,0,0,0,0,0,0,0,0,0,0,0,0,0,0,0,0,0,0,0,0,0,0,0,0,0,0,0,0,0,0,0,0,0,0,0,0,0,0,0,0,0,0,0,0,0,0,0,0,0,0,0,0,0,0,0,0,0,0,0,0,0,0,0,0,0,0,0,0,0,0,0,0,0,0,0,0,0,0,0,
0,0,0,0,0,0,0,0,0,0,0,0,0,0,0,0,0,0,0,0,0,0,0,0,0,0,0,0,0,0,0,0,0,0,0,0,0,0,0,0,0,0,0,0,0,0,0,0,0,0,0,0,0,0,0,0,0,0,0,0,0,0,0,0,0,0,0,0,0,0,0,0,0,0,0,0,0,0,0,0,0,0,0,0,0,0,0,0,0,0,0,0,0,0,0,0,0,0,0,0,
0,0,0,0,0,0,0,0,0,0,0,0,0,0,0,0,0,0,0,0,0,0,0,0,0,0,0,0,0,0,0,0,0,0,0,0,0,0,0,0,0,0,0,0,0,0,0,0,0,0,0,0,0,0,0,0,0,0,0,0,0,0,0,0,0,0,0,0,0,0,0,0,0,0,0,0,0,0,0,0,0,0,0,0,0,0,0,0,0,0,0,0,0,0,0,0,0,0,0,0,
0,0,0,0,0,0,0,0,0,0,0,0,0,0,0,0,0,0,0,0,0,0,0,0,0,0,0,0,0,0,0,0,0,0,0,0,0,0,0,0,0,0,0,0,0,0,0,0,0,0,0,0,0,0,0,0,0,0,0,0,0,0,0,0,0,0,0,0,0,0,0,0,0,0,0,0,0,0,0,0,0,0,0,0,0,0,0,0,0,0,0,0,0,0,0,0,0,0,0,0,
0,0,0,0,0,0,0,0,0,0,0,0,0,0,0,0,0,0,0,0,0,0,0,0,0,0,0,0,0,0,0,0,0,0,0,0,0,0,0,0,0,0,0,0,0,0,0,0,0,0,0,0,0,0,0,0,0,0,0,0,0,0,0,0,0,0,0,0,0,0,0,0,0,0,0,0,0,0,0,0,0,0,0,0,0,0,0,0,0,0,0,0,0,0,0,0,0,0,0,0,
0,0,0,0,0,0,0,0,0,0,0,0,0,0,0,0,0,0,0,0,0,0,0,0,0,0,0,0,0,0,0,0,0,0,0,0,0,0,0,0,0,0,0,0,0,0,0,0,0,0,0,0,0,0,0,0,0,0,0,0,0,0,0,0,0,0,0,0,0,0,0,0,0,0,0,0,0,0,0,0,0,0,0,0,0,0,0,0,0,0,0,0,0,0,0,0,0,0,0,0,
0,0,0,0,0,0,0,0,0,0,0,0,0,0,0,0,0,0,0,0,0,0,0,0,0,0,0,0,0,0,0,0,0,0,0,0,0,0,0,0,0,0,0,0,0,0,0,0,0,0,0,0,0,0,0,0,0,0,0,0,0,0,0,0,0,0,0,0,0,0,0,0,0,0,0,0,0,0,0,0,0,0,0,0,0,0,0,0,0,0,0,0,0,0,0,0,0,0,0,0,
0,0,0,0,0,0,0,0,0,0,0,0,0,0,0,0,0,0,0,0,0,0,0,0,0,0,0,0,0,0,0,0,0,0,0,0,0,0,0,0,0,0,0,0,0,0,0,0,0,0,0,0,0,0,0,0,0,0,0,0,0,0,0,0,0,0,0,0,0,0,0,0,0,0,0,0,0,0,0,0,0,0,0,0,0,0,0,0,0,0,0,0,0,0,0,0,0,0,0,0,
0,0,0,0,0,0,0,0,0,0,0,0,0,0,0,0,0,0,0,0,0,0,0,0,0,0,0,0,0,0,0,0,0,0,0,0,0,0,0,0,0,0,0,0,0,0,0,0,0,0,0,0,0,0,0,0,0,0,0,0,0,0,0,0,0,0,0,0,0,0,0,0,0,0,0,0,0,0,0,0,0,0,0,0,0,0,0,0,0,0,0,0,0,0,0,0,0,0,0,0,
0,0,0,0,0,0,0,0,0,0,0,0,0,0,0,0,0,0,0,0,0,0,0,0,0,0,0,0,0,0,0,0,0,0,0,0,0,0,0,0,0,0,0,0,0,0,0,0,0,0,0,0,0,0,0,0,0,0,0,0,0,0,0,0,0,0,0,0,0,0,0,0,0,0,0,0,0,0,0,0,0,0,0,0,0,0,0,0,0,0,0,0,0,0,0,0,0,0,0,0,
0,0,0,0,0,0,0,0,0,0,0,0,0,0,0,0,0,0,0,0,0,0,0,0,0,0,0,0,0,0,0,0,0,0,0,0,0,0,0,0,0,0,0,0,0,0,0,0,0,0,0,0,0,0,0,0,0,0,0,0,0,0,0,0,0,0,0,0,0,0,0,0,0,0,0,0,0,0,0,0,0,0,0,0,0,0,0,0,0,0,0,0,0,0,0,0,0,0,0,0,
0,0,0,0,0,0,0,0,0,0,0,0,0,0,0,0,0,0,0,0,0,0,0,0,0,0,0,0,0,0,0,0,0,0,0,0,0,0,0,0,0,0,0,0,0,0,0,0,0,0,0,0,0,0,0,0,0,0,0,0,0,0,0,0,0,0,0,0,0,0,0,0,0,0,0,0,0,0,0,0,0,0,0,0,0,0,0,0,0,0,0,0,0,0,0,0,0,0,0,0,
0,0,0,0,0,0,0,0,0,0,0,0,0,0,0,0,0,0,0,0,0,0,0,0,0,0,0,0,0,0,0,0,0,0,0,0,0,0,0,0,0,0,0,0,0,0,0,0,0,0,0,0,0,0,0,0,0,0,0,0,0,0,0,0,0,0,0,0,0,0,0,0,0,0,0,0,0,0,0,0,0,0,0,0,0,0,0,0,0,0,0,0,0,0,0,0,0,0,0,0,
0,0,0,0,0,0,0,0,0,0,0,0,0,0,0,0,0,0,0,0,0,0,0,0,0,0,0,0,0,0,0,0,0,0,0,0,0,0,0,0,0,0,0,0,0,0,0,0,0,0,0,0,0,0,0,0,0,0,0,0,0,0,0,0,0,0,0,0,0,0,0,0,0,0,0,0,0,0,0,0,0,0,0,0,0,0,0,0,0,0,0,0,0,0,0,0,0,0,0,0,
0,0,0,0,0,0,0,0,0,0,0,0,0,0,0,0,0,0,0,0,0,0,0,0,0,0,0,0,0,0,0,0,0,0,0,0,0,0,0,0,0,0,0,0,0,0,0,0,0,0,0,0,0,0,0,0,0,0,0,0,0,0,0,0,0,0,0,0,0,0,0,0,0,0,0,0,0,0,0,0,0,0,0,0,0,0,0,0,0,0,0,0,0,0,0,0,0,0,0,0,
0,0,0,0,0,0,0,0,0,0,0,0,0,0,0,0,0,0,0,0,0,0,0,0,0,0,0,0,0,0,0,0,0,0,0,0,0,0,0,0,0,0,0,0,0,0,0,0,0,0,0,0,0,0,0,0,0,0,0,0,0,0,0,0,0,0,0,0,0,0,0,0,0,0,0,0,0,0,0,0,0,0,0,0,0,0,0,0,0,0,0,0,0,0,0,0,0,0,0,0,
0,0,0,0,0,0,0,0,0,0,0,0,0,0,0,0,0,0,0,0,0,0,0,0,0,0,0,0,0,0,0,0,0,0,0,0,0,0,0,0,0,0,0,0,0,0,0,0,0,0,0,0,0,0,0,0,0,0,0,0,0,0,0,0,0,0,0,0,0,0,0,0,0,0,0,0,0,0,0,0,0,0,0,0,0,0,0,0,0,0,0,0,0,0,0,0,0,0,0,0,
0,0,0,0,0,0,0,0,0,0,0,0,0,0,0,0,0,0,0,0,0,0,0,0,0,0,0,0,0,0,0,0,0,0,0,0,0,0,0,0,0,0,0,0,0,0,0,0,0,0,0,0,0,0,0,0,0,0,0,0,0,0,0,0,0,0,0,0,0,0,0,0,0,0,0,0,0,0,0,0,0,0,0,0,0,0,0,0,0,0,0,0,0,0,0,0,0,0,0,0,
0,0,0,0,0,0,0,0,0,0,0,0,0,0,0,0,0,0,0,0,0,0,0,0,0,0,0,0,0,0,0,0,0,0,0,0,0,0,0,0,0,0,0,0,0,0,0,0,0,0,0,0,0,0,0,0,0,0,0,0,0,0,0,0,0,0,0,0,0,0,0,0,0,0,0,0,0,0,0,0,0,0,0,0,0,0,0,0,0,0,0,0,0,0,0,0,0,0,0,0,
0,0,0,0,0,0,0,0,0,0,0,0,0,0,0,0,0,0,0,0,0,0,0,0,0,0,0,0,0,0,0,0,0,0,0,0,0,0,0,0,0,0,0,0,0,0,0,0,0,0,0,0,0,0,0,0,0,0,0,0,0,0,0,0,0,0,0,0,0,0,0,0,0,0,0,0,0,0,0,0,0,0,0,0,0,0,0,0,0,0,0,0,0,0,0,0,0,0,0,0,
0,0,0,0,0,0,0,0,0,0,0,0,0,0,0,0,0,0,0,0,0,0,0,0,0,0,0,0,0,0,0,0,0,0,0,0,0,0,0,0,0,0,0,0,0,0,0,0,0,0,0,0,0,0,0,0,0,0,0,0,0,0,0,0,0,0,0,0,0,0,0,0,0,0,0,0,0,0,0,0,0,0,0,0,0,0,0,0,0,0,0,0,0,0,0,0,0,0,0,0,
0,0,0,0,0,0,0,0,0,0,0,0,0,0,0,0,0,0,0,0,0,0,0,0,0,0,0,0,0,0,0,0,0,0,0,0,0,0,0,0,0,0,0,0,0,0,0,0,0,0,0,0,0,0,0,0,0,0,0,0,0,0,0,0,0,0,0,0,0,0,0,0,0,0,0,0,0,0,0,0,0,0,0,0,0,0,0,0,0,0,0,0,0,0,0,0,0,0,0,0,
0,0,0,0,0,0,0,0,0,0,0,0,0,0,0,0,0,0,0,0,0,0,0,0,0,0,0,0,0,0,0,0,0,0,0,0,0,0,0,0,0,0,0,0,0,0,0,0,0,0,0,0,0,0,0,0,0,0,0,0,0,0,0,0,0,0,0,0,0,0,0,0,0,0,0,0,0,0,0,0,0,0,0,0,0,0,0,0,0,0,0,0,0,0,0,0,0,0,0,0,
0,0,0,0,0,0,0,0,0,0,0,0,0,0,0,0,0,0,0,0,0,0,0,0,0,0,0,0,0,0,0,0,0,0,0,0,0,0,0,0,0,0,0,0,0,0,0,0,0,0,0,0,0,0,0,0,0,0,0,0,0,0,0,0,0,0,0,0,0,0,0,0,0,0,0,0,0,0,0,0,0,0,0,0,0,0,0,0,0,0,0,0,0,0,0,0,0,0,0,0,
0,0,0,0,0,0,0,0,0,0,0,0,0,0,0,0,0,0,0,0,0,0,0,0,0,0,0,0,0,0,0,0,0,0,0,0,0,0,0,0,0,0,0,0,0,0,0,0,0,0,0,0,0,0,0,0,0,0,0,0,0,0,0,0,0,0,0,0,0,0,0,0,0,0,0,0,0,0,0,0,0,0,0,0,0,0,0,0,0,0,0,0,0,0,0,0,0,0,0,0,
0,0,0,0,0,0,0,0,0,0,0,0,0,0,0,0,0,0,0,0,0,0,0,0,0,0,0,0,0,0,0,0,0,0,0,0,0,0,0,0,0,0,0,0,0,0,0,0,0,0,0,0,0,0,0,0,0,0,0,0,0,0,0,0,0,0,0,0,0,0,0,0,0,0,0,0,0,0,0,0,0,0,0,0,0,0,0,0,0,0,0,0,0,0,0,0,0,0,0,0,
0,0,0,0,0,0,0,0,0,0,0,0,0,0,0,0,0,0,0,0,0,0,0,0,0,0,0,0,0,0,0,0,0,0,0,0,0,0,0,0,0,0,0,0,0,0,0,0,0,0,0,0,0,0,0,0,0,0,0,0,0,0,0,0,0,0,0,0,0,0,0,0,0,0,0,0,0,0,0,0,0,0,0,0,0,0,0,0,0,0,0,0,0,0,0,0,0,0,0,0,
0,0,0,0,0,0,0,0,0,0,0,0,0,0,0,0,0,0,0,0,0,0,0,0,0,0,0,0,0,0,0,0,0,0,0,0,0,0,0,0,0,0,0,0,0,0,0,0,0,0,0,0,0,0,0,0,0,0,0,0,0,0,0,0,0,0,0,0,0,0,0,0,0,0,0,0,0,0,0,0,0,0,0,0,0,0,0,0,0,0,0,0,0,0,0,0,0,0,0,0,
0,0,0,0,0,0,0,0,0,0,0,0,0,0,0,0,0,0,0,0,0,0,0,0,0,0,0,0,0,0,0,0,0,0,0,0,0,0,0,0,0,0,0,0,0,0,0,0,0,0,0,0,0,0,0,0,0,0,0,0,0,0,0,0,0,0,0,0,0,0,0,0,0,0,0,0,0,0,0,0,0,0,0,0,0,0,0,0,0,0,0,0,0,0,0,0,0,0,0,0,
0,0,0,0,0,0,0,0,0,0,0,0,0,0,0,0,0,0,0,0,0,0,0,0,0,0,0,0,0,0,0,0,0,0,0,0,0,0,0,0,0,0,0,0,0,0,0,0,0,0,0,0,0,0,0,0,0,0,0,0,0,0,0,0,0,0,0,0,0,0,0,0,0,0,0,0,0,0,0,0,0,0,0,0,0,0,0,0,0,0,0,0,0,0,0,0,0,0,0,0,
0,0,0,0,0,0,0,0,0,0,0,0,0,0,0,0,0,0,0,0,0,0,0,0,0,0,0,0,0,0,0,0,0,0,0,0,0,0,0,0,0,0,0,0,0,0,0,0,0,0,0,0,0,0,0,0,0,0,0,0,0,0,0,0,0,0,0,0,0,0,0,0,0,0,0,0,0,0,0,0,0,0,0,0,0,0,0,0,0,0,0,0,0,0,0,0,0,0,0,0,
0,0,0,0,0,0,0,0,0,0,0,0,0,0,0,0,0,0,0,0,0,0,0,0,0,0,0,0,0,0,0,0,0,0,0,0,0,0,0,0,0,0,0,0,0,0,0,0,0,0,0,0,0,0,0,0,0,0,0,0,0,0,0,0,0,0,0,0,0,0,0,0,0,0,0,0,0,0,0,0,0,0,0,0,0,0,0,0,0,0,0,0,0,0,0,0,0,0,0,0,
0,0,0,0,0,0,0,0,0,0,0,0,0,0,0,0,0,0,0,0,0,0,0,0,0,0,0,0,0,0,0,0,0,0,0,0,0,0,0,0,0,0,0,0,0,0,0,0,0,0,0,0,0,0,0,0,0,0,0,0,0,0,0,0,0,0,0,0,0,0,0,0,0,0,0,0,0,0,0,0,0,0,0,0,0,0,0,0,0,0,0,0,0,0,0,0,0,0,0,0,
0,0,0,0,0,0,0,0,0,0,0,0,0,0,0,0,0,0,0,0,0,0,0,0,0,0,0,0,0,0,0,0,0,0,0,0,0,0,0,0,0,0,0,0,0,0,0,0,0,0,0,0,0,0,0,0,0,0,0,0,0,0,0,0,0,0,0,0,0,0,0,0,0,0,0,0,0,0,0,0,0,0,0,0,0,0,0,0,0,0,0,0,0,0,0,0,0,0,0,0,
0,0,0,0,0,0,0,0,0,0,0,0,0,0,0,0,0,0,0,0,0,0,0,0,0,0,0,0,0,0,0,0,0,0,0,0,0,0,0,0,0,0,0,0,0,0,0,0,0,0,0,0,0,0,0,0,0,0,0,0,0,0,0,0,0,0,0,0,0,0,0,0,0,0,0,0,0,0,0,0,0,0,0,0,0,0,0,0,0,0,0,0,0,0,0,0,0,0,0,0,
0,0,0,0,0,0,0,0,0,0,0,0,0,0,0,0,0,0,0,0,0,0,0,0,0,0,0,0,0,0,0,0,0,0,0,0,0,0,0,0,0,0,0,0,0,0,0,0,0,0,0,0,0,0,0,0,0,0,0,0,0,0,0,0,0,0,0,0,0,0,0,0,0,0,0,0,0,0,0,0,0,0,0,0,0,0,0,0,0,0,0,0,0,0,0,0,0,0,0,0,
0,0,0,0,0,0,0,0,0,0,0,0,0,0,0,0,0,0,0,0,0,0,0,0,0,0,0,0,0,0,0,0,0,0,0,0,0,0,0,0,0,0,0,0,0,0,0,0,0,0,0,0,0,0,0,0,0,0,0,0,0,0,0,0,0,0,0,0,0,0,0,0,0,0,0,0,0,0,0,0,0,0,0,0,0,0,0,0,0,0,0,0,0,0,0,0,0,0,0,0,
0,0,0,0,0,0,0,0,0,0,0,0,0,0,0,0,0,0,0,0,0,0,0,0,0,0,0,0,0,0,0,0,0,0,0,0,0,0,0,0,0,0,0,0,0,0,0,0,0,0,0,0,0,0,0,0,0,0,0,0,0,0,0,0,0,0,0,0,0,0,0,0,0,0,0,0,0,0,0,0,0,0,0,0,0,0,0,0,0,0,0,0,0,0,0,0,0,0,0,0,
0,0,0,0,0,0,0,0,0,0,0,0,0,0,0,0,0,0,0,0,0,0,0,0,0,0,0,0,0,0,0,0,0,0,0,0,0,0,0,0,0,0,0,0,0,0,0,0,0,0,0,0,0,0,0,0,0,0,0,0,0,0,0,0,0,0,0,0,0,0,0,0,0,0,0,0,0,0,0,0,0,0,0,0,0,0,0,0,0,0,0,0,0,0,0,0,0,0,0,0,
0,0,0,0,0,0,0,0,0,0,0,0,0,0,0,0,0,0,0,0,0,0,0,0,0,0,0,0,0,0,0,0,0,0,0,0,0,0,0,0,0,0,0,0,0,0,0,0,0,0,0,0,0,0,0,0,0,0,0,0,0,0,0,0,0,0,0,0,0,0,0,0,0,0,0,0,0,0,0,0,0,0,0,0,0,0,0,0,0,0,0,0,0,0,0,0,0,0,0,0,
0,0,0,0,0,0,0,0,0,0,0,0,0,0,0,0,0,0,0,0,0,0,0,0,0,0,0,0,0,0,0,0,0,0,0,0,0,0,0,0,0,0,0,0,0,0,0,0,0,0,0,0,0,0,0,0,0,0,0,0,0,0,0,0,0,0,0,0,0,0,0,0,0,0,0,0,0,0,0,0,0,0,0,0,0,0,0,0,0,0,0,0,0,0,0,0,0,0,0,0,
0,0,0,0,0,0,0,0,0,0,0,0,0,0,0,0,0,0,0,0,0,0,0,0,0,0,0,0,0,0,0,0,0,0,0,0,0,0,0,0,0,0,0,0,0,0,0,0,0,0,0,0,0,0,0,0,0,0,0,0,0,0,0,0,0,0,0,0,0,0,0,0,0,0,0,0,0,0,0,0,0,0,0,0,0,0,0,0,0,0,0,0,0,0,0,0,0,0,0,0,
0,0,0,0,0,0,0,0,0,0,0,0,0,0,0,0,0,0,0,0,0,0,0,0,0,0,0,0,0,0,0,0,0,0,0,0,0,0,0,0,0,0,0,0,0,0,0,0,0,0,0,0,0,0,0,0,0,0,0,0,0,0,0,0,0,0,0,0,0,0,0,0,0,0,0,0,0,0,0,0,0,0,0,0,0,0,0,0,0,0,0,0,0,0,0,0,0,0,0,0,
0,0,0,0,8617,0,0,0,0,0,0,0,0,0,0,0,0,0,0,0,0,0,0,0,0,0,0,0,0,0,0,0,0,0,0,0,0,0,0,0,0,0,0,0,0,0,0,0,0,0,0,0,0,0,0,0,0,0,0,0,0,0,0,0,0,0,0,0,0,0,0,0,0,0,0,0,0,0,0,0,0,0,0,0,0,0,0,0,0,0,0,0,0,0,0,0,0,0,0,0,
0,0,0,0,0,0,0,0,0,0,0,0,0,0,0,0,0,0,0,0,0,0,0,0,0,0,0,0,0,0,0,0,0,0,0,0,0,0,0,0,0,0,0,0,0,0,0,0,0,0,0,0,0,0,0,0,0,0,0,0,0,0,0,0,0,0,0,0,0,0,0,0,0,0,0,0,0,0,0,0,0,0,0,0,0,0,0,0,0,0,0,0,0,0,0,0,0,0,0,0,
0,0,0,0,0,0,0,0,0,0,0,0,0,0,0,0,0,0,0,0,0,0,0,0,0,0,0,0,0,0,0,0,0,0,0,0,0,0,0,0,0,0,0,0,0,0,0,0,0,0,0,0,0,0,0,0,0,0,0,0,0,0,0,0,0,0,0,0,0,0,0,0,0,0,0,0,0,0,0,0,0,0,0,0,0,0,0,0,0,0,0,0,0,0,0,0,0,0,0,0,
8500,0,0,0,0,0,0,0,0,0,0,0,0,0,0,0,0,0,0,0,0,0,0,0,0,0,0,0,0,0,0,0,0,0,0,0,0,0,0,0,0,0,0,0,0,0,0,0,0,0,0,0,0,0,0,0,0,0,0,0,0,0,0,0,0,0,0,0,0,0,0,0,0,0,0,0,0,0,0,0,0,0,0,0,0,0,0,0,0,0,0,0,0,0,0,0,0,0,0,0,
0,0,0,0,0,0,0,0,0,0,0,0,0,0,0,0,0,0,0,0,0,0,0,0,0,0,0,0,0,0,0,0,0,0,0,0,0,0,0,0,0,0,0,0,0,0,0,0,0,0,0,0,0,0,0,0,0,0,0,0,0,0,0,0,0,0,0,0,0,0,0,0,0,0,0,0,0,0,0,0,0,0,0,0,0,0,0,0,0,0,0,0,0,0,0,0,0,0,0,0,
0,0,0,0,0,0,0,0,0,0,0,0,0,0,0,0,0,0,0,0,0,0,0,0,0,0,0,0,0,0,0,0,0,0,0,0,0,0,0,0,0,0,0,0,0,0,0,0,0,0,0,0,0,0,0,0,0,0,0,0,0,0,0,0,0,0,0,0,0,0,0,0,0,0,0,0,0,0,0,0,0,0,0,0,0,0,0,0,0,0,0,0,0,0,0,0,0,0,0,0,
0,0,0,0,0,0,0,0,0,0,0,0,0,0,0,0,0,0,0,0,0,0,0,0,0,0,0,0,0,0,0,0,0,0,0,0,0,0,0,0,0,0,0,0,0,0,0,0,0,0,0,0,0,0,0,0,0,0,0,0,0,0,0,0,0,0,0,0,0,0,0,0,0,0,0,0,0,0,0,0,0,0,0,0,0,0,0,0,0,0,0,0,0,0,0,0,0,0,0,0,
0,0,0,0,0,0,0,0,0,0,0,0,0,0,0,0,0,0,0,0,0,0,0,0,0,0,0,0,0,0,0,0,0,0,0,0,0,0,0,0,0,0,0,0,0,0,0,0,0,0,0,0,0,0,0,0,0,0,0,0,0,0,0,0,0,0,0,0,0,0,0,0,0,0,0,0,0,0,0,0,0,0,0,0,0,0,0,0,0,0,0,0,0,0,0,0,0,0,0,0,
0,0,0,0,0,0,0,0,0,0,0,0,0,0,0,0,0,0,0,0,0,0,0,0,0,0,0,0,0,0,0,0,0,0,0,0,0,0,0,0,0,0,0,0,0,0,0,0,0,0,0,0,0,0,0,0,0,0,0,0,0,0,0,0,0,0,0,0,0,0,0,0,0,0,0,0,0,0,0,0,0,0,0,0,0,0,0,0,0,0,0,0,0,0,0,0,0,0,0,0,
0,0,0,0,0,0,0,0,0,0,0,0,0,0,0,0,0,0,0,0,0,0,0,0,0,0,0,0,0,0,0,0,0,0,0,0,0,0,0,0,0,0,0,0,0,0,0,0,0,0,0,0,0,0,0,0,0,0,0,0,0,0,0,0,0,0,0,0,0,0,0,0,0,0,0,0,0,0,0,0,0,0,0,0,0,0,0,0,0,0,0,0,0,0,0,0,0,0,0,0,
0,0,0,0,0,0,0,0,0,0,0,0,0,0,0,0,0,0,0,0,0,0,0,0,0,0,0,0,0,0,0,0,0,0,0,0,0,0,0,0,0,0,0,0,0,0,0,0,0,0,0,0,0,0,0,0,0,0,0,0,0,0,0,0,0,0,0,0,0,0,0,0,0,0,0,0,0,0,0,0,0,0,0,0,0,0,0,0,0,0,0,0,0,0,0,0,0,0,0,0,
0,0,0,0,0,0,0,0,0,0,0,0,0,0,0,0,0,0,0,0,0,0,0,0,0,0,0,0,0,0,0,0,0,0,0,0,0,0,0,0,0,0,0,0,0,0,0,0,0,0,0,0,0,0,0,0,0,0,0,0,0,0,0,0,0,0,0,0,0,0,0,0,0,0,0,0,0,0,0,0,0,0,0,0,0,0,0,0,0,0,0,0,0,0,0,0,0,0,0,0,
0,0,0,0,0,0,0,0,0,0,0,0,0,0,0,0,0,0,0,0,0,0,0,0,0,0,0,0,0,0,0,0,0,0,0,0,0,0,0,0,0,0,0,0,0,0,0,0,0,0,0,0,0,0,0,0,0,0,0,0,0,0,0,0,0,0,0,0,0,0,0,0,0,0,0,0,0,0,0,0,0,0,0,0,0,0,0,0,0,0,0,0,0,0,0,0,0,0,0,0,
0,0,0,0,0,0,0,0,0,0,0,0,0,0,0,0,0,0,0,0,0,0,0,0,0,0,0,0,0,0,0,0,0,0,0,0,0,0,0,0,0,0,0,0,0,0,0,0,0,0,0,0,0,0,0,0,0,0,0,0,0,0,0,0,0,0,0,0,0,0,0,0,0,0,0,0,0,0,0,0,0,0,0,0,0,0,0,0,0,0,0,0,0,0,0,0,0,0,0,0,
0,0,0,0,0,0,0,0,0,0,0,0,0,0,0,0,0,0,0,0,0,0,0,0,0,0,0,0,0,0,0,0,0,0,0,0,0,0,0,0,0,0,0,0,0,0,0,0,0,0,0,0,0,0,0,0,0,0,0,0,0,0,0,0,0,0,0,0,0,0,0,0,0,0,0,0,0,0,0,0,0,0,0,0,0,0,0,0,0,0,0,0,0,0,0,0,0,0,0,0,
0,0,0,0,0,0,0,0,0,0,0,0,0,0,0,0,0,0,0,0,0,0,0,0,0,0,0,0,0,0,0,0,0,0,0,0,0,0,0,0,0,0,0,0,0,0,0,0,0,0,0,0,0,0,0,0,0,0,0,0,0,0,0,0,0,0,0,0,0,0,0,0,0,0,0,0,0,0,0,0,0,0,0,0,0,0,0,0,0,0,0,0,0,0,0,0,0,0,0,0,
0,0,0,0,0,0,0,0,0,0,0,0,0,0,0,0,0,0,0,0,0,0,0,0,0,0,0,0,0,0,0,0,0,0,0,0,0,0,0,0,0,0,0,0,0,0,0,0,0,0,0,0,0,0,0,0,0,0,0,0,0,0,0,0,0,0,0,0,0,0,0,0,0,0,0,0,0,0,0,0,0,0,0,0,0,0,0,0,0,0,0,0,0,0,0,0,0,0,0,0,
0,0,0,0,0,0,0,0,0,0,0,0,0,0,0,0,0,0,0,0,0,0,0,0,0,0,0,0,0,0,0,0,0,0,0,0,0,0,0,0,0,0,0,0,0,0,0,0,0,0,0,0,0,0,0,0,0,0,0,0,0,0,0,0,0,0,0,0,0,0,0,0,0,0,0,0,0,0,0,0,0,0,0,0,0,0,0,0,0,0,0,0,0,0,0,0,0,0,0,0,
0,0,0,0,0,0,0,0,0,0,0,0,0,0,0,0,0,0,0,0,0,0,0,0,0,0,0,0,0,0,0,0,0,0,0,0,0,0,0,0,0,0,0,0,0,0,0,0,0,0,0,0,0,0,0,0,0,0,0,0,0,0,0,0,0,0,0,0,0,0,0,0,0,0,0,0,0,0,0,0,0,0,0,0,0,0,0,0,0,0,0,0,0,0,0,0,0,0,0,0,
0,0,0,0,0,0,0,0,0,0,0,0,0,0,0,0,0,0,0,0,0,0,0,0,0,0,0,0,0,0,0,0,0,0,0,0,0,0,0,0,0,0,0,0,0,0,0,0,0,0,0,0,0,0,0,0,0,0,0,0,0,0,0,0,0,0,0,0,0,0,0,0,0,0,0,0,0,0,0,0,0,0,0,0,0,0,0,0,0,0,0,0,0,0,0,0,0,0,0,0,
0,0,0,0,0,0,0,0,0,0,0,0,0,0,0,0,0,0,0,0,0,0,0,0,0,0,0,0,0,0,0,0,0,0,0,0,0,0,0,0,0,0,0,0,0,0,0,0,0,0,0,0,0,0,0,0,0,0,0,0,0,0,0,0,0,0,0,0,0,0,0,0,0,0,0,0,0,0,0,0,0,0,0,0,0,0,0,0,0,0,0,0,0,0,0,0,0,0,0,0,
0,0,0,0,0,0,0,0,0,0,0,0,0,0,0,0,0,0,0,0,0,0,0,0,0,0,0,0,0,0,0,0,0,0,0,0,0,0,0,0,0,0,0,0,0,0,0,0,0,0,0,0,0,0,0,0,0,0,0,0,0,0,0,0,0,0,0,0,0,0,0,0,0,0,0,0,0,0,0,0,0,0,0,0,0,0,0,0,0,0,0,0,0,0,0,0,0,0,0,0,
0,0,0,0,0,0,0,0,0,0,0,0,0,0,0,0,0,0,0,0,0,0,0,0,0,0,0,0,0,0,0,0,0,0,0,0,0,0,0,0,0,0,0,0,0,0,0,0,0,0,0,0,0,0,0,0,0,0,0,0,0,0,0,0,0,0,0,0,0,0,0,0,0,0,0,0,0,0,0,0,0,0,0,0,0,0,0,0,0,0,0,0,0,0,0,0,0,0,0,0,
0,0,0,0,0,0,0,0,0,0,0,0,0,0,0,0,0,0,0,0,0,0,0,0,0,0,0,0,0,0,0,0,0,0,0,0,0,0,0,0,0,0,0,0,0,0,0,0,0,0,0,0,0,0,0,0,0,0,0,0,0,0,0,0,0,0,0,0,0,0,0,0,0,0,0,0,0,0,0,0,0,0,0,0,0,0,0,0,0,0,0,0,0,0,0,0,0,0,0,0,
0,0,0,0,0,0,0,0,0,0,0,0,0,0,0,0,0,0,0,0,0,0,0,0,0,0,0,0,0,0,0,0,0,0,0,0,0,0,0,0,0,0,0,0,0,0,0,0,0,0,0,0,0,0,0,0,0,0,0,0,0,0,0,0,0,0,0,0,0,0,0,0,0,0,0,0,0,0,0,0,0,0,0,0,0,0,0,0,0,0,0,0,0,0,0,0,0,0,0,0,
0,0,0,0,0,0,8676,0,0,0,0,0,0,0,0,0,0,0,0,0,0,0,0,0,0,0,0,0,0,0,0,0,0,0,0,0,0,0,0,0,0,0,0,0,0,0,0,0,0,0,0,0,0,0,0,0,0,0,0,0,0,0,0,0,0,0,0,0,0,0,0,0,0,0,0,0,0,0,0,0,0,0,0,0,0,0,0,0,0,0,0,0,0,0,0,0,0,0,0,0,
0,0,0,0,0,0,0,0,0,0,0,0,0,0,0,0,0,0,0,0,0,0,0,0,0,0,0,0,0,0,0,0,0,0,0,0,0,0,0,0,0,0,0,0,0,0,0,0,0,0,0,0,0,0,0,0,0,0,0,0,0,0,0,0,0,0,0,0,0,0,0,0,0,0,0,0,0,0,0,0,0,0,0,0,0,0,0,0,0,0,0,0,0,0,0,0,0,0,0,0,
0,0,0,0,0,0,0,0,0,0,0,0,0,0,0,0,0,0,0,0,0,0,0,0,0,0,0,0,0,0,0,0,0,0,0,0,0,0,0,0,0,0,0,0,0,0,0,0,0,0,0,0,0,0,0,0,0,0,0,0,0,0,0,0,0,0,0,0,0,0,0,0,0,0,0,0,0,0,0,0,0,0,0,0,0,0,0,0,0,0,0,0,0,0,0,0,0,0,0,0,
0,0,0,0,0,0,0,0,0,0,0,0,0,0,0,0,0,0,0,0,0,0,0,0,0,0,0,0,0,0,0,0,0,0,0,0,0,0,0,0,0,0,0,0,0,0,0,0,0,0,0,0,0,0,0,0,0,0,0,0,0,0,0,0,0,0,0,0,0,0,0,0,0,0,0,0,0,0,0,0,0,0,0,0,0,0,0,0,0,0,0,0,0,0,0,0,0,0,0,0,
0,0,0,0,0,0,0,0,0,0,0,0,0,0,0,0,0,0,0,0,0,0,0,0,0,0,0,0,0,0,0,0,0,0,0,0,0,0,0,0,0,0,0,0,0,0,0,0,0,0,0,0,0,0,0,0,0,0,0,0,0,0,0,0,0,0,0,0,0,0,0,0,0,0,0,0,0,0,0,0,0,0,0,0,0,0,0,0,0,0,0,0,0,0,0,0,0,0,0,0,
0,0,0,0,0,0,0,0,0,0,0,0,0,0,0,0,0,0,0,0,0,0,0,0,0,0,0,0,0,0,0,0,0,0,0,0,0,0,0,0,0,0,0,0,0,0,0,0,0,0,0,0,0,0,0,0,0,0,0,0,0,0,0,0,0,0,0,0,0,0,0,0,0,0,0,0,0,0,0,0,0,0,0,0,0,0,0,0,0,0,0,0,0,0,0,0,0,0,0,0,
0,0,0,0,0,0,0,0,0,0,0,0,0,0,0,0,0,0,0,0,0,0,0,0,0,0,0,0,0,0,0,0,0,0,0,0,0,0,0,0,0,0,0,0,0,0,0,0,0,0,0,0,0,0,0,0,0,0,0,0,0,0,0,0,0,0,0,0,0,0,0,0,0,0,0,0,0,0,0,0,0,0,0,0,0,0,0,0,0,0,0,0,0,0,0,0,0,0,0,0,
0,0,0,0,0,0,0,0,0,0,0,0,0,0,0,0,0,0,0,0,0,0,0,0,0,0,0,0,0,0,0,0,0,0,0,0,0,0,0,0,0,0,0,0,0,0,0,0,0,0,0,0,0,0,0,0,0,0,0,0,0,0,0,0,0,0,0,0,0,0,0,0,0,0,0,0,0,0,0,0,0,0,0,0,0,0,0,0,0,0,0,0,0,0,0,0,0,0,0,0,
0,0,0,0,0,0,0,0,0,0,0,0,0,0,0,0,0,0,0,0,0,0,0,0,0,0,0,0,0,0,0,0,0,0,0,0,0,0,0,0,0,0,0,0,0,0,0,0,0,0,0,0,0,0,0,0,0,0,0,0,0,0,0,0,0,0,0,0,0,0,0,0,0,0,0,0,0,0,0,0,0,0,0,0,0,0,0,0,0,0,0,0,0,0,0,0,0,0,0,0
</data>
 </layer>
 <layer id="12" name="Obj_Cidade_0" width="100" height="100">
  <data encoding="csv">
0,0,0,0,0,0,0,0,0,0,0,0,0,0,0,0,0,0,0,0,0,0,0,0,0,0,0,0,0,0,0,0,0,0,0,0,0,0,0,0,0,0,0,0,0,0,0,0,0,0,0,0,0,0,0,0,0,0,0,0,0,0,0,0,0,0,0,0,0,0,0,0,0,0,0,0,0,0,0,0,0,0,0,0,0,0,0,0,0,0,0,0,0,0,0,0,0,0,0,0,
0,0,0,0,0,0,0,0,0,0,0,0,0,0,0,0,0,0,0,0,0,0,0,0,0,0,0,0,0,0,0,0,0,0,0,0,0,0,0,0,0,0,0,0,0,0,0,0,0,0,0,0,0,0,0,0,0,0,0,0,0,0,0,0,0,0,0,0,0,0,0,0,0,0,0,0,0,0,0,0,0,0,0,0,0,0,0,0,0,0,0,0,0,0,0,0,0,0,0,0,
0,0,0,0,0,0,0,0,0,0,0,0,0,0,0,0,0,0,0,0,0,0,0,0,0,0,0,0,0,0,0,0,0,0,0,0,0,0,0,0,0,0,0,0,0,0,0,0,0,0,0,0,0,0,0,0,0,0,0,0,0,0,0,0,0,0,0,0,0,0,0,0,0,0,0,0,0,0,0,0,0,0,0,0,0,0,0,0,0,0,0,0,0,0,0,0,0,0,0,0,
0,0,0,0,0,0,0,0,0,0,0,0,0,0,0,0,0,0,0,0,0,0,0,0,0,0,0,0,0,0,0,0,0,0,0,0,0,0,0,0,0,0,0,0,0,0,0,0,0,0,0,0,0,0,0,0,0,0,0,0,0,0,0,0,0,0,0,0,0,0,0,0,0,0,0,0,0,0,0,0,0,0,0,0,0,0,0,0,0,0,0,0,0,0,0,0,0,0,0,0,
0,0,0,0,0,0,0,0,0,0,0,0,0,0,0,0,0,0,0,0,0,0,0,0,0,0,0,0,0,0,0,0,0,0,0,0,0,0,0,0,0,0,0,0,0,0,0,0,0,0,0,0,0,0,0,0,0,0,0,0,0,0,0,0,0,0,0,0,0,0,0,0,0,0,0,0,0,0,0,0,0,0,0,0,0,0,0,0,0,0,0,0,0,0,0,0,0,0,0,0,
0,0,0,0,0,0,0,0,0,0,0,0,0,0,0,0,0,0,0,0,0,0,0,0,0,0,0,0,0,0,0,0,0,0,0,0,0,0,0,0,0,0,0,0,0,0,0,0,0,0,0,0,0,0,0,0,0,0,0,0,0,0,0,0,0,0,0,0,0,0,0,0,0,0,0,0,0,0,0,0,0,0,0,0,0,0,0,0,0,0,0,0,0,0,0,0,0,0,0,0,
0,0,0,0,0,0,0,0,0,0,0,0,0,0,0,0,0,0,0,0,0,0,0,0,0,0,0,0,0,0,0,0,0,0,0,0,0,0,0,0,0,0,0,0,0,0,0,0,0,0,0,0,0,0,0,0,0,0,0,0,0,0,0,0,0,0,0,0,0,0,0,0,0,0,0,0,0,0,0,0,0,0,0,0,0,0,0,0,0,0,0,0,0,0,0,0,0,0,0,0,
0,0,0,0,0,0,0,0,0,0,0,0,0,0,0,0,0,0,0,0,0,0,0,0,0,0,0,0,0,0,0,0,0,0,0,0,0,0,0,0,0,0,0,0,0,0,0,0,0,0,0,0,0,0,0,0,0,0,0,0,0,0,0,0,0,0,0,0,0,0,0,0,0,0,0,0,0,0,0,0,0,0,0,0,0,0,0,0,0,0,0,0,0,0,0,0,0,0,0,0,
0,0,0,0,0,0,0,0,0,0,0,0,0,0,0,0,0,0,0,0,0,0,0,0,0,0,0,0,0,0,0,0,0,0,0,0,0,0,0,0,0,0,0,0,0,0,0,0,0,0,0,0,0,0,0,0,0,0,0,0,0,0,0,0,0,0,0,0,0,0,0,0,0,0,0,0,0,0,0,0,0,0,0,0,0,0,0,0,0,0,0,0,0,0,0,0,0,0,0,0,
0,0,0,0,0,0,0,0,0,0,0,0,0,0,0,0,0,0,0,0,0,0,0,0,0,0,0,0,0,0,0,0,0,0,0,0,0,0,0,0,0,0,0,0,0,0,0,0,0,0,0,0,0,0,0,0,0,0,0,0,0,0,0,0,0,0,0,0,0,0,0,0,0,0,0,0,0,0,0,0,0,0,0,0,0,0,0,0,0,0,0,0,0,0,0,0,0,0,0,0,
0,0,0,0,0,0,0,0,0,0,0,0,0,0,0,0,0,0,0,0,0,0,0,0,0,0,0,0,0,0,0,0,0,0,0,0,0,0,0,0,0,0,0,0,0,0,0,0,0,0,0,0,0,0,0,0,0,0,0,0,0,0,0,0,0,0,0,0,0,0,0,0,0,0,0,0,0,0,0,0,0,0,0,0,0,0,0,0,0,0,0,0,0,0,0,0,0,0,0,0,
0,0,0,0,0,0,0,0,0,0,0,0,0,0,0,0,0,0,0,0,0,0,0,0,0,0,0,0,0,0,0,0,0,0,0,0,0,0,0,0,0,0,0,0,0,0,0,0,0,0,0,0,0,0,0,0,0,0,0,0,0,0,0,0,0,0,0,0,0,0,0,0,0,0,0,0,0,0,0,0,0,0,0,0,0,0,0,0,0,0,0,0,0,0,0,0,0,0,0,0,
0,0,0,0,0,0,0,0,0,0,0,0,0,0,0,0,0,0,0,0,0,0,0,0,0,0,0,0,0,0,0,0,0,0,0,0,0,0,0,0,0,0,0,0,0,0,0,0,0,0,0,0,0,0,0,0,0,0,0,0,0,0,0,0,0,0,0,0,0,0,0,0,0,0,0,0,0,0,0,0,0,0,0,0,0,0,0,0,0,0,0,0,0,0,0,0,0,0,0,0,
0,0,0,0,0,0,0,0,0,0,0,0,0,0,0,0,0,0,0,0,0,0,0,0,0,0,0,0,0,0,0,0,0,0,0,0,0,0,0,0,0,0,0,0,0,0,0,0,0,0,0,0,0,0,0,0,0,0,0,0,0,0,0,0,0,0,0,0,0,0,0,0,0,0,0,0,0,0,0,0,0,0,0,0,0,0,0,0,0,0,0,0,0,0,0,0,0,0,0,0,
0,0,0,0,0,0,0,0,0,0,0,0,0,0,0,0,0,0,0,0,0,0,0,0,0,0,0,0,0,0,0,0,0,0,0,0,0,0,0,0,0,0,0,0,0,0,0,0,0,0,0,0,0,0,0,0,0,0,0,0,0,0,0,0,0,0,0,0,0,0,0,0,0,0,0,0,0,0,0,0,0,0,0,0,0,0,0,0,0,0,0,0,0,0,0,0,0,0,0,0,
0,0,0,0,0,0,0,0,0,0,0,0,0,0,0,0,0,0,0,0,0,0,0,0,0,0,0,0,0,0,0,0,0,0,0,0,0,0,0,0,0,0,0,0,0,0,0,0,0,0,0,0,0,0,0,0,0,0,0,0,0,0,0,0,0,0,0,0,0,0,0,0,0,0,0,0,0,0,0,0,0,0,0,0,0,0,0,0,0,0,0,0,0,0,0,0,0,0,0,0,
0,0,0,0,0,0,0,0,0,0,0,0,0,0,0,0,0,0,0,0,0,0,0,0,0,0,0,0,0,0,0,0,0,0,0,0,0,0,0,0,0,0,0,0,0,0,0,0,0,0,0,0,0,0,0,0,0,0,0,0,0,0,0,0,0,0,0,0,0,0,0,0,0,0,0,0,0,0,0,0,0,0,0,0,0,0,0,0,0,0,0,0,0,0,0,0,0,0,0,0,
0,0,0,0,0,0,0,0,0,0,0,0,0,0,0,0,0,0,0,0,0,0,0,0,0,0,0,0,0,0,0,0,0,0,0,0,0,0,0,0,0,0,0,0,0,0,0,0,0,0,0,0,0,0,0,0,0,0,0,0,0,0,0,0,0,0,0,0,0,0,0,0,0,0,0,0,0,0,0,0,0,0,0,0,0,0,0,0,0,0,0,0,0,0,0,0,0,0,0,0,
0,0,0,0,0,0,0,0,0,0,0,0,0,0,0,0,0,0,0,0,0,0,0,0,0,0,0,0,0,0,0,0,0,0,0,0,0,0,0,0,0,0,0,0,0,0,0,0,0,0,0,0,0,0,0,0,0,0,0,0,0,0,0,0,0,0,0,0,0,0,0,0,0,0,0,0,0,0,0,0,0,0,0,0,0,0,0,0,0,0,0,0,0,0,0,0,0,0,0,0,
0,0,0,0,0,0,0,0,0,0,0,0,0,0,0,0,0,0,0,0,0,0,0,0,0,0,0,0,0,0,0,0,0,0,0,0,0,0,0,0,0,0,0,0,0,0,0,0,0,0,0,0,0,0,0,0,0,0,0,0,0,0,0,0,0,0,0,0,0,0,0,0,0,0,0,0,0,0,0,0,0,0,0,0,0,0,0,0,0,0,0,0,0,0,0,0,0,0,0,0,
0,0,0,0,0,0,0,0,0,0,0,0,0,0,0,0,0,0,0,0,0,0,0,0,0,0,0,0,0,0,0,0,0,0,0,0,0,0,0,0,0,0,0,0,0,0,0,0,0,0,0,0,0,0,0,0,0,0,0,0,0,0,0,0,0,0,0,0,0,0,0,0,0,0,0,0,0,0,0,0,0,0,0,0,0,0,0,0,0,0,0,0,0,0,0,0,0,0,0,0,
0,0,0,0,0,0,0,0,0,0,0,0,0,0,0,0,0,0,0,0,0,0,0,0,0,0,0,0,0,0,0,0,0,0,0,0,0,0,0,0,0,0,0,0,0,0,0,0,0,0,0,0,0,0,0,0,0,0,0,0,0,0,0,0,0,0,0,0,0,0,0,0,0,0,0,0,0,0,0,0,0,0,0,0,0,0,0,0,0,0,0,0,0,0,0,0,0,0,0,0,
0,0,0,0,0,0,0,0,0,0,0,0,0,0,0,0,0,0,0,0,0,0,0,0,0,0,0,0,0,0,0,0,0,0,0,0,0,0,0,0,0,0,0,0,0,0,0,0,0,0,0,0,0,0,0,0,0,0,0,0,0,0,0,0,0,0,0,0,0,0,0,0,0,0,0,0,0,0,0,0,0,0,0,0,0,0,0,0,0,0,0,0,0,0,0,0,0,0,0,0,
0,0,0,0,0,0,0,0,0,0,0,0,0,0,0,0,0,0,0,0,0,0,0,0,0,0,0,0,0,0,0,0,0,0,0,0,0,0,0,0,0,0,0,0,0,0,0,0,0,0,0,0,0,0,0,0,0,0,0,0,0,0,0,0,0,0,0,0,0,0,0,0,0,0,0,0,0,0,0,0,0,0,0,0,0,0,0,0,0,0,0,0,0,0,0,0,0,0,0,0,
0,0,0,0,0,0,0,0,0,0,0,0,0,0,0,0,0,0,0,0,0,0,0,0,0,0,0,0,0,0,0,0,0,0,0,0,0,0,0,0,0,0,0,0,0,0,0,0,0,0,0,0,0,0,0,0,0,0,0,0,0,0,0,0,0,0,0,0,0,0,0,0,0,0,0,0,0,0,0,0,0,0,0,0,0,0,0,0,0,0,0,0,0,0,0,0,0,0,0,0,
0,0,0,0,0,0,0,0,0,0,0,0,0,0,0,0,0,0,0,0,0,0,0,0,0,0,0,0,0,0,0,0,0,0,0,0,0,0,0,0,0,0,0,0,0,0,0,0,0,0,0,0,0,0,0,0,0,0,0,0,0,0,0,0,0,0,0,0,0,0,0,0,0,0,0,0,0,0,0,0,0,0,0,0,0,0,0,0,0,0,0,0,0,0,0,0,0,0,0,0,
0,0,0,0,0,0,0,0,0,0,0,0,0,0,0,0,0,0,0,0,0,0,0,0,0,0,0,0,0,0,0,0,0,0,0,0,0,0,0,0,0,0,0,0,0,0,0,0,0,0,0,0,0,0,0,0,0,0,0,0,0,0,0,0,0,0,0,0,0,0,0,0,0,0,0,0,0,0,0,0,0,0,0,0,0,0,0,0,0,0,0,0,0,0,0,0,0,0,0,0,
0,0,0,0,0,0,0,0,0,0,0,0,0,0,0,0,0,0,0,0,0,0,0,0,0,0,0,0,0,0,0,0,0,0,0,0,0,0,0,0,0,0,0,0,0,0,0,0,0,0,0,0,0,0,0,0,0,0,0,0,0,0,0,0,0,0,0,0,0,0,0,0,0,0,0,0,0,0,0,0,0,0,0,0,0,0,0,0,0,0,0,0,0,0,0,0,0,0,0,0,
0,0,0,0,0,0,0,0,0,0,0,0,0,0,0,0,0,0,0,0,0,0,0,0,0,0,0,0,0,0,0,0,0,0,0,0,0,0,0,0,0,0,0,0,0,0,0,0,0,0,0,0,0,0,0,0,0,0,0,0,0,0,0,0,0,0,0,0,0,0,0,0,0,0,0,0,0,0,0,0,0,0,0,0,0,0,0,0,0,0,0,0,0,0,0,0,0,0,0,0,
0,0,0,0,0,0,0,0,0,0,0,0,0,0,0,0,0,0,0,0,0,0,0,0,0,0,0,0,0,0,0,0,0,0,0,0,0,0,0,0,0,0,0,0,0,0,0,0,0,0,0,0,0,0,0,0,0,0,0,0,0,0,0,0,0,0,0,0,0,0,0,0,0,0,0,0,0,0,0,0,0,0,0,0,0,0,0,0,0,0,0,0,0,0,0,0,0,0,0,0,
0,0,0,0,0,0,0,0,0,0,0,0,0,0,0,0,0,0,0,0,0,0,0,0,0,0,0,0,0,0,0,0,0,0,0,0,0,0,0,0,0,0,0,0,0,0,0,0,0,0,0,0,0,0,0,0,0,0,0,0,0,0,0,0,0,0,0,0,0,0,0,0,0,0,0,0,0,0,0,0,0,0,0,0,0,0,0,0,0,0,0,0,0,0,0,0,0,0,0,0,
0,0,0,0,0,0,0,0,0,0,0,0,0,0,0,0,0,0,0,0,0,0,0,0,0,0,0,0,0,0,0,0,0,0,0,0,0,0,0,0,0,0,0,0,0,0,0,0,0,0,0,0,0,0,0,0,0,0,0,0,0,0,0,0,0,0,0,0,0,0,0,0,0,0,0,0,0,0,0,0,0,0,0,0,0,0,0,0,0,0,0,0,0,0,0,0,0,0,0,0,
0,0,0,0,0,0,0,0,0,0,0,0,0,0,0,0,0,0,0,0,0,0,0,0,0,0,0,0,0,0,0,0,0,0,0,0,0,0,0,0,0,0,0,0,0,0,0,0,0,0,0,0,0,0,0,0,0,0,0,0,0,0,0,0,0,0,0,0,0,0,0,0,0,0,0,0,0,0,0,0,0,0,0,0,0,0,0,0,0,0,0,0,0,0,0,0,0,0,0,0,
0,0,0,0,0,0,0,0,0,0,0,0,0,0,0,0,0,0,0,0,0,0,0,0,0,0,0,0,0,0,0,0,0,0,0,0,0,0,0,0,0,0,0,0,0,0,0,0,0,0,0,0,0,0,0,0,0,0,0,0,0,0,0,0,0,0,0,0,0,0,0,0,0,0,0,0,0,0,0,0,0,0,0,0,0,0,0,0,0,0,0,0,0,0,0,0,0,0,0,0,
0,0,0,0,0,0,0,0,0,0,0,0,0,0,0,0,0,0,0,0,0,0,0,0,0,0,0,0,0,0,0,0,0,0,0,0,0,0,0,0,0,0,0,0,0,0,0,0,0,0,0,0,0,0,0,0,0,0,0,0,0,0,0,0,0,0,0,0,0,0,0,0,0,0,0,0,0,0,0,0,0,0,0,0,0,0,0,0,0,0,0,0,0,0,0,0,0,0,0,0,
0,0,0,0,0,0,0,0,0,0,0,0,0,0,0,0,0,0,0,0,0,0,0,0,0,0,0,0,0,0,0,0,0,0,0,0,0,0,0,0,0,0,0,0,0,0,0,0,0,0,0,15264,0,0,0,0,0,0,0,0,0,0,0,0,0,0,0,0,0,0,0,0,0,0,0,0,0,0,0,0,0,0,0,0,0,0,0,0,0,0,0,0,0,0,0,0,0,0,0,0,
0,0,0,0,0,0,0,0,0,0,0,0,0,0,0,0,0,0,0,0,0,0,0,0,0,0,0,0,0,0,0,0,0,0,0,0,0,0,0,0,0,0,0,0,0,0,0,0,0,0,0,0,0,0,0,0,0,0,0,0,0,0,0,0,0,0,0,0,0,0,0,0,0,0,0,0,0,0,0,0,0,0,0,0,0,0,0,0,0,0,0,0,0,0,0,0,0,0,0,0,
0,0,0,0,0,0,0,0,0,0,0,0,0,0,0,0,0,0,0,0,0,0,0,0,0,0,0,0,0,0,0,0,0,0,0,0,0,0,15263,0,0,0,0,0,0,0,0,0,0,0,0,0,0,0,0,0,0,0,0,0,0,0,0,0,0,0,0,0,0,0,0,0,0,0,0,0,0,0,0,0,0,0,0,0,0,0,0,0,0,0,0,0,0,0,0,0,0,0,0,0,
0,0,0,0,0,0,0,0,0,0,0,0,0,0,0,0,0,0,0,0,0,0,0,0,0,0,0,0,0,0,0,0,0,0,0,0,0,0,0,0,0,0,0,0,0,0,0,0,0,0,0,0,0,0,0,0,0,0,0,0,0,0,0,0,0,0,0,0,0,0,0,0,0,0,0,0,0,0,0,0,0,0,0,0,0,0,0,0,0,0,0,0,0,0,0,0,0,0,0,0,
0,0,0,0,0,0,0,0,0,0,0,0,0,0,0,0,0,0,0,0,0,0,0,0,0,0,0,0,0,0,0,0,0,0,0,0,0,0,0,0,0,0,0,0,0,0,0,0,0,0,0,0,0,0,0,0,0,0,0,0,0,0,0,0,0,0,0,0,0,0,0,0,0,0,0,0,0,0,0,0,0,0,0,0,0,0,0,0,0,0,0,0,0,0,0,0,0,0,0,0,
0,0,0,0,0,0,0,0,0,0,0,0,0,0,0,0,0,0,0,0,0,0,0,0,0,0,0,0,0,0,0,0,0,0,0,0,0,0,0,0,0,0,0,0,0,0,0,0,0,0,0,0,0,0,0,0,0,0,0,0,0,0,0,0,0,0,0,0,0,0,0,0,0,0,0,0,0,0,0,0,0,0,0,0,0,0,0,0,0,0,0,0,0,0,0,0,0,0,0,0,
0,0,0,0,0,0,0,0,0,0,0,0,0,0,0,0,0,0,0,0,0,0,0,0,0,0,0,0,0,0,0,0,0,0,0,0,0,0,0,0,0,0,0,0,0,0,0,0,0,0,0,0,0,0,0,0,0,0,0,0,0,0,0,0,0,0,0,0,0,0,0,0,0,0,0,0,0,0,0,0,0,0,0,0,0,0,0,0,0,0,0,0,0,0,0,0,0,0,0,0,
0,0,0,0,0,0,0,0,0,0,0,0,0,0,0,0,0,0,0,0,0,0,0,0,0,0,0,0,0,0,0,0,0,0,0,0,0,0,0,0,0,0,0,0,0,0,0,0,0,0,0,0,0,0,0,0,0,0,0,0,0,0,0,0,0,0,0,0,0,0,0,0,0,0,0,0,0,0,0,0,0,0,0,0,0,0,0,0,0,0,0,0,0,0,0,0,0,0,0,0,
0,0,0,0,0,0,0,0,0,0,0,0,0,0,0,0,0,0,0,0,0,0,0,0,0,0,0,0,0,0,0,0,0,0,0,0,0,0,0,0,0,0,0,0,0,0,0,0,0,0,0,0,0,0,0,0,0,0,0,0,0,0,0,0,0,0,0,0,0,0,0,0,0,0,0,0,0,0,0,0,0,0,0,0,0,0,0,0,0,0,0,0,0,0,0,0,0,0,0,0,
0,0,0,0,0,0,0,0,0,0,0,0,0,0,0,0,0,0,0,0,0,0,0,0,0,0,0,0,0,0,0,0,0,0,0,0,0,0,0,0,0,0,0,0,0,0,0,0,0,0,0,0,0,0,0,0,0,0,0,0,0,0,0,0,0,0,0,0,0,0,0,0,0,0,0,0,0,0,0,0,0,0,0,0,0,0,0,0,0,0,0,0,0,0,0,0,0,0,0,0,
0,0,0,0,0,0,0,0,0,0,0,0,0,0,0,0,0,0,0,0,0,0,0,0,0,0,0,0,0,0,0,0,0,0,0,0,0,0,0,0,0,0,0,0,0,0,0,0,0,0,0,0,0,0,0,0,0,0,0,0,0,0,0,0,0,0,0,0,0,0,0,0,0,0,0,0,0,0,0,0,0,0,0,0,0,0,0,0,0,0,0,0,0,0,0,0,0,0,0,0,
0,0,0,0,0,0,0,0,0,0,0,0,0,0,0,0,0,0,0,0,0,0,0,0,0,0,0,0,0,0,0,0,0,0,0,0,0,0,0,0,0,0,0,0,0,0,0,0,0,0,0,0,0,0,0,0,0,0,0,0,0,0,0,0,0,0,0,0,0,0,0,0,0,0,0,0,0,0,0,0,0,0,0,0,0,0,0,0,0,0,0,0,0,0,0,0,0,0,0,0,
0,0,0,0,0,0,0,0,0,0,0,0,0,0,0,0,0,0,0,0,0,0,0,0,0,0,0,0,0,0,0,0,0,0,0,0,0,0,0,0,0,0,0,0,0,0,0,0,0,0,0,0,0,0,0,0,0,0,0,0,0,0,0,0,0,0,0,0,0,0,0,0,0,0,0,0,0,0,0,0,0,0,0,0,0,0,0,0,0,0,0,0,0,0,0,0,0,0,0,0,
0,0,0,0,0,0,0,0,0,0,0,0,0,0,0,0,0,0,0,0,0,0,0,0,0,0,0,0,0,0,0,0,0,0,0,0,0,0,0,0,0,0,0,0,0,0,0,0,0,0,0,0,0,0,0,0,0,0,0,0,0,0,0,0,0,0,0,0,0,0,0,0,0,0,0,0,0,0,0,0,0,0,0,0,0,0,0,0,0,0,0,0,0,0,0,0,0,0,0,0,
0,0,0,0,0,0,0,0,0,0,0,0,0,0,0,0,0,0,0,0,0,0,0,0,0,0,0,0,0,0,0,0,0,0,0,0,0,0,0,0,0,0,0,0,0,0,0,0,0,0,0,0,0,0,0,0,0,0,0,0,0,0,0,0,0,0,0,0,0,0,0,0,0,0,0,0,0,0,0,0,0,0,0,0,0,0,0,0,0,0,0,0,0,0,0,0,0,0,0,0,
0,0,0,0,0,0,0,0,0,0,0,0,0,0,0,0,0,0,0,0,0,0,0,0,0,0,0,0,0,0,0,0,0,0,0,0,0,0,0,0,0,0,0,0,0,0,0,0,0,0,0,0,0,0,0,0,0,0,0,0,0,0,0,0,0,0,0,0,0,0,0,0,0,0,0,0,0,0,0,0,0,0,0,0,0,0,0,0,0,0,0,0,0,0,0,0,0,0,0,0,
0,0,0,0,0,0,0,0,0,0,0,0,0,0,0,0,0,0,0,0,0,0,0,0,0,0,0,0,0,0,0,0,0,0,0,0,0,0,0,0,0,0,0,0,0,0,0,0,0,0,0,0,0,0,0,0,0,0,0,0,0,0,0,0,0,0,0,0,0,0,0,0,0,0,0,0,0,0,0,0,0,0,0,0,0,0,0,0,0,0,0,0,0,0,0,0,0,0,0,0,
0,0,0,0,0,0,0,0,0,0,0,0,0,0,0,0,0,0,0,0,0,0,0,0,0,0,0,0,0,0,0,0,0,0,0,0,0,0,0,0,0,0,0,0,0,0,0,0,0,0,0,0,0,0,0,0,0,0,0,0,0,0,0,0,0,0,0,0,0,0,0,0,0,0,0,0,0,0,0,0,0,0,0,0,0,0,0,0,0,0,0,0,0,0,0,0,0,0,0,0,
0,0,0,0,0,0,0,0,0,0,0,0,0,0,0,0,0,0,0,0,0,0,0,0,0,0,0,0,0,0,0,0,0,0,0,0,0,0,0,0,0,0,0,0,0,0,0,0,0,0,0,0,0,0,0,0,0,0,0,0,0,0,0,0,0,0,0,0,0,0,0,0,0,0,0,0,0,0,0,0,0,0,0,0,0,0,0,0,0,0,0,0,0,0,0,0,0,0,0,0,
0,0,0,0,0,0,0,0,0,0,0,0,0,0,0,0,0,0,0,0,0,0,0,0,0,0,0,0,0,0,0,0,0,0,0,0,0,0,0,0,0,0,0,0,0,0,0,0,0,0,0,0,0,0,0,0,0,0,0,0,0,0,0,0,0,0,0,0,0,0,0,0,0,0,0,0,0,0,0,0,0,0,0,0,0,0,0,0,0,0,0,0,0,0,0,0,0,0,0,0,
0,0,0,0,0,0,0,0,0,0,0,0,0,0,0,0,0,0,0,0,0,0,0,0,0,0,0,0,0,0,0,0,0,0,0,0,0,0,0,0,0,0,0,0,0,0,0,0,0,0,0,0,0,0,0,0,0,0,0,0,0,0,0,0,0,0,0,0,0,0,0,0,0,0,0,0,0,0,0,0,0,0,0,0,0,0,0,0,0,0,0,0,0,0,0,0,0,0,0,0,
0,0,0,0,0,0,0,0,0,0,0,0,0,0,0,0,0,0,0,0,0,0,0,0,0,0,0,0,0,0,0,0,0,0,0,0,0,0,0,0,0,0,0,0,0,0,0,0,0,0,0,0,0,0,0,0,0,0,0,0,0,0,0,0,0,0,0,0,0,0,0,0,0,0,0,0,0,0,0,0,0,0,0,0,0,0,0,0,0,0,0,0,0,0,0,0,0,0,0,0,
0,0,0,0,0,0,0,0,0,0,0,0,0,0,0,0,0,0,0,0,0,0,0,0,0,0,0,0,0,0,0,0,0,0,0,0,0,0,0,0,0,0,0,0,0,0,0,0,0,0,0,0,0,0,0,0,0,0,0,0,0,0,0,0,0,0,0,0,0,0,0,0,0,0,0,0,0,0,0,0,0,0,0,0,0,0,0,0,0,0,0,0,0,0,0,0,0,0,0,0,
0,0,0,0,0,0,0,0,0,0,0,0,0,0,0,0,0,0,0,0,0,0,0,0,0,0,0,0,0,0,0,0,0,0,0,0,0,0,0,0,0,0,0,0,0,0,0,0,0,0,0,0,0,0,0,0,0,0,0,0,0,0,0,0,0,0,0,0,0,0,0,0,0,0,0,0,0,0,0,0,0,0,0,0,0,0,0,0,0,0,0,0,0,0,0,0,0,0,0,0,
0,0,0,0,0,0,0,0,0,0,0,0,0,0,0,0,0,0,0,0,0,0,0,0,0,0,0,0,0,0,0,0,0,0,0,0,0,0,0,0,0,0,0,0,0,0,0,0,0,0,0,0,0,0,0,0,0,0,0,0,0,0,0,0,0,0,0,0,0,0,0,0,0,0,0,0,0,0,0,0,0,0,0,0,0,0,0,0,0,0,0,0,0,0,0,0,0,0,0,0,
0,0,0,0,0,0,0,0,0,0,0,0,0,0,0,0,0,0,0,0,0,0,0,0,0,0,0,0,0,0,0,0,0,0,0,0,0,0,0,0,0,0,0,0,0,0,0,0,0,0,0,0,0,0,0,0,0,0,0,0,0,0,0,0,0,0,0,0,0,0,0,0,0,0,0,0,0,0,0,0,0,0,0,0,0,0,0,0,0,0,0,0,0,0,0,0,0,0,0,0,
0,0,0,0,0,0,0,0,0,0,0,0,0,0,0,0,0,0,0,0,0,0,0,0,0,0,0,0,0,0,0,0,0,0,0,0,0,0,0,0,0,0,0,0,0,0,0,0,0,0,0,0,0,0,0,0,0,0,0,0,0,0,0,0,0,0,0,0,0,0,0,0,0,0,0,0,0,0,0,0,0,0,0,0,0,0,0,0,0,0,0,0,0,0,0,0,0,0,0,0,
0,0,0,0,0,0,0,0,0,0,0,0,0,0,0,0,0,0,0,0,0,0,0,0,0,0,0,0,0,0,0,0,0,0,0,0,0,0,0,0,0,0,0,0,0,0,0,0,0,0,0,0,0,0,0,0,0,0,0,0,0,0,0,0,0,0,0,0,0,0,0,0,0,0,0,0,0,0,0,0,0,0,0,0,0,0,0,0,0,0,0,0,0,0,0,0,0,0,0,0,
0,0,0,0,0,0,0,0,0,0,0,0,0,0,0,0,0,0,0,0,0,0,0,0,0,0,0,0,0,0,0,0,0,0,0,0,0,0,0,0,0,0,0,0,0,0,0,0,0,0,0,0,0,0,0,0,0,0,0,0,0,0,0,0,0,0,0,0,0,0,0,0,0,0,0,0,0,0,0,0,0,0,0,0,0,0,0,0,0,0,0,0,0,0,0,0,0,0,0,0,
0,0,0,0,0,0,0,0,0,0,0,0,0,0,0,0,0,0,0,0,0,0,0,0,0,0,0,0,0,0,0,0,0,0,0,0,0,0,0,0,0,0,0,0,0,0,0,0,0,0,0,0,0,0,0,0,0,0,0,0,0,0,0,0,0,0,0,0,0,0,0,0,0,0,0,0,0,0,0,0,0,0,0,0,0,0,0,0,0,0,0,0,0,0,0,0,0,0,0,0,
0,0,0,0,0,0,0,0,0,0,0,0,0,0,0,0,0,0,0,0,0,0,0,0,0,0,0,0,0,0,0,0,0,0,0,0,0,0,0,0,0,0,0,0,0,0,0,0,0,0,0,0,0,0,0,0,0,0,0,0,0,0,0,0,0,0,0,0,0,0,0,0,0,0,0,0,0,0,0,0,0,0,0,0,0,0,0,0,0,0,0,0,0,0,0,0,0,0,0,0,
0,0,0,0,0,0,0,0,0,0,0,0,0,0,0,0,0,0,0,0,0,0,0,0,0,0,0,0,0,0,0,0,0,0,0,0,0,0,0,0,0,0,0,0,0,0,0,0,0,0,0,0,0,0,0,0,0,0,0,0,0,0,0,0,0,0,0,0,0,0,0,0,0,0,0,0,0,0,0,0,0,0,0,0,0,0,0,0,0,0,0,0,0,0,0,0,0,0,0,0,
0,0,0,0,0,0,0,0,0,0,0,0,0,0,0,0,0,0,0,0,0,0,0,0,0,0,0,0,0,0,0,0,0,0,0,0,0,0,0,0,0,0,0,0,0,0,0,0,0,0,0,0,0,0,0,0,0,0,0,0,0,0,0,0,0,0,0,0,0,0,0,0,0,0,0,0,0,0,0,0,0,0,0,0,0,0,0,0,0,0,0,0,0,0,0,0,0,0,0,0,
0,0,0,0,0,0,0,0,0,0,0,0,0,0,0,0,0,0,0,0,0,0,0,0,0,0,0,0,0,0,0,0,0,0,0,0,0,0,0,0,0,0,0,0,0,0,0,0,0,0,0,0,0,0,0,0,0,0,0,0,0,0,0,0,0,0,0,0,0,0,0,0,0,0,0,0,0,0,0,0,0,0,0,0,0,0,0,0,0,0,0,0,0,0,0,0,0,0,0,0,
0,0,0,0,0,0,0,0,0,0,0,0,0,0,0,0,0,0,0,0,0,0,0,0,0,0,0,0,0,0,0,0,0,0,0,0,0,0,0,0,0,0,0,0,0,0,0,0,0,0,0,0,0,0,0,0,0,0,0,0,0,0,0,0,0,0,0,0,0,0,0,0,0,0,0,0,0,0,0,0,0,0,0,0,0,0,0,0,0,0,0,0,0,0,0,0,0,0,0,0,
0,0,0,0,0,0,0,0,0,0,0,0,0,0,0,0,0,0,0,0,0,0,0,0,0,0,0,0,0,0,0,0,0,0,0,0,0,0,0,0,0,0,0,0,0,0,0,0,0,0,0,0,0,0,0,0,0,0,0,0,0,0,0,0,0,0,0,0,0,0,0,0,0,0,0,0,0,0,0,0,0,0,0,0,0,0,0,0,0,0,0,0,0,0,0,0,0,0,0,0,
0,0,0,0,0,0,0,0,0,0,0,0,0,0,0,0,0,0,0,0,0,0,0,0,0,0,0,0,0,0,0,0,0,0,0,0,0,0,0,0,0,0,0,0,0,0,0,0,0,0,0,0,0,0,0,0,0,0,0,0,0,0,0,0,0,0,0,0,0,0,0,0,0,0,0,0,0,0,0,0,0,0,0,0,0,0,0,0,0,0,0,0,0,0,0,0,0,0,0,0,
0,0,0,0,0,0,0,0,0,0,0,0,0,0,0,0,0,0,0,0,0,0,0,0,0,0,0,0,0,0,0,0,0,0,0,0,0,0,0,0,0,0,0,0,0,0,0,0,0,0,0,0,0,0,0,0,0,0,0,0,0,0,0,0,0,0,0,0,0,0,0,0,0,0,0,0,0,0,0,0,0,0,0,0,0,0,0,0,0,0,0,0,0,0,0,0,0,0,0,0,
0,0,0,0,0,0,0,0,0,0,0,0,0,0,0,0,0,0,0,0,0,0,0,0,0,0,0,0,0,0,0,0,0,0,0,0,0,0,0,0,0,0,0,0,0,0,0,0,0,0,0,0,0,0,0,0,0,0,0,0,0,0,0,0,0,0,0,0,0,0,0,0,0,0,0,0,0,0,0,0,0,0,0,0,0,0,0,0,0,0,0,0,0,0,0,0,0,0,0,0,
0,0,0,0,0,0,0,0,0,0,0,0,0,0,0,0,0,0,0,0,0,0,0,0,0,0,0,0,0,0,0,0,0,0,0,0,0,0,0,0,0,0,0,0,0,0,0,0,0,0,0,0,0,0,0,0,0,0,0,0,0,0,0,0,0,0,0,0,0,0,0,0,0,0,0,0,0,0,0,0,0,0,0,0,0,0,0,0,0,0,0,0,0,0,0,0,0,0,0,0,
0,0,0,0,0,0,0,0,0,0,0,0,0,0,0,0,0,0,0,0,0,0,0,0,0,0,0,0,0,0,0,0,0,0,0,0,0,0,0,0,0,0,0,0,0,0,0,0,0,0,0,0,0,0,0,0,0,0,0,0,0,0,0,0,0,0,0,0,0,0,0,0,0,0,0,0,0,0,0,0,0,0,0,0,0,0,0,0,0,0,0,0,0,0,0,0,0,0,0,0,
0,0,0,0,0,0,0,0,0,0,0,0,0,0,0,0,0,0,0,0,0,0,0,0,0,0,0,0,0,0,0,0,0,0,0,0,0,0,0,0,0,0,0,0,0,0,0,0,0,0,0,0,0,0,0,0,0,0,0,0,0,0,0,0,0,0,0,0,0,0,0,0,0,0,0,0,0,0,0,0,0,0,0,0,0,0,0,0,0,0,0,0,0,0,0,0,0,0,0,0,
0,0,0,0,0,0,0,0,0,0,0,0,0,0,0,0,0,0,0,0,0,0,0,0,0,0,0,0,0,0,0,0,0,0,0,0,0,0,0,0,0,0,0,0,0,0,0,0,0,0,0,0,0,0,0,0,0,0,0,0,0,0,0,0,0,0,0,0,0,0,0,0,0,0,0,0,0,0,0,0,0,0,0,0,0,0,0,0,0,0,0,0,0,0,0,0,0,0,0,0,
0,0,0,0,0,0,0,0,0,0,0,0,0,0,0,0,0,0,0,0,0,0,0,0,0,0,0,0,0,0,0,0,0,0,0,0,0,0,0,0,0,0,0,0,0,0,0,0,0,0,0,0,0,0,0,0,0,0,0,0,0,0,0,0,0,0,0,0,0,0,0,0,0,0,0,0,0,0,0,0,0,0,0,0,0,0,0,0,0,0,0,0,0,0,0,0,0,0,0,0,
0,0,0,0,0,0,0,0,0,0,0,0,0,0,0,0,0,0,0,0,0,0,0,0,0,0,0,0,0,0,0,0,0,0,0,0,0,0,0,0,0,0,0,0,0,0,0,0,0,0,0,0,0,0,0,0,0,0,0,0,0,0,0,0,0,0,0,0,0,0,0,0,0,0,0,0,0,0,0,0,0,0,0,0,0,0,0,0,0,0,0,0,0,0,0,0,0,0,0,0,
0,0,0,0,0,0,0,0,0,0,0,0,0,0,0,0,0,0,0,0,0,0,0,0,0,0,0,0,0,0,0,0,0,0,0,0,0,0,0,0,0,0,0,0,0,0,0,0,0,0,0,0,0,0,0,0,0,0,0,0,0,0,0,0,0,0,0,0,0,0,0,0,0,0,0,0,0,0,0,0,0,0,0,0,0,0,0,0,0,0,0,0,0,0,0,0,0,0,0,0,
0,0,0,0,0,0,0,0,0,0,0,0,0,0,0,0,0,0,0,0,0,0,0,0,0,0,0,0,0,0,0,0,0,0,0,0,0,0,0,0,0,0,0,0,0,0,0,0,0,0,0,0,0,0,0,0,0,0,0,0,0,0,0,0,0,0,0,0,0,0,0,0,0,0,0,0,0,0,0,0,0,0,0,0,0,0,0,0,0,0,0,0,0,0,0,0,0,0,0,0,
0,0,0,0,0,0,0,0,0,0,0,0,0,0,0,0,0,0,0,0,0,0,0,0,0,0,0,0,0,0,0,0,0,0,0,0,0,0,0,0,0,0,0,0,0,0,0,0,0,0,0,0,0,0,0,0,0,0,0,0,0,0,0,0,0,0,0,0,0,0,0,0,0,0,0,0,0,0,0,0,0,0,0,0,0,0,0,0,0,0,0,0,0,0,0,0,0,0,0,0,
0,0,0,0,0,0,0,0,0,0,0,0,0,0,0,0,0,0,0,0,0,0,0,0,0,0,0,0,0,0,0,0,0,0,0,0,0,0,0,0,0,0,0,0,0,0,0,0,0,0,0,0,0,0,0,0,0,0,0,0,0,0,0,0,0,0,0,0,0,0,0,0,0,0,0,0,0,0,0,0,0,0,0,0,0,0,0,0,0,0,0,0,0,0,0,0,0,0,0,0,
0,0,0,0,0,0,0,0,0,0,0,0,0,0,0,0,0,0,0,0,0,0,0,0,0,0,0,0,0,0,0,0,0,0,0,0,0,0,0,0,0,0,0,0,0,0,0,0,0,0,0,0,0,0,0,0,0,0,0,0,0,0,0,0,0,0,0,0,0,0,0,0,0,0,0,0,0,0,0,0,0,0,0,0,0,0,0,0,0,0,0,0,0,0,0,0,0,0,0,0,
0,0,0,0,0,0,0,0,0,0,0,0,0,0,0,0,0,0,0,0,0,0,0,0,0,0,0,0,0,0,0,0,0,0,0,0,0,0,0,0,0,0,0,0,0,0,0,0,0,0,0,0,0,0,0,0,0,0,0,0,0,0,0,0,0,0,0,0,0,0,0,0,0,0,0,0,0,0,0,0,0,0,0,0,0,0,0,0,0,0,0,0,0,0,0,0,0,0,0,0,
0,0,0,0,0,0,0,0,0,0,0,0,0,0,0,0,0,0,0,0,0,0,0,0,0,0,0,0,0,0,0,0,0,0,0,0,0,0,0,0,0,0,0,0,0,0,0,0,0,0,0,0,0,0,0,0,0,0,0,0,0,0,0,0,0,0,0,0,0,0,0,0,0,0,0,0,0,0,0,0,0,0,0,0,0,0,0,0,0,0,0,0,0,0,0,0,0,0,0,0,
0,0,0,0,0,0,0,0,0,0,0,0,0,0,0,0,0,0,0,0,0,0,0,0,0,0,0,0,0,0,0,0,0,0,0,0,0,0,0,0,0,0,0,0,0,0,0,0,0,0,0,0,0,0,0,0,0,0,0,0,0,0,0,0,0,0,0,0,0,0,0,0,0,0,0,0,0,0,0,0,0,0,0,0,0,0,0,0,0,0,0,0,0,0,0,0,0,0,0,0,
0,0,0,0,0,0,0,0,0,0,0,0,0,0,0,0,0,0,0,0,0,0,0,0,0,0,0,0,0,0,0,0,0,0,0,0,0,0,0,0,0,0,0,0,0,0,0,0,0,0,0,0,0,0,0,0,0,0,0,0,0,0,0,0,0,0,0,0,0,0,0,0,0,0,0,0,0,0,0,0,0,0,0,0,0,0,0,0,0,0,0,0,0,0,0,0,0,0,0,0,
0,0,0,0,0,0,0,0,0,0,0,0,0,0,0,0,0,0,0,0,0,0,0,0,0,0,0,0,0,0,0,0,0,0,0,0,0,0,0,0,0,0,0,0,0,0,0,0,0,0,0,0,0,0,0,0,0,0,0,0,0,0,0,0,0,0,0,0,0,0,0,0,0,0,0,0,0,0,0,0,0,0,0,0,0,0,0,0,0,0,0,0,0,0,0,0,0,0,0,0,
0,0,0,0,0,0,0,0,0,0,0,0,0,0,0,0,0,0,0,0,0,0,0,0,0,0,0,0,0,0,0,0,0,0,0,0,0,0,0,0,0,0,0,0,0,0,0,0,0,0,0,0,0,0,0,0,0,0,0,0,0,0,0,0,0,0,0,0,0,0,0,0,0,0,0,0,0,0,0,0,0,0,0,0,0,0,0,0,0,0,0,0,0,0,0,0,0,0,0,0,
0,0,0,0,0,0,0,0,0,0,0,0,0,0,0,0,0,0,0,0,0,0,0,0,0,0,0,0,0,0,0,0,0,0,0,0,0,0,0,0,0,0,0,0,0,0,0,0,0,0,0,0,0,0,0,0,0,0,0,0,0,0,0,0,0,0,0,0,0,0,0,0,0,0,0,0,0,0,0,0,0,0,0,0,0,0,0,0,0,0,0,0,0,0,0,0,0,0,0,0,
0,0,0,0,0,0,0,0,0,0,0,0,0,0,0,0,0,0,0,0,0,0,0,0,0,0,0,0,0,0,0,0,0,0,0,0,0,0,0,0,0,0,0,0,0,0,0,0,0,0,0,0,0,0,0,0,0,0,0,0,0,0,0,0,0,0,0,0,0,0,0,0,0,0,0,0,0,0,0,0,0,0,0,0,0,0,0,0,0,0,0,0,0,0,0,0,0,0,0,0,
0,0,0,0,0,0,0,0,0,0,0,0,0,0,0,0,0,0,0,0,0,0,0,0,0,0,0,0,0,0,0,0,0,0,0,0,0,0,0,0,0,0,0,0,0,0,0,0,0,0,0,0,0,0,0,0,0,0,0,0,0,0,0,0,0,0,0,0,0,0,0,0,0,0,0,0,0,0,0,0,0,0,0,0,0,0,0,0,0,0,0,0,0,0,0,0,0,0,0,0,
0,0,0,0,0,0,0,0,0,0,0,0,0,0,0,0,0,0,0,0,0,0,0,0,0,0,0,0,0,0,0,0,0,0,0,0,0,0,0,0,0,0,0,0,0,0,0,0,0,0,0,0,0,0,0,0,0,0,0,0,0,0,0,0,0,0,0,0,0,0,0,0,0,0,0,0,0,0,0,0,0,0,0,0,0,0,0,0,0,0,0,0,0,0,0,0,0,0,0,0,
0,0,0,0,0,0,0,0,0,0,0,0,0,0,0,0,0,0,0,0,0,0,0,0,0,0,0,0,0,0,0,0,0,0,0,0,0,0,0,0,0,0,0,0,0,0,0,0,0,0,0,0,0,0,0,0,0,0,0,0,0,0,0,0,0,0,0,0,0,0,0,0,0,0,0,0,0,0,0,0,0,0,0,0,0,0,0,0,0,0,0,0,0,0,0,0,0,0,0,0,
0,0,0,0,0,0,0,0,0,0,0,0,0,0,0,0,0,0,0,0,0,0,0,0,0,0,0,0,0,0,0,0,0,0,0,0,0,0,0,0,0,0,0,0,0,0,0,0,0,0,0,0,0,0,0,0,0,0,0,0,0,0,0,0,0,0,0,0,0,0,0,0,0,0,0,0,0,0,0,0,0,0,0,0,0,0,0,0,0,0,0,0,0,0,0,0,0,0,0,0,
0,0,0,0,0,0,0,0,0,0,0,0,0,0,0,0,0,0,0,0,0,0,0,0,0,0,0,0,0,0,0,0,0,0,0,0,0,0,0,0,0,0,0,0,0,0,0,0,0,0,0,0,0,0,0,0,0,0,0,0,0,0,0,0,0,0,0,0,0,0,0,0,0,0,0,0,0,0,0,0,0,0,0,0,0,0,0,0,0,0,0,0,0,0,0,0,0,0,0,0,
0,0,0,0,0,0,0,0,0,0,0,0,0,0,0,0,0,0,0,0,0,0,0,0,0,0,0,0,0,0,0,0,0,0,0,0,0,0,0,0,0,0,0,0,0,0,0,0,0,0,0,0,0,0,0,0,0,0,0,0,0,0,0,0,0,0,0,0,0,0,0,0,0,0,0,0,0,0,0,0,0,0,0,0,0,0,0,0,0,0,0,0,0,0,0,0,0,0,0,0,
0,0,0,0,0,0,0,0,0,0,0,0,0,0,0,0,0,0,0,0,0,0,0,0,0,0,0,0,0,0,0,0,0,0,0,0,0,0,0,0,0,0,0,0,0,0,0,0,0,0,0,0,0,0,0,0,0,0,0,0,0,0,0,0,0,0,0,0,0,0,0,0,0,0,0,0,0,0,0,0,0,0,0,0,0,0,0,0,0,0,0,0,0,0,0,0,0,0,0,0
</data>
 </layer>
 <layer id="10" name="Obj_Cidade" width="100" height="100">
  <data encoding="csv">
0,0,0,0,0,0,0,0,0,0,0,0,0,0,0,0,0,0,0,0,0,0,0,0,0,0,0,0,0,0,0,0,0,0,0,0,0,0,0,0,0,0,0,0,0,0,0,0,0,0,0,0,0,0,0,0,0,0,0,0,0,0,0,0,0,0,0,0,0,0,0,0,0,0,0,0,0,0,0,0,0,0,0,0,0,0,0,0,0,0,0,0,0,0,0,0,0,0,0,0,
0,0,0,0,0,0,0,0,0,0,0,0,0,0,0,0,0,0,0,0,0,0,0,0,0,0,0,0,0,0,0,0,0,0,0,0,0,0,0,0,0,0,0,0,0,0,0,0,0,0,0,0,0,0,0,0,0,0,0,0,0,0,0,0,0,0,0,0,0,0,0,0,0,0,0,0,0,0,0,0,0,0,0,0,0,0,0,0,0,0,0,0,0,0,0,0,0,0,0,0,
0,0,0,0,0,0,0,0,0,0,0,0,0,0,0,0,0,0,0,0,0,0,0,0,0,0,0,0,0,0,0,0,0,0,0,0,0,0,0,0,0,0,0,0,0,0,0,0,0,0,0,0,0,0,0,0,0,0,0,0,0,0,0,0,0,0,0,0,0,0,0,0,0,0,0,0,0,0,0,0,0,0,0,0,0,0,0,0,0,0,0,0,0,0,0,0,0,0,0,0,
0,0,0,0,0,0,0,0,0,0,0,0,0,0,0,0,0,0,0,0,0,0,0,0,0,0,0,0,0,0,0,0,0,0,0,0,0,0,0,0,0,0,0,0,0,0,0,0,0,0,0,0,0,0,0,0,0,0,0,0,0,0,0,0,0,0,0,0,0,0,0,0,0,0,0,0,0,0,0,0,0,0,0,0,0,0,0,0,0,0,0,0,0,0,0,0,0,0,0,0,
0,0,0,0,0,0,0,0,0,0,0,0,0,0,0,0,0,0,0,0,0,0,0,0,0,0,0,0,0,0,0,0,0,0,0,0,0,0,0,0,0,0,0,0,0,0,0,0,0,0,0,0,0,0,0,0,0,0,0,0,0,0,0,0,0,0,0,0,0,0,0,0,0,0,0,0,0,0,0,0,0,0,0,0,0,0,0,0,0,0,0,0,0,0,0,0,0,0,0,0,
0,0,0,0,0,0,0,0,0,0,0,0,0,0,0,0,0,0,0,0,0,0,0,0,0,0,0,0,0,0,0,0,0,0,0,0,0,0,0,0,0,0,0,0,0,0,0,0,0,0,0,0,0,0,0,0,0,0,0,0,0,0,0,0,0,0,0,0,0,0,0,0,0,0,0,0,0,0,0,0,0,0,0,0,0,0,0,0,0,0,0,0,0,0,0,0,0,0,0,0,
0,0,0,0,0,0,0,0,0,0,0,0,0,0,0,0,0,0,0,0,0,0,0,0,0,0,0,0,0,0,0,0,0,0,0,0,0,0,0,0,0,0,0,0,0,0,0,0,0,0,0,0,0,0,0,0,0,0,0,0,0,0,0,0,0,0,0,0,0,0,0,0,0,0,0,0,0,0,0,0,0,0,0,0,0,0,0,0,0,0,0,0,0,0,0,0,0,0,0,0,
0,0,0,0,0,0,0,0,0,0,0,0,0,0,0,0,0,0,0,0,0,0,0,0,0,0,0,0,0,0,0,0,0,0,0,0,0,0,0,0,0,0,0,0,0,0,0,0,0,0,0,0,0,0,0,0,0,0,0,0,0,0,0,0,0,0,0,0,0,0,0,0,0,0,0,0,0,0,0,0,0,0,0,0,0,0,0,0,0,0,0,0,0,0,0,0,0,0,0,0,
0,0,0,0,0,0,0,0,0,0,0,0,0,0,0,0,0,0,0,0,0,0,0,0,0,0,0,0,0,0,0,0,0,0,0,0,0,0,0,0,0,0,0,0,0,0,0,0,0,0,0,0,0,0,0,0,0,0,0,0,0,0,0,0,0,0,0,0,0,0,0,0,0,0,0,0,0,0,0,0,0,0,0,0,0,0,0,0,0,0,0,0,0,0,0,0,0,0,0,0,
0,0,0,0,0,0,0,0,0,0,0,0,0,0,0,0,0,0,0,0,0,0,0,0,0,0,0,0,0,0,0,0,0,0,0,0,0,0,0,0,0,0,0,0,0,0,0,0,0,0,0,0,0,0,0,0,0,0,0,0,0,0,0,0,0,0,0,0,0,0,0,0,0,0,0,0,0,0,0,0,0,0,0,0,0,0,0,0,0,0,0,0,0,0,0,0,0,0,0,0,
0,0,0,0,0,0,0,0,0,0,0,0,0,0,0,0,0,0,0,0,0,0,0,0,0,0,0,0,0,0,0,0,0,0,0,0,0,0,0,0,0,0,0,0,0,0,0,0,0,0,0,0,0,0,0,0,0,0,0,0,0,0,0,0,0,0,0,0,0,0,0,0,0,0,0,0,0,0,0,0,0,0,0,0,0,0,0,0,0,0,0,0,0,0,0,0,0,0,0,0,
0,0,0,0,0,0,0,0,0,0,0,0,0,0,0,0,0,0,0,0,0,0,0,0,0,0,0,0,0,0,0,0,0,0,0,0,0,0,0,0,0,0,0,0,0,0,0,0,0,0,0,0,0,0,0,0,0,0,0,0,0,0,0,0,0,0,0,0,0,0,0,0,0,0,0,0,0,0,0,0,0,0,0,0,0,0,0,0,0,0,0,0,0,0,0,0,0,0,0,0,
0,0,0,0,0,0,0,0,0,0,0,0,0,0,0,0,0,0,0,0,0,0,0,0,0,0,0,0,0,0,0,0,0,0,0,0,0,0,0,0,0,0,0,0,0,0,0,0,0,0,0,0,0,0,0,0,0,0,0,0,0,0,0,0,0,0,0,0,0,0,0,0,0,0,0,0,0,0,0,0,0,0,0,0,0,0,0,0,0,0,0,0,0,0,0,0,0,0,0,0,
0,0,0,0,0,0,0,0,0,0,0,0,0,0,0,0,0,0,0,0,0,0,0,0,0,0,0,0,0,0,0,0,0,0,0,0,0,0,0,0,0,0,0,0,0,0,0,0,0,0,0,0,0,0,0,0,0,0,0,0,0,0,0,0,0,0,0,0,0,0,0,0,0,0,0,0,0,0,0,0,0,0,0,0,0,0,0,0,0,0,0,0,0,0,0,0,0,0,0,0,
0,0,0,0,0,0,0,0,0,0,0,0,0,0,0,0,0,0,0,0,0,0,0,0,0,0,0,0,0,0,0,0,0,0,0,0,0,0,0,0,0,0,0,0,0,0,0,0,0,0,0,0,0,0,0,0,0,0,0,0,0,0,0,0,0,0,0,0,0,0,0,0,0,0,0,0,0,0,0,0,0,0,0,0,0,0,0,0,0,0,0,0,0,0,0,0,0,0,0,0,
0,0,0,0,0,0,0,0,0,0,0,0,0,0,0,0,0,0,0,0,0,0,0,0,0,0,0,0,0,0,0,0,0,0,0,0,0,0,0,0,0,0,0,0,0,0,0,0,0,0,0,0,0,0,0,0,0,0,0,0,0,0,0,0,0,0,0,0,0,0,0,0,0,0,0,0,0,0,0,0,0,0,0,0,0,0,0,0,0,0,0,0,0,0,0,0,0,0,0,0,
0,0,0,0,0,0,0,0,0,0,0,0,0,0,0,0,0,0,0,0,0,0,0,0,0,0,0,0,0,0,0,0,0,0,0,0,0,0,0,0,0,0,0,0,0,0,0,0,0,0,0,0,0,0,0,0,0,0,0,0,0,0,0,0,0,0,0,0,0,0,0,0,0,0,0,0,0,0,0,0,0,0,0,0,0,0,0,0,0,0,0,0,0,0,0,0,0,0,0,0,
0,0,0,0,0,0,0,0,0,0,0,0,0,0,0,0,0,0,0,0,0,0,0,0,0,0,0,0,0,0,0,0,0,0,0,0,0,0,0,0,0,0,0,0,0,0,0,0,0,0,0,0,0,0,0,0,0,0,0,0,0,0,0,0,0,0,0,0,0,0,0,0,0,0,0,0,0,0,0,0,0,0,0,0,0,0,0,0,0,0,0,0,0,0,0,0,0,0,0,0,
0,0,0,0,0,0,0,0,0,0,0,0,0,0,0,0,0,0,0,0,0,0,0,0,0,0,0,0,0,0,0,0,0,0,0,0,0,0,0,0,0,0,0,0,0,0,0,0,0,0,0,0,0,0,0,0,0,0,0,0,0,0,0,0,0,0,0,0,0,0,0,0,0,0,0,0,0,0,0,0,0,0,0,0,0,0,0,0,0,0,0,0,0,0,0,0,0,0,0,0,
0,0,0,0,0,0,0,0,0,0,0,0,0,0,0,0,0,0,0,0,0,0,0,0,0,0,0,0,0,0,0,0,0,0,0,0,0,0,0,0,0,0,0,0,0,0,0,0,0,0,0,0,0,0,0,0,0,0,0,0,0,0,0,0,0,0,0,0,0,0,0,0,0,0,0,0,0,0,0,0,0,0,0,0,0,0,0,0,0,0,0,0,0,0,0,0,0,0,0,0,
0,0,0,0,0,0,0,0,0,0,0,0,0,0,0,0,0,0,0,0,0,0,0,0,0,0,0,0,0,0,0,0,0,0,0,0,0,0,0,0,0,0,0,0,0,0,0,0,0,0,0,0,0,0,0,0,0,0,0,0,0,0,0,0,0,0,0,0,0,0,0,0,0,0,0,0,0,0,0,0,0,0,0,0,0,0,0,0,0,0,0,0,0,0,0,0,0,0,0,0,
0,0,0,0,0,0,0,0,0,0,0,0,0,0,0,0,0,0,0,0,0,0,0,0,0,0,0,0,0,0,0,0,0,0,0,0,0,0,0,0,0,0,0,0,0,0,0,0,0,0,0,0,0,0,0,0,0,0,0,0,0,0,0,0,0,0,0,0,0,0,0,0,0,0,0,0,0,0,0,0,0,0,0,0,0,0,0,0,0,0,0,0,0,0,0,0,0,0,0,0,
0,0,0,0,0,0,0,0,0,0,0,0,0,0,0,0,0,0,0,0,0,0,0,0,0,0,0,0,0,0,0,0,0,0,0,0,0,0,0,0,0,0,0,0,0,0,0,0,0,0,0,0,0,0,0,0,0,0,0,0,0,0,0,0,0,0,0,0,0,0,0,0,0,0,0,0,0,0,0,0,0,0,0,0,0,0,0,0,0,0,0,0,0,0,0,0,0,0,0,0,
0,0,0,0,0,0,0,0,0,0,0,0,0,0,0,0,0,0,0,0,0,0,0,0,0,0,0,0,0,0,0,0,0,0,0,0,0,0,0,0,0,0,0,0,0,0,0,0,0,0,0,0,0,0,0,0,0,0,0,0,0,0,0,0,0,0,0,0,0,0,0,0,0,0,0,0,0,0,0,0,0,0,0,0,0,0,0,0,0,0,0,0,0,0,0,0,0,0,0,0,
0,0,0,0,0,0,0,0,0,0,0,0,0,0,0,0,0,0,0,0,0,0,0,0,0,0,0,0,0,0,0,0,0,0,0,0,0,0,0,0,0,0,0,0,0,0,0,0,0,0,0,0,0,0,0,0,0,0,0,0,0,0,0,0,0,0,0,0,0,0,0,0,0,0,0,0,0,0,0,0,0,0,0,0,0,0,0,0,0,0,0,0,0,0,0,0,0,0,0,0,
0,0,0,0,0,0,0,0,0,0,0,0,0,0,0,0,0,0,0,0,0,0,0,0,0,0,0,0,0,0,0,0,0,0,0,0,0,0,0,0,0,0,0,0,0,0,0,0,0,0,0,0,0,0,0,0,0,0,0,0,0,0,0,0,0,0,0,0,0,0,0,0,0,0,0,0,0,0,0,0,0,0,0,0,0,0,0,0,0,0,0,0,0,0,0,0,0,0,0,0,
0,0,0,0,0,0,0,0,0,0,0,0,0,0,0,0,0,0,0,0,0,0,0,0,0,0,0,0,0,0,0,0,0,0,0,0,0,0,0,0,0,0,0,0,0,0,0,0,0,0,0,0,0,0,0,0,0,0,0,0,0,0,0,0,0,0,0,0,0,0,0,0,0,0,0,0,0,0,0,0,0,0,0,0,0,0,0,0,0,0,0,0,0,0,0,0,0,0,0,0,
0,0,0,0,0,0,0,0,0,0,0,0,0,0,0,0,0,0,0,0,0,0,0,0,0,0,0,0,0,0,0,0,0,0,0,0,0,0,0,0,0,0,0,0,0,0,0,0,0,0,0,0,0,0,0,0,0,0,0,0,0,0,0,0,0,0,0,0,0,0,0,0,0,0,0,0,0,0,0,0,0,0,0,0,0,0,0,0,0,0,0,0,0,0,0,0,0,0,0,0,
0,0,0,0,0,0,0,0,0,0,0,0,0,0,0,0,0,0,0,0,0,0,0,0,0,0,0,0,0,0,0,0,0,0,0,0,0,0,0,0,11072,11073,11074,11075,11076,11077,11078,11079,11080,11081,11082,11083,0,0,0,0,0,0,0,0,0,0,0,0,0,0,0,0,0,0,0,0,0,0,0,0,0,0,0,0,0,0,0,0,0,0,0,0,0,0,0,0,0,0,0,0,0,0,0,0,
0,0,0,0,0,0,0,0,0,0,0,0,0,0,0,0,0,0,0,0,0,0,0,0,0,0,0,0,0,0,0,0,0,0,0,0,0,0,0,0,11136,11137,11138,11139,11140,11141,11142,11143,11144,11145,11146,11147,0,0,0,0,0,0,0,0,0,0,0,0,0,0,0,0,0,0,0,0,0,0,0,0,0,0,0,0,0,0,0,0,0,0,0,0,0,0,0,0,0,0,0,0,0,0,0,0,
0,0,0,0,0,0,0,0,0,0,0,0,0,0,0,0,0,0,0,0,0,0,0,0,0,0,0,0,0,0,0,0,0,0,0,0,0,0,0,0,11200,11201,11202,11203,11204,11205,11206,11207,11208,11209,11210,11211,0,0,0,0,0,0,0,0,0,0,0,0,0,0,0,0,0,0,0,0,0,0,0,0,0,0,0,0,0,0,0,0,0,0,0,0,0,0,0,0,0,0,0,0,0,0,0,0,
0,0,0,0,0,0,0,0,0,0,0,0,0,0,0,0,0,0,0,0,0,0,0,0,0,0,0,0,0,0,0,0,0,0,0,0,0,0,0,0,11264,11265,11266,11267,11268,11269,11270,11271,11272,11273,11274,11275,0,0,11084,11085,11086,11087,11088,11089,11090,11091,11092,11093,11094,11095,11096,11097,0,0,0,0,0,0,0,0,0,0,0,0,0,0,0,0,0,0,0,0,0,0,0,0,0,0,0,0,0,0,0,0,
0,0,0,0,0,0,0,0,0,0,0,0,0,0,0,0,0,0,0,0,0,0,0,0,0,0,0,0,0,0,0,0,0,0,0,0,0,0,0,0,11328,11329,11330,11331,11332,11333,11334,11335,11336,11337,11338,11339,0,0,11148,11149,11150,11151,11152,11153,11154,11155,11156,11157,11158,11159,11160,11161,0,0,0,0,0,0,0,0,0,0,0,0,0,0,0,0,0,0,0,0,0,0,0,0,0,0,0,0,0,0,0,0,
0,0,0,0,0,0,0,0,0,0,0,0,0,0,0,0,0,0,0,0,0,0,0,0,0,0,11121,11122,11123,11124,11125,11126,11127,11128,11129,11130,11131,11132,11133,11134,11392,11393,11394,11395,11396,11397,11398,11399,11400,11401,11402,11403,0,0,11212,11213,11214,11215,11216,11217,11218,11219,11220,11221,11222,11223,11224,11225,0,0,0,0,0,0,0,0,0,0,0,0,0,0,0,0,0,0,0,0,0,0,0,0,0,0,0,0,0,0,0,0,
0,0,0,0,0,0,0,0,0,0,0,0,0,0,0,0,0,0,0,0,0,0,0,0,0,0,11185,11186,11187,11188,11189,11190,11191,11192,11193,11194,11195,11196,11197,11198,11456,11457,11458,11459,11460,11461,11462,11463,11464,11465,11466,11467,0,0,11276,11277,11278,11279,11280,11281,11282,11283,11284,11285,11286,11287,11288,11289,0,0,0,0,0,0,0,0,0,0,0,0,0,0,0,0,0,0,0,0,0,0,0,0,0,0,0,0,0,0,0,0,
0,0,0,0,0,0,0,0,0,0,0,0,0,0,0,0,0,0,0,0,0,0,0,0,0,0,11249,11250,11251,11252,11253,11254,11255,11256,11257,11258,11259,11260,11261,11262,11520,11521,11522,11523,11524,11525,11526,11527,11528,11529,11530,11531,0,0,11340,11341,11342,11343,11344,11345,11346,11347,11348,11349,11350,11351,11352,11353,0,0,0,0,0,0,0,0,0,0,0,0,0,0,0,0,0,0,0,0,0,0,0,0,0,0,0,0,0,0,0,0,
0,0,0,0,0,0,0,0,0,0,0,0,0,0,0,0,0,0,0,0,0,0,0,0,0,0,11313,11314,11315,11316,11317,11318,11319,11320,11321,11322,11323,11324,11325,11326,11584,11585,11586,11587,11588,11589,11590,11591,11592,11593,11594,11595,0,0,11404,11405,11406,11407,11408,11409,11410,11411,11412,11413,11414,11415,11416,11417,0,0,0,0,0,0,0,0,0,0,0,0,0,0,0,0,0,0,0,0,0,0,0,0,0,0,0,0,0,0,0,0,
0,0,0,0,0,0,0,0,0,0,0,0,0,0,0,0,0,0,0,0,0,0,0,0,0,0,11377,11378,11379,11380,11381,11382,11383,11384,11385,11386,11387,11388,11389,11390,11648,11649,11650,11651,11652,11653,11654,11655,11656,11657,11658,11659,0,0,11468,11469,11470,11471,11472,11473,11474,11475,11476,11477,11478,11479,11480,11481,0,0,0,0,0,0,0,0,0,0,0,0,0,0,0,0,0,0,0,0,0,0,0,0,0,0,0,0,0,0,0,0,
0,0,0,0,0,0,0,0,0,0,0,0,0,0,0,0,0,0,0,0,0,0,0,0,0,0,11441,11442,11443,11444,11445,11446,11447,11448,11449,11450,11451,11452,11453,11454,11712,11713,11714,11715,11716,11717,11718,11719,11720,11721,11722,11723,0,0,11532,11533,11534,11535,11536,11537,11538,11539,11540,11541,11542,11543,11544,11545,0,0,0,0,0,0,0,0,0,0,0,0,0,0,0,0,0,0,0,0,0,0,0,0,0,0,0,0,0,0,0,0,
0,0,0,0,0,0,0,0,0,0,0,0,0,0,0,0,0,0,0,0,0,0,0,0,0,0,11505,11506,11507,11508,11509,11510,11511,11512,11513,11514,11515,11516,11517,11518,11776,11777,11778,11779,11780,11781,11782,11783,11784,11785,11786,11787,0,0,11596,11597,11598,11599,11600,11601,11602,11603,11604,11605,11606,11607,11608,11609,0,0,0,0,0,0,0,0,0,0,0,0,0,0,0,0,0,0,0,0,0,0,0,0,0,0,0,0,0,0,0,0,
0,0,0,0,0,0,0,0,0,0,0,0,0,0,0,0,0,0,0,0,0,0,0,0,0,0,11569,11570,11571,11572,11573,11574,11575,11576,11577,11578,11579,11580,11581,11582,11840,11841,11842,11843,11844,11845,11846,11847,11848,11849,11850,11851,0,0,11660,11661,11662,11663,11664,11665,11666,11667,11668,11669,11670,11671,11672,11673,0,0,0,0,0,0,0,0,0,0,0,0,0,0,0,0,0,0,0,0,0,0,0,0,0,0,0,0,0,0,0,0,
0,0,0,0,0,0,0,0,0,0,0,0,0,0,0,0,0,0,0,0,0,0,0,0,0,0,11633,11634,11635,11636,11637,11638,11639,11640,11641,11642,11643,11644,11645,11646,0,0,0,0,0,0,0,0,0,0,0,0,0,0,11724,11725,11726,11727,11728,11729,11730,11731,11732,11733,11734,11735,11736,11737,0,0,0,0,0,0,0,0,0,0,0,0,0,0,0,0,0,0,0,0,0,0,0,0,0,0,0,0,0,0,0,0,
0,0,0,0,0,0,0,0,0,0,0,0,0,0,0,0,0,0,0,0,0,0,0,0,0,0,11697,11698,11699,11700,11701,11702,11703,11704,11705,11706,11707,11708,11709,11710,0,0,0,0,0,0,0,0,0,0,0,0,0,0,11788,11789,11790,11791,11792,11793,11794,11795,11796,11797,11798,11799,11800,11801,0,0,0,0,0,0,0,0,0,0,0,0,0,0,0,0,0,0,0,0,0,0,0,0,0,0,0,0,0,0,0,0,
0,0,0,0,0,0,0,0,0,0,0,0,0,0,0,0,0,0,0,0,0,0,0,0,0,0,11761,11762,11763,11764,11765,11766,11767,11768,11769,11770,11771,11772,11773,11774,0,0,0,0,0,0,0,0,0,0,0,0,0,0,11852,11853,11854,11855,11856,11857,11858,11859,11860,11861,11862,11863,11864,11865,0,0,0,0,0,0,0,0,0,0,0,0,0,0,0,0,0,0,0,0,0,0,0,0,0,0,0,0,0,0,0,0,
0,0,0,0,0,0,0,0,0,0,0,0,0,0,0,0,0,0,0,0,0,0,0,0,0,0,11825,11826,11827,11828,11829,11830,11831,11832,11833,11834,11835,11836,11837,11838,0,0,0,0,0,0,0,0,0,0,0,0,0,0,0,0,0,0,0,0,0,11162,11163,11164,11165,11166,11167,11168,11169,11170,11171,11172,11173,11174,0,0,0,0,0,0,0,0,0,0,0,0,0,0,0,0,0,0,0,0,0,0,0,0,0,0,
0,0,0,0,0,0,0,0,0,0,0,0,0,0,0,0,0,0,0,0,0,0,0,0,0,0,0,0,0,0,0,0,0,0,0,0,0,0,0,0,0,0,0,0,0,0,0,0,0,0,0,0,0,0,0,0,0,0,0,0,0,11226,11227,11228,11229,11230,11231,11232,11233,11234,11235,11236,11237,11238,0,0,0,0,0,0,0,0,0,0,0,0,0,0,0,0,0,0,0,0,0,0,0,0,0,0,
0,0,0,0,0,0,0,0,0,0,0,0,0,0,0,0,0,0,0,0,0,0,0,0,0,0,0,0,0,0,0,0,0,0,0,0,0,0,0,0,0,0,0,0,0,0,0,0,0,0,0,0,0,0,0,0,0,0,0,0,0,11290,11291,11292,11293,11294,11295,11296,11297,11298,11299,11300,11301,11302,0,0,0,0,0,0,0,0,0,0,0,0,0,0,0,0,0,0,0,0,0,0,0,0,0,0,
0,0,0,0,0,0,0,0,0,0,0,0,0,0,0,0,0,0,0,0,0,0,0,0,0,0,0,0,0,0,0,0,0,0,0,0,0,0,0,0,0,0,0,0,0,0,0,0,0,0,0,0,0,0,0,0,0,0,0,0,0,11354,11355,11356,11357,11358,11359,11360,11361,11362,11363,11364,11365,11366,0,0,0,0,0,0,0,0,0,0,0,0,0,0,0,0,0,0,0,0,0,0,0,0,0,0,
0,0,0,0,0,0,0,0,0,0,0,0,0,0,0,0,0,0,0,0,0,0,0,0,0,0,0,0,0,0,0,0,0,0,0,0,0,0,0,0,0,0,0,0,0,0,0,0,0,0,0,0,0,0,0,0,0,0,0,0,0,11418,11419,11420,11421,11422,11423,11424,11425,11426,11427,11428,11429,11430,0,0,0,0,0,0,0,0,0,0,0,0,0,0,0,0,0,0,0,0,0,0,0,0,0,0,
0,0,0,0,0,0,0,0,0,0,0,0,0,0,0,0,0,0,0,0,0,0,0,0,0,0,0,0,0,0,0,0,0,0,0,0,0,0,0,0,0,0,0,0,0,0,0,0,0,0,0,0,0,0,0,0,0,0,0,0,0,11482,11483,11484,11485,11486,11487,11488,11489,11490,11491,11492,11493,11494,0,0,0,0,0,0,0,0,0,0,0,0,0,0,0,0,0,0,0,0,0,0,0,0,0,0,
0,0,0,0,0,0,0,0,0,0,0,0,0,0,0,0,0,0,0,0,0,0,0,0,0,0,0,0,0,0,0,0,0,0,0,0,0,0,0,0,0,0,0,0,0,0,0,0,0,0,0,0,0,0,0,0,0,0,0,0,0,11546,11547,11548,11549,11550,11551,11552,11553,11554,11555,11556,11557,11558,0,0,0,0,0,0,0,0,0,0,0,0,0,0,0,0,0,0,0,0,0,0,0,0,0,0,
0,0,0,0,0,0,0,0,0,0,0,0,0,0,0,0,0,0,0,0,0,0,0,0,0,0,0,0,0,0,0,0,0,0,0,0,0,0,0,0,0,0,0,0,0,0,0,0,0,0,0,0,0,0,0,0,0,0,0,0,0,11610,11611,11612,11613,11614,11615,11616,11617,11618,11619,11620,11621,11622,0,0,0,0,0,0,0,0,0,0,0,0,0,0,0,0,0,0,0,0,0,0,0,0,0,0,
0,0,0,0,0,0,0,0,0,0,0,0,0,0,0,0,0,0,0,0,0,0,0,0,0,0,0,0,0,0,0,0,0,0,0,0,0,0,0,0,0,0,0,0,0,0,0,0,0,0,0,0,0,0,0,0,0,0,0,0,0,11674,11675,11676,11677,11678,11679,11680,11681,11682,11683,11684,11685,11686,0,0,0,0,0,0,0,0,0,0,0,0,0,0,0,0,0,0,0,0,0,0,0,0,0,0,
0,0,0,0,0,0,0,0,0,0,0,0,0,0,0,0,0,0,0,0,0,0,0,0,0,0,0,0,0,0,0,0,0,0,0,0,0,0,0,0,0,0,0,0,0,0,0,0,0,0,0,0,0,0,0,0,0,0,0,0,0,11738,11739,11740,11741,11742,11743,11744,11745,11746,11747,11748,11749,11750,0,0,0,0,0,0,0,0,0,0,0,0,0,0,0,0,0,0,0,0,0,0,0,0,0,0,
0,0,0,0,0,0,0,0,0,0,0,0,0,0,0,0,0,0,0,0,0,0,0,0,0,0,0,0,0,0,0,0,0,0,0,0,0,0,0,0,0,0,0,0,0,0,0,0,0,0,0,0,0,0,0,0,0,0,0,0,0,11802,11803,11804,11805,11806,11807,11808,11809,11810,11811,11812,11813,11814,0,0,0,0,0,0,0,0,0,0,0,0,0,0,0,0,0,0,0,0,0,0,0,0,0,0,
0,0,0,0,0,0,0,0,0,0,0,0,0,0,0,0,0,0,0,0,0,0,0,0,0,0,0,0,0,0,0,0,0,0,0,0,0,0,0,0,0,13140,13141,13142,13143,13144,13145,13146,13147,13148,13149,13150,13151,13152,13153,13154,13155,13156,13157,13158,0,11866,11867,11868,11869,11870,11871,11872,11873,11874,11875,11876,11877,11878,0,0,0,0,0,0,0,0,0,0,0,0,0,0,0,0,0,0,0,0,0,0,0,0,0,0,
0,0,0,0,0,0,0,0,0,0,0,0,0,0,0,0,0,0,0,0,0,0,0,0,0,0,0,0,0,0,0,0,0,0,0,0,0,0,0,0,0,13204,13205,13206,13207,13208,13209,13210,13211,13212,13213,13214,13215,13216,13217,13218,13219,13220,13221,13222,0,11930,11931,11932,11933,11934,11935,11936,11937,11938,11939,11940,11941,11942,0,0,0,0,0,0,0,0,0,0,0,0,0,0,0,0,0,0,0,0,0,0,0,0,0,0,
0,0,0,0,0,0,0,0,0,0,0,0,0,0,0,0,0,0,0,0,0,0,0,0,0,0,0,0,0,0,0,0,0,0,0,0,0,0,0,0,0,13268,13269,13270,13271,13272,13273,13274,13275,13276,13277,13278,13279,13280,13281,13282,13283,13284,13285,13286,0,0,0,0,0,0,0,0,0,0,0,0,0,0,0,0,0,0,0,0,0,0,0,0,0,0,0,0,0,0,0,0,0,0,0,0,0,0,0,0,
0,0,0,0,0,0,0,0,0,0,0,0,0,0,0,0,0,0,0,0,0,0,0,0,0,0,0,0,0,0,0,0,0,0,0,0,0,0,0,0,0,13332,13333,13334,13335,13336,13337,13338,13339,13340,13341,13342,13343,13344,13345,13346,13347,13348,13349,13350,0,0,0,0,0,0,0,0,0,0,0,0,0,0,0,0,0,0,0,0,0,0,0,0,0,0,0,0,0,0,0,0,0,0,0,0,0,0,0,0,
0,0,0,0,0,0,0,0,0,0,0,0,0,0,0,0,0,0,0,0,0,0,0,0,0,0,0,0,0,0,0,0,0,0,0,0,0,0,0,0,0,13396,13397,13398,13399,13400,13401,13402,13403,13404,13405,13406,13407,13408,13409,13410,13411,13412,13413,13414,0,0,0,0,0,0,0,0,0,0,0,0,0,0,0,0,0,0,0,0,0,0,0,0,0,0,0,0,0,0,0,0,0,0,0,0,0,0,0,0,
0,0,0,0,0,0,0,0,0,0,0,0,0,0,0,0,0,0,0,0,0,0,0,0,0,0,0,0,0,0,0,0,0,0,0,0,0,0,0,0,0,13460,13461,13462,13463,13464,13465,13466,13467,13468,13469,13470,13471,13472,13473,13474,13475,13476,13477,13478,0,0,0,0,0,0,0,0,0,0,0,0,0,0,0,0,0,0,0,0,0,0,0,0,0,0,0,0,0,0,0,0,0,0,0,0,0,0,0,0,
0,0,0,0,0,0,0,0,0,0,0,0,0,0,0,0,0,0,0,0,0,0,0,0,0,0,0,0,0,0,0,0,0,0,0,0,0,0,0,0,0,13524,13525,13526,13527,13528,13529,13530,13531,13532,13533,13534,13535,13536,13537,13538,13539,13540,13541,13542,0,0,0,0,0,0,0,0,0,0,0,0,0,0,0,0,0,0,0,0,0,0,0,0,0,0,0,0,0,0,0,0,0,0,0,0,0,0,0,0,
0,0,0,0,0,0,0,0,0,0,0,0,0,0,0,0,0,0,0,0,0,0,0,0,0,0,0,0,0,0,0,0,0,0,0,0,0,0,0,0,0,13588,13589,13590,13591,13592,13593,13594,13595,13596,13597,13598,13599,13600,13601,13602,13603,13604,13605,13606,0,0,0,0,0,0,0,0,0,0,0,0,0,0,0,0,0,0,0,0,0,0,0,0,0,0,0,0,0,0,0,0,0,0,0,0,0,0,0,0,
0,0,0,0,0,0,0,0,0,0,0,0,0,0,0,0,0,0,0,0,0,0,0,0,0,0,0,0,0,0,0,0,0,0,0,0,0,0,0,0,0,13652,13653,13654,13655,13656,13657,13658,13659,13660,13661,13662,13663,13664,13665,13666,13667,13668,13669,13670,0,0,0,0,0,0,0,0,0,0,0,0,0,0,0,0,0,0,0,0,0,0,0,0,0,0,0,0,0,0,0,0,0,0,0,0,0,0,0,0,
0,0,0,0,0,0,0,0,0,0,0,0,0,0,0,0,0,0,0,0,0,0,0,0,0,0,0,0,0,0,0,0,0,0,0,0,0,0,0,0,0,13716,13717,13718,13719,13720,13721,13722,13723,13724,13725,13726,13727,13728,13729,13730,13731,13732,13733,13734,0,0,0,0,0,0,0,0,0,0,0,0,0,0,0,0,0,0,0,0,0,0,0,0,0,0,0,0,0,0,0,0,0,0,0,0,0,0,0,0,
0,0,0,0,0,0,0,0,0,0,0,0,0,0,0,0,0,0,0,0,0,0,0,0,0,0,0,0,0,0,0,0,0,0,0,0,0,0,0,0,0,13780,13781,13782,13783,13784,13785,13786,13787,13788,13789,13790,13791,13792,13793,13794,13795,13796,13797,13798,0,0,0,0,0,0,0,0,0,0,0,0,0,0,0,0,0,0,0,0,0,0,0,0,0,0,0,0,0,0,0,0,0,0,0,0,0,0,0,0,
0,0,0,0,0,0,0,0,0,0,0,0,0,0,0,0,0,0,0,0,0,0,0,0,0,0,0,0,0,0,0,0,0,0,0,0,0,0,0,0,0,13844,13845,13846,13847,13848,13849,13850,13851,13852,13853,13854,13855,13856,13857,13858,13859,13860,13861,13862,0,0,0,0,0,0,0,0,0,0,0,0,0,0,0,0,0,0,0,0,0,0,0,0,0,0,0,0,0,0,0,0,0,0,0,0,0,0,0,0,
0,0,0,0,0,0,0,0,0,0,0,0,0,0,0,0,0,0,0,0,0,0,0,0,0,0,0,0,0,0,0,0,0,0,0,0,0,0,0,0,0,13908,13909,13910,13911,13912,13913,13914,13915,13916,13917,13918,13919,13920,13921,13922,13923,13924,13925,13926,0,0,0,0,0,0,0,0,0,0,0,0,0,0,0,0,0,0,0,0,0,0,0,0,0,0,0,0,0,0,0,0,0,0,0,0,0,0,0,0,
0,0,0,0,0,0,0,0,0,0,0,0,0,0,0,0,0,0,0,0,0,0,0,0,0,0,0,0,0,0,0,0,0,0,0,0,0,0,0,0,0,13972,13973,13974,13975,13976,13977,13978,13979,13980,13981,13982,13983,13984,13985,13986,13987,13988,13989,13990,0,0,0,0,0,0,0,0,0,0,0,0,0,0,0,0,0,0,0,0,0,0,0,0,0,0,0,0,0,0,0,0,0,0,0,0,0,0,0,0,
0,0,0,0,0,0,0,0,0,0,0,0,0,0,0,0,0,0,0,0,0,0,0,0,0,0,0,0,0,0,0,0,0,0,0,0,0,0,0,0,0,14036,14037,14038,14039,14040,14041,14042,14043,14044,14045,14046,14047,14048,14049,14050,14051,14052,14053,14054,0,0,0,0,0,0,0,0,0,0,0,0,0,0,0,0,0,0,0,0,0,0,0,0,0,0,0,0,0,0,0,0,0,0,0,0,0,0,0,0,
0,0,0,0,0,0,0,0,0,0,0,0,0,0,0,0,0,0,0,0,0,0,0,0,0,0,0,0,0,0,0,0,0,0,0,0,0,0,0,0,0,14100,14101,14102,14103,14104,14105,14106,14107,14108,14109,14110,14111,14112,14113,14114,14115,14116,14117,14118,0,0,0,0,0,0,0,0,0,0,0,0,0,0,0,0,0,0,0,0,0,0,0,0,0,0,0,0,0,0,0,0,0,0,0,0,0,0,0,0,
0,0,0,0,0,0,0,0,0,0,0,0,0,0,0,0,0,0,0,0,0,0,0,0,0,0,0,0,0,0,0,0,0,0,0,0,0,0,0,0,0,0,0,0,0,0,0,0,0,0,0,0,0,0,0,0,0,0,0,0,0,0,0,0,0,0,0,0,0,0,0,0,0,0,0,0,0,0,0,0,0,0,0,0,0,0,0,0,0,0,0,0,0,0,0,0,0,0,0,0,
0,0,0,0,0,0,0,0,0,0,0,0,0,0,0,0,0,0,0,0,0,0,0,0,0,0,0,0,0,0,0,0,0,0,0,0,0,0,0,0,0,0,0,0,0,0,0,0,0,0,0,0,0,0,0,0,0,0,0,0,0,0,0,0,0,0,0,0,0,0,0,0,0,0,0,0,0,0,0,0,0,0,0,0,0,0,0,0,0,0,0,0,0,0,0,0,0,0,0,0,
0,0,0,0,0,0,0,0,0,0,0,0,0,0,0,0,0,0,0,0,0,0,0,0,0,0,0,0,0,0,0,0,0,0,0,0,0,0,0,0,0,0,0,0,0,0,0,0,0,0,0,0,0,0,0,0,0,0,0,0,0,0,0,0,0,0,0,0,0,0,0,0,0,0,0,0,0,0,0,0,0,0,0,0,0,0,0,0,0,0,0,0,0,0,0,0,0,0,0,0,
0,0,0,0,0,0,0,0,0,0,0,0,0,0,0,0,0,0,0,0,0,0,0,0,0,0,0,0,0,0,0,0,0,0,0,0,0,0,0,0,0,0,0,0,0,0,0,0,0,0,0,0,0,0,0,0,0,0,0,0,0,0,0,0,0,0,0,0,0,0,0,0,0,0,0,0,0,0,0,0,0,0,0,0,0,0,0,0,0,0,0,0,0,0,0,0,0,0,0,0,
0,0,0,0,0,0,0,0,0,0,0,0,0,0,0,0,0,0,0,0,0,0,0,0,0,0,0,0,0,0,0,0,0,0,0,0,0,0,0,0,0,0,0,0,0,0,0,0,0,0,0,0,0,0,0,0,0,0,0,0,0,0,0,0,0,0,0,0,0,0,0,0,0,0,0,0,0,0,0,0,0,0,0,0,0,0,0,0,0,0,0,0,0,0,0,0,0,0,0,0,
0,0,0,0,0,0,0,0,0,0,0,0,0,0,0,0,0,0,0,0,0,0,0,0,0,0,0,0,0,0,0,0,0,0,0,0,0,0,0,0,0,0,0,0,0,0,0,0,0,0,0,0,0,0,0,0,0,0,0,0,0,0,0,0,0,0,0,0,0,0,0,0,0,0,0,0,0,0,0,0,0,0,0,0,0,0,0,0,0,0,0,0,0,0,0,0,0,0,0,0,
0,0,0,0,0,0,0,0,0,0,0,0,0,0,0,0,0,0,0,0,0,0,0,0,0,0,0,0,0,0,0,0,0,0,0,0,0,0,0,0,0,0,0,0,0,0,0,0,0,0,0,0,0,0,0,0,0,0,0,0,0,0,0,0,0,0,0,0,0,0,0,0,0,0,0,0,0,0,0,0,0,0,0,0,0,0,0,0,0,0,0,0,0,0,0,0,0,0,0,0,
0,0,0,0,0,0,0,0,0,0,0,0,0,0,0,0,0,0,0,0,0,0,0,0,0,0,0,0,0,0,0,0,0,0,0,0,0,0,0,0,0,0,0,0,0,0,0,0,0,0,0,0,0,0,0,0,0,0,0,0,0,0,0,0,0,0,0,0,0,0,0,0,0,0,0,0,0,0,0,0,0,0,0,0,0,0,0,0,0,0,0,0,0,0,0,0,0,0,0,0,
0,0,0,0,0,0,0,0,0,0,0,0,0,0,0,0,0,0,0,0,0,0,0,0,0,0,0,0,0,0,0,0,0,0,0,0,0,0,0,0,0,0,0,0,0,0,0,0,0,0,0,0,0,0,0,0,0,0,0,0,0,0,0,0,0,0,0,0,0,0,0,0,0,0,0,0,0,0,0,0,0,0,0,0,0,0,0,0,0,0,0,0,0,0,0,0,0,0,0,0,
0,0,0,0,0,0,0,0,0,0,0,0,0,0,0,0,0,0,0,0,0,0,0,0,0,0,0,0,0,0,0,0,0,0,0,0,0,0,0,0,0,0,0,0,0,0,0,0,0,0,0,0,0,0,0,0,0,0,0,0,0,0,0,0,0,0,0,0,0,0,0,0,0,0,0,0,0,0,0,0,0,0,0,0,0,0,0,0,0,0,0,0,0,0,0,0,0,0,0,0,
0,0,0,0,0,0,0,0,0,0,0,0,0,0,0,0,0,0,0,0,0,0,0,0,0,0,0,0,0,0,0,0,0,0,0,0,0,0,0,0,0,0,0,0,0,0,0,0,0,0,0,0,0,0,0,0,0,0,0,0,0,0,0,0,0,0,0,0,0,0,0,0,0,0,0,0,0,0,0,0,0,0,0,0,0,0,0,0,0,0,0,0,0,0,0,0,0,0,0,0,
0,0,0,0,0,0,0,0,0,0,0,0,0,0,0,0,0,0,0,0,0,0,0,0,0,0,0,0,0,0,0,0,0,0,0,0,0,0,0,0,0,0,0,0,0,0,0,0,0,0,0,0,0,0,0,0,0,0,0,0,0,0,0,0,0,0,0,0,0,0,0,0,0,0,0,0,0,0,0,0,0,0,0,0,0,0,0,0,0,0,0,0,0,0,0,0,0,0,0,0,
0,0,0,0,0,0,0,0,0,0,0,0,0,0,0,0,0,0,0,0,0,0,0,0,0,0,0,0,0,0,0,0,0,0,0,0,0,0,0,0,0,0,0,0,0,0,0,0,0,0,0,0,0,0,0,0,0,0,0,0,0,0,0,0,0,0,0,0,0,0,0,0,0,0,0,0,0,0,0,0,0,0,0,0,0,0,0,0,0,0,0,0,0,0,0,0,0,0,0,0,
0,0,0,0,0,0,0,0,0,0,0,0,0,0,0,0,0,0,0,0,0,0,0,0,0,0,0,0,0,0,0,0,0,0,0,0,0,0,0,0,0,0,0,0,0,0,0,0,0,0,0,0,0,0,0,0,0,0,0,0,0,0,0,0,0,0,0,0,0,0,0,0,0,0,0,0,0,0,0,0,0,0,0,0,0,0,0,0,0,0,0,0,0,0,0,0,0,0,0,0,
0,0,0,0,0,0,0,0,0,0,0,0,0,0,0,0,0,0,0,0,0,0,0,0,0,0,0,0,0,0,0,0,0,0,0,0,0,0,0,0,0,0,0,0,0,0,0,0,0,0,0,0,0,0,0,0,0,0,0,0,0,0,0,0,0,0,0,0,0,0,0,0,0,0,0,0,0,0,0,0,0,0,0,0,0,0,0,0,0,0,0,0,0,0,0,0,0,0,0,0,
0,0,0,0,0,0,0,0,0,0,0,0,0,0,0,0,0,0,0,0,0,0,0,0,0,0,0,0,0,0,0,0,0,0,0,0,0,0,0,0,0,0,0,0,0,0,0,0,0,0,0,0,0,0,0,0,0,0,0,0,0,0,0,0,0,0,0,0,0,0,0,0,0,0,0,0,0,0,0,0,0,0,0,0,0,0,0,0,0,0,0,0,0,0,0,0,0,0,0,0,
0,0,0,0,0,0,0,0,0,0,0,0,0,0,0,0,0,0,0,0,0,0,0,0,0,0,0,0,0,0,0,0,0,0,0,0,0,0,0,0,0,0,0,0,0,0,0,0,0,0,0,0,0,0,0,0,0,0,0,0,0,0,0,0,0,0,0,0,0,0,0,0,0,0,0,0,0,0,0,0,0,0,0,0,0,0,0,0,0,0,0,0,0,0,0,0,0,0,0,0,
0,0,0,0,0,0,0,0,0,0,0,0,0,0,0,0,0,0,0,0,0,0,0,0,0,0,0,0,0,0,0,0,0,0,0,0,0,0,0,0,0,0,0,0,0,0,0,0,0,0,0,0,0,0,0,0,0,0,0,0,0,0,0,0,0,0,0,0,0,0,0,0,0,0,0,0,0,0,0,0,0,0,0,0,0,0,0,0,0,0,0,0,0,0,0,0,0,0,0,0,
0,0,0,0,0,0,0,0,0,0,0,0,0,0,0,0,0,0,0,0,0,0,0,0,0,0,0,0,0,0,0,0,0,0,0,0,0,0,0,0,0,0,0,0,0,0,0,0,0,0,0,0,0,0,0,0,0,0,0,0,0,0,0,0,0,0,0,0,0,0,0,0,0,0,0,0,0,0,0,0,0,0,0,0,0,0,0,0,0,0,0,0,0,0,0,0,0,0,0,0,
0,0,0,0,0,0,0,0,0,0,0,0,0,0,0,0,0,0,0,0,0,0,0,0,0,0,0,0,0,0,0,0,0,0,0,0,0,0,0,0,0,0,0,0,0,0,0,0,0,0,0,0,0,0,0,0,0,0,0,0,0,0,0,0,0,0,0,0,0,0,0,0,0,0,0,0,0,0,0,0,0,0,0,0,0,0,0,0,0,0,0,0,0,0,0,0,0,0,0,0,
0,0,0,0,0,0,0,0,0,0,0,0,0,0,0,0,0,0,0,0,0,0,0,0,0,0,0,0,0,0,0,0,0,0,0,0,0,0,0,0,0,0,0,0,0,0,0,0,0,0,0,0,0,0,0,0,0,0,0,0,0,0,0,0,0,0,0,0,0,0,0,0,0,0,0,0,0,0,0,0,0,0,0,0,0,0,0,0,0,0,0,0,0,0,0,0,0,0,0,0,
0,0,0,0,0,0,0,0,0,0,0,0,0,0,0,0,0,0,0,0,0,0,0,0,0,0,0,0,0,0,0,0,0,0,0,0,0,0,0,0,0,0,0,0,0,0,0,0,0,0,0,0,0,0,0,0,0,0,0,0,0,0,0,0,0,0,0,0,0,0,0,0,0,0,0,0,0,0,0,0,0,0,0,0,0,0,0,0,0,0,0,0,0,0,0,0,0,0,0,0,
0,0,0,0,0,0,0,0,0,0,0,0,0,0,0,0,0,0,0,0,0,0,0,0,0,0,0,0,0,0,0,0,0,0,0,0,0,0,0,0,0,0,0,0,0,0,0,0,0,0,0,0,0,0,0,0,0,0,0,0,0,0,0,0,0,0,0,0,0,0,0,0,0,0,0,0,0,0,0,0,0,0,0,0,0,0,0,0,0,0,0,0,0,0,0,0,0,0,0,0,
0,0,0,0,0,0,0,0,0,0,0,0,0,0,0,0,0,0,0,0,0,0,0,0,0,0,0,0,0,0,0,0,0,0,0,0,0,0,0,0,0,0,0,0,0,0,0,0,0,0,0,0,0,0,0,0,0,0,0,0,0,0,0,0,0,0,0,0,0,0,0,0,0,0,0,0,0,0,0,0,0,0,0,0,0,0,0,0,0,0,0,0,0,0,0,0,0,0,0,0,
0,0,0,0,0,0,0,0,0,0,0,0,0,0,0,0,0,0,0,0,0,0,0,0,0,0,0,0,0,0,0,0,0,0,0,0,0,0,0,0,0,0,0,0,0,0,0,0,0,0,0,0,0,0,0,0,0,0,0,0,0,0,0,0,0,0,0,0,0,0,0,0,0,0,0,0,0,0,0,0,0,0,0,0,0,0,0,0,0,0,0,0,0,0,0,0,0,0,0,0,
0,0,0,0,0,0,0,0,0,0,0,0,0,0,0,0,0,0,0,0,0,0,0,0,0,0,0,0,0,0,0,0,0,0,0,0,0,0,0,0,0,0,0,0,0,0,0,0,0,0,0,0,0,0,0,0,0,0,0,0,0,0,0,0,0,0,0,0,0,0,0,0,0,0,0,0,0,0,0,0,0,0,0,0,0,0,0,0,0,0,0,0,0,0,0,0,0,0,0,0,
0,0,0,0,0,0,0,0,0,0,0,0,0,0,0,0,0,0,0,0,0,0,0,0,0,0,0,0,0,0,0,0,0,0,0,0,0,0,0,0,0,0,0,0,0,0,0,0,0,0,0,0,0,0,0,0,0,0,0,0,0,0,0,0,0,0,0,0,0,0,0,0,0,0,0,0,0,0,0,0,0,0,0,0,0,0,0,0,0,0,0,0,0,0,0,0,0,0,0,0,
0,0,0,0,0,0,0,0,0,0,0,0,0,0,0,0,0,0,0,0,0,0,0,0,0,0,0,0,0,0,0,0,0,0,0,0,0,0,0,0,0,0,0,0,0,0,0,0,0,0,0,0,0,0,0,0,0,0,0,0,0,0,0,0,0,0,0,0,0,0,0,0,0,0,0,0,0,0,0,0,0,0,0,0,0,0,0,0,0,0,0,0,0,0,0,0,0,0,0,0,
0,0,0,0,0,0,0,0,0,0,0,0,0,0,0,0,0,0,0,0,0,0,0,0,0,0,0,0,0,0,0,0,0,0,0,0,0,0,0,0,0,0,0,0,0,0,0,0,0,0,0,0,0,0,0,0,0,0,0,0,0,0,0,0,0,0,0,0,0,0,0,0,0,0,0,0,0,0,0,0,0,0,0,0,0,0,0,0,0,0,0,0,0,0,0,0,0,0,0,0
</data>
 </layer>
 <layer id="11" name="Obj_Cidade_2" width="100" height="100">
  <data encoding="csv">
0,0,0,0,0,0,0,0,0,0,0,0,0,0,0,0,0,0,0,0,0,0,0,0,0,0,0,0,0,0,0,0,0,0,0,0,0,0,0,0,0,0,0,0,0,0,0,0,0,0,0,0,0,0,0,0,0,0,0,0,0,0,0,0,0,0,0,0,0,0,0,0,0,0,0,0,0,0,0,0,0,0,0,0,0,0,0,0,0,0,0,0,0,0,0,0,0,0,0,0,
0,0,0,0,0,0,0,0,0,0,0,0,0,0,0,0,0,0,0,0,0,0,0,0,0,0,0,0,0,0,0,0,0,0,0,0,0,0,0,0,0,0,0,0,0,0,0,0,0,0,0,0,0,0,0,0,0,0,0,0,0,0,0,0,0,0,0,0,0,0,0,0,0,0,0,0,0,0,0,0,0,0,0,0,0,0,0,0,0,0,0,0,0,0,0,0,0,0,0,0,
0,0,0,0,0,0,0,0,0,0,0,0,0,0,0,0,0,0,0,0,0,0,0,0,0,0,0,0,0,0,0,0,0,0,0,0,0,0,0,0,0,0,0,0,0,0,0,0,0,0,0,0,0,0,0,0,0,0,0,0,0,0,0,0,0,0,0,0,0,0,0,0,0,0,0,0,0,0,0,0,0,0,0,0,0,0,0,0,0,0,0,0,0,0,0,0,0,0,0,0,
0,0,0,0,0,0,0,0,0,0,0,0,0,0,0,0,0,0,0,0,0,0,0,0,0,0,0,0,0,0,0,0,0,0,0,0,0,0,0,0,0,0,0,0,0,0,0,0,0,0,0,0,0,0,0,0,0,0,0,0,0,0,0,0,0,0,0,0,0,0,0,0,0,0,0,0,0,0,0,0,0,0,0,0,0,0,0,0,0,0,0,0,0,0,0,0,0,0,0,0,
0,0,0,0,0,0,0,0,0,0,0,0,0,0,0,0,0,0,0,0,0,0,0,0,0,0,0,0,0,0,0,0,0,0,0,0,0,0,0,0,0,0,0,0,0,0,0,0,0,0,0,0,0,0,0,0,0,0,0,0,0,0,0,0,0,0,0,0,0,0,0,0,0,0,0,0,0,0,0,0,0,0,0,0,0,0,0,0,0,0,0,0,0,0,0,0,0,0,0,0,
0,0,0,0,0,0,0,0,0,0,0,0,0,0,0,0,0,0,0,0,0,0,0,0,0,0,0,0,0,0,0,0,0,0,0,0,0,0,0,0,0,0,0,0,0,0,0,0,0,0,0,0,0,0,0,0,0,0,0,0,0,0,0,0,0,0,0,0,0,0,0,0,0,0,0,0,0,0,0,0,0,0,0,0,0,0,0,0,0,0,0,0,0,0,0,0,0,0,0,0,
0,0,0,0,0,0,0,0,0,0,0,0,0,0,0,0,0,0,0,0,0,0,0,0,0,0,0,0,0,0,0,0,0,0,0,0,0,0,0,0,0,0,0,0,0,0,0,0,0,0,0,0,0,0,0,0,0,0,0,0,0,0,0,0,0,0,0,0,0,0,0,0,0,0,0,0,0,0,0,0,0,0,0,0,0,0,0,0,0,0,0,0,0,0,0,0,0,0,0,0,
0,0,0,0,0,0,0,0,0,0,0,0,0,0,0,0,0,0,0,0,0,0,0,0,0,0,0,0,0,0,0,0,0,0,0,0,0,0,0,0,0,0,0,0,0,0,0,0,0,0,0,0,0,0,0,0,0,0,0,0,0,0,0,0,0,0,0,0,0,0,0,0,0,0,0,0,0,0,0,0,0,0,0,0,0,0,0,0,0,0,0,0,0,0,0,0,0,0,0,0,
0,0,0,0,0,0,0,0,0,0,0,0,0,0,0,0,0,0,0,0,0,0,0,0,0,0,0,0,0,0,0,0,0,0,0,0,0,0,0,0,0,0,0,0,0,0,0,0,0,0,0,0,0,0,0,0,0,0,0,0,0,0,0,0,0,0,0,0,0,0,0,0,0,0,0,0,0,0,0,0,0,0,0,0,0,0,0,0,0,0,0,0,0,0,0,0,0,0,0,0,
0,0,0,0,0,0,0,0,0,0,0,0,0,0,0,0,0,0,0,0,0,0,0,0,0,0,0,0,0,0,0,0,0,0,0,0,0,0,0,0,0,0,0,0,0,0,0,0,0,0,0,0,0,0,0,0,0,0,0,0,0,0,0,0,0,0,0,0,0,0,0,0,0,0,0,0,0,0,0,0,0,0,0,0,0,0,0,0,0,0,0,0,0,0,0,0,0,0,0,0,
0,0,0,0,0,0,0,0,0,0,0,0,0,0,0,0,0,0,0,0,0,0,0,0,0,0,0,0,0,0,0,0,0,0,0,0,0,0,0,0,0,0,0,0,0,0,0,0,0,0,0,0,0,0,0,0,0,0,0,0,0,0,0,0,0,0,0,0,0,0,0,0,0,0,0,0,0,0,0,0,0,0,0,0,0,0,0,0,0,0,0,0,0,0,0,0,0,0,0,0,
0,0,0,0,0,0,0,0,0,0,0,0,0,0,0,0,0,0,0,0,0,0,0,0,0,0,0,0,0,0,0,0,0,0,0,0,0,0,0,0,0,0,0,0,0,0,0,0,0,0,0,0,0,0,0,0,0,0,0,0,0,0,0,0,0,0,0,0,0,0,0,0,0,0,0,0,0,0,0,0,0,0,0,0,0,0,0,0,0,0,0,0,0,0,0,0,0,0,0,0,
0,0,0,0,0,0,0,0,0,0,0,0,0,0,0,0,0,0,0,0,0,0,0,0,0,0,0,0,0,0,0,0,0,0,0,0,0,0,0,0,0,0,0,0,0,0,0,0,0,0,0,0,0,0,0,0,0,0,0,0,0,0,0,0,0,0,0,0,0,0,0,0,0,0,0,0,0,0,0,0,0,0,0,0,0,0,0,0,0,0,0,0,0,0,0,0,0,0,0,0,
0,0,0,0,0,0,0,0,0,0,0,0,0,0,0,0,0,0,0,0,0,0,0,0,0,0,0,0,0,0,0,0,0,0,0,0,0,0,0,0,0,0,0,0,0,0,0,0,0,0,0,0,0,0,0,0,0,0,0,0,0,0,0,0,0,0,0,0,0,0,0,0,0,0,0,0,0,0,0,0,0,0,0,0,0,0,0,0,0,0,0,0,0,0,0,0,0,0,0,0,
0,0,0,0,0,0,0,0,0,0,0,0,0,0,0,0,0,0,0,0,0,0,0,0,0,0,0,0,0,0,0,0,0,0,0,0,0,0,0,0,0,0,0,0,0,0,0,0,0,0,0,0,0,0,0,0,0,0,0,0,0,0,0,0,0,0,0,0,0,0,0,0,0,0,0,0,0,0,0,0,0,0,0,0,0,0,0,0,0,0,0,0,0,0,0,0,0,0,0,0,
0,0,0,0,0,0,0,0,0,0,0,0,0,0,0,0,0,0,0,0,0,0,0,0,0,0,0,0,0,0,0,0,0,0,0,0,0,0,0,0,0,0,0,0,0,0,0,0,0,0,0,0,0,0,0,0,0,0,0,0,0,0,0,0,0,0,0,0,0,0,0,0,0,0,0,0,0,0,0,0,0,0,0,0,0,0,0,0,0,0,0,0,0,0,0,0,0,0,0,0,
0,0,0,0,0,0,0,0,0,0,0,0,0,0,0,0,0,0,0,0,0,0,0,0,0,0,0,0,0,0,0,0,0,0,0,0,0,0,0,0,0,0,0,0,0,0,0,0,0,0,0,0,0,0,0,0,0,0,0,0,0,0,0,0,0,0,0,0,0,0,0,0,0,0,0,0,0,0,0,0,0,0,0,0,0,0,0,0,0,0,0,0,0,0,0,0,0,0,0,0,
0,0,0,0,0,0,0,0,0,0,0,0,0,0,0,0,0,0,0,0,0,0,0,0,0,0,0,0,0,0,0,0,0,0,0,0,0,0,0,0,0,0,0,0,0,0,0,0,0,0,0,0,0,0,0,0,0,0,0,0,0,0,0,0,0,0,0,0,0,0,0,0,0,0,0,0,0,0,0,0,0,0,0,0,0,0,0,0,0,0,0,0,0,0,0,0,0,0,0,0,
0,0,0,0,0,0,0,0,0,0,0,0,0,0,0,0,0,0,0,0,0,0,0,0,0,0,0,0,0,0,0,0,0,0,0,0,0,0,0,0,0,0,0,0,0,0,0,0,0,0,0,0,0,0,0,0,0,0,0,0,0,0,0,0,0,0,0,0,0,0,0,0,0,0,0,0,0,0,0,0,0,0,0,0,0,0,0,0,0,0,0,0,0,0,0,0,0,0,0,0,
0,0,0,0,0,0,0,0,0,0,0,0,0,0,0,0,0,0,0,0,0,0,0,0,0,0,0,0,0,0,0,0,0,0,0,0,0,0,0,0,0,0,0,0,0,0,0,0,0,0,0,0,0,0,0,0,0,0,0,0,0,0,0,0,0,0,0,0,0,0,0,0,0,0,0,0,0,0,0,0,0,0,0,0,0,0,0,0,0,0,0,0,0,0,0,0,0,0,0,0,
0,0,0,0,0,0,0,0,0,0,0,0,0,0,0,0,0,0,0,0,0,0,0,0,0,0,0,0,0,0,0,0,0,0,0,0,0,0,0,0,0,0,0,0,0,0,0,0,0,0,0,0,0,0,0,0,0,0,0,0,0,0,0,0,0,0,0,0,0,0,0,0,0,0,0,0,0,0,0,0,0,0,0,0,0,0,0,0,0,0,0,0,0,0,0,0,0,0,0,0,
0,0,0,0,0,0,0,0,0,0,0,0,0,0,0,0,0,0,0,0,0,0,0,0,0,0,0,0,0,0,0,0,0,0,0,0,0,0,0,0,0,0,0,0,0,0,0,0,0,0,0,0,0,0,0,0,0,0,0,0,0,0,0,0,0,0,0,0,0,0,0,0,0,0,0,0,0,0,0,0,0,0,0,0,0,0,0,0,0,0,0,0,0,0,0,0,0,0,0,0,
0,0,0,0,0,0,0,0,0,0,0,0,0,0,0,0,0,0,0,0,0,0,0,0,0,0,0,0,0,0,0,0,0,0,0,0,0,0,0,0,0,0,0,0,0,0,0,0,0,0,0,0,0,0,0,0,0,0,0,0,0,0,0,0,0,0,0,0,0,0,0,0,0,0,0,0,0,0,0,0,0,0,0,0,0,0,0,0,0,0,0,0,0,0,0,0,0,0,0,0,
0,0,0,0,0,0,0,0,0,0,0,0,0,0,0,0,0,0,0,0,0,0,0,0,0,0,0,0,0,0,0,0,0,0,0,0,0,0,0,0,0,0,0,0,0,0,0,0,0,0,0,0,0,0,0,0,0,0,0,0,0,0,0,0,0,0,0,0,0,0,0,0,0,0,0,0,0,0,0,0,0,0,0,0,0,0,0,0,0,0,0,0,0,0,0,0,0,0,0,0,
0,0,0,0,0,0,0,0,0,0,0,0,0,0,0,0,0,0,0,0,0,0,0,0,0,0,0,0,0,0,0,0,0,0,0,0,0,0,0,0,0,0,0,0,0,0,0,0,0,0,0,0,0,0,0,0,0,0,0,0,0,0,0,0,0,0,0,0,0,0,0,0,0,0,0,0,0,0,0,0,0,0,0,0,0,0,0,0,0,0,0,0,0,0,0,0,0,0,0,0,
0,0,0,0,0,0,0,0,0,0,0,0,0,0,0,0,0,0,0,0,0,0,0,0,0,0,0,0,0,0,0,0,0,0,0,0,0,0,0,0,0,0,0,0,0,0,0,0,0,0,0,0,0,0,0,0,0,0,0,0,0,0,0,0,0,0,0,0,0,0,0,0,0,0,0,0,0,0,0,0,0,0,0,0,0,0,0,0,0,0,0,0,0,0,0,0,0,0,0,0,
0,0,0,0,0,0,0,0,0,0,0,0,0,0,0,0,0,0,0,0,0,0,0,0,0,0,0,0,0,0,0,0,0,0,0,0,0,0,0,0,0,0,0,0,0,0,0,0,0,0,0,0,0,0,0,0,0,0,0,0,0,0,0,0,0,0,0,0,0,0,0,0,0,0,0,0,0,0,0,0,0,0,0,0,0,0,0,0,0,0,0,0,0,0,0,0,0,0,0,0,
0,0,0,0,0,0,0,0,0,0,0,0,0,0,0,0,0,0,0,0,0,0,0,0,0,0,0,0,0,0,0,0,0,0,0,0,0,0,0,0,0,0,0,0,0,0,0,0,0,0,0,0,0,0,0,0,0,0,0,0,0,0,0,0,0,0,0,0,0,0,0,0,0,0,0,0,0,0,0,0,0,0,0,0,0,0,0,0,0,0,0,0,0,0,0,0,0,0,0,0,
0,0,0,0,0,0,0,0,0,0,0,0,0,0,0,0,0,0,0,0,0,0,0,0,0,0,0,0,0,0,0,0,0,0,0,0,0,0,0,0,0,0,0,0,0,0,0,0,0,0,0,0,0,0,0,0,0,0,0,0,0,0,0,0,0,0,0,0,0,0,0,0,0,0,0,0,0,0,0,0,0,0,0,0,0,0,0,0,0,0,0,0,0,0,0,0,0,0,0,0,
0,0,0,0,0,0,0,0,0,0,0,0,0,0,0,0,0,0,0,0,0,0,0,0,0,0,0,0,0,0,0,0,0,0,0,0,0,0,0,0,0,0,0,0,0,0,0,0,0,0,0,0,0,0,0,0,0,0,0,0,0,0,0,0,0,0,0,0,0,0,0,0,0,0,0,0,0,0,0,0,0,0,0,0,0,0,0,0,0,0,0,0,0,0,0,0,0,0,0,0,
0,0,0,0,0,0,0,0,0,0,0,0,0,0,0,0,0,0,0,0,0,0,0,0,0,0,0,0,0,0,0,0,0,0,0,0,0,0,0,0,0,0,0,0,0,0,0,0,0,0,0,0,0,0,0,0,0,0,0,0,0,0,0,0,0,0,0,0,0,0,0,0,0,0,0,0,0,0,0,0,0,0,0,0,0,0,0,0,0,0,0,0,0,0,0,0,0,0,0,0,
0,0,0,0,0,0,0,0,0,0,0,0,0,0,0,0,0,0,0,0,0,0,0,0,0,0,0,0,0,0,0,0,0,0,0,0,0,0,0,0,0,0,0,0,0,0,0,0,0,0,0,0,0,0,0,0,0,0,0,0,0,0,0,0,0,0,0,0,0,0,0,0,0,0,0,0,0,0,0,0,0,0,0,0,0,0,0,0,0,0,0,0,0,0,0,0,0,0,0,0,
0,0,0,0,0,0,0,0,0,0,0,0,0,0,0,0,0,0,0,0,0,0,0,0,0,0,0,0,0,0,0,0,0,0,0,0,0,0,0,0,0,0,0,0,0,0,0,0,0,0,0,0,0,0,0,0,0,0,0,0,0,0,0,0,0,0,0,0,0,0,0,0,0,0,0,0,0,0,0,0,0,0,0,0,0,0,0,0,0,0,0,0,0,0,0,0,0,0,0,0,
0,0,0,0,0,0,0,0,0,0,0,0,0,0,0,0,0,0,0,0,0,0,0,0,0,0,0,0,0,0,0,0,0,0,0,0,0,0,0,0,0,0,0,0,0,0,0,0,0,0,0,0,0,0,0,0,0,0,0,0,0,0,0,0,0,0,0,0,0,0,0,0,0,0,0,0,0,0,0,0,0,0,0,0,0,0,0,0,0,0,0,0,0,0,0,0,0,0,0,0,
0,0,0,0,0,0,0,0,0,0,0,0,0,0,0,0,0,0,0,0,0,0,0,0,0,0,0,0,0,0,0,0,0,0,0,0,0,0,0,0,0,0,0,0,0,0,0,0,0,0,0,0,0,0,0,0,0,0,0,0,0,0,0,0,0,0,0,0,0,0,0,0,0,0,0,0,0,0,0,0,0,0,0,0,0,0,0,0,0,0,0,0,0,0,0,0,0,0,0,0,
0,0,0,0,0,0,0,0,0,0,0,0,0,0,0,0,0,0,0,0,0,0,0,0,0,0,0,0,0,0,0,0,0,0,0,0,0,0,0,0,0,0,0,0,0,0,0,0,0,0,0,0,0,0,0,0,0,0,0,0,0,0,0,0,0,0,0,0,0,0,0,0,0,0,0,0,0,0,0,0,0,0,0,0,0,0,0,0,0,0,0,0,0,0,0,0,0,0,0,0,
0,0,0,0,0,0,0,0,0,0,0,0,0,0,0,0,0,0,0,0,0,0,0,0,0,0,0,0,0,0,0,0,0,0,0,0,0,0,0,0,0,0,0,0,0,0,0,0,0,0,0,0,0,0,0,0,0,0,0,0,0,0,0,0,0,0,0,0,0,0,0,0,0,0,0,0,0,0,0,0,0,0,0,0,0,0,0,0,0,0,0,0,0,0,0,0,0,0,0,0,
0,0,0,0,0,0,0,0,0,0,0,0,0,0,0,0,0,0,0,0,0,0,0,0,0,0,0,0,0,0,0,0,0,0,0,0,0,0,0,0,0,0,0,0,0,0,0,0,0,0,0,0,0,0,0,0,0,0,0,0,0,0,0,0,0,0,0,0,0,0,0,0,0,0,0,0,0,0,0,0,0,0,0,0,0,0,0,0,0,0,0,0,0,0,0,0,0,0,0,0,
0,0,0,0,0,0,0,0,0,0,0,0,0,0,0,0,0,0,0,0,0,0,0,0,0,0,0,0,0,0,0,0,0,0,0,0,0,0,0,0,0,0,0,0,0,0,0,0,0,0,0,0,0,0,0,0,0,0,0,0,0,0,0,0,0,0,0,0,0,0,0,0,0,0,0,0,0,0,0,0,0,0,0,0,0,0,0,0,0,0,0,0,0,0,0,0,0,0,0,0,
0,0,0,0,0,0,0,0,0,0,0,0,0,0,0,0,0,0,0,0,0,0,0,0,0,0,0,0,0,0,0,0,0,0,0,0,0,0,0,0,0,0,0,0,0,0,0,0,0,0,0,0,0,0,0,0,0,0,0,0,0,0,0,0,0,0,0,0,0,0,0,0,0,0,0,0,0,0,0,0,0,0,0,0,0,0,0,0,0,0,0,0,0,0,0,0,0,0,0,0,
0,0,0,0,0,0,0,0,0,0,0,0,0,0,0,0,0,0,0,0,0,0,0,0,0,0,0,0,0,0,0,0,0,0,0,0,0,0,0,0,0,0,0,0,0,0,0,0,0,0,0,0,0,0,0,0,0,0,0,0,0,0,0,0,0,0,0,0,0,0,0,0,0,0,0,0,0,0,0,0,0,0,0,0,0,0,0,0,0,0,0,0,0,0,0,0,0,0,0,0,
0,0,0,0,0,0,0,0,0,0,0,0,0,0,0,0,0,0,0,0,0,0,0,0,0,0,0,0,0,0,0,0,0,0,0,0,0,0,0,0,0,0,0,15173,0,0,0,15258,0,0,0,0,0,0,0,0,0,0,0,0,0,0,0,0,0,0,0,0,0,0,0,0,0,0,0,0,0,0,0,0,0,0,0,0,0,0,0,0,0,0,0,0,0,0,0,0,0,0,0,0,
0,0,0,0,0,0,0,0,0,0,0,0,0,0,0,0,0,0,0,0,0,0,0,0,0,0,0,0,0,0,0,0,0,0,0,0,0,0,0,0,0,0,0,0,0,0,0,0,0,0,0,0,0,0,0,0,0,0,0,0,0,0,0,0,0,0,0,0,0,0,0,0,0,0,0,0,0,0,0,0,0,0,0,0,0,0,0,0,0,0,0,0,0,0,0,0,0,0,0,0,
0,0,0,0,0,0,0,0,0,0,0,0,0,0,0,0,0,0,0,0,0,0,0,0,0,0,0,0,0,15228,0,0,0,0,0,0,0,0,0,0,0,0,0,0,0,0,0,0,0,0,0,0,0,0,0,0,15216,2147498864,0,15258,0,0,15212,0,0,0,0,0,0,0,0,0,0,0,0,0,0,0,0,0,0,0,0,0,0,0,0,0,0,0,0,0,0,0,0,0,0,0,0,0,
0,0,0,0,0,0,0,0,0,0,0,0,0,0,0,0,0,0,0,0,0,0,0,0,0,0,0,0,0,0,0,0,0,0,15258,15340,0,0,0,0,0,0,0,0,0,0,0,0,0,0,0,0,0,0,0,0,0,0,0,0,0,0,0,0,0,0,0,0,0,0,0,0,0,0,0,0,0,0,0,0,0,0,0,0,0,0,0,0,0,0,0,0,0,0,0,0,0,0,0,0,
0,0,0,0,0,0,0,0,0,0,0,0,0,0,0,0,0,0,0,0,0,0,0,0,0,0,0,0,0,0,0,0,0,0,0,0,0,0,0,0,0,0,0,0,0,0,0,0,0,0,0,0,0,0,0,0,0,0,0,0,0,0,0,0,0,0,0,0,0,0,0,0,0,0,0,0,0,0,0,0,0,0,0,0,0,0,0,0,0,0,0,0,0,0,0,0,0,0,0,0,
0,0,0,0,0,0,0,0,0,0,0,0,0,0,0,0,0,0,0,0,0,0,0,0,0,0,0,0,0,0,0,0,0,0,0,0,0,0,0,0,0,0,0,0,0,0,0,0,0,0,0,0,0,0,0,0,0,0,0,0,0,0,0,0,0,0,0,0,0,0,0,0,0,0,0,0,0,0,0,0,0,0,0,0,0,0,0,0,0,0,0,0,0,0,0,0,0,0,0,0,
0,0,0,0,0,0,0,0,0,0,0,0,0,0,0,0,0,0,0,0,0,0,0,0,0,0,0,0,0,0,0,0,0,0,0,0,0,0,0,0,0,0,0,0,0,0,0,0,0,0,0,0,0,0,0,0,0,0,0,0,0,0,0,0,0,0,0,0,0,0,0,0,0,0,0,0,0,0,0,0,0,0,0,0,0,0,0,0,0,0,0,0,0,0,0,0,0,0,0,0,
0,0,0,0,0,0,0,0,0,0,0,0,0,0,0,0,0,0,0,0,0,0,0,0,0,0,0,0,0,0,0,0,0,0,0,0,0,0,0,0,0,0,0,0,0,0,0,0,0,0,0,0,0,0,0,0,0,0,0,0,0,0,0,0,0,0,0,0,0,0,0,0,0,0,0,0,0,0,0,0,0,0,0,0,0,0,0,0,0,0,0,0,0,0,0,0,0,0,0,0,
0,0,0,0,0,0,0,0,0,0,0,0,0,0,0,0,0,0,0,0,0,0,0,0,0,0,0,0,0,0,0,0,0,0,0,0,0,0,0,0,0,0,0,0,0,0,0,0,0,0,0,0,0,0,0,0,0,0,0,0,0,0,0,0,0,0,0,0,0,0,0,0,0,0,0,0,0,0,0,0,0,0,0,0,0,0,0,0,0,0,0,0,0,0,0,0,0,0,0,0,
0,0,0,0,0,0,0,0,0,0,0,0,0,0,0,0,0,0,0,0,0,0,0,0,0,0,0,0,0,0,0,0,0,0,0,0,0,0,0,0,0,0,0,0,0,0,0,0,0,0,0,0,0,0,0,0,0,0,0,0,0,0,0,0,0,0,0,0,0,0,0,0,0,0,0,0,0,0,0,0,0,0,0,0,0,0,0,0,0,0,0,0,0,0,0,0,0,0,0,0,
0,0,0,0,0,0,0,0,0,0,0,0,0,0,0,0,0,0,0,0,0,0,0,0,0,0,0,0,0,0,0,0,0,0,0,0,0,0,0,0,0,0,0,0,0,0,0,0,0,0,0,0,0,0,0,0,0,0,0,0,0,0,0,0,0,0,0,0,0,0,0,0,0,0,0,0,0,0,0,0,0,0,0,0,0,0,0,0,0,0,0,0,0,0,0,0,0,0,0,0,
0,0,0,0,0,0,0,0,0,0,0,0,0,0,0,0,0,0,0,0,0,0,0,0,0,0,0,0,0,0,0,0,0,0,0,0,0,0,0,0,0,0,0,0,0,0,0,0,0,0,0,0,0,0,0,0,0,0,0,0,0,0,0,0,0,0,0,0,0,0,0,0,0,0,0,0,0,0,0,0,0,0,0,0,0,0,0,0,0,0,0,0,0,0,0,0,0,0,0,0,
0,0,0,0,0,0,0,0,0,0,0,0,0,0,0,0,0,0,0,0,0,0,0,0,0,0,0,0,0,0,0,0,0,0,0,0,0,0,0,0,0,0,0,0,0,0,0,0,0,0,0,0,0,0,0,0,0,0,0,0,0,0,0,0,0,0,0,0,0,0,0,0,0,0,0,0,0,0,0,0,0,0,0,0,0,0,0,0,0,0,0,0,0,0,0,0,0,0,0,0,
0,0,0,0,0,0,0,0,0,0,0,0,0,0,0,0,0,0,0,0,0,0,0,0,0,0,0,0,0,0,0,0,0,0,0,0,0,0,0,0,0,0,0,0,0,0,0,0,0,0,0,0,0,0,0,0,0,0,0,0,0,0,0,0,0,0,0,0,0,0,0,0,0,0,0,0,0,0,0,0,0,0,0,0,0,0,0,0,0,0,0,0,0,0,0,0,0,0,0,0,
0,0,0,0,0,0,0,0,0,0,0,0,0,0,0,0,0,0,0,0,0,0,0,0,0,0,0,0,0,0,0,0,0,0,0,0,0,0,0,0,0,0,0,0,0,0,0,0,0,0,0,0,0,0,0,0,0,0,0,0,0,0,0,0,0,0,0,0,0,0,0,0,0,0,0,0,0,0,0,0,0,0,0,0,0,0,0,0,0,0,0,0,0,0,0,0,0,0,0,0,
0,0,0,0,0,0,0,0,0,0,0,0,0,0,0,0,0,0,0,0,0,0,0,0,0,0,0,0,0,0,0,0,0,0,0,0,0,0,0,0,0,0,0,0,0,0,0,0,0,0,0,0,0,0,0,0,0,0,0,0,0,0,0,0,0,0,0,0,0,0,0,0,0,0,0,0,0,0,0,0,0,0,0,0,0,0,0,0,0,0,0,0,0,0,0,0,0,0,0,0,
0,0,0,0,0,0,0,0,0,0,0,0,0,0,0,0,0,0,0,0,0,0,0,0,0,0,0,0,0,0,0,0,0,0,0,0,0,0,0,0,0,0,0,0,0,0,0,0,0,0,0,0,0,0,0,0,0,0,0,0,15214,0,0,0,0,0,0,0,15230,0,0,0,15258,0,0,0,0,0,0,0,0,0,0,0,0,0,0,0,0,0,0,0,0,0,0,0,0,0,0,0,
0,0,0,0,0,0,0,0,0,0,0,0,0,0,0,0,0,0,0,0,0,0,0,0,0,0,0,0,0,0,0,0,0,0,0,0,0,0,0,0,0,0,0,0,0,0,0,0,0,0,0,0,0,0,0,0,0,0,0,0,0,0,0,0,0,0,0,0,0,0,0,0,0,0,0,0,0,0,0,0,0,0,0,0,0,0,0,0,0,0,0,0,0,0,0,0,0,0,0,0,
0,0,0,0,0,0,0,0,0,0,0,0,0,0,0,0,0,0,0,0,0,0,0,0,0,0,0,0,0,0,0,0,0,0,0,0,0,0,0,0,0,0,0,0,0,0,0,0,0,0,0,0,0,0,0,0,0,0,0,0,0,0,0,0,0,0,0,0,0,0,0,0,0,0,0,0,0,0,0,0,0,0,0,0,0,0,0,0,0,0,0,0,0,0,0,0,0,0,0,0,
0,0,0,0,0,0,0,0,0,0,0,0,0,0,0,0,0,0,0,0,0,0,0,0,0,0,0,0,0,0,0,0,0,0,0,0,0,0,0,0,0,0,0,0,0,0,0,0,0,0,0,0,0,0,0,0,0,0,0,0,0,0,0,0,0,0,0,0,0,0,0,0,0,0,0,0,0,0,0,0,0,0,0,0,0,0,0,0,0,0,0,0,0,0,0,0,0,0,0,0,
0,0,0,0,0,0,0,0,0,0,0,0,0,0,0,0,0,0,0,0,0,0,0,0,0,0,0,0,0,0,0,0,0,0,0,0,0,0,0,0,0,0,0,0,0,0,0,0,0,0,0,0,0,0,0,0,0,0,0,0,0,0,0,0,0,0,0,0,0,0,0,0,0,0,0,0,0,0,0,0,0,0,0,0,0,0,0,0,0,0,0,0,0,0,0,0,0,0,0,0,
0,0,0,0,0,0,0,0,0,0,0,0,0,0,0,0,0,0,0,0,0,0,0,0,0,0,0,0,0,0,0,0,0,0,0,0,0,0,0,0,0,0,0,0,0,0,0,0,0,0,0,0,0,0,0,0,0,0,0,0,0,0,0,0,0,0,0,0,0,0,0,0,0,0,0,0,0,0,0,0,0,0,0,0,0,0,0,0,0,0,0,0,0,0,0,0,0,0,0,0,
0,0,0,0,0,0,0,0,0,0,0,0,0,0,0,0,0,0,0,0,0,0,0,0,0,0,0,0,0,0,0,0,0,0,0,0,0,0,0,0,0,0,0,0,0,0,0,0,0,0,0,0,0,0,0,0,0,0,0,0,0,0,0,0,0,0,0,0,0,0,0,0,0,0,0,0,0,0,0,0,0,0,0,0,0,0,0,0,0,0,0,0,0,0,0,0,0,0,0,0,
0,0,0,0,0,0,0,0,0,0,0,0,0,0,0,0,0,0,0,0,0,0,0,0,0,0,0,0,0,0,0,0,0,0,0,0,0,0,0,0,0,0,0,0,0,0,0,0,0,0,0,0,0,0,0,0,0,0,0,0,0,0,0,0,0,0,0,0,0,0,0,0,0,0,0,0,0,0,0,0,0,0,0,0,0,0,0,0,0,0,0,0,0,0,0,0,0,0,0,0,
0,0,0,0,0,0,0,0,0,0,0,0,0,0,0,0,0,0,0,0,0,0,0,0,0,0,0,0,0,0,0,0,0,0,0,0,0,0,0,0,0,0,0,0,0,0,0,0,0,0,0,0,0,0,0,0,0,0,0,0,0,0,0,0,0,0,0,0,0,0,0,0,0,0,0,0,0,0,0,0,0,0,0,0,0,0,0,0,0,0,0,0,0,0,0,0,0,0,0,0,
0,0,0,0,0,0,0,0,0,0,0,0,0,0,0,0,0,0,0,0,0,0,0,0,0,0,0,0,0,0,0,0,0,0,0,0,0,0,0,0,0,0,0,0,0,0,0,0,0,0,0,0,0,0,0,0,0,0,0,0,0,0,0,0,0,0,0,0,0,0,0,0,0,0,0,0,0,0,0,0,0,0,0,0,0,0,0,0,0,0,0,0,0,0,0,0,0,0,0,0,
0,0,0,0,0,0,0,0,0,0,0,0,0,0,0,0,0,0,0,0,0,0,0,0,0,0,0,0,0,0,0,0,0,0,0,0,0,0,0,0,0,0,0,0,15345,0,0,0,0,0,0,0,0,0,0,0,0,0,0,0,0,0,0,0,0,0,0,0,0,0,0,0,0,0,0,0,0,0,0,0,0,0,0,0,0,0,0,0,0,0,0,0,0,0,0,0,0,0,0,0,
0,0,0,0,0,0,0,0,0,0,0,0,0,0,0,0,0,0,0,0,0,0,0,0,0,0,0,0,0,0,0,0,0,0,0,0,0,0,0,0,0,0,0,0,0,0,0,0,15230,0,0,0,0,0,0,0,0,0,0,0,0,0,0,0,0,0,0,0,0,0,0,0,0,0,0,0,0,0,0,0,0,0,0,0,0,0,0,0,0,0,0,0,0,0,0,0,0,0,0,0,
0,0,0,0,0,0,0,0,0,0,0,0,0,0,0,0,0,0,0,0,0,0,0,0,0,0,0,0,0,0,0,0,0,0,0,0,0,0,0,0,0,0,0,0,0,0,0,0,0,0,0,0,0,0,0,0,0,0,0,0,0,0,0,0,0,0,0,0,0,0,0,0,0,0,0,0,0,0,0,0,0,0,0,0,0,0,0,0,0,0,0,0,0,0,0,0,0,0,0,0,
0,0,0,0,0,0,0,0,0,0,0,0,0,0,0,0,0,0,0,0,0,0,0,0,0,0,0,0,0,0,0,0,0,0,0,0,0,0,0,0,0,0,0,0,0,0,0,0,0,0,0,0,0,15258,0,15177,0,0,0,0,0,0,0,0,0,0,0,0,0,0,0,0,0,0,0,0,0,0,0,0,0,0,0,0,0,0,0,0,0,0,0,0,0,0,0,0,0,0,0,0,
0,0,0,0,0,0,0,0,0,0,0,0,0,0,0,0,0,0,0,0,0,0,0,0,0,0,0,0,0,0,0,0,0,0,0,0,0,0,0,0,0,0,0,0,0,0,0,0,0,0,0,0,0,0,0,0,0,0,0,0,0,0,0,0,0,0,0,0,0,0,0,0,0,0,0,0,0,0,0,0,0,0,0,0,0,0,0,0,0,0,0,0,0,0,0,0,0,0,0,0,
0,0,0,0,0,0,0,0,0,0,0,0,0,0,0,0,0,0,0,0,0,0,0,0,0,0,0,0,0,0,0,0,0,0,0,0,0,0,0,0,0,0,0,0,0,0,0,0,0,0,0,0,0,0,0,0,0,0,0,0,0,0,0,0,0,0,0,0,0,0,0,0,0,0,0,0,0,0,0,0,0,0,0,0,0,0,0,0,0,0,0,0,0,0,0,0,0,0,0,0,
0,0,0,0,0,0,0,0,0,0,0,0,0,0,0,0,0,0,0,0,0,0,0,0,0,0,0,0,0,0,0,0,0,0,0,0,0,0,0,0,0,0,0,0,0,0,0,0,0,0,0,0,0,0,0,0,0,0,0,0,0,0,0,0,0,0,0,0,0,0,0,0,0,0,0,0,0,0,0,0,0,0,0,0,0,0,0,0,0,0,0,0,0,0,0,0,0,0,0,0,
0,0,0,0,0,0,0,0,0,0,0,0,0,0,0,0,0,0,0,0,0,0,0,0,0,0,0,0,0,0,0,0,0,0,0,0,0,0,0,0,0,0,0,0,0,0,0,0,0,0,0,0,0,0,0,0,0,0,0,0,0,0,0,0,0,0,0,0,0,0,0,0,0,0,0,0,0,0,0,0,0,0,0,0,0,0,0,0,0,0,0,0,0,0,0,0,0,0,0,0,
0,0,0,0,0,0,0,0,0,0,0,0,0,0,0,0,0,0,0,0,0,0,0,0,0,0,0,0,0,0,0,0,0,0,0,0,0,0,0,0,0,0,0,0,0,0,0,0,0,0,0,0,0,0,0,0,0,0,0,0,0,0,0,0,0,0,0,0,0,0,0,0,0,0,0,0,0,0,0,0,0,0,0,0,0,0,0,0,0,0,0,0,0,0,0,0,0,0,0,0,
0,0,0,0,0,0,0,0,0,0,0,0,0,0,0,0,0,0,0,0,0,0,0,0,0,0,0,0,0,0,0,0,0,0,0,0,0,0,0,0,0,0,0,0,0,0,0,0,0,0,0,0,0,0,0,0,0,0,0,0,0,0,0,0,0,0,0,0,0,0,0,0,0,0,0,0,0,0,0,0,0,0,0,0,0,0,0,0,0,0,0,0,0,0,0,0,0,0,0,0,
0,0,0,0,0,0,0,0,0,0,0,0,0,0,0,0,0,0,0,0,0,0,0,0,0,0,0,0,0,0,0,0,0,0,0,0,0,0,0,0,0,0,0,0,0,0,0,0,0,0,0,0,0,0,0,0,0,0,0,0,0,0,0,0,0,0,0,0,0,0,0,0,0,0,0,0,0,0,0,0,0,0,0,0,0,0,0,0,0,0,0,0,0,0,0,0,0,0,0,0,
0,0,0,0,0,0,0,0,0,0,0,0,0,0,0,0,0,0,0,0,0,0,0,0,0,0,0,0,0,0,0,0,0,0,0,0,0,0,0,0,0,0,0,0,0,0,0,0,0,0,0,0,0,0,0,0,0,0,0,0,0,0,0,0,0,0,0,0,0,0,0,0,0,0,0,0,0,0,0,0,0,0,0,0,0,0,0,0,0,0,0,0,0,0,0,0,0,0,0,0,
0,0,0,0,0,0,0,0,0,0,0,0,0,0,0,0,0,0,0,0,0,0,0,0,0,0,0,0,0,0,0,0,0,0,0,0,0,0,0,0,0,0,0,0,0,0,0,0,0,0,0,0,0,0,0,0,0,0,0,0,0,0,0,0,0,0,0,0,0,0,0,0,0,0,0,0,0,0,0,0,0,0,0,0,0,0,0,0,0,0,0,0,0,0,0,0,0,0,0,0,
0,0,0,0,0,0,0,0,0,0,0,0,0,0,0,0,0,0,0,0,0,0,0,0,0,0,0,0,0,0,0,0,0,0,0,0,0,0,0,0,0,0,0,0,0,0,0,0,0,0,0,0,0,0,0,0,0,0,0,0,0,0,0,0,0,0,0,0,0,0,0,0,0,0,0,0,0,0,0,0,0,0,0,0,0,0,0,0,0,0,0,0,0,0,0,0,0,0,0,0,
0,0,0,0,0,0,0,0,0,0,0,0,0,0,0,0,0,0,0,0,0,0,0,0,0,0,0,0,0,0,0,0,0,0,0,0,0,0,0,0,0,0,0,0,0,0,0,0,0,0,0,0,0,0,0,0,0,0,0,0,0,0,0,0,0,0,0,0,0,0,0,0,0,0,0,0,0,0,0,0,0,0,0,0,0,0,0,0,0,0,0,0,0,0,0,0,0,0,0,0,
0,0,0,0,0,0,0,0,0,0,0,0,0,0,0,0,0,0,0,0,0,0,0,0,0,0,0,0,0,0,0,0,0,0,0,0,0,0,0,0,0,0,0,0,0,0,0,0,0,0,0,0,0,0,0,0,0,0,0,0,0,0,0,0,0,0,0,0,0,0,0,0,0,0,0,0,0,0,0,0,0,0,0,0,0,0,0,0,0,0,0,0,0,0,0,0,0,0,0,0,
0,0,0,0,0,0,0,0,0,0,0,0,0,0,0,0,0,0,0,0,0,0,0,0,0,0,0,0,0,0,0,0,0,0,0,0,0,0,0,0,0,0,0,0,0,0,0,0,0,0,0,0,0,0,0,0,0,0,0,0,0,0,0,0,0,0,0,0,0,0,0,0,0,0,0,0,0,0,0,0,0,0,0,0,0,0,0,0,0,0,0,0,0,0,0,0,0,0,0,0,
0,0,0,0,0,0,0,0,0,0,0,0,0,0,0,0,0,0,0,0,0,0,0,0,0,0,0,0,0,0,0,0,0,0,0,0,0,0,0,0,0,0,0,0,0,0,0,0,0,0,0,0,0,0,0,0,0,0,0,0,0,0,0,0,0,0,0,0,0,0,0,0,0,0,0,0,0,0,0,0,0,0,0,0,0,0,0,0,0,0,0,0,0,0,0,0,0,0,0,0,
0,0,0,0,0,0,0,0,0,0,0,0,0,0,0,0,0,0,0,0,0,0,0,0,0,0,0,0,0,0,0,0,0,0,0,0,0,0,0,0,0,0,0,0,0,0,0,0,0,0,0,0,0,0,0,0,0,0,0,0,0,0,0,0,0,0,0,0,0,0,0,0,0,0,0,0,0,0,0,0,0,0,0,0,0,0,0,0,0,0,0,0,0,0,0,0,0,0,0,0,
0,0,0,0,0,0,0,0,0,0,0,0,0,0,0,0,0,0,0,0,0,0,0,0,0,0,0,0,0,0,0,0,0,0,0,0,0,0,0,0,0,0,0,0,0,0,0,0,0,0,0,0,0,0,0,0,0,0,0,0,0,0,0,0,0,0,0,0,0,0,0,0,0,0,0,0,0,0,0,0,0,0,0,0,0,0,0,0,0,0,0,0,0,0,0,0,0,0,0,0,
0,0,0,0,0,0,0,0,0,0,0,0,0,0,0,0,0,0,0,0,0,0,0,0,0,0,0,0,0,0,0,0,0,0,0,0,0,0,0,0,0,0,0,0,0,0,0,0,0,0,0,0,0,0,0,0,0,0,0,0,0,0,0,0,0,0,0,0,0,0,0,0,0,0,0,0,0,0,0,0,0,0,0,0,0,0,0,0,0,0,0,0,0,0,0,0,0,0,0,0,
0,0,0,0,0,0,0,0,0,0,0,0,0,0,0,0,0,0,0,0,0,0,0,0,0,0,0,0,0,0,0,0,0,0,0,0,0,0,0,0,0,0,0,0,0,0,0,0,0,0,0,0,0,0,0,0,0,0,0,0,0,0,0,0,0,0,0,0,0,0,0,0,0,0,0,0,0,0,0,0,0,0,0,0,0,0,0,0,0,0,0,0,0,0,0,0,0,0,0,0,
0,0,0,0,0,0,0,0,0,0,0,0,0,0,0,0,0,0,0,0,0,0,0,0,0,0,0,0,0,0,0,0,0,0,0,0,0,0,0,0,0,0,0,0,0,0,0,0,0,0,0,0,0,0,0,0,0,0,0,0,0,0,0,0,0,0,0,0,0,0,0,0,0,0,0,0,0,0,0,0,0,0,0,0,0,0,0,0,0,0,0,0,0,0,0,0,0,0,0,0,
0,0,0,0,0,0,0,0,0,0,0,0,0,0,0,0,0,0,0,0,0,0,0,0,0,0,0,0,0,0,0,0,0,0,0,0,0,0,0,0,0,0,0,0,0,0,0,0,0,0,0,0,0,0,0,0,0,0,0,0,0,0,0,0,0,0,0,0,0,0,0,0,0,0,0,0,0,0,0,0,0,0,0,0,0,0,0,0,0,0,0,0,0,0,0,0,0,0,0,0,
0,0,0,0,0,0,0,0,0,0,0,0,0,0,0,0,0,0,0,0,0,0,0,0,0,0,0,0,0,0,0,0,0,0,0,0,0,0,0,0,0,0,0,0,0,0,0,0,0,0,0,0,0,0,0,0,0,0,0,0,0,0,0,0,0,0,0,0,0,0,0,0,0,0,0,0,0,0,0,0,0,0,0,0,0,0,0,0,0,0,0,0,0,0,0,0,0,0,0,0,
0,0,0,0,0,0,0,0,0,0,0,0,0,0,0,0,0,0,0,0,0,0,0,0,0,0,0,0,0,0,0,0,0,0,0,0,0,0,0,0,0,0,0,0,0,0,0,0,0,0,0,0,0,0,0,0,0,0,0,0,0,0,0,0,0,0,0,0,0,0,0,0,0,0,0,0,0,0,0,0,0,0,0,0,0,0,0,0,0,0,0,0,0,0,0,0,0,0,0,0,
0,0,0,0,0,0,0,0,0,0,0,0,0,0,0,0,0,0,0,0,0,0,0,0,0,0,0,0,0,0,0,0,0,0,0,0,0,0,0,0,0,0,0,0,0,0,0,0,0,0,0,0,0,0,0,0,0,0,0,0,0,0,0,0,0,0,0,0,0,0,0,0,0,0,0,0,0,0,0,0,0,0,0,0,0,0,0,0,0,0,0,0,0,0,0,0,0,0,0,0,
0,0,0,0,0,0,0,0,0,0,0,0,0,0,0,0,0,0,0,0,0,0,0,0,0,0,0,0,0,0,0,0,0,0,0,0,0,0,0,0,0,0,0,0,0,0,0,0,0,0,0,0,0,0,0,0,0,0,0,0,0,0,0,0,0,0,0,0,0,0,0,0,0,0,0,0,0,0,0,0,0,0,0,0,0,0,0,0,0,0,0,0,0,0,0,0,0,0,0,0,
0,0,0,0,0,0,0,0,0,0,0,0,0,0,0,0,0,0,0,0,0,0,0,0,0,0,0,0,0,0,0,0,0,0,0,0,0,0,0,0,0,0,0,0,0,0,0,0,0,0,0,0,0,0,0,0,0,0,0,0,0,0,0,0,0,0,0,0,0,0,0,0,0,0,0,0,0,0,0,0,0,0,0,0,0,0,0,0,0,0,0,0,0,0,0,0,0,0,0,0,
0,0,0,0,0,0,0,0,0,0,0,0,0,0,0,0,0,0,0,0,0,0,0,0,0,0,0,0,0,0,0,0,0,0,0,0,0,0,0,0,0,0,0,0,0,0,0,0,0,0,0,0,0,0,0,0,0,0,0,0,0,0,0,0,0,0,0,0,0,0,0,0,0,0,0,0,0,0,0,0,0,0,0,0,0,0,0,0,0,0,0,0,0,0,0,0,0,0,0,0,
0,0,0,0,0,0,0,0,0,0,0,0,0,0,0,0,0,0,0,0,0,0,0,0,0,0,0,0,0,0,0,0,0,0,0,0,0,0,0,0,0,0,0,0,0,0,0,0,0,0,0,0,0,0,0,0,0,0,0,0,0,0,0,0,0,0,0,0,0,0,0,0,0,0,0,0,0,0,0,0,0,0,0,0,0,0,0,0,0,0,0,0,0,0,0,0,0,0,0,0,
0,0,0,0,0,0,0,0,0,0,0,0,0,0,0,0,0,0,0,0,0,0,0,0,0,0,0,0,0,0,0,0,0,0,0,0,0,0,0,0,0,0,0,0,0,0,0,0,0,0,0,0,0,0,0,0,0,0,0,0,0,0,0,0,0,0,0,0,0,0,0,0,0,0,0,0,0,0,0,0,0,0,0,0,0,0,0,0,0,0,0,0,0,0,0,0,0,0,0,0,
0,0,0,0,0,0,0,0,0,0,0,0,0,0,0,0,0,0,0,0,0,0,0,0,0,0,0,0,0,0,0,0,0,0,0,0,0,0,0,0,0,0,0,0,0,0,0,0,0,0,0,0,0,0,0,0,0,0,0,0,0,0,0,0,0,0,0,0,0,0,0,0,0,0,0,0,0,0,0,0,0,0,0,0,0,0,0,0,0,0,0,0,0,0,0,0,0,0,0,0
</data>
 </layer>
</map>
